/* XPM */
static const char *xpm_[] = {
/* columns rows colors chars-per-pixel */
"637 360 256 2 ",
"   c #010102",
".  c #0B0302",
"X  c #030A04",
"o  c #0C0A04",
"O  c #03050B",
"+  c #0A060B",
"@  c #05090D",
"#  c #0B0A0D",
"$  c #130402",
"%  c #130A04",
"&  c #1B0B04",
"*  c #12060B",
"=  c #140B0C",
"-  c #1B0C0D",
";  c #1B0304",
":  c #091309",
">  c #14120D",
",  c #1C120D",
"<  c #191506",
"1  c #030611",
"2  c #050B13",
"3  c #0B0C13",
"4  c #050D19",
"5  c #0A0E19",
"6  c #090515",
"7  c #130D13",
"8  c #1B0D12",
"9  c #160A18",
"0  c #0C1115",
"q  c #05111B",
"w  c #0B121B",
"e  c #091518",
"r  c #131215",
"t  c #1C1314",
"y  c #1C1A15",
"u  c #13141B",
"i  c #1B151B",
"p  c #14191D",
"a  c #1C1A1C",
"s  c #151A14",
"d  c #250A06",
"f  c #360A03",
"g  c #23130C",
"h  c #291609",
"j  c #371809",
"k  c #240C15",
"l  c #231414",
"z  c #2A1513",
"x  c #231A15",
"c  c #2C1A14",
"v  c #22151A",
"b  c #241B1B",
"n  c #2B1D1C",
"m  c #2B151B",
"M  c #331B14",
"N  c #331D1B",
"B  c #391B16",
"V  c #340A13",
"C  c #192319",
"Z  c #2C211D",
"A  c #26221B",
"S  c #34231C",
"D  c #3B231C",
"F  c #3A2517",
"G  c #35270C",
"H  c #0C1522",
"J  c #0D1A24",
"K  c #0D1C2B",
"L  c #051526",
"P  c #131522",
"I  c #141B24",
"U  c #1B1C23",
"Y  c #141D2A",
"T  c #1B1D2A",
"R  c #1A1525",
"E  c #0E152C",
"W  c #231D23",
"Q  c #2A1D22",
"!  c #251927",
"~  c #301828",
"^  c #0D222B",
"/  c #1C2125",
"(  c #15222C",
")  c #1B232C",
"_  c #182529",
"`  c #0C2436",
"'  c #142433",
"]  c #1B2532",
"[  c #1C2A34",
"{  c #152A3B",
"}  c #1B2C3B",
"|  c #152738",
" . c #1C313C",
".. c #123430",
"X. c #242224",
"o. c #2C2323",
"O. c #23242B",
"+. c #2A252B",
"@. c #24292D",
"#. c #2C2A2C",
"$. c #2A2925",
"%. c #332423",
"&. c #3B2523",
"*. c #342925",
"=. c #3C2B24",
"-. c #332B2B",
";. c #3B2C2B",
":. c #34252B",
">. c #3A322C",
",. c #232532",
"<. c #232B34",
"1. c #2B2C33",
"2. c #232D3A",
"3. c #2A2A38",
"4. c #332D33",
"5. c #382C35",
"6. c #24313C",
"7. c #2B323C",
"8. c #2B3236",
"9. c #343234",
"0. c #3B3333",
"q. c #34343B",
"w. c #3A373B",
"e. c #2B322C",
"r. c #461A08",
"t. c #451C16",
"y. c #521609",
"u. c #6A1909",
"i. c #47250A",
"p. c #572609",
"a. c #472618",
"s. c #562A18",
"d. c #59351B",
"f. c #4C3415",
"g. c #652A17",
"h. c #67361A",
"j. c #773918",
"k. c #6F2D0A",
"l. c #432C24",
"z. c #432D2A",
"x. c #492A25",
"c. c #562C25",
"v. c #44322C",
"b. c #4B332C",
"n. c #493426",
"m. c #573629",
"M. c #433433",
"N. c #493937",
"B. c #563A36",
"V. c #4A2C35",
"C. c #673927",
"Z. c #753B26",
"A. c #653B35",
"S. c #6F332F",
"D. c #4C1A26",
"F. c #754617",
"G. c #594339",
"H. c #504335",
"J. c #69432A",
"K. c #774629",
"L. c #684537",
"P. c #774837",
"I. c #765435",
"U. c #604E1E",
"Y. c #172C44",
"T. c #1C3343",
"R. c #19354A",
"E. c #1A3855",
"W. c #0B2E4B",
"Q. c #233443",
"!. c #283847",
"~. c #363A45",
"^. c #253B55",
"/. c #293047",
"(. c #173861",
"). c #463B44",
"_. c #543A44",
"`. c #673C45",
"'. c #324453",
"]. c #17496C",
"[. c #2D4C6B",
"{. c #1E4B60",
"}. c #484446",
"|. c #584645",
" X c #4E4F54",
".X c #674945",
"XX c #764A45",
"oX c #795547",
"OX c #6C554E",
"+X c #646264",
"@X c #3C433B",
"#X c #8B3610",
"$X c #993518",
"%X c #904A17",
"&X c #AF5114",
"*X c #B36A17",
"=X c #874928",
"-X c #954B26",
";X c #985529",
":X c #864A35",
">X c #885538",
",X c #985838",
"<X c #8D512E",
"1X c #A75828",
"2X c #A65A37",
"3X c #B1542B",
"4X c #966735",
"5X c #A86539",
"6X c #B66838",
"7X c #B26E2E",
"8X c #956818",
"9X c #CD540F",
"0X c #D16B14",
"qX c #FB7806",
"wX c #F0700F",
"eX c #CD7130",
"rX c #EC752C",
"tX c #DB5819",
"yX c #875746",
"uX c #975A46",
"iX c #8B524C",
"pX c #93674E",
"aX c #A76746",
"sX c #B2714C",
"dX c #A16757",
"fX c #CA764A",
"gX c #DC7651",
"hX c #CC3708",
"jX c #B48B2D",
"kX c #FB8706",
"lX c #FB9604",
"zX c #F58D13",
"xX c #FAAC0A",
"cX c #D18B34",
"vX c #F08F32",
"bX c #F6B031",
"nX c #D49A20",
"mX c #FACD10",
"MX c #FBCB31",
"NX c #FBF030",
"BX c #FAEA14",
"VX c #AF8B57",
"CX c #D38B4C",
"ZX c #EF934D",
"AX c #F6AE4E",
"SX c #F4B06A",
"DX c #D99E5F",
"FX c #FACB50",
"GX c #FACE6B",
"HX c #F9F15A",
"JX c #2B6791",
"KX c #527592",
"LX c #6192A8",
"PX c #439DC8",
"IX c #C4C1A7",
"UX c #7B7F7D",
/* pixels */
"# @ @ O O O O O @ @ 1 1 1 @ @ 3 2 1 1 1 1 4 4 J J 2 O e ( ^ ' K ' ( ( ( ' E P O 4 w I <.] Q.( H O.#.4.w.H.    O                                                                                                                                                                                                                                         O     4.$.  @     t @ O     O O 1 O O   O O O @ @ 2 q w 0 q J L ' Y O U ( ( ) _ I _ ) ( ( ( H O u U U w O @ 2 5 H Y Y H 2 ( ) 2 O A N.n./ p p a O >XrXd + 1 1     X X                                                                                                                                                                                                                                                                                                                                                                                                                                                                                               O     O O   O O O               O                                                                               O O                                                                                                     O           X       3       O U _ _ I I 0 r I u 3 O 3 U I I I I I I I ",
"@ @ O O O O O O O O O O O O O O O O O @ 1 2 4 w H 2 O 4 K K ' ' | ' ( ^ ] ( ] q O 2 O 2 2 Y I U T O.1.9.}.O                                                                                                                                                                                                                                                   a y   O # # o O @   O O 2 2 @ O   O O O O O 2 q w p w J L ] K O I K J I I I ( ( ( ) ) P O p I I P O @ 2 4 I <.) 4 q ) Y w 0 + , N.d.( ^ r a $ I.;X; % 3     O O o                                                                                                                                                                                                                                                                                                                                                                                                                                                                                     O       O                             O                                                                                                                                                                                         O               O   O   @ 0 3 / p I I _ 0 r / p 0   3 U I I I I I I I ",
"@ @ O O O O O O O O O O O O O O O O O O @ @ @ 2 H 5 @ p ( K ' ( ' ' ] ' | ' ( 2 H ( w q 4 q O O ,.,.9.4.w.                                                                                                                                                                                                                                                O     .   @ 3 # + O 3 @ @ @ 2 2 @ O   O O O O O 3 w w 4 4 J K | ( O w ' ' Y ( ( ( ' ' I ) w O _ [ [ [ @ p p O O w U 0 w <.( q I w O y C.9./ U u P O 1XF.$   . . O O .                                                                                                                                                                                                                                                                                                                                                                                                                                                                                     @ O   O                               O                                             O                                                                                                                                                             O 0 e I w 2 _ I I I / 0 r p 0 @   3 / U U / I / U I ",
"@ @ @ @ @ @ @ @ # # # # @ @ @ @ @ @ @ + # @ @ @ 1 O O 0 Y Y ] ) ' ' ( K ' ' [ q L } { { { ] O   T O.q.q.N.                                                                                                                                                                                                                                                O     . = # @ # + 3 2 # @ @ @ @ O     O O O O O 3 w w p e w q ( I 4 I ( Y I Y ) Y Y ] ( ,.w O I ( J ( O I ) P 4 q 0 @ p ) ] I ( [ p O z G.f.U ' ) 5 f SXU.. $ . O O                                                                                                                                                                                                                                                                                                                                                                                                                                                                                   O   O 2 3 3 O @ O O O O O O O O     O O O O O O O O O O O O O O O O O O O O O O O O O   O O O O O O   O   O O O @ O                                                                                                                                 O 4 ) [ @.q 0 _ _ _ I U @ @ @ # # O 0 / U I / / / U I ",
"# # @ @ @ # # # 3 3 @ @ 1 1 1 1 3 3 @ 3 6 6 2 2 q @   O 2 2 w 0 ' ] | ] } ] ( @ L | ` ` Y.Q.5 # p a 4.w.}.                                                                                                                                                                                                                                                O     g t # O # # 3 1 3 @ @ @ @ O O   O O @ O O 2 q w w H P I ) I 2 2 w P p I / U I ) I ) w O _ ) ( [ @ w _ ) ) ) U 0 w H I ) [ ] Y I 1 F J.=.] w S 1 F.n.      O                                                                                                                                                                                                                                                                                                                                                                                                                                                                                       @ 0 q P I 0 e 2 3 6 6 6 3 3 2 O @ @ @ @ 3 3 2 @ @ @ @ @ @ @ 3 3 3 @ @ 3 3 @ @ @ @ O O 3 3 @ 3 3 3 3 3 3 3 3 3 3 @                                                                                                                     O         X p / [ ( ] q e _ I I U U @ O e p p # r U I I / / / U U ",
"+ @ @ @ @ @ # @ 6 @ 1 1 1 1 1 1 2 1 1 6 6 6 5 5 ) I 0 0 4 2 2 1 1 2 q H ' ] [ 0 ` Y.` ` Y.Y.w O #.n n -.0.                                                                                                                                                                                                                                                    # l.-   @ 3 # @ 3 # @ @ O O @ O O O O O O O O 2 4 2 4 w H I w 1 O O @ O O @ @ O O 2 q @ O I _ ) <.# 0 I ) ] ] ,.,./ ( w H [ ] Y <.L   A I.l.O.& K p.M O @   O                                                                                                                                                                                                                                                                                                                                                                                                                                                                                       q.3.w H I I 4 2 5 5 5 5 5 5 5 O @ 3 3 3 3 3 3 3 3 3 3 2 2 3 3 3 3 3 3 3 3 3 3 3 3 @ O 3 3 3 3 5 5 5 5 5 5 5 5 3 @ O                                                                                                                           4 p ] [ ( Y ) 4 2 / _ I e 0 @ r I / U # 3 U I _ I I / U U ",
"@ @ @ O @ @ 1 1 # # # # # # @ @ 1 1 1 2 2 2 4 w K J w Y ] ' ' Y ] ( e O 1 2 p   E | ` Y.Y.Q.Y @ M.;.Z %.b   O O                                                                                                                                                                                                                                               # x.$ @ 3 # #   3 + @ @ O O @ O O O O @ # O O 2 H K L 4 2 2 q I Y J _ q O 0 P w w q q @ O # @ @ 2   @ u _ ) Y ) ] [ <.I q H ) ) Y Y.3   n.>Xx.n S ;X$ O O     O                                                                                                                                                                                                                                                                                                                                                                                                                                                                                   y  X7.w J H H 4 2 2 4 4 4 5 4 2 O @ 2 2 2 3 6 2 2 3 3 2 1 1 2 3 3 3 4 3 3 3 2 2 2 2 O O 3 3 2 3 2 2 2 2 2 2 2 2 3 O                                                                                                                         @ 0 ( ( ] ( ] ] <.@ 2 _ I w @ 3 0 X.p U p @ # U _ _ I I I U U ",
"+ @ @ @ @ @ 1 1 @ @ @ @ @ @ @ @ 2 2 2 2 2 2 2 e ` K L K ` ` | ( Y ( ) I ) ) O.O K ' ` ` ` } I @ =.b.l.;.l . @ O                                                                                                                                                                                                                                   O       O   + a.$ # @ O 3 O # @ O O O O @ @ O O O @ 3 2 O 5 T ` | ' ( ( ( ] ' ' | w 2 I [ ] ] ] _ I # r # 3 #     O O w ] ] ] [ ( <.) 1 H 2.T ( +.u O j.<X+.h.%X$ q   . . O O                                                                                                                                                                                                                                                                                                                                                                                                                                                                                 @. X) 4 ' L J H 2 2 4 4 4 3 4 4 O @ 3 2 2 3 6 2 3 3 3 2 1 1 2 3 4 4 4 4 4 4 4 4 4 2 1 1 5 5 3 5 4 4 4 4 4 4 2 2 3 O                                                                                                                         0 / ( ^ ' ( ( [ <.@ e p @ @ u O.a a p U p @ r / U P I I I U U ",
"# 3 @ O @ @ O O O O O O O O @ @ 2 2 2 2 4 1 2 P I p H Y ' ' K ` ' ( ) ( ' ] ] O Y Y.` ' ' Y.^ + M.4.-.n.. L ` q @ X       O           O         O O             O O O                                                                                                                                                                                           = *.$   e O @ . # @ O 1 2 4 @ O O   @ 2 1   @ ' ' ' ' ' ' ' ' ' ` ( I O ( ] ( ) ) ) ) ] [ ,.,.,.,.U u O O O @ u [ [ ] ] <.Y P ) ] O.C 1 > 3X#X3X# +                                                                                                                                                                                                                                                                                                                                                                                                                                                                                   O O O 3 @ [ }.@.p r I Y 4 O 6 5 5 4 5 5 5 O @ 3 3 3 6 6 6 @ 2 2 @ O O @ 4 2 2 2 2 4 4 4 2 4 2 1 1 2 4 4 4 6 3 5 2 4 4 4 4 O O                                                                                                   O                   0 ) K J ( ( ^ ( 6.( 2 O O 3 U / U p p a U p X 3 _ U I p / U u 0 ",
"O # @ O @ @ @ @ @ @ @ @ @ @ @ @ 2 2 2 2 2 1 2 H ^ L K Y ' K J Y ' Y ( Y ' ' ) O Y Y.` ' ' W.^ + M.9.M.G.t L ` I I w     O O                                                                                                                                                                                                                                       g c $ O 3 # t + @ @ 1 2 4 2 X O   @ 6 1   @ ' ' ' ' ' ' ' ' ' ` ' I O _ ] ( ) ) ) ) ] [ [ ,.,.[ ,.O.O 3 3 @ O O I ] ] ] <.) Y 2.I ,.@.O =XSXi.+                                                                                                                                                                                                                                                                                                                                                                                                                                                                                   O @ O 3 1.2 s ~.( H q q w u O 2 2 2 2 2 2 1 O @ @ 2 2 2 2 2 2 3 3 2 O O 2 3 3 0 0 3 3 3 3 5 2 @ O @ 2 3 5 5 6 6 3 3 2 4 4 4 O                                                                                               O                     # # u ) ^ ( ( ( ( [ <./ @ @ 0 U / U U U U p / U @ @ p U / O.U 0 @ 3 ",
"O + @ O @ @ @ @ @ @ @ @ @ @ @ @ 2 2 2 2 2 2 4 P K L L ' ( H w I ` ' ] ' ' ' ) O Y Y.` ' ' Y.^ + 0.4.M.OXn q ' / ( P O 3 w w @ O O   O                                                                                                                                                                                                                             $ S N 8 a r = @ @ O 1 2 2 2 2 O   @ 6 2   @ ' ' ' ' ' ' ' ' ' ` ' I O ) ] ' ) ) ) ) ] [ [ ,.,.( ,.) O w @.) I @ @ 0 _ <.3.2.] R Y.N | z <Xp.                                                                                                                                                                                                                                                                                                                                                                                                                                                                                      O   @ _ <.H > }.| L ` H       O O O O O O O O O O O O O O O O O O O O O O O O O O O O O O O O O O O O @ @ # 2 @ @ 2 3 2 3 3                                                                                                                 O @ 0 / 3 q ( [ { J J ( [ p @ O 0 U O./ p U U p p U p O 0 O./ U 3 3 # 0 / ",
"O + O   @ @ O O @ @ @ @ @ @ @ @ O @ O O 2 2 3 P K L K ' ' L H Y ` ' ' ' ' ' ) O Y Y.` ' ' Y.' + ;.-.;.OXc 4 ' ( Y P O p ) ( I p q 2 @ O         .                                                                                                                                                                                                                   $ N k * +   @ @ 2 2 2 2 2 2 @   @ 6 6   @ ' ' ' ' ' ' ' ' ' ` ' I O ) ] ' ) ) ) ) ] ) [ [ [ [ 7.) O w <.<.[ O.@ O 3 U <.7.2.) H $.,.5Xf                                                                                                                                                                                                                                                                                                                                                                                                                                                                                       O   # ) [ ] Y r }.'.p O O b x 2 2 0 e e e q 0 q q 4 4 3 3 3 e 3 3 3 3 2 2 2 2 3 @ O O 1 1 1 3 # # @ @ O O @ @ X O O @ @ O O O                                                                                                                 @ I _ / O w ( ' ^ ( [ ( 2 O # / U / U U U / U u / U u O 0 O.p 3 @ u / X.@.",
"  @     O O O O O O O O O O O O O O O O O O O 3 T H H ( ' ^ ^ ' ` K ( Y ' ' ) O Y Y.` ' ' Y.' + ;.4.;..Xc 4 ' / ( / O w Y ^ ' ( ( I I @ O @ @ O         O                                                                                                                                                                                                             % $ %   # 2 2 6 2 2 1 1 2 @   O 6 6   X ' ' ' ' ' ' ' ' ' ` ' I O ) ] ' ] ) ) ) ) ] [ [ [ [ 2.) O I [ ) ] 1.p @ O O U 7.8.6.M L uX#X1 > O                                                                                                                                                                                                                                                                                                                                                                                                                                                                                 O   # _ _ ( [ K O w.Z . d v.0.W P H P P I I I I I P P P p p p p P P P P P P H p w 4 2 3 w P w w w p w w q 5 q w / p p I I 3 O                                                                                                               O # Y ) ( I 4 P [ ^ ( [ I O O U 4.1./ U U _ / _ U U / / p O O 3 O O p O.@./ _ ",
"O @ O   @ @ @ @ @ O O @ O @ @ @ @ @ O O O O O @ 3 @ 2 H Y ' ' | { ] ] ( ' ' ] O Y Y.` ' ' Y.' + ;.0.;.OXn q | p ( _ O P ( K ' ( ( Y _ 2 O p w w 3 @ O O O O     O                                                                                                                                                                                                   @   % 0.  e 6 6 3 2 1 1 1 1 @   O 6 6   X ' ' ' ' ' ' ' ' ' ` ' ( O ) ' ] ] ) ) ) ) [ [ [ [ ) ,.I O _ <.] 2.,._ _ I 4 2 T ~.9.7.E 0Xf O $ O                                                                                                                                                                                                                                                                                                                                                                                                                                                                                 O 0 I ] ( ^ | [ @ % d a.I.F   ) H 5 5 w w 5 5 5 e 3 4 4 3 3 4 4 q 4 4 4 q 4 4 4 e @ O 2 q w q q q w w w w w H H e 3 5 w 0 @                                                                                                               O 0 / ) I J ( w q ) [ [ e O @ / 9.1.U _ U / O./ p I / / p r O @ # O + p / / U / ",
"@ # @ O # # 2 3 2 2 2 2 2 2 3 3 @ 3 # @ @ @ O @ 2 2 2 q w w H I ) T _ Y ] ' ) O Y Y.` ' ' Y.' + ;.0.;.OXn 2 | p I I O I | ' ' K K K ) 2 O ( ( ] ] J w 4 O O O # e e @ O O                                                                                                                                                                                           O   & G.. O 2 2 2 @ @ 2 @ @ @   O 4 6   X ' ' ' ' ' ' ' ' ' ` ' I O ) ] ] ] ) ) ) ) ,.,.,.,.<.8.U O _ ,.) [ [ ( ) 8.@.2 3 1.0.E.u.*X1   * O                                                                                                                                                                                                                                                                                                                                                                                                                                                                                 2 ,._ J [ ( ( <.  < .XG.; . W _ P 5 5 5 3 3 3 3 2 @ @ 2 2 4 2 2 2 2 2 2 2 2 2 2 2 O O 2 3 3 2 3 @ @ @ 2 2 2 2 5 2 2 2 5 5 3 O                                                                                                           O # p _ Y J ) / p O _ [ @ @ r O.O.u u _ U _ / / _ I I U p 0 0 0 p s # r U O.O./ O.",
"@ # @ O @ @ @ 1 2 @ @ @ 2 2 2 @ @ # # # 3 3 @ 3 ^ ( K w 2 @ @ . 1 O 3 q K K ) O Y Y.` ' ' Y.K + v.0.=.OXc 1 | / ( _ O P ] K ' K ^ ^ [ 2 O I K ' ' ' ] ] I 2 # 0 [ ) I 0 @                                                                                                                                                                                       .   O O $ l.- 6 2 2 @ @ @ @ @ @ @   O 4 6   O ' ' ' ' ' ' ' ' ' ` ' I O ) ] ] ] ) ) ) ) ,.,.,.,./ @.p O ) 8.) ) } ( H ) 2.U @ 0  X^.&XZ.  O   1                                                                                                                                                                                                                                                                                                                                                                                                                                                                           O O O ) ( ^ ( ( ( [ I M c , . X.O.O.1.u 3 3 3 3 # # 3 # @ @ 2 3 5 5 2 6 3 3 6 @ @ 3 3 3 @ @ 3 3 @ @ 3 # # # 3 3 3 3 3 3 3 2 4 6 6 O                                                                                                           # 0 I _ ( ^ [ p U 3 _ 4   s X.U p / ) _ _ / _ U _ / I 0 # 0 / X.X.r O r p / O._ _ ",
"@ @ @ O @ @ @ 2 2 2 2 2 @ @ 2 2 @ @ 2 2 3 3 3 2 K ^ ' ' ( K K ^ I w 4 O O O O   K | Y.W.W.W.J 3 M.=.v..Xn # / _ I _ O Y ( ( K ( ^ ( ' q O I Y ' K ] ^ ' ] ( O I ( ( ( Y ) 0 O O O       .     O                         O O O O                                                                                                                                   O O   - h.6 2 @ @ @ O O 2 2 @ O O O O O O O 3 w H q w q I ( ] ' ^ 4 @ Y /.' } 2.] 2.2.2.T 2.] ( <.U O _  .[ [ ' J Y ] T.T.] O 6 g.0Xa.3 O   X                                                                                                                                                                                                                                                                                                                                                                                                                                                                         O O 4 ) ` ^ ] K O.) e a.I.d =   o.M.o.O.p 2 # r # 2 q 2 0 5 2 2 5 5 2 2 2 1 1 1 2 2 2 2 @ O O 2 3 6 2 5 3 6 2 6 3 6 3 2 # 3 3 3 # O                                                                                                     +   O / _ O ) ( / _ J I I 2 O @ r p / / p I / X./ p P / / u # # / C / / / u O r p / / / _ ",
"@ @ @ O @ @ @ 2 2 2 2 2 @ 2 2 2 @ @ @ @ 3 3 3 2 K ^ ' ' ' ( ' ' ' ' ( ) ) I e @ O q Y | { Q.Y @ *.v.b.OXx 3 ( K I I O Y Y ( ( ' J ^ ( q O I ( ' ] ( K ' ( I O I ( ( ) Y ) 3 O 0 e 0 3 O O @ O O                 X                                                                                                                                               . O O   % h.7 @ O @ 2 2 2 2 @ @       O O O O 3 4 4 2 2 O 4 4 4 L J @ O 0 T H Y Y P I I ) U ,.O.8./ O O ) [ ) <.7.I P ] T.T.[ 3 * j.vXj   O .                                                                                                                                                                                                                                                                                                                                                                                                                                                                     X     X w I ) ^ | e n ` ` D I.d % 3 I # 0.9.O.w 4 w q 2 0 0 2 3 2 2 2 2 2 2 O 2 2 2 2 6 6 6 2 3 @ O 3 5 6 6 5 2 2 2 2 2 2 2 2 3 3 # # @ O                                                                                                       O <.p 2 I ( ( / _ I / I 3 O # U U p p / / U p I / O.p 3 3 p / / / / U / u + r p / _ _ / ",
"@ @ @ O O @ @ 2 2 2 @ 2 @ @ 2 2 @ @ @ 2 2 3 2 2 K ^ ' ' ' ' ' ' ` ' ' | { ] ( Y X @ O 2 H ] P 1 Z =.l.OXl 3 | ` / H O ( K ^ ' ' ( ( ( w O I ( ' ( K Y | ( w O I ( ( ) _ _ 3 O a ( [ ] w 2 T ] Y P 3 O O O O   +         . .                                                                                                                                       O +   $ J.= @ @ @ 2 2 1 O O O O   O O @ @ O w { } ] <.Y ] ] ' Y ( 0   O 1 O O O O O O @ O @ O X X     T ] [ 2./ 0 I } { R.[ 3 . K.SXj   O .                                                                                                                                                                                                                                                                                                                                                                                                                                                                         O w ) ) ( ` w n ' L x I.h . U [ ' w 3 O.a w 2 H q 4 w # # 3 3 2 2 3 3 2 @ O O O O @ @ @ O @ O O @ 2 1 1 1 3 3 6 3 3 3 3 6 # # # @ O                                                                                             O       O u @ _ 8.p O ,.P / ) / / _ 0 @ 3 U U U I I _ U U _ / u 3 3 P / @./ / / U / p + r I / / / / ",
"@ @ @ O O @ @ 2 2 2 @ @ @ @ 2 2 @ @ 2 2 2 2 2 2 K ^ ' ' ' ' ' ' ` ' K K ( ' ] ] _ p @ O O O w P e r Z OXS # ( K ( H q ( K ^ ^ K ( ^ ^ H O P ] ' K Y ( ( w 2 2 U ( ( ( ) ) 3 O / ' ] [ J 2 ] } { 2.] Y I w 3 @ O 0 @ O                                                                                                                                             O .   = K.8   # @ O O @ O @ 3 @   @ @ 3 3 @ I ' ' ' ] L ' ' K | | / O u U p _ U _ / U ) / p 3 O #     1 w ) 3.8.3 P } R.E.[ ~.. f.CXh .                                                                                                                                                                                                                                                                                                                                                                                                                                                                           X q ) ] ( ( ' C P ` *.=Xh   0 <.' K 2.O = -.g . O O O 2   # O O O O O O O O O O O O O O O O @ O O O @ O O O @ O O O O @ @ O # + @ O                                                                                                   O # u u e <.e O 2 / _ / ( ( / _ u @ r U U U U U U / / p # @ u / ) ) ) / / / U / p + s I / O.U p ",
"@ @ @ O @ @ 2 2 2 @ @ @ 2 2 2 2 2 2 2 2 2 2 2 2 K ' ' ' ' ' ' ' ( ( ] ] ] ' ] Y ' | ] [ w O e <.} H u Z .   a I I p H [ ( ^ ( K K L K J O w ] ' ( ( J 4 2 2 I / ( I I ) ] 0 O / ^ ( ( I 2 Y ' | | {  . .6.[ H O ( ( K q 2 O O O O                                                                                                                                 O     = J.v . O O O O @ 6 3 u @ O @ @ 3 @ O P | ' ] { L ' | ' ` ' Y @ ) 2.2.7.[ [ <.[ <.2.I I !.) O r I 2 2 u ,.3 ) | E.E.] +X, , k.    O O                                                                                                                                                                                                                                                                                                                                                                                                                                                                       I ( | ' Y ( _ ( L F ;Xj O r w ,.I ) ] U . =.C.a.c # 2 3 O + @ @ O O O O O O @ @ @ @ @ @ @ @ # @ @ @ @ @ @ @ @ @ O @ @ @ @ @ # @ O                                                                                                   O @ u _ 3 P 4 O P I / _ / I _ I _ u @ r / U p U / / p 0 # 0 p ) @.) _ ) / / / p / p + r p / O./ u ",
"@ @ @ O @ @ 2 2 @ @ @ @ @ @ 2 2 @ @ 2 2 2 2 2 2 K ' ' ' ' ' ' ' ( ) ) ] ) ] ] ) | { Y.^.} O # C | ] <.r .   +   @ @ e I ( ( [ [ ( ^ ( ( O 3 ] ' ( ] H 2 I / O.I ( ( Y _ ,.0 O p [ ( _ ] 2 ( ( { ` { { | } 6.] q L ' { { ' ^ H 4 O O                                                                                                                               O .   O j 9 % + + # # 3 3 3 2 # O O @ 3 1 O P | ' ' ] L ( { ' { ' J O Y ] ' ( | | | ] [ [ q ( ^.2.6 ) 8.) w 0 1 O 2.Q.E.Y.w.pX% @ d O   O O                                                                                                                                                                                                                                                                                                                                                                                                                                                                     3 7.( ' ' ] ( H L ;.<Xj O u X.p p 3.) I <.t & C.m.M = 7 u 0 3 r r r r r r r r 3 3 # # 3 3 3 # # # 3 3 3 3 3 # 3 3 3 3 3 3 3 # O O                                                                                                   O @ 0 I U p X O  X'.0 <.H U I _ I / p O s _ U U U p u 3 # w / <./ _ ) ) _ / / / U / p + # / O./ 0 @ ",
"@ @ @ O @ @ 2 2 @ @ @ @ @ @ @ @ @ @ 2 2 2 2 2 2 K ' ' ' ' ( ' ' ( ( ( ( ( ( ] [ [ ` ` R.Q.1 @ X I ,.7.@ O u 3 O O O @ 2 w P Y <.[ | ' [ O @ ( K K ] w e 1.@.O.p / ( ( _ ) p O u ( J ( ] 2 ( ] | { { ' ' ' { | ^ 4 J ( ^ ^ ' } } O @ @ @ O                                                                                                                         O . X O . @ # % 8 t 7 3 3 2 O # O O @ 3 1 O I | ' ' | q K { ' ` ] ( O ) 2.2.[ [ [ [ ] ) ] 2 ( } Q.2 w [ 6.6.8.] O w !.^.K OXpX  1 $ O   O O                                                                                                                                                                                                                                                                                                                                                                                                                                                                     # ~.] ' ' ] Y P Z ,Xj @ ! s ,.p # 4._ ] { O.. . $ . % t # 3 3 3 3 3 3 3 3 3 3 # # @ @ @ # # @ @ # # # # # # # + @ @ @ @ @   O                                                                                                   X # @ @ w I I + O 8.+X/ I ( ( U P _ I I p O u p U U p 3 @ 0 I ) ,.) I _ @.) I / / / U / p @ # U a 0 @ @ ",
"@ @ @ O @ @ 2 2 @ @ @ @ @ @ @ @ @ 1 2 2 2 2 2 2 K ^ ' ' ' ( ' ' ' ' ' ' ' ' ' ' U [ { R.Y.1 5 #   y 1.4 2 [ w _ # # @ O O O 1 P ^ ^ ( [ O O ] ' J ) q @ O.a / / / _ ) ( ) p O p | ( ] [ 1 ] ] ' ' ' ' { { { ' ' O w ( ^ ^ ^ ( ' O 4 p p 3 O                                                                                                                       O . X 2 . 6   $ t i 7 @ 3 q 4 @ O O @ 3 O O I ' K ] [ L ( { ' ' _ / O ) ,.<.[ [ ) ,.<.<.,.2 )  .6.O J Q.} ' Q.] 2 X K Q.'.VXr.. 1 . O                                                                                                                                                                                                                                                                                                                                                                                                                                                                             7.| | K J I S yXj   a ( ,.O.1.u r ,.| | 2 X O 3 + 0.N.= @ @ @ @ 2 2 @ @ 2 @ # @ O O O O O O O O @ O O @ @ @ @ O O O O O O                                                                                                     : r @ @ w I I   # O p p ) H ( _ P ) I I p O u _ p 3 @ @ 3 U 8.) ( I _ / / / _ / / / U / p @ + @ + # r X.",
"O @ O O O @ @ @ @ @ @ 2 @ @ @ O O 1 1 2 2 2 4 4 ' ' ' ' ' ( ' ' ] ] ] ' ' ' ' ( ' ( { E.Y.O [ Y.I 2 @   # / p 4 O ] K K I w       X + O O @ p / ' L O Y ) / / 0 2 / ) _ [ w   r ] ' ' ] 2 J | ` | | ' ' | | | | q 2 _ Y ` K ^ ^ O 6 q H J J q 1         O                                           O                                                                             - c # 2 6 6 2 +   @ @ 3 @ O I | ' ' ' 4 ] ' ' ` ' ( O _ <.<.[ [ ) [ [ [ <.4 p T.6.2 p Q.' } 6.[ . Y T.b L.S                                                                                                                                                                                                                                                                                                                                                                                                                                                                                     . y !. .P p O.I.h   P O.U X.X.q.#   t X.O @ _ T T a n |.x = 3 2 3 3 3 3 3 3 3 3 @ O @ 3 3 @ 3 3 3 3 3 2 2 2 2 @ 2 3 @ O                                                                                                   O # H w 0 O 3 U u 2 q ( I P P _ ) P I Y I ( P w O a 3 2 u / 0 # _ ] U a / ) ) ) / U _ I U X./ s o   2 e / ) ) ",
"O O O O O @ @ @ O O @ @ @ @ @ 1 2 2 2 2 2 4 4 4 L K ( ( ( ( ] ] ^ ' ' ' ' ] ' ' ' ( | E.Y.O [ Y.[ I I @ @ / I p O ) K ^ ( I O @ O O O O O O @ 4 ) _ 2 ) ) _ ) P I ) ) Y ) w O p ( ( ( ) 3 I } | ' ' ' ' | | | | H O I _ } ` ' [ 2 0 w w H H H H r # O O @ O O @ O O O                     O         O                                                                             - c # 2 6 6 @ +   @ @ 3 @ O I | ' ' ' 4 ] ' ' ` ] / O _ ,.[ ) ] ) ) [ [ <.q P T.6.2 p Q.' } 6.Q.  ] [.9.M                                                                                                                                                                                                                                                                                                                                                                                                                                                                                     O   X >./.W.s 4Xj . r ~.T a 1.1.r 3 = # o O.8.I ( T / . *.-.7 3 2 2 2 2 2 @ @ @ 3 @ O @ 3 3 3 3 @ # # # @ @ @ @ 2 3 3 @ O                                                                                                 O @ 3 4 0 p O O @ e I ( ( ( ) _ P I I _ ( I _ / p   o u w I / 3 3 / ) / p p _ ,.,./ a _ ) / / r O O # I _ [ [ _ ",
"O O O O O @ @ @ @ @ @ @ @ 2 2 2 2 2 2 2 2 2 2 2 ^ ' ] ( ( ^ ^ ^ ' ' ' ' ' ' ] ' ' ( { E.Y.O [ Y.Q.} <.e @ ) _ Y   _ ^ ' ) / @ 0 ) / I p w e 2 O   @   u I / [ [ T T Y Y ] H O p / I J _ # u ) ' ' ' ' ' ' | | | Y O @ p ( H w I # 0 u w q q p P U 3 O 1 2 4 2 4 @ X @ @ @ X O O       O O O                                                                                       - c # 2 6 3 # +   @ @ 3 @ O I ` ' ' ' 4 ] ' ' ` ] ( O T [ [ ) [ [ [ [ ] [ 4 p  .6.2 w Q.' } 6.{ O ' {.}.n..                                                                                                                                                                                                                                                                                                                                                                                                                                                                                         7 N.S pXj . b 3.T T w.1.3 3 p y s   X.1.O.] ,.U   r #.p 0 3 3 3 3 3 3 3 3 3 @ O @ 3 @ @ @ @ @ @ @ @ @ 3 3 @ # # @ O                                                                                               O # # r 5 3 3 O O q w ( ( ( I ( / P / _ I I I _ _ p   + I I / / 3 3 ) ( _ _ ) ) ) ) / O./ / U w O O 0 O.[ [ [ [ / ",
"@ @ O O O @ @ @ @ @ @ @ @ @ 2 2 @ 2 2 2 2 2 2 2 K ' ' ^ ^ ' ' | ' ' ' ^ ^ ' ' ' ' ( { E.Y.O [ Y.{  .6.p 2 ) ) I O / ' ^ ( / @ 0 [ ( ( ( [ [ / p r 0 O O O O p / ) ) ) <.<.P O 3 ( Y ( _ 3 0 [ ' ' ' ' ' ' ' ' | ] O   @ 3 2 O # # r p p w 0 3 3 u # O 1 5 5 4 2 2 2 4 3 4 4 4 4 O   @ @ O @ O O                                                                                   - c # 2 6 3 @ +   @ @ 3 @ O I ` ' ' ' 4 ] ' ' ` ] ( O T [ [ ) ] [ [ [ [ [ 4 p  .6.2 w Q.' } 6.} + ] R.}.l.  O                                                                                                                                                                                                                                                                                                                                                                                                                                                                                 . O O X i.sXj 1 W 1./ / 9.o.7 3 U p $.#.+ r <.3._ @.0 > s # u 0 @ 2 2 2 2 2 3 3 0 2 @ 2 3 3 3 2 3 3 3 3 3 3 3 3 @ @ @ @                                                                                             O O # 3 # 3 0 @ @ 3 p ) I I H ( J J I I _ P I I I I I 0 O y U _ / _ 3 3 / ( / ) [ [ ) _ _ O.O.0 O O p ) ,.) [ [ [ [ / ",
"@ @ O O O @ @ O @ O O O O O @ 1 @ @ @ 2 2 2 2 2 K K ' ' ' ' ' ` K ' ^ K ' ' ' ' ' ( | E.Y.O ,.Y.` { 6.H 4 ) ) I O I ' ' ( _ O 0 ( ^ ^ ( ) ) ( I [ [ Y w 0 O   . 0 3 0 p / 0 O s ( ^ ' ( q q | ` ' ' ' ' ] ' ' ' | 2     # p u s r p a p p u r 3 : # X X 2 2 4 4 2 2 2 4 2 4 q q @ O 0 e 2 e 2 # @ O                                                                               - c # 2 6 6 @ + O @ @ 3 @ O P | ' ' ' 4 ] ' ` | ] ( O _ <.[ ) _ [ [ ] [ <.4 I T.6.2 p Q.' } 6.!.  q '.OXn.                                                                                                                                                                                                                                                                                                                                                                                                                                                                                    $ @ X   f.x.  a #.U @.9.A o 7 O.X.U 0.X.+ u q.) s i + o.W   + O 2 2 2 2 3 3 3 3 @ O O O 2 3 2 2 @ @ @ # # # # @ O O O O                                                                                         O   @ # 3 3 O 3 @ @ r u I I H I P ( ^ ( ( / _ p I I I p u 3 @ U ) I _ / 3 # _ ) ) ( / ) @./ U p # @ 3 P ,.<.[ ) [ [ [ [ [ ",
"O @ @ O O @ O O O O O O O O O O O O O O @ 2 2 2 H K ' ' ' ' ' ' ' ] | | | { ' ' ' ( | E.Y.O ,.Y.Y.T.Q.w 4 ) ) Y O I ' ' ( _ O p [ | ] ] ( ( J J K ] { [ @.r o = @ O O O O O   > } | } ] w 2 ' ` ] ' ' ' ] ' ] ] | q     # O.X.U p p p p p p u r # @ O O O O @ 2 2 2 4 4 2 2 4 4 @ O e q 4 q 3 3 3 @ O O O O                                                                       - c @ 2 6 3 @ + O @ @ 3 @ O P | ' ' ' 4 ] ' ` | ] ( O _ <.[ ) [ <.[ ( [ [ O U T.7.2 p /.' } 6.[   O | G.G..                                                                                                                                                                                                                                                                                                                                                                                                                                                                                       = .   # $.x o.9.8.r o x o.X.X.0.o.  y U p 0 a r b #.$.t #   @ @ @ O O O O O @ O O O O O O O O O O O @ O O O                                                                                                 @   # 3 3 3 O 2 3 3 p p p p w P I I (  .[ I I ) P w p u U 0 3 U _ / _ _ 0 3 / ] ( ( ) ) U u 3 @ @ p <.8.) ( ) <.) ) ) [ [ ",
"O @ @ O @ @ @   O O @ @ @ @ @ 1 O O O O O O @ @ O 2 w I Y ( ( ( ( ( ] ] ' | ' ' ' ( | E.Y.O @.Y.T.T.Q.H 2 _ ) (   P ] ' ( ) O P ( ( ( ( ( ( ( ( ] ( ( J _ 2 3 O.O.U p 0 3 3 O @ <.] 2.[ p 2 [ | ] ' ' ' ' ' ] ] | q     @ ) U p p p w w p p u r # # @ O O O X X @ 2 3 4 4 2 4 4 X O 4 q 2 4 2 4 e 2 O O @ @ @ O O O O O                                                           - c @ 2 6 3 @ + O @ @ 3 @ O P | ' ' ' 4 ] ' ` | ] ( O Y ] [ ) [ <.( Y _ I O U T.6.2 p Q.' } 6.' y ,.4 , M   O                                                                                                                                                                                                                                                                                                                                                                                                                                                                                 X . $ 6 1 % a.M.M.-.0 @ W $.X.@.#.9.%   #.a O p #.X.#.O.X.u #.X.p p p p u p p p p 0 0 0 e 3 2 3 2 2 2 2 @ @ O O                                                                                           O @ @ # O # 3 3 2 O 0 I p I u p U w w I ( ( 6.[ e w ) w w U u W r 3 ) _ / _ / 3 3 O.) ( ) / p @   @ u <.[ ) ) ,.<.[ ) ) ) ) ) ) ",
"O @ @ @ # # @ O @ @ @ 3 3 3 3 2 # # # # 2 2 2 2 # 3 3 @ @ @ 2 2 2 4 4 q L K ' | ' ( | E.Y.O @.{ Y.} 6.P 2 _ / (   p ] K ( ) O P [ ) ( ( ( ( ( K p I [ ) [ q 2 ) T U ) T O.O.u r @ O w 0 @ O ) ] ' ' ' ' ' ' ' ' | e     O / P P p P p w p p u r 3 6 3 3 0 3 3 O O O 2 3 4 4 4 4 @ O 4 q 4 4 2 4 4 2 O @ 3 3 O O 2 2 2 @ @ @ O O                                                   - c @ 2 6 3 @ + O @ @ 3 @ O P | ' ' ' 4 ( ' ` | ' I O Y ] ] ( Y Y w w I P O O.T.6.2 p Q.' } 6.{ s '.'.}.M   O                                                                                                                                                                                                                                                                                                                                                                                                                                                                                   2 O . .   m A.;.o # O.1.+.#.<.9.o . #.b U O.@.9.q.@.p 0   }.}.2 2 2 2 2 3 3 3 3 3 e 0 0 3 0 p 0 0 0 0 0 3 3 3                                                                                         O @ # # # O # 3 3 2 2 P H w I u u U u w P [ 2. .J @ 4 0 H I 1.U U @ 2 ) I _ [ _ @ 0 @./ ( I e O   O r O.[ [ ) ) _ ) ) ) ) ) ) ) ) ",
"@ O 1 2 2 @ @ @ @ 1 2 2 2 2 2 2 @ O 2 1 2 4 2 H | | | | ' ' ' ' Y H q 2 2 @ + + H T /.E.W.X @. . .| !.I 5 ) I )   I ' K ( T O p | ] ( ] ( ( ( ( p J ^ ( ,.3 3 O.I U U _ T T T U I 4 @ @ O +   3 _ ] ' ' ` { ` ` | P     O / P U I w w p u u u 0 3 2 2 3 3 3 3 e O O @ 1 2 3 2 3 O O 4 q q q 4 @ 4 @ X 2 2 2 O O 4 4 q w w 5 3 3 2 O O # @ O O O O       O O             O O O     - n @ @ 1 3 0 @ O O 2 4 O O I ' ' ' ] 1 ( ' | ` [ q O I [ ( Y J H ( ' 2.) O <.T.} @ p 6.| } 7.] w !.'.oXm.+                                                                       O     .   O                                                                                               O         O O   O                                                                                                               O                                 O               O O                             O                                                               O                             + # n Q ! X.@.#.0.+ # a #.O.#.9.9.0.t   + i   $.p @ 3 e 3 3 3 3 3 # 3 3 @ @ # # @ # @ @ 3 3 3 @ O                                                                                     O O @ 3 # @ 3 O 3 3 3 2 2 p p p p 3 p _ q P '.6.U 3 O 2 ( ( / ] ] _ / @ 0 _ _ p _ _ 4 e ) ) r   2 w 1.p 2 <.) [ [ ) [ [ ) ( ) ) ) ) ) ",
"@ O 1 2 2 @ @ @ O @ 2 2 2 2 2 2 @ O 2 1 2 4 2 H ' ' ' ' ' ' ' ' ' } Q.!.Q.] w 2 O O Y R.R.@ ) { T.T.!.w 2 ,.I P   P ' K ( _ O p ] ( ^ ( ( ( _ ] / ( ( ( ,.3 3 ) U U _ _ T T T T _ / / 3 @ p @ @ O @ w ( [ | ] [ | I     O ) / p p w p U p u 0 2 3 2 2 2 3 3 3 3 O O @ O O 2 O @ O O 2 4 4 q q 2 4 @ X @ 2 2 @ O 4 4 4 4 4 q q w 2 O @ 3 2 2 3 2 @ O   O @ 1 O       O O O O O O O 8 n @ 2 6 6 2 @ O O @ 2 O O P { ' ' | q | K K ( [ q O P 7.[ Y ) ] | [ [ Y O O.} [ @ w 7.] | 2.{ P '.'.oXm.  O                                                                           .   O         O             O       o                                                                                                                                                                                                 O O                                                                                                                                                                             > X.b -.O.X.w.= + o.X.y #.w.O.i   0 a X.O.# q.8.e w u 0 0 0 0 3 3 3 3 # # 3 3 # # @ @ @ # @ O O                                                                                     O @ 2 3 3 @ 3 O # 3 3 2 2 p u 0 p I U u 2 _ !.p O 3 p _ ) ^ ) ( ] ) / + r _ I / @.p X 0 p O + 3 ) / 1.p 3 <.) ,.<.) / ) [ <.[ ) / _ ) ",
"@ 1 1 2 2 @ @ O @ @ 2 2 2 2 2 2 @ O 2 2 2 4 2 H ' ' ' ' ' ' ' { ` ` ` { { } } } e   O ' ' @ <.^.` | !.J 2 _ I )   I ' ' ' _ O p | ] ( ( ( ( ( ( _ ( ( ( ,.3 3 ) T T _ _ _ _ _ _ I @.@.0 @ @.I 5 0 X O O O @ 0 a ( I     O ) I w p u u u 0 0 0 5 3 2 2 2 3 2 3 3 @ O 3 2 2 3 @ 2 # @ 2 4 2 2 2 @ @ O O O 2 2 @ O 2 3 e 2 2 4 4 4 @ O O 4 4 2 4 4 e @ X @ 6 6 @     @ X @ 2 2 2 @ O 8 x @ 2 5 6 @ # O O @ 2 O O I ` K K ' L | ' ' K ) w O @ p ) 2.[ <.[ [ <.( 3 O.6.<.3 w [ ] } !.' w !.}.oXm.O O         O O O O O O O O O O O O   O O O O O O O O O O O O O O O     O O   O 3 4 O O O                                                                                                                           O           O O                                                                                                                                                                                                                                                                   % W i X.9.t . -.b X.0.9.a + O u / @.O.a O 8.7.3 e 0 0 3 3 3 3 3 3 # @ # 3 3 # 3 # @ @ @ @ O O                                                                                 O O @ 2 6 6 6 3 # O # # @ 2 2 p p p p 0 I U 0 0 w O X p ) ) ) ( / ( [ ) / + u _ U P _ U 0 3 3 O   u 7.@.@.u 3 <.) [ ) ) ) ) ) / _ / @.@.@.",
"@ 1 1 2 2 2 @ O @ 2 2 2 2 2 2 2 2 @ 2 2 4 4 2 H | ' ' ' ' ' ' | | ` ` | { } Y.Y.T.#   2 2   I Y.!.Q.6.q @ _ _ I O H ' ' ( U O w [ ] ( ( ( ( ( ^ _ ( ( ( ,.0 0 / T _ _ _ _ _ _ _ / / _ 0 2 ,.T T / / U u 3 @ O   O O     O p I / a u u w 5 q w w e 3 2 2 3 2 3 3 @ O 3 3 3 0 3 0 u 3 3 3 O O 1 O O O O O 1 1 @ O O 3 0 3 4 4 4 2 2 O @ 4 2 2 2 2 4 @ O @ 5 5 2   O @ 4 4 4 4 4 2 @ 8 v @ 2 6 @ @ + O @ @ @ O O 0 } { ' ( 2 J Y ] 6.I @ @ w e 2 4 p I w w w 4 O 2 [ P   0 7.!.2.( ' p !.}.oXm.O 2 @ @ @ @ @ @ # # 2 2 2 2 3 2 3 3 # @ 2 2 3 3 3 3 2 2 3 3 3 3 3 3 + O e e O O ] Y.P I w @ O O               O                                                     O O O                                                               O     O                                                                                                                                     O O O O             O       O O O O O   O     O                                                                   O   $.0.% = Z b #.N.9.# @ p X.O.) _ @./ @ <.'.e w u p u u 0 0 3 3 3 # # # # # 3 # @ @ @ @ O O                                                                                 O @ 2 2 6 6 6 2 # O # # @ 2 2 I w P P 0 p U 3 O O X w _ _ ( ( ] / ( [ ) / @ 0 _ I I O.U @   y #.# p <._ O.p 3 [ ) ) ) ) / / ) _ / @.O.I 0 ",
"@ 2 1 2 2 2 @ O @ @ 2 2 2 2 2 2 2 @ 2 2 3 4 2 H | ' ' ' ' ' ' | { { { } } { | ' E.H O Y P + + 2 J [ !.w 2 @.,.I   w ' ' ( _ O e ( ( ( ( ( ] ( ( I I ( ( O.3 0 ) _ _ _ _ _ _ ) ) [ / _ p 2 _ Y ] ) ) ,.1.O.w 2 @ 2 @ O + O 2 @ 0 r r u I p w w 2 0 3 2 3 3 3 3 3 O O 3 3 3 0 3 0 0 3 3 3 O 2 3 5 2 @ @ @ 3 6 # @ O @ 3 3 3 e e 2 # O @ q 4 2 4 2 4 X O @ 5 5 @   O @ 4 2 2 2 2 2 @ 8 b @ 2 6 @ # O   O O O O O @ O O 2 1 O 4 0 U H 4 4 _ <.) w w O O 2 4 H w w q 2 O   O I | !.'.Q.) '. XoXb.O 2 3 3 3 3 3 6 3 3 5 5 5 5 5 5 5 5 0 3 3 3 5 w w 5 q q q 0 0 0 5 5 0 2 P p 3 O } R.' { { ( I w 2 O               O             O O                 O O O O O @ @ @ 2 @ O O                                         O O @ O O X O O O O O O O O O O                   O     # O @ 3 +                                                                                       O O O @ O O O O O O O O @ O O O 3 0 w 0 q q q 0 0 0 0 0 3 3 O O O O O O                 O       O O O O O O O O O O O O O     +.b % Z *.$.N.o.+ + a O.1.O.T U O.U # @.'.3 3 3 0 0 0 3 3 3 3 3 3 # # # 3 3 # # # @ @ O O                         O O O O                       O O     O           O O O @ @ 2 2 2 2 2 2 # O # 3 # @ 2 I w w I _ p @ O O + u / _ ( ) ( Y _ ( ( ( / @ u _ / ) p @ @ p -.9.r p ,._ #.p e <.) ) ) ) _ / @.<.O.p 0 @ 3 ",
"2 2 2 2 2 2 @ O @ @ @ 2 2 2 2 2 2 @ 2 2 3 4 2 H | ' ' ' ' ' ' | { ] ( ( ] { } } E.Y 3 Q.2.O.A p O @ u r 0 I _ _   q ( ' ) O.@ 3 ] [ ( ( ( ( ( ( u I ] ] ) 3 0 ) T _ _ _ _ _ ) _ ) _ O.p O ) ) Y [ H w I P 2 q ]  .I 3 r 0 4 O   O @ # 0 3 3 0 5 e 2 2 3 3 3 3 e O O 3 5 3 5 2 3 5 3 3 3 @ 2 0 q 5 3 2 3 3 5 3 @ @ O O O O O @ @ O O O 3 3 4 4 4 4 # X 2 5 5 @ O O 2 4 4 2 2 2 2 @ 8 v @ 4 @ # # O O @ O @ @ O @ ( Y Y Y I I 2 O 1 H [ <.] ) <.7.0 O P ( <.6.7.2.{ 7.@.P 2 2 H <.6.U ~. XoXm.O 4 3 3 3 2 2 6 3 3 5 5 5 5 5 5 5 5 3 3 2 2 5 w w 5 q q q q q 0 w w 0 q w 0 0 O ' Y.` ' | | { [ ( ( 3 O     O     O           O @ # @ # @ @ @ 3 # O 4 w p w w P P p w w 3 O O       O           O @ O O O O @ @ O O 2 0 I I p I I p U u 3 3 e 0 0 0 e e e e e e e e @ 0 O @ p 3 w p 3 @                                                 O O @ @ O O       O O             O 0 w w w P P P p P P P P u @ O 3 I ( I I I I I I I P P P p p 2 O e 3 @ e 3 3 3 3 3 3 3 3 # O O @ 3 4 4 q 3 2 2 2 3 3 3 3 @ O 3 # - :.;.>.N.t   r 4.#.X./ ! U u u 7   # w 2 @ @ 2 2 @ @ @ @ @ # 3 # # # 3 @ # # # @ @ O O O O     O O O O O O @ @ @ @ @ @ @ @ @ @ @ @ @ @ @ @ @ @ @ O O @ @ @ @ @ @ @ # # @ @ 2 2 2 2 2 2 3 O # 3 3 @ @ p I P 0 0 2 @ 0 @ 0 / ) ( ( [ ) Y ) _ ( ( O.# p _ I 0 @ 0 X.9.1.O.> u ,./ #.u 2 <.[ ) / / ,.O.U u 2 4 w I O.",
"2 2 2 2 2 @ @ O @ @ @ @ 2 2 2 2 2 @ 2 2 3 4 2 H ' ' ' ' ' ' ' | { } } } } } { | R.I O T.Y.3.-.1.M.x o   @ p I J   # H J w p O # I ) ] ) ( ( ' ( 0 I [ [ ) 3 e ) T T _ _ _ _ _ _ I I O.p O / / / ) Y P p 0 4 J |  .( e 0 I Y P r @ O O O O @ 3 0 2 @ 2 3 3 2 2 3 O @ 0 5 3 0 2 3 q 3 3 3 @ @ 4 4 4 4 2 2 4 4 2 2 3 O O O O O O @ @ O O @ O O 2 @ 2 @ X @ 2 2 @ O O @ 4 4 4 4 4 2 O = t O 2 @ + X 2 1 3 @ 2 3 O 2 | ' | | } } I H <.<.[ ( ( [ [ ) / 0 <.[ 6.6.} [  .[ <.<.Q.Q.] I _ 0 7.}.I.m.O 4 3 2 2 2 2 2 6 3 3 3 3 5 5 5 5 5 5 2 2 2 5 5 5 5 q q q q q q q q w w w 3 u O ' R.| ' K ' | }  . .,.P O O                 O O 3 0 e p p w w P 0 2 2 w H H H H H w J P w @         O         O 2 w P H H H P P w q 2 w I I I ( ( ( ) P w P ( I I _ Y Y Y Y Y ( Y Y P _ O q / w H P 0 O O O O O O O O O     O O O O O O O O 2 3 5 5 e 3 3 e e e 4 2     O O O O           @ p Y I I H H H H H H H H _ 4 2 I ] ( J L H H H H H H H H H P 4 2 P I w I H P p p P P P P u O O q P w q H w 0 5 5 5 5 5 5 w P O t M.N ;.0.= . b 9.#.O.O.p 3 0 0 p U 3 O 2 p w 0 0 u 0 3 3 @ @ @ # 3 # @ @ # # # # @ @ @ @ # # # # # # # # @ @ @ @ 3 3 @ @ 3 3 3 3 3 3 3 3 3 1 3 6 2 O @ 6 2 6 6 6 2 2 6 3 @ 2 2 2 2 2 @ @ # O 3 3 3 @ O u p p @ O 2 U @.3 e / ,.T _ _ ( ) ) _ ( ( @.3 0 P O 0 / 4.4./ / 8.= u <.) @.u 2 [ [ ) _ / / p 3 O 3 P ) ,.O.",
"2 2 2 2 2 @ @ O @ @ @ @ 2 2 2 2 2 @ 2 2 2 4 2 H | ' ' ' ' ' ' ' Y.{ ` | ' | { Y.T./ 2 ^.Y.3.! ! l.|.|.x   I [ K     O O O #     O q Y ) ] ] ] ( 0 I [ | ) 3 e ) T T _ _ _ _ _ _ ) I O.p O U _ _ _ @./ 3 2 I 2. ...( w 4 w J P u p 0 0 #         @ @ @ 2 3 3 2 2 O O 3 3 3 0 2 0 4 2 3 3 @ 2 q 4 4 4 0 0 4 4 4 2 3 O O 3 r 3 # 3 0 @ O @ O O O O O O O O 1 2 @ O   O 2 2 2 2 4 3 O + -   @ @     2 2 2 O 2 4 O 2 Y.Y.Y.` Y.{ ' | [ ( ] [ | ] [ 6.U O <.[ } 6.} Q. .6.7.<.} Q.7.q.J @ <.}.I.m.O 4 3 3 2 2 2 2 3 3 5 5 5 5 q q q q q 4 2 4 q w w w w w w w w w w w q J H 3 u O Q.[.Q.{ ' ' { | ' ' !.~.<.X   O +           O @ 0 p e w w w w H q 1 4 H K J L J J H q H w @ O                 O 0 Y J H H H H H w 4 2 H ( I J J ( ( H 2 2 H ) Y I I K K K K K K K K P ( O 4 Y w H H u X O O 2 3 3 3 2 @ O O O # 0 p w w w H Y Y Y Y ( I J I ( ( J J   O @ w p 3 O         O w I J L J J J J J J J J I 2 1 J | Y L K p p p p p w w w H I 4 2 I I w I H H H w H H H H p O O w Y q 4 q w 5 3 2 2 5 5 6 2 2 e + k z.&.o % o.9.-.$.u # 3 a / / @./ 3 / '._ I p p p 0 0 0 3 # @ 3 7 3 @ O 3 3 3 # @ @ @ # @ @ # # # # # # O @ 1 3 3 3 6 6 2 2 2 2 2 2 2 2 6 6 6 3 6 O @ 6 2 2 2 2 2 2 2 2 @ @ 2 3 3 3 # # # O 3 3 3 O O 0 O O @ I ) _ O.q e ( ) T ,._ I _ ) _ ( ) @.# # 4 / @.@./ O.O.@.<.r p ,.I O.p 3 [ I [ <.) 0 O 3 / 2.,.) Y I ",
"@ 2 2 2 2 2 1 O # @ @ 2 2 6 2 2 2 2 2 2 2 2 4 e ' ' ' ' ' ' ' | { { | | | | | } R.P q ^.2.#.@.,.:.B..XOX= w I 0 2 q _ I I P 2 p w 0 4 2 3 p p 0 w [ ) _ [ 4 H ) _ I _ ) _ U I _ _ ) O.p O / P _ / _ _ O.O / T.L ( ( } Y 2 0 I L H w I 3 O 3 3 2 O O O O # # 3 3 O O 3 0 u 0 5 3 4 4 5 0 @ 2 2 2 4 4 4 q 5 4 4 5 # O @ 3 4 2 3 3 2 2 2 @ @ @ @ 1 @ O     O O O       O @ 2 2 @ @   g + O 3 6 4 3 4 2 4 2 2 2 O 0 { ' ' | { { ' ) ] ] ] [ [ [ [ [ ) 2 [ 6.} [ 2.[ } } 6.6.T.Q.Q.Q.~.: 0 G.yXm.  # # # 3 3 3 3 6 3 5 3 5 0 w 0 5 6 3 0 0 0 0 w w 0 u u 0 0 0 0 0 0 w w I w u O   b '. X~.( '  .} ' ( !.'.O O   .             O H H w e w q H H w 2 2 w J H L J w H H w 4 O O       O   O @ O O P H P H w w H H w w O P I H H H ( I O O O.I I ^ ^ ^ I I I I I I I I I w O w I q I 0 7     0 w w w e q e O O H !.{ [ 6.w J J J ( ( J J H I I J I J H   O K Y P 7   . O     @ p I J J H H H H H P I I Y 4 O ( ( ' I u P H H H P P P H w I 2 2 I Y H H H H w w w w w H H q O w H H w q H w w 5 5 4 3 3 6 w 3 O # x z ; M.M.*.t + @ u @._ O.X./ / # q [.[ w P w w 0 w w 0 O O 0 3 5 3   # + # # @ @ 3 1 2 2 2 2 2 2 2 3 @ @ @ @ @ @ # @ 3 @ @ @ @ @ @ @ 2 @ 2 3 2 O O 3 2 2 2 2 2 1 2 3 O 2 2 2 2 2 2 @ @ @ # # # O O +   # U ] Y ( / I 4 ] ) I ( ( ( [ ( ( ) [ / O r @.@.O.O.O.O.O.@.1.u p / _ @.p 3 @.U <./ O p O.) <._ ) ) U u ",
"2 2 2 2 2 1 O O @ @ @ @ 2 2 2 1 4 4 4 4 4 4 e 0 ' ' ' ' ' ' ' ' ' ' ' | } } } } R.P 2 R.[ O.X.,.;.B..XOX= @ w q I I ) U ) ) 3 I ) ) / I P w 4 O e / O.@.@.@ 0 / U U _ U ) / _ I Y U / p O O._ ) / I Y O.@ w  .Y.^ ' | ( 5 3 P L H w p 3 O 3 3 2 e 3 3 @ 3 @ O O O O @ 3 3 3 3 3 4 2 3 3 O @ q w e 4 4 4 4 2 2 2 # O @ 3 4 2 3 2 2 2 2 @ @ @ 2 2 @ @   O 3 2 @ @ X X X O 1 @ O O   M 7 2 0 6 4 3 4 2 2 2 2 2 O 0 { ' ' | Y.{ | ) ] ] [ [ [ [ [ [ ) 2 [ 6.} [ 2.[ { } }  . .Q.Q.!.!.@.O %.dXG.O O   O O O O O O O O O O @ O O O O O O O O O O O O O O O O O O O O O O @ O O O w w O 2 [ '.~.K H } } !.6.O 0 @   O           O w w e e q q J J w 3 O q H q w J w w w w w H w 4 @ O 0 @ @ e O O w q q q w w w w w w @ I ( J I I I w O w ) ] ( ( _ J ( I I I Y ( I J ( p O w I q I 0 p O O e H H q q 2 e O O I { q q ( 2 H I H ( ( J J H J I H I I H O 4 ` L 4 1 1 1 3 @     5 H H J H H H H H H H H I 2 O ) K L J p H H w w H H H w H P @ 4 Y Y J I w w H H H w w w H 3 O q 5 5 5 q 4 w 5 4 2 2 2 2 1 6 2 O # b 0.N.;.t . r #.#.U U _ O.X./ / # q [.[ q P w p 0 0 4 0 O O 0 3 5 3   # + # # @ @ 3 @ @ @ @ @ @ 2 2 2 @ @ @ @ 3 @ @ @ 3 2 2 2 2 2 3 3 2 2 2 3 2 O O 3 2 2 2 2 2 2 2 5 O 2 2 2 2 6 3 2 # @ O @ @ O # 0 @ 0 U ) Y ( ) P 2 ) ] ) [ ) ( J ( Y Y _ ) 3 p O.@.O.O.O.O.O.@.1.r p / / @.p # @.) _ w @ O.<.) ,.@.O.a #   ",
"2 2 2 2 2 @ @ @ @ @ @ @ 2 2 2 2 O 2 2 2 2 @ 2 4 | | ' ` K ' { Y.' ' | | | { { { R.P q ^.2.+.O.3.;.B..XOX* O q w ) _ I q _ ) 2 U I ( _ ) _ _ I p   X # s a O s #.U / / I I _ H 2 ] _ ,.I O U ( I _ I ( O.@ 2 | '.^ ` ` ' P @ p H H w I 3 O 3 3 5 5 0 3 3 0 @ O O O O O @ @ @ 3 3 e 3 3 3 O O 5 w q 4 4 3 q 4 4 4 # O @ 3 4 2 3 3 2 2 3 @ @ @ 2 2 2 @ O O 3 5 2 # # # 2 2 2 2 1 O X S i 4 r 6 4 3 4 2 2 1 2 2 O 0 | ' ' ' { { ' ( ] ] ] ] [ [ [ [ ) 2 [ 6.} [ 2.[ } }  .6.Q.Q.Q.!./.@.'.= s.OXO + @ @ @ @ O @ @ @ O @ @ @ @ @ @ @ @ O O 2 3 2 2 2 4 4 4 4 3 3 5 q 3 3 7 + O 4 !.Y.@.p @ @ / 7.7.( ( Q.!.J 8.H O O O O   O O O w w w J w H J w 4 @ @ w P H H P P P w w H ) ) Y q O 3 @ @ e @ @ I J w H H H H w w w O p I H J P H 2 @ ) H ) J J Y J I I H J I I J J Y w O e H q H 0 w O O q L L L q q e # O ( ( 2 2 H 2 I ( H I Y I K J J J J K K H   O 4 1 O # # 3 O O   O w Y Y J J J J J J J J J I 2 O ) ' K L I I I P P I I I P w w O 4 Y J H p J J H H H H H w H q O q H H w w w w w q 2 2 3 3 5 3 3 3 @ # y *.% o r #.q.X.p @._ O.X./ / # 4 '.[ w H w p 0 0 4 0 O O 0 3 5 3   # + # # @ @ 3 @ @ @ @ @ @ 2 2 2 O @ @ 1 @ 1 @ @ 2 2 2 2 2 2 2 2 2 @ @ @ @ O O 3 @ @ 2 2 2 1 1 6 @ 2 2 2 2 3 2 @ @   O O @ 3 3 u @ u ) ) Y ( ) / O U ( ( ( ( ( [ ( ) ,.,._ e U @.O.O.O.O.O.O.@.1.r p / / O.p @ @.) [ I O O.9.1.O.U r O   O ",
"2 2 2 2 2 @ @ @ @ @ @ @ @ @ @ 3 2 2 2 2 2 2 4 3 K ' | | | ' K K { { } } | { | | Y.u 2 ^.2.O.X.,.;.b..XOX* O P I _ I q O I I O U ( ( _ ( ( ( ( ( # # # # r   @ p a / / _ / [ / w ] I [ U O I [ Y _ _ ( ) 3 O ( ^.{ { ` | _ O u P w w I 3 O 3 0 5 3 5 3 3 0 3 @ # 5 5 6 2 2 @ @ # # 3 0 0 @ O 5 4 3 2 2 2 5 5 5 5 # O @ 3 4 2 3 3 2 2 3 @ @ @ 2 2 1 @ O O 5 4 1 @ 2 2 4 4 5 4 2 2   D i 4 3 @ 4 # 4 2 2 1 2 2 O 0 { ` ' | Y.Y.| ( ] ] ] ] [ [ [ [ [ 2 [ 6.} } 2.2.6.6.Q.Q.Q.Q.Q.!./.[ '.9.j h 4 + O @ @ @ @ O @ @ O O O O @ 2 2 2 3 O O 3 0 3 3 5 4 5 5 4 q q q q 4 1 + = O O '.{.p _ 7.8.0 O U q.<.~.) H '.,.4 4 O @ O O O O 0 w q q w w H p e 0 O e q 4 w e q e 2 2 2 0 P w 2 O w 4 2 0 O O w q H H w w w w w H O P I H I I I 3 H <.( J J Y I I ( Y I Y Y ( I J I q O 0 J H I I w O O e Y L L H q 2 O O P J 2 w H q I Y H I I I Y J J J H J J q .   3 O O # O O O @ O O q Y J q w w w J H J J H P 2 O I ] ' Y I H H H H J J H H I p @ 0 Y J H p J H w w w w w w w 4 O 4 w 5 w 0 q w w 5 2 O 2 3 3 @ 2 5 3 @ O O   y #.w.w.U u O._ O.O./ @.3 q '.[ w P w p 0 p w w O @ 0 3 5 3   # @ + # @ @ 3 1 2 2 2 2 2 2 2 2   O @ # 3 3 # @ 2 2 2 2 2 2 2 2 3 @ @ @ @ O @ 3 @ 1 2 2 2 1 1 6 2 2 2 2 2 2 @ @   O O # 3 3 5 u O w _ ( ( ) ) I @ ) [ ] ( J Y ( ) ,.[ I e 3 / #.O.O.O.O.O.O.O.1.r u O./ O.U X @.( <.) # X.9.O.u X O O 0 / ",
"2 2 2 2 @ O O O O O O O O O O @ @ @ @ @ @ @ 2 2 I Y Y Y Y ) [ 2.{ { { { | | | } T.u 4 R.2.#.O.,.;.b..XOX= e ) I Y _ P 4 U U @ ) ) ( ( ( ( I Y ( I I _ I U e 2 @ 3 3 0 p I _ / ) <._ ,._ O I ,.I U ) Y I r O J { R.Y.` ' ) O u P w w p 3 O 3 0 0 5 0 3 3 0 3 @ @ w w 0 3 3 2 @ @ O O @ 3 @ 2 5 5 @ O O 2 3 3 2 2 # O @ 3 4 2 3 3 4 2 2 @ @ O @ O 1 @ O @ 5 4 2 2 2 2 2 2 2 2 2 @   D i 2 # + 4 @ 4 2 2 1 2 2 O 0 ` ' ] ' { { ' ( ] ] ] ] [ [ [ [ @.2 ) 6.} } 2.2.Q.Q.Q.Q.Q.Q.!.!.Q.!.{  XoX. O + O O O O O O @ @ 2 O O 1 6 5 5 2 3 O O 3 0 3 3 e 3 4 4 4 4 4 4 4 K H 0 r O O } { q 2 <. X}./ 0 r 3.}.U @.}.0 O O @ @ @ # @ O p w H H H w e e 0 @ O O O O O O O O O     O O O O O q 4 @ @ O O w J H J w H P I P p O I I P I I _ P _ ) [ H Y ) I ) ( ( ( ( I I I I H 3 O 0 I J I I r     0 I I P P ( p r O _ ) ( <._ I T I I I I T ) Y Y Y I I I w O K !.R.T.Y.{ Y.T _ 0 O 2 P Y H H H H P I I I I 4 2 O 3 I ' Y w Y T T _ T T Y Y I u # w T I I p H H H H H H H H w # O # w w H e q 0 0 3 2 @ 3 0 3 @ 2 2 3 3 3 @ > -.9.#.#.O.p / _ O.O./ O.# q '.[ w I w 0 0 I I u O @ 0 5 5 3   # @ # + O @ # @ @ @ @ O O O O O O O @ # 3 3 3 # 6 6 2 2 2 2 2 2 @ @ @ @ @ @ @ # @ @ @ 2 2 2 2 3 2 2 @ 2 @ @ O O O @ 3 r 3 3 5 5 @ w I ( ( ] I 4 u / _ ) ( ( [ [ ) I 2 O O 0 @.O.O.O.O.O.O.O.O.1.u u @./ @.U O [ [ ( I 0 X.a # O O 0 _ @.[ ",
"1 1 1 @ O O O O O O O @ @ O O @ O O O O O O O O 1 O O O O 1 q H ( ' ] ] { } } } } i 4 R.| #.#.3.;.b..XOX= 0 ] I I ( _ I O.U O U I I ( ( _ ( _ ) I H ) I ) ) ( P 0 # @ @ # # e p _ I ) p O p O.I U T ( I u @ P Y T.T.{ ` ] X w H w w p 3 O 3 0 0 q q 2 2 e 3 @ 3 5 3 5 5 5 3 3 3 @ O @ @ O O 3 4 2 @ @ 2 3 3 2 2 # O O 3 4 2 2 2 4 2 @ O O O O O 1 O O O 5 5 2 3 2 2 2 2 2 2 @ O   B i 2 # @ 4 @ 4 2 2 1 2 2 O 3 ' ' ] ' { { ' Y ] ] ] ] ] [ [ [ @.@ ( 2.} } 2.6.6.6.6.6.Q.Q.!.!.T.6.'. XpXn.O + @ @ @ @ @ @ @ @ 3 1 1 1 5 5 5 6 3 @ O 3 e 3 3 e e e e e e 4 4 4 4 q 2 O O O H 4 H 4 q ( 7.}.w.O.+ y O 9.}.+ + # X @ @ # O O 0 3 w w e 3 @ 2 @ O @ e 3 2 4 2 2 4 # @ @ @ @ @ @ @ O 2 O @ O @ w H J H J H I p q 2 O 3 2 2 4 2 e e 4 O H 1 w w 4 q q q q q 3 3 3 q 4 O   @ q 4 4 0 @     @ 2 6 3 @ 2 O O   1 4 O 2 w 4 q 4 3 w q w w w w w q w w 2 O 1 K K Y Y K K P p # O 2 P P w p p w w w w w q 4 I # 3 2 w 4 2 2 2 2 2 2 2 2 2 2 O O 2 w 4 q 2 4 4 3 q q 3 3 2 3 O   O w 2 0 @ 6 3 3 2 @ @ @ 3 # 3 3 O O O @ O t 0.9.y U X.U O._ O.O./ O.3 q '.[ w I w w 0 I Y u O @ 0 5 5 3   3 @ # + O @ @ @ O O O O O O O O     O O @ @ @ @ @ @ @ @ @ O O O O O O O O O O @ O O O @ O O @ 3 2 1 @ @ @ @ O O # 3 3 3 3 3 3 u O I ) I H H q 5 _ _ I ( ) ) ) I 2 3 2 0 @ p #.O.O.O.O.O.O.O.O.@.u r @.O.@.U O @.<./ / @ @ O @ 0 I ) <.<.] ",
"@ O O O O O O O @ O @ 3 # O   + 2 2 2 2 3 3 2 2 L Y ] ] ( H 2 1 O O 1 4 4 4 4 4 L 7 2 Y.K O.O.! M.x.L.OX= 3 ) I I I ) I ) I O u ) ( _ ) _ I I I ) w I w I / / _ ) _ I p w 0 3 @ @ 2 3 # O 0 @.) U I _ U u @ P Y | Y.R.` [ 2 q H H w p # O 3 5 5 4 4 2 3 0 e 3 0 2 2 3 3 5 5 5 5 0 2 # # O O 2 O # @ 2 3 3 3 3 3 # O O 3 4 2 2 2 2 2 @ O @ O @ 1 O O   O 3 4 2 3 4 4 4 2 2 2 @ @   D i 2 # 3 4 @ 4 @ 2 1 2 2 O 3 | | ] ' } Y.| _ ] ] ] ] ] [ | [ @.O ( } } } 2.6.6.6.6.6.Q.Q.!.!.R.( !. XpXD   O O O O O O O O O O O O O @ @ @ O O O O O O @ @ @ O O O O O O O O O @ O O ) [ Q.!.` L 4 2 q ) ~. X~.<.e / O.@     O O O O O O O O O O O O O 3 w w p P P P I H w J u 0 q q 0 e e w 4 w 2 2 @ O O 2 q q q w q 2 O O O @ O O 2 O O @ O O O 1 2 1 O O 2 O O O @ 3 2 @ 2     O 2 2 O @ 1 O O @ 1 2 2 O 1 O @ O O 2 O O O O O O O O O O O O O O O O O O %   O O   .     O O     O 1 2 @ 2 @ @ O O O O O q I # # @ O O O 2 2 4 4 2 2 2 2 1 O O @ 2 2 4 O O O O O O O O O O O   O 2 O 1 O O O O O O O O O   O O O O O O   v ;.+.i #.#.U ) _ O.O./ @.3 4 '.2.w I w p w P H w O @ 0 5 5 3   3 # # + O O @ @ O O O O O O O O   O O O O O O O O O O O O O O O O O O O O O O O       O O O O @ 2 O O @ @ @ @ + 3 3 3 3 3 3 3 3 O U / p q w P U ( [ ] [ ) w @ O O 0 U @.0 p O.O.O.O.O.O.@.O.@.@.u 0 <./ #.X.O _ _ _ / O O 3 U ,.<.[ ) ) ] ",
"@ @ O @ @ @ @ 2 2 @ # 3 #   O + 2 2 2 3 3 3 2 2 ' ' ' ' | | | } H P Y T ( Y J H 4 7 w E.| 1.#.,.M.x.L.+X= 2 ) I ) I ) I U I 3 U ( I I Y _ Y _ ) I @ p p _ I I _ Y ) ] ) O.O.u @ w u r @   @ u 0 ) I ) ) s O I ] K | '.` [ 4 q J H w p @ O 3 3 5 e q 2 3 0 5 2 5 @ 2 2 3 5 5 5 5 3 3 3 3 3 3 3 O O O O 2 2 2 6 3 # O O 3 4 2 2 2 2 2 @ O @ @ 2 2 2 @ O O 4 2 2 # 2 2 2 2 2 2 @ O   B i 2 # 3 4 @ 2 O 2 1 2 2 O @ L J J L K K L q ] ] ] ] ] [ | | [ O ( } } } 2.Q.Q.Q.Q.Q.Q.Q.!.!.T.6.Q. XdXF     O O O O O O O O     X @ O O O # @ @ @ O @ 2 2 2 # # # 3 3 0 3 0 % # O O [ ' { [.[.[.!.L 4 4 q P ~.'. X~.2 O O 3 2 3 3 5 6 @ 0 2 2 @ @ @ @ 3 w H q w 5 5 H w q w H w 4 q q q e e 5 w q 0 7 # 3 4 K J J H H w p p p U w P U w p I u 3 O U u 0 p 0 u 3 @ # u p p u p + # # 0 3 @ + E I I P H Y I w J w r 3 O P p 0 @ 3 u u u u 3 0 O @ 0 0 3 0 u 0 u 4 H w 0 r 3 w w w # O @ @ @ # # # # # @ @ @ @ 4 3     @ # O + p p I I p p p p I I p I P P I e u 0 3 O @ # 0 u 0 0 r 0 P 2 w 3 3 3 3 3 3 3 3 # X O O @ # @     l 0.0.4.w.O.u @./ O.O./ @.# q '.2.w H w p p p 5 0 O @ 0 3 5 3   3 # # + O O @ O @ @ 2 3 3 3 3 3 + # # @ @ @ @ @ O O @ @ @ @ O O O O @ @ @ @ @ @             O # 1 O O @ @ @ + # 3 3 6 3 3 3 3 3 2 u 2 O p ,.O.T ) ) I w O O u a / O./ O.3 u O.O.O.O.O.@.@.O.@.#.u 0 <./ O.X.O _ O.O   @ O.@.O.,.) ) [ @.@.",
"2 2 @ @ @ @ @ @ 2 @ @ 2 @ O O 3 2 1 2 2 3 2 2 2 K ' ' ' ' ' ` | H L ^.R.R.R.R.R.T.Y.R.R.( a #.3.v.b.L.+X. P Y Y Y I _ I ) U O _ ) / _ / I P ( ( I ( I Y ) _ I _ _ Y ) Y ) ( / 2 Y [ ] _ I P e 2 X O 3 u u 3 3 i ] ' Y.R.` L 0 s H w w 3 O 2 q q 3 3 3 3 5 5 5 5 3 3 4 4 4 3 3 4 3 3 3 3 3 3 3 3 3 @     @ O O O     O 3 0 3 2 2 0 3 @ O O O 2 3 2 @ O O 4 4 2 2 2 2 2 2 2 2 2 1 . *.t @ 5 2 4 4 6 O O O +     @ O O O O     # 0 ( _ ) ) [ [ [ [ ) O # 8.7.Q.,.1.6.6.6.!.!.T.!.^.!.} !.}.pX=.O o @ @ @ @ @ @ @ @ O @ # 3 3 # # 3 2 @ 2 3 3 3 3 3 5 5 w w 5 5 5 5 H 4 w O r r   O y }. X X6.4 L L L L '.'.O O @ 3 q q 5 5 5 4 4 4 q 4 0 O 3 5 q w w q e w H w 3 @ O 2 q q q w w q 3 w q 4 0 3 O L L L J Y K H 4 u H H P P P H H H p 2 1 Y w w w q w 0 @ O Y I w 0 u 2 3 3 3 I 1 3 Y H w w q 0 H w w w w e O w q w @ 3 w w w w w q   @ I q w 0 q w w w q q q q q q q p @ O 1 4 q p 3 q L w 0 O 0 5 # + O O O O     u I P H H I w w H H H H J H H H P p p 3 O 3 p e w w w w H H w w q q q q q q q q 3 @ 0 2 3 2 3 @ t ;.0.-.-.U p / _ U O.@.@.# 4 '.6.q I w p w w w w O # 3 5 w 3   3 3 # @ @ @ 3 2 @ @ 2 2 2 @ @ @ 2 @ 2 2 2 2 2 2 @ 2 @ 2 2 2 @ @ @ 2 2 2 2 2 2 2 @ O         O 2 O O 3 @ 3 @ O 3 # 3 3 3 @ 3 3 3   e I ( ] [ ] U / 0 O O u ) ) T / _ / / 3 U O._ / O.<.O.O.@.1.@.p 0 #.@.@.y O # O 0 U / [ ] ) O.[ [ [ [ [ ",
"2 2 2 @ @ @ 2 @ 2 @ @ 2 @ O O 3 2 1 1 2 5 3 2 2 K ' ' ' ' ' ` | w L ^.R.Y.T.Y.R.T.Y.E.R.Y u i P M.B..XOX= 2 ] I ) ( ) I _ w O u [ I I _ ) ) ( Y I _ I I ) _ Y _ _ Y ) Y ) ( / 2 J ( ) _ ) ) / I U p 3 O O O O + P ( | T.} K w I H H w 2 O 2 w q 3 3 3 3 5 5 5 5 3 3 4 4 4 3 3 4 3 3 3 3 3 3 3 3 3 @   O 3 6 O @ X O O O 2 2 2 3 @ O O O O O O @ 1 O O O 3 5 2 3 2 2 2 2 2 4 2 @ . o.t @ 2 O O O O O O O O   O e P H J I 2 p _ _ Y H H p p w q L H O O q 4 H 2 O O O 2 I 8.~.!.!.} 6.'.H.dXh O # @ @ @ @ @ @ @ @ O @ # # # # # # @ @ @ 2 3 2 @ @ 3 3 3 3 3 3 3 3 3 3 p O O P 7.Y     X e. X X8.I H w w O O w 2 q 5 5 5 5 5 4 4 4 q 3 0 O 3 5 q w w q e q w 5 3 # I w 4 4 q q q w q w q 4 0 2 O Y L q q H K L q u H P P P H H H H P 4 1 Y w q w 3 w e @ O Y I w u 0 3 0 u 0 I 1 5 Y H w w w w H w w w w 3 O w q w @ 3 w w w w w q   @ J q w 0 q w w w q q q q q q q w @ O 4 4 q 0 w w H q 3 O 0 2 # 0 0 O O O O O 5 P P w H I w w H H w H H H H H H w p 3 O 3 P q w w q q w w w w q q w w q q q q 3 @ 3 2 3 2 3 @ Q ;.-.0.w.O.a / _ #.O._ _ 7 H [.6.q I w p w w w w O # 5 5 w 3   # 3 # @ @ @ 3 2 @ 2 2 2 2 @ @ @ 2 @ 2 2 2 2 2 2 2 2 @ 2 2 2 @ @ @ @ @ 2 2 2 2 2 @ O         @ 2 @ @ 3 @ 3 3 O 3 # 3 3 # # 3 3 3 @ p ] [ [ ) 0 O O @ 0 I / ) ) ) O.) ) [ 3 U O.) <.) ) O.O.O.O.1.r r 8.X.p @   r / / / ) [ [ ) O.,.,.[ [ [ ",
"2 2 2 2 2 2 2 2 2 @ @ 2 @ O O 2 2 2 2 2 5 2 2 2 K ' ' | ` ' ` | w L E.R.Y.Y.Y.Y.Y.Y.R.R.' P R R 8 &.B.dXt O Y ] I I _ I ) I @ U ( Y ( ) I I _ ) I _ ( Y ) _ ( ) _ Y ) ( ) ( / 2 P ) ) I _ ) _ _ T ) ) U I u 0 X O X 2 / 2.) 4 4 w w q @ O 3 p 5 3 3 3 3 5 5 5 5 q 3 4 4 3 q 4 4 3 3 3 3 3 3 3 3 2 @ O @ 0 5 2 3 3 @ O O O O O @ O O O @ @ @ @ @ 2 O   O 2 2 O @ @ 2 2 2 2 2 2 @   n r @ @ O @ @ O O O O O   O P ' ' ' | J ] } } ' ( Y ( ( ( ( ] } ] I Y L ( w O P _ p O O 3 T <.'.~.] |.dXF O 3 @ O @ @ @ @ @ @ O @ @ # # # # @ O O O O @ @ @ @ O @ @ @ @ @ @ @ .     @ O | [.Y.u 3 C     e.}. X~.p u O O 3 w 4 5 5 5 5 5 4 4 4 q 3 0 O 3 5 q w 5 q q q 4 5 3 0 ,.P 4 q w q q w q w q q u @ O ] 4 2 2 q K K w 0 H H H H H H P P I 4 1 Y w q q 4 w e @ O Y I w 0 3 3 0 u 0 I O 0 Y H w w w w H H w w w e O 0 q w @ 3 w w w w w q   @ I q H 0 q w q q q q q q q q q q O 2 P L 4 e 0 q q q 0 @ 0 4 3 0 0 O O 4 w q 2 p H w J I H w P w w H H H H H w w p 3 O 6 P w p 0 3 4 4 q 0 0 q q w w q q w w 3 @ 3 2 3 2 3 2 * 0.N.-.y O O @ X # 3 @ @   4 '.6.q I w p w w w w O @ 3 5 q 3   # # # @ @ @ 3 2 @ @ 2 2 2 2 @ @ 2 2 @ 2 2 2 2 2 @ @ @ 2 2 2 @ @ @ @ @ @ @ @ @ @ @ O         @ @ # @ 3 @ 3 3 O 3 3 3 3 # # 3 3 3 O T 2.] w @ O   2 w _ / _ T _ ) U _ _ / 3 u @./ O.O.O.1.@./ O.1.s @ 0   O @ 0 O.<.@.O.O.,.[ ,.@.,.[ ) [ ,.",
"2 2 2 2 2 2 2 2 @ @ @ 2 @ O O 2 2 2 2 3 3 2 2 2 ' ' ' ` ' ' | | w K ^.R.Y.Y.Y.R.Y.Y.R.R.} ] O.1.4.- M OX  0 7.I I ( _ I _ w O w ( ( ( Y w w I I I _ _ Y ) ) ( ) _ Y ) ( ) ( / 2 I ) _ I Y _ I / P I Y T _ _ I p w 2   O 0 0 w Y w p p # O 3 u 4 e 3 3 3 5 0 5 5 5 3 3 3 q 3 3 3 3 3 3 3 3 3 2 2 2 2 O @ 5 5 2 3 e 3 2 2 2 @ O   2 2 2 3 3 3 3 3 3 @   O 1 1 O O O O O O 1 @ O O   t #   + + 3 # # O @ O O O 1 Y ' ' ' ' L ( ' ' ] ' ) ] ] [ } Q.!.!.!.Q.T.!.<.O ( 7.<.p u U 0 O 2 8.~.OXaXa.O O O O @ @ @ @ @ @ @ O @ @ # # @ @ O O O O O @ @   # # # # # # # # O r   O O '.[.E.) I  X}.a X   Z  X+X+X# O 5 4 4 4 5 5 5 5 4 4 4 q 3 0 O 3 0 5 w 5 q e q q 5 3 # _ w 4 q w w q q q q q w u @ 1 [ w r 3 0 Y K q e p p H H H H P P I 4 1 I w q w 3 w 0 @ O Y I q 3 3 3 0 0 5 p O 0 Y H w w w w H w w w P 0 O 0 4 q @ 3 w w w w w 5   @ I q w 0 q w q q q q q q q q q e O 3 I L 4 q q q H w 0 O 3 2 2 2 2 2 w Y Y L O 0 P H I I H H P w w H H w w H H w p 3 O 6 I w w 0 3 2 4 e 0 0 q q w w q q q w 3 O 3 2 e 2 q 2 n 9.v     # r p s i a p p + w '.2.q I w w w w w w O @ 3 5 q 3   # # # @ @ @ 3 2 @ @ 2 2 2 2 @ @ 2 2 @ @ @ 2 2 2 2 @ @ 2 2 2 @ @ @ @ @ 2 @ @ @ @ @ O         O @ + @ @ O 3 3 O 3 3 3 # @ # 3 3 3 @ p U 5 O O 3 y ) / ) _ I I _ _ T _ ) ) 0 7 @./ O.@.O.U U @.1.#.=   O O p / @.1./ O.-.9.@.) [ ,.[ ] ) ] ,.",
"2 2 2 2 2 2 2 2 @ @ @ @ @ O O @ 2 2 2 2 2 2 2 5 ' ' ' ' ' ` | { w K ^.W.R.T.Y.R.R.R.Y.Y.Y.| ,.4.q.N.N.d o 3 w P I ) _ / / p O u [ ( J J J I p @ P _ _ Y _ ) _ ) _ Y ) ( ) ( / 2 P _ ) Y ) ) ) ) 0 e w I Y Y Y Y ) I 3 O     O p e P I 3 O @ 0 2 3 3 3 3 5 5 5 5 3 2 2 5 5 3 3 3 4 4 3 3 3 3 2 2 3 2 O O 5 5 2 3 2 2 2 3 3 3 @ O 2 2 3 3 3 3 4 3 3 @   O 2 1 O @ O O O O O O O O   +   + = r r # 3 2 0 @ # @ 2 Y ' ' ' ] J ( ] ' ' ' ( ( ( ' { Y.Y.T.6.Q.Q.!.2.O ' !.2.2 w 7.3.2.T O I .XVXl.O 3 @ @ @ @ @ @ @ @ @ O @ @ # # @ O # # @   O @ @ O 6 3 3 3 3 3 3 5 q q e q O [ L 4 } | '.'.'.'.X.    9.9.  O 5 5 H 4 5 5 5 5 4 4 4 q 4 0 O 3 0 q q w q e q w w 2 O w w q q w w q q q q q w u @ 1 } u u r w Y K q 3 w w w w w H P P I q 1 Y w w w q w 0 @ O Y J 5 3 0 0 w 0 0 w O P ( H w w w w H w q w w e O 5 3 q 2 3 w w w w q q   @ I q w 0 0 w q q q q q q q q q e O 3 I q 4 w q q H w 3 O 5 q 2 2 4 I ( Y q 1 O w I P I P H w P e q w p w e p H p p e O 6 I w w q e e e q e e q q 0 0 0 0 w w 3 O 3 2 5 2 q 2 + =   t 9.1.O.@.<.#.#.<.@.+ 1 '.2.q I w w w w w w O @ 3 5 q 3   # # # @ @ @ 2 2 @ 2 2 2 2 2 2 @ 2 @ @ @ 2 @ 2 2 2 @ @ @ 2 @ @ @ @ @ @ @ 2 2 2 2 @ O           O O O @ @ 3 3 O 3 # # # @ 3 3 0 3 # + O O O P T T ( _ ( / ( ) ) / O.] ) @.u 3 O.C / / O.@.4.1.U @   + X.@.9.#.#.$.1.#.>.9.O._ [ ,.,.[ ] ] [ ",
"2 2 2 2 2 2 @ @ 2 2 @ @ 2 @ @ @ O O O 2 2 2 3 0 ' ' ' ' ' | | { 4 K ^.W.R.T.Y.R.R.Y.Y.Y.R.Y.] #.,.;.+X|.. @ w w q p q 0 U u @ 0 _ _ ) ) ) ) I @ H _ _ I _ _ _ _ _ Y ) ( ) ( / 2 P _ ) _ ) ) _ ( 0 e w I ( Y Y ( P 5 5 u p 0 O   2 2 3 @ O @ 0 5 3 3 3 3 3 5 5 5 3 2 2 5 5 3 4 3 4 4 3 2 3 3 2 2 5 2 O O 5 5 2 3 4 4 2 2 2 3 @ O 4 4 4 2 2 2 2 4 4 @ O O 3 2 2 3 @ @ 2 2 2 2 2 @ O   + 7 r i u @ 2 2 4 2 3 1 2 I ' ( ( ] J ) ] ] ] ] ] ] ] ] } Q.T.T.}  .Q.Q.6.@ L !.!.q q 6.6.!.7.~.H $ I.B.O # @ @ @ @ @ @ @ @ @ O O @ @ @ @ @ # 3 # @ @ 3 3 # 4 4 5 q w w H P ( 4 ( ) @ <.p @ 1 1 ^ '.'.~.'.}.o.% + + 3 6 5 4 4 4 5 5 5 4 4 5 q 4 0 O e 0 q q w q e q w w 2   w w w 4 5 w w q q w q q u 3 2 | p u 0 0 K K w 3 w w w w w w w w I 4 2 Y w w w q w 0 @ O Y J 4 3 0 0 0 e q w O P ( H w w w w H w 2 4 0 3 O 5 3 q 2 3 w w w w w q   @ I q w 0 q w q q q q q q q q q e O 3 P 4 4 w e 4 w w 3 O I ' I I I ( I 4 2 2 O w I I I J w H P e 2 q w w w w H w p 3 O 6 P w 0 q q q 0 0 q q q q 0 0 q 0 w w 3 O 3 2 5 2 q 2   y X.#.9.O.O.9.e.#.#.8.#.# 2 '.6.q I w w w w w w O @ 3 5 5 #   # # # @ @ O 2 2 @ @ 2 2 2 2 2 2 @ @ 2 2 2 2 2 2 2 2 @ 2 2 @ @ @ @ 2 2 2 2 2 2 2 @ O           O     @ @ 3 3 O # 3 3 3 # # 3 3 #     O @ P ] ] T Y ) ) Y I _ ) / P I ( [ u @ @./ _ O.4.q.1.u O   r a 9.#.9.#.9.9.}.0.>.>.O.) [ [ [ [ ,.,.,.",
"2 2 2 2 @ @ @ @ 2 2 2 2 2 2 @ O O O O O O 1 2 0 K K ' ' | | | | 4 ' ^.W.Y.Y.{ R.W.Y.Y.R.E.Y.,.-.q.%..XpX% u I T w P O O 3 O O O 0 p I ( Y ) I # w _ _ I Y _ ( _ _ Y ) ( ) _ / 2 I ) ) / _ _ ( Y _ I p q 0 p I P p @ 4 I Y ) I 0 2 O O O O @ 0 0 3 4 3 3 3 3 5 5 2 O 1 3 5 3 3 3 4 4 2 2 2 2 2 2 3 @ O O 5 5 2 3 4 4 4 2 1 @ @ O 4 4 4 4 4 4 2 2 4 2 O @ 5 4 2 3 2 4 4 5 5 q 4 2 O O 7 y r u w 2 4 2 4 2 3 1 2 J ' ^ ^ ] J ] ] ' ( ( ( ( ( ] } Q.T.!.} } Q.T.!.2 ' !.2.1 J ~.2.2.8.3.'. Xf . 2   @ @ @ @ @ @ @ @ X O @ @ @ @ @ 3 @ 2 @ O O 3 3 2 3 3 3 0 u p p u I ) ) 3 O }.+X X_ 2 O 2 2.'.'.7.+X}.O   @ u 2 5 q q 5 5 5 4 4 4 4 4 e O 0 0 q w 5 q e 4 w w 2   H H w 4 5 q q w q w q 4 u 3 1 ( P w 3 5 K Y w 3 w w w w w w q q I q 2 Y w q w q q e @ O Y J 5 3 0 0 3 4 w w O p ( H w w w w H q 2 4 0 3 O 3 3 0 2 e w w w w w q   @ J q w 0 q w q q q q q q q q q e O 2 H 4 2 e 4 2 w w u @ Y | ( Y I w 4 2 3 0 O 0 I P J H H H P 4 @ e p w 0 w w e p 3 O 6 I w w w q w w w q q q q q 0 w w w w 3 O 3 2 5 2 q 2   9.N.9.#.X.u 3 s r u p s   2 '.6.q P w w w w w w O O u 0 4 3   # 3 # @ O O @ 2 2 2 2 2 2 2 2 2 @ @ @ 2 2 @ @ @ 2 2 @ 2 2 2 @ @ @ @ @ @ 2 2 2 2 @ O                 @ @ 3 3 O 3 3 3 3 3 # @ @ @ O 3 I I P Y T T ) ] ) I I _ / _ @ w / [ p O 1.@.8.@.X.p @   # X.q.9.4.O.9.0.H.N.w.*.=.;.#.) [ ) ) ] [ ] ) ",
"@ 2 2 2 @ @ @ @ 2 2 2 2 2 2 @ O @ @ O O O O 2 3 K K ' | { { { | q ' ^.W.Y.T.{ R.R.R.{ Y.E.R.] 4.q.%.L.pX& 3 ] ( ) O.3 3 p u 3 u + @ O 2 H ) u O w _ _ I Y _ Y _ _ Y ) ( ) ( / 2 P _ ) I ) ) ( ) ( ] ] _ _ / :       w ' L L ) I _ e @ @ @ @ 3 3 4 4 2 3 3 3 5 3 2 O 1 3 0 3 6 3 4 4 2 2 2 2 2 2 2 @ O O 5 5 2 @ @ 2 2 2 6 3 3 O 2 4 4 3 3 4 4 4 2 2 X @ 4 4 2 2 2 2 2 2 4 4 4 2 O O r i @ O 4 4 5 2 2 2 2 1 O H ' ' ^ ' L ' | | ( ( ( ) ] ] } Q.} Q.2.{ Q.Q.!.4 J !.!.2 w 7.<.!.7.'.^. XpXn O . @ @ @ @ @ @ @ @ O O @ @ @ @ @ 3 3 3 2 O O O O O       O O O O O O 3 O @ O O _  X+X}./ 1 O 4 ,. X XU O 3 O @ 5 5 q q q 5 5 4 4 4 4 4 3 O 0 p w w 3 q e 4 4 w 3 O Y w 4 w w 4 4 w q w q 4 0 3 1 Y I 0 @ 4 Y ' w 2 w w p P u w 5 5 / q 2 Y w q w 3 4 3 @ O Y I q 3 0 u q q P P O P ( H w w w w w 4 4 q p 0 O 3 3 5 2 e w w w w w q   @ J q w 0 q w q q q q q q 4 q q e O @ H q 2 2 e 2 w w 3 O 4 L 4 q 2 2 2 0 0 + O 0 P H H H H P p 2 O 4 p w 0 0 w e w 3 O 6 I w w w 5 5 w w w 5 q q q q w w w w 3 O 3 2 5 2 q 2 r -.o.> o   # U p i r # #   2 '.2.q I w p w q w w O O u 0 4 3   # 3 3 @ O O @ 1 2 2 2 2 2 2 2 2 @ @ @ @ 2 @ @ @ 2 2 @ 2 2 2 @ @ @ @ @ @ 2 2 @ @ O O                 # @ 3 # O 3 3 3 0 3 @ O O O P T T P p I ) ) ) T I I ) ,.U 3 @ p _ <.p O 1.,./ I 3 O @ a #.9.O.1.8.#.0.-.>.Z t , =.M.#./ [ ) ) [ ] _ P ",
"O O 2 2 2 @ @ @ O O O O O O O O O O O O O O O O O O @ 3 0 p I U L ` R.R.E.R.R.E. .W.W. . .W.Y.4.~.&.L.pX= 5 _ y Y I e I ] ' ] ) ) ( Y w 4 O #   # U U _ _ I U I _ Y J ( Y ( [ 2 I _ _ / _ _ I _ ) ( I _ Y I I e   O u 2 O w w p J P 3 2 w 5 5 2 @ @ @ 3 5 w 4 2 2 2 2 6 3 3 3 4 2 3 5 5 3 2 2 2 2 2 O @ 3 e 2 2 3 2 # 2 4 4 2 @ 4 4 4 4 4 4 4 4 4 2 O O 4 4 2 2 2 @ 4 q 2 4 5 2   O t 3 5 4 4 @ 2 4 4 2 2 2 O P ` ` ` K L ' | ` ( ] I I _ ( } Q.R.Y.} T.R.Y.!.q I !.T.2 P !.^.Q.Q.q.'. XpXb.O O 1 1 1 1 1 1 1 O O O @ @ @ O O + O O @ @ @ @ # @ 3 @ 3 p P P I J J w Q.'.K O X   O. X+X}.#   O ] t # O O 1 5 5 5 4 4 4 4 4 4 4 4 4 5 1 O 3 H H L q H H H H H 4 1 H J w 4 H H 4 4 5 5 H H 5 2 2 q ' K L L K ( p # K ' ' ' ' ' ' ' Y 1 4 ] Y Y ( K ] w O O u _ ) Y ) Y I Y w O 3 u ' ^ K K K K K L w 0 u 3 O O 3 0 2 e w P P p e q O 2 q H w w H H H 4 J q H 4 w q w 4 O O 6 w P P w H H H 4 2 2 5 H 2 3 0 2 O 4 4 # O ] L H Y H K H 2 4 Y ( K H L L K J w O 4 e I P P P w w w w w 4 H w w H 4 w w 2 @ @ 3 q 4 4 4 # #   = $.A u 1.#.#.1.#.p @ q '.[ e w p w p 2 0 3 @ @ 3 r 3 @ # 3 # # # + O O # 2 2 2 2 2 2 2 @ + @ @ @ @ @ @ # 2 2 @ 2 2 2 @ O @ @ O @ @ @ @ @ O O               O @ 2 2 2 @ 3 0 # + O O @ w P T T U P 5 ) ) ) _ ) ) ) ( Y ( ) [ _ <.@.# @ s b O O   X.O.1.9.O.A b b -.N.#.s a C t =.N.@.( [ ,.<./ I u u ",
"O O O O @ O O O @ @ @ @ @ @ @ @ @ O O O 2 2 2 1 2 2 2 2 O O O O       O # 3 0 p ' W.E.Y.Y.E.R.,.~.&.L.pXo 4 ' I ) I e P ] ' ' ) ) ) ) ( ) p p @ O 3 2 q H P _ ) I I P Y I Y ) 2 H Y _ ( ) ) ) ) ) _ Y ) _ ( ) p O 3 / P w I P P J P 2 2 w 5 q 4 2 @ @ O 1 2 2 5 q q 5 5 5 5 q 3 2 3 3 5 3 5 3 3 2 2 O O 3 4 @ 2 3 2 # 2 4 4 2 O 4 4 4 4 4 4 4 4 4 2 O O 4 4 2 2 2 @ 4 4 2 2 4 2 O + i # 2 4 4 3 2 2 2 2 3 2 2 I ' ( ( ( J ( ] ( ' | ( ) ( ' T.R.Q.2.<.2.6.6.~.3 4 E.R.2 a /.Q.<.2.8.'.}.+Xl.O @ O O O O O O O O O O O O O O O @ # # 3 3 3 3 3 3 3 # 3 p p H I H J ( Q.!.[ 6.,.@ @ @ q.+X+XN.7 O .       @ # 3 3 3 3 3 3 3 3 3 3 0 e 3 @ 0 p w w w w w 0 w 0 3 O e w q q w w q 0 w w w w q 2 2 0 I Y ' ' ' ( e O Y ( Y Y ) Y Y ] w O 2 I P H I I I 5 O O @ e 4 2 4 2 2 2 O O O @ I I I P I P P 0 w w 0 3 O O @ @   O O @ @ O O O O @ 3 0 3 3 3 5 0 2 0 4 q 2 q 4 0 @ O O @ 3 3 4 4 e 0 0 3 3 3 3 1 q q 2 5 0 2 O   3 Y ( ) u I H p e 3 P _ _ _ ) H I u 0 O O O @ 3 3 2 2 2 2 2 2 2 0 3 3 5 6 5 3 @ O O @ 2 @ @ 2   r b *.>.n r @.O.O.@.#.a # ( '.<.p p w w w 5 p 0 O O r r @ O 3 3 # # # + O O + O O O O O O O O O O O O O O O O O O O O O O O O @ @ 2 2 2 2 @ @ O O           O   O @ 3 6 2 @ # O O @ @ O 3 I T I U U P 0 ) ) ( ) _ ( _ ) ] ] ) ,.p _ @.u O     # # o #.1.3.1.a + a o.#.9.#.a a s b v.M.@.] [ T w p U O.#.",
"O O O O @ O O O 2 2 2 2 2 2 2 2 2 2 2 3 0 w w w ^ ' ' ' ' ' { } / ) _ I J H 4 4 1 4 ` ] } E.R.[ 4.&.XXpX. 4 ] K T I 0 P ] ' ' ( ( ( ( ) <.) / 3 r U p w w 4 q e u p U ] ) ) U O Y ) ) ( ) ( I Y / ( Y ) Y Y / p O 0 O._ I Y H w J P @ 2 w 5 q 4 5 3 2 2 O 1 2 3 2 2 2 3 6 6 6 2 2 2 3 3 3 3 3 4 @ 2 O O 3 4 2 2 @ @ @ 2 2 2 @ O 4 4 4 4 2 4 4 4 4 2 O O 4 4 2 2 2 @ 2 4 2 2 4 2   + y + 2 2 5 0 2 2 6 O 6 2 O q Y p q @ O 0 I ( ^ ( ( ] ( ^ Y.T.Q.Q.2.}  .T.!.2 L E.Y.O a ~.2.$.2.q.'.}.oXl.O O O O O O O O O O O O O O O O O @ 3 3 3 3 3 3 3 3 3 @ 3 p P I ( ( ( ( ( K J ] ~.'./ O O y  XIXUX+               X O O O @ O O O O   O     O O O O O O @ O O @ O O O X O O O O O O X O O @ O O     O 2 4 q 4 2 O O O O O O O O O O O   O @ O O O O 2 O O     O O O @ O O O O O O   O O O O O O     O O O O O O O O             O         O O O O O O   O O @ O @ O O O     O O O O O O O O O O     0 w 2 1 2 3 # y Z + O 5 3 @ u 3 @ O O O O @ @ # O # O       O O O O O O O O O O   @     @ O O O       O O O O O   o.>.;.;.n u 3.O.O.O.O.a O  . .[ p p w q 0 3 0 3 O O 3 # @ 3 3 3 # # # # O O + O O O O O O O O @ @ @ @ @ @ @ @ O O O O @ @ O O @ @ @ @ @ @ @ @ O O               O @ 3 6 1 @ @ O @ # # @ 5 U U I I U P 5 ] ) Y _ _ ) ) ] ) ) Y _ ,.8./ O O 3 u O.X.r #.1.1.#.y y X.#.9.w.o.r y C $.v.;.#._ I U a / #.#.-.",
"@ O O O @ @ @ 1 2 2 2 2 2 2 3 3 4 4 4 4 w w H H K K ' ' ` ` { { Y.W.W.R.E.E.E.E.@.O     O 2 L p w.M.XXpX$ 0 ] ' I P 0 P ] ] ' ( ( ( ( Y ] _ ) 2 u O.) _ Y H p 0 @ @ 3 I ) O.U # I ) ( I ( ) ( ) / _ Y _ I I _ w O u ) I H P H p J p @ 2 w 5 q 4 4 5 q 3 3 3 3 # @ @ 3 3 3 5 0 0 3 3 3 3 3 3 2 2 @ @ O O 3 3 3 e @ @ @ 2 4 2 @ O 5 4 4 2 2 2 4 4 4 2 O O 2 4 2 2 2 @ 2 q 2 4 4 2   o x # 3 2 2 2 2 @ @ O @ @ O 2 1 O @ @ @ @ 2 O J I ( ,.) ( Q.T.W.Y.Y.Y.R.E.^.L 4 '.!.@ u /.Q.q.Q.q.'. X+Xl.O O @ @ @ @ @ @ @ @ O O O O O O @ # 3 3 3 3 3 3 3 3 3 O @ 0 w w I I p I ( ( L 2 L !.'.'.<.@   M.}.  O O @ X O       O O O O O O O O   O @ O @ @ O @ @ @ @ @ @ # @ @ O @ @ O O O O O O O O @ @ @ @ X O O O O O @ # 3 3 3 # # 3 @ @ 3 0 0 u r 3 3 0 3 2 3 3 0 3 3 0 0 4 4 4 3 e 0 3 @ # # # + # # + + O @ @ O @ # 3 3 3 3 3 # # # 3 3 # @ @ @ 3 3 3 3 +   O @ 3 3 5 6 2 0 0 e 3 3 2 2 # # # # # # # # @ @ q H 2 O t N.|.  O 2 O @ @ O @ @ @ O O O O O           3 3 3 3 3 e e e e e e + #   O 3 # 3 # 3 # # 3 3 # # # r -.;.%.;.n p 1.#.O.O.O.y   '.^ P e p P w 0 5 3 @ O 3 # O r p # 3 # # 3 # O O + @ @ @ @ @ @ @ @ @ @ @ @ @ @ # # 2 2 2 2 3 3 3 2 @ @ @ @ @ @ @ @ O O               O @ 3 2 O O O @ 3 3 3 # 3 P P I I U p 3 ) ) ( Y ) ] ] T Y ) ] <.) p @ O p @.@.<.O.0 O.1.1.9.#.8.4.1.0.9.y , A 4.9.>.>.1.I I 1.#.#.-.-.-.",
"@ @ O @ @ @ 2 1 2 2 2 2 2 2 2 2 2 2 4 4 4 q w H H H L K ' ' ' ' T.T.{ ` { Y.Y.R.[     0 ( q 2 O O 8 G.OX& # I Y I P e P ] ] ' ( ] ( ' Y ( ( ) 4 3 U / ) ] ) ) _ u 3 @ O 2 0 3 O I ) ) ( ) ) Y ( ( ) _ ) Y Y _ w O p _ I I I I I I w O 2 w 5 w e 4 4 4 q 0 0 3 @ O O @ 3 3 3 3 3 3 3 2 3 3 3 3 2 2 2 O O 2 3 2 3 3 # @ 3 3 6 @ O 4 4 4 2 2 2 2 2 2 @ O O 2 4 2 4 2 @ 4 q 4 4 5 2 @ # x # 3 2 1 O O O @ O 3 3 O w ( ( [ <.[ ] ) ( @ O O 0 p / 7.!.^.!.!.T.E.R.Q.4 # 6.| @ U ^.!.6.6.q.~.'.+Xn.O 3 2 2 2 2 2 2 2 2 # @ @ @ O O @ 3 3 3 3 3 3 3 3 3 0 @ @ 3 3 4 q 5 4 I ( Y ] ( L L Q.^.'.'.p   + @ 2 2 2 3 3 3 3 3 3 3 3 3 # # # # O 3 0 5 0 5 5 w q q q q q q q q 5 0 0 3 3 @ O 3 @ 2 6 5 5 0 0 3 # # 3 0 0 3 3 3 3 3 2 3 3 @ O 3 @ 6 3 3 2 3 5 6 w w w w 5 5 5 w 4 w w w 5 5 5 2 3 2 2 # 3 3 # @ e p u 2 3 3 3 0 w w w w q q q w e e e w w w w w e @ @ q w H P P q w w w w w w w w 0 q q 0 0 5 3 O O 3 q O 7 v..Xx + P ) H I H w w P P P P P P w 0 e @ O 3 p w H w w w w w w w w 0 q O 2 w 0 w 0 0 0 0 0 0 5 3 6 r -.;.%.;.o.a O.#.O.@.#.y    X{ p w p I p p p 0 0 3 3 3 @ p U # 3 # 3 3 # O O # 6 6 6 6 6 3 3 3 2 2 2 2 2 2 2 3 2 2 1 2 6 6 2 2 # # # # # @ @ @ @ O           O   O O @ 1 O @ @ # 3 3 # # u U I I U I p 6 ) ) ) ) ) ] ) ) ) ,.<._ O O 0 O.@.@.@.) O.r @.1.1.1.$.@.q.9.X.b b o.-.9.0.>.9.9.O.O.w.9.-.*.*.-.",
"O O O O O @ 1 O 2 2 2 2 2 2 2 2 2 4 5 q q w H H 4 4 4 H Y ' ' ' ' ' ' ' { { T.!.R.O O 4 Y././.Y.] 2 O r   3 / I ) I e P ] Y ( ( Y ( ] ( ] ( ) 4 w ) _ ( ) ( ) _ O.U p 4 4 3 O O w I _ _ ) ) I Y I _ Y T Y ( _ e O _ _ I ( I I P I w O 2 w 5 q e 5 4 2 4 3 e 3 @   O O @ O O O 1 @ O O O 2 2 4 2 2 4 @ O 2 @ O O 3 @ @ @ 6 3 @   4 4 4 4 4 2 2 2 4 2 O O 2 4 2 4 2 @ 4 q 4 4 4 2 O . =   O 1 1 O 2 2 6 1 3 3 2 P Y.' ' ] ( ] { } ,.I O   O O 2 4 q e p p [ ,.@.t # H q   u !.!.!.!.w.'.'.oXl.O 3 2 2 2 2 2 2 2 2 3 2 @ 2 2 @ O @ 3 3 3 3 3 3 3 3 0 @ @ 3 3 3 0 q q I H w ( 6. .| ^ R.'.[.<.O   O 3 2 2 3 5 w q q 3 3 3 3 3 3 3 3 O 6 5 4 5 5 5 5 q 4 4 q q q q q 5 5 5 5 6 O O 3 O 2 2 5 5 5 5 2 3 # @ 3 3 3 2 2 4 4 2 4 3 2 O 4 3 0 w 5 5 5 5 5 5 5 5 2 2 2 6 5 5 5 H 5 5 5 5 4 0 5 3 3 5 3 3 2 0 p w O 2 2 2 5 w w w w q q q w 4 4 q q w w q q e 2 1 w q H q H 5 5 4 4 4 4 5 5 q q 4 4 q q q 4 e 2 O O t N.G.S $ 9.I K ] Y ( ( I I I H H I I P I I e O w w H q w w w w 5 5 5 4 q q O 2 w q w q 4 4 4 2 3 6 2 1 7 -.0.%.*.n a @.O.O.@.#.s O  X{ p I p I p p U p u 3 3 3 3 r u # 3 # 3 3 # O O # 2 2 2 2 2 2 2 2 2 1 1 1 1 2 2 2 2 2 1 2 2 2 2 1 3 3 3 3 @ @ # @ @ O           O     O @ 1 2 3 3 3 3 3 # # u U I T U I u 2 _ ) ) ) ) ) ] ,.) I 0 O 2 I <.<.) ) <.,.<.u O.<.1.#.#.1.O.a a X.*.9.9.#.9.>.#.9.9.#.9.9.-.-.-.-.",
"  O O O O @ 1 O @ 2 2 2 2 2 2 2 2 3 5 q w w w J J J J K ' ' ' | { { { { Y.Y.Y.R.Y.O O L E.Y.R.(.E.E.{.R.L O 3 p I P e P ] Y Y ( I ( ( Y ] ) ] 4 0 _ ( ( ) ( ) ) q w ) ( ) ) w P 2 q q 0 I _ _ O.I ( I Y Y _ I @ @ / / I ( I I H Y w O 2 w 5 q e 3 3 2 2 4 4 3 4 O @ 3 0 4 4 2 4 @ O O O @ 2 2 @ 2 3 2 @ 2 2 O @ @ @ O O 1 1 O   2 2 4 4 4 4 2 2 5 2 O O 2 2 2 2 @ O 4 q 2 2 4 @ O   =   O 1 3 3 q q 5 2 3 2 2 I ` ' ' } | ' ' ' [ Y O O ( ( K | Y w p q w 4 @   3 ' | 3   4 ( q.8.w. X X+Xl.O 3 2 2 @ 2 2 2 2 2 2 @ @ @ 2 O O O 2 2 2 2 3 3 3 3 3 O @ 0 u p I I H I Y ) ( | } } 6.Q.!.[.2.3 @   4 4 4 4 4 4 4 2 2 2 2 2 2 2 2 2 O 3 q q w w 5 0 q 5 5 w w q q w 5 q 5 3 e @ O 3 X 2 q 5 4 5 5 4 e 4 2 2 2 2 4 e 3 3 2 3 e @ O 3 q w q 2 3 3 2 2 5 5 w q w w 0 w 5 5 5 0 5 3 5 5 2 2 2 2 2 3 @ O 2 p 0 2 0 u 5 w q q q q q q q w q q q w w w w w H 4 2 P q w q w 0 0 q e w w w w q q q w w w w w 4 2   = N.G.Z . b.}.5 2 P 0 e 4 I P w w w 0 0 0 w P 3 O p w w q w w w w w w w w e q O 4 P w w w q w w q q 0 e 2 r 5.0.%.%.b p 8.#.O.@.1.0 O  X{ p I w p u u U 0 0 3 3 3 3 3 3 # 3 # 3 3 # @ O # @ @ @ O @ @ @ @ 2 2 2 2 2 2 2 2 2 2 2 2 2 2 2 1 1 1 2 2 1 1 1 1 @ O                 @ @ 2 2 3 3 3 3 7 # # u I P T T U u 2 _ _ ( ( ) ) _ U p 3 O p / @./ ,.8.<.) ,.O.3 / 1.8.9.-.@.t t #.9.9.-.9.4.9.9.e.4.4.-.*.-.9.>.0.0.",
"@   O O @ 2 2 1 O O O O O O @ @ O O 2 2 4 4 q q J K K ' | | Y.Y.Y.{ ' ^ ' ' { R.Q.  . 4 R.^ ` ].(.].JX[.[.L 2 O 5 w e / [ ' Y ( _ _ ( J ) ) ) 4 0 ) _ ) ) ( ) ( 4 H [ ( ( ) I [ U U 0 @ @ 2 0 p ) ) _ ) ) _ I O 3 @.I H ( I I I Y w O 2 w 5 5 e 3 3 5 q 5 4 4 4   O 2 e 4 4 4 5 0 e 3 3 3 3 2 @ 2 3 2 2 e 3 2 3 2 @ O @ @ 1 @   2 2 4 4 4 4 2 2 4 @     O 1 O @ O O 2 4 2 2 2 O O o x % 3 2 5 5 2 4 4 1 2 4 2 ( } ' ' ] ] ] ' ] } ] 2 q !.!.T.R.^.R.^.Y.E.R.{ } !.E.^.@.> @ O   P #. X XpXl.O 2 @ @ @ @ @ @ @ @ @ @ @ @ 2 @ O O 3 3 3 3 3 3 3 5 3 @ @ 0 u p P P Y Y Y Y Y | Q.T.[ !.'.'.P   +   2 2 0 3 3 4 4 e 4 4 4 4 4 4 4 4 O 3 e 4 q 4 2 3 3 3 3 0 0 4 3 e q 5 4 0 0 X O @ O # e 3 4 4 2 2 4 4 5 q q 4 2 q 3 3 # 3 3 @ O 3 2 4 2 2 0 0 3 0 3 2 e 4 4 2 2 3 3 @ @ 3 3 3 2 4 3 3 # 3 3 3 # # @ p 3 O w P 5 5 0 0 3 3 3 3 0 w 0 0 0 0 3 3 3 0 0 2 O p 3 0 3 w 0 e e e e q e 3 3 0 0 0 3 3 3 e L 2   g v.g . 0.G.c + U u p r w u 0 3 0 u 0 0 0 3 u 3 O p u e e e e e e e e e e 0 e O 3 p e 0 e 4 e e 0 0 e 0 @ r -.;.;.-.b u @.#.O.@.1.r X  X{ p U p I p p I 2 @ 0 0 # 3 r r 3 3 # 3 7 # @ O # X X @ @ @ @ @ @ 2 2 2 2 2 2 2 2 2 2 2 2 2 2 1 1 2 2 2 2 2 2 2 2 @ O           O   O # 3 3 6 3 3 @ 3 3 # 3 u T P T T U P 3 ) Y Y ) ) _ 0 O O u X.@.<.O.) ,.,.[ <.<.<.0 O.8.<.U >   t -.0.-.#.9.9.w.#.$.9.w.4.-.0.-.9.0.-.o.",
"@ O   O O 1 O O   O O O @ O @ 1 O @ @ O O O O O     O O @ # r y ( } T.E.E.E.E.(.Y.O O K ` q q !.].].{.` '.' Y.E.^   $ e ` ` ' T ( I / ] ( ] ) X 4 ) [ ) I _ O.U O ) ( ( ( ( ( ^ ( ^ ( / @ O 5 1 @ 2 3 p U O.p O p I / I I I I I I w 1 2 0 q w w 4 4 5 q q q q 5 O @ 4 4 q q 3 3 e 4 3 2 4 3 O 3 4 4 4 4 4 4 4 4 4 2 3 O @ 0 6 2   O @ @ O @ @ + 2 @ O O O @ O O O     @ @ O O O 1 % x.X 5 2 3 4 3 4 4 2 3 6 2 / | | | | | ' ' | ' [ @ ^ !.Y.R.T.T.T.T.T.T.Q.Q.!.!. .R.!.[ p 1.) 3 O % G.pX=.+ @ @ @ @ @ 2 2 2 2 @ @ @ @ @ @ @ @ # 3 # # @ @ @ @         @ #   O # 3 3 3 6 P T ]  .6.'.'.O 6 @ O 2 4 4 4 4 3 3 3 4 2 4 4 4 4 4 4 O 2 e q 3 5 3 4 3 3 e e q q e 3 e 3 q 4 q 3 O # @ 2 3 2 2 3 3 3 3 3 2 2 3 3 3 3 3 @ 3 2 3 2 O 3 3 3 2 2 3 5 0 5 3 3 3 3 3 3 3 3 5 5 3 3 3 3 3 3 3 3 3 3 3 3 3 3 O 0 w q w w 5 0 q q w w w w w w q q 0 0 0 0 q q e 2 2 P 4 q H 4 q q q w w w w w w w q q q q q q 3 w O   . ; x.B.Q + 3 Y w 2 w w w w w 0 0 0 0 0 4 p #   I P 3 w w 0 q q q q 0 0 w e X 3 w 5 w 3 w w q q q 3 3 2 = 0.-.:.M.+.b 1.O.#.O.#.p @  X{ p u U p u U p O 3 3 3 3 3 3 3 3 # 3 # 3 3 @ O 3 3 3 3 3 3 # # #   O O O O O                 O O O O       O O O O O               @ 5 5 3 3 # 3 3 3 3 @ 3 p P P U p O.3 6 ,.,.,._ 0 O @ O I ,.T / _ / <.<.[ ) [ @.O.0 U O.o # n + a w.#.9.9.#.w.9.#.w.#.9.9.0.0.N.5.m t % ",
"@ O   O @ 2 2 O @ O @ 2 3 2 2 6 2 2 3 3 q w w w w w q q 4 2 1 1 O O O O q Y 2.~.6.O   L { K 1 4 ` ^.[.L ' K ` {.{.R.K O 7 !.^ L Y ( ( ( Y ] <.: u ) _ I Y _ ) u O / ( J ( ( _ ( ( ^ ( ) 0 u O.Y _ P 3 2 O @ # O P I I I I I P H Y H 2 4 3 4 4 2 5 5 5 5 4 4 4 4 O @ 2 4 4 q e 3 q 4 3 2 4 3 O 3 4 4 4 4 4 4 4 4 4 2 3 O @ 3 6 2   + 3 2 @ @ @ @ O O O O O 2 2 2 @ O @ # # # # 3 1 % x.X 5 2 3 4 3 4 4 2 6 @ O I | [ [ | | ] ' | { | O J '.R.R.Y.T.T.T.T.T.Q.T.T. .T.R.!.2.w <.7.9.U -.$ N.N.  3 @ @ @ @ 2 2 2 2 @ @ @ @ @ @ @ @ O @ @ @ @ @ # # # 3 3 @ 0 3 @ u 4 4 q H I Y H 4 ( | '.7.O O O O 2 4 4 4 4 3 3 3 4 4 4 4 4 4 4 4 O 2 e q 3 3 3 4 3 3 3 3 q q q q e 3 q 4 q 3 O # @ 3 3 2 2 3 3 3 3 3 2 2 3 3 3 3 3 2 3 2 3 2 O 3 3 3 2 2 2 2 2 2 3 3 3 3 3 3 3 3 3 3 3 3 3 3 3 3 2 3 3 3 3 3 3 # @ 0 w w w w 0 w q q q w w w w w 4 3 q q 0 q q 3 q 2 2 P 4 q w 4 q q q w w w w w w q q q q q q q 0 0   o - G.L.F   y p 1 4 I P 3 w w w w 0 0 0 5 4 w #   p H q w q q q e w w q q q 2 O 3 H 5 w e q q 4 4 4 2 2 @ y $.0.-., A }.#.O.#.#.#.u 2  X..( I I H w I ( q 3 3 3 3 3 3 3 3 # # # # 3 @ O 3 2 2 2 @ @ 3 # @   + @ O # @ O @     O O O @ @ @ @ @ # # # # # @ O O           O   @ 5 5 6 @ # 3 @ @ 3 # 3 P P U T I ) u 0 ) p 6 O @ 3 U u I ) ) _ <.<._ _ ,.<.[ / 1.u @ r a o.-.+ a w.#.0.9.#.9.9.9.0.#.-.$.9.0.b a t y C ",
"O     O O 2 @ O @ @ @ 2 4 2 1 1 O O 1 4 q L L K E K | { Y.Y.Y.W.( ( H e 0 @     @     L Y.} ' W.L 1 ( 1 O 4 ` E.(.].[.'.    w { ' [ [ ] Y ' ( X 3 _ _ ) ] ,.) 0 3 / ( J ( ( ( ( ( ( ( ) 0 u ,.) ( ) ] O.P 2 3 @ O 2 e p I / / I w 0 @ 2 5 q H q q q q 5 5 5 5 q   X 2 4 4 q 3 3 4 4 3 2 4 4 O 3 4 4 4 4 3 2 4 4 4 2 3 O @ 3 6 2 O # 3 5 4 3 2 @ @ O O O @ @ @ O @ @ @ @ # # # 3 1 % x.X 6 2 3 2 4 4 4 2 6 6 2 ( ( ( ( ( ( ( ) ] ] ) O H !.R.R.Y.T.T.T.T.T.T.T.T. .^.R.R.Q.w ,.~.T O +XOX*.& # 2 @ @ @ @ 2 2 2 @ @ @ @ 2 2 @ @ @ O @ @ # 3 3 3 3 5 u u 5 u 5 5 )  . . . .!.!.} ( 2 2 _ 2 O + +   2 4 4 4 4 3 3 3 2 2 4 4 4 4 4 4   2 4 q 4 5 e 4 e 3 4 4 4 q q q e 3 q 4 q 3 O + @ 3 3 3 2 3 3 3 3 3 2 2 3 3 3 3 3 2 3 2 3 3 O 3 5 3 3 3 3 3 2 2 2 2 2 2 2 3 3 3 4 4 4 4 3 6 6 6 2 3 3 3 3 3 3 # @ 0 p w w w w w q q q q w w w w 2 4 3 q 0 q q 3 q 2 O P 4 q w 4 q q q w w w w w w w 0 0 0 q q q 2 0   < G..Xh . 0 }.'.w w u 3 a w w w w 0 0 0 0 w w @ O P H q w w w w w w q q 4 H 2 O 0 P w w 0 w w q q 3 3 2 @ # 9.0.x . % X.O.@.@.#.O.3 0  X[ H J I J I ( ( w # # 3 3 3 3 3 3 3 3 # # 3 @ O # 2 O O 1 @ 2 3 @ O # 3 @ 3 3 @ # @ @ @ # # # # # 2 3 3 3 3 3 3 3 O O               @ 5 5 3 @ 3 3 1 3 3 @ # u P U T T ,.P O O O   O p U #.u p ] ,.<.] ) ] <.<.[ ) 8.U O   a #.#.9.# X.9.#.9.9.9.9.9.-.-.9.N.9.#.b s s C @.#.",
"O       O 2 @ O @ O @ 4 4 2 1 1 @ O 1 w H L K K K K K ` { Y.W.W.W.R.W.Y.R.T.{ { e . % L ` ' K Y.R.{ 4 1 @ O L R.E.W.].JX[.@ + 2 J I I ) ] <.[ 0 r / / I P I ) T @ / ( ( ( Y ( ( ) ( _ ) 5 5 ) J ( ( ] [ I 2 I ) I p e 2 @ 4 w P I p 2 3 3 4 q 4 3 3 4 4 3 q q q   X 2 4 4 4 4 3 4 4 3 2 4 3 O 3 4 4 4 4 2 4 4 4 4 2 3 O @ 3 2 2 O @ 3 q q q 3 3 e 2 2 2 2 @ O O @ O O O @ @ # # 1 % x.X 6 2 3 2 4 4 q 2 6 2 2 ( | [ ] | | | ] | | [ 2 I !.R.R.R.!.!.R.T.R.R.!.!.Q.R.Y.T.6.w ,.~.T e $.+XpXQ O 2 @ @ @ 2 2 2 @ @ @ @ @ @ @ @ 2 2 @ # 3 3 0 0 3 3 5 5 w w u 5 4 )  . . .{ {  .6. ._ I [ O + # +   2 2 4 4 4 3 3 3 2 2 4 4 4 4 4 4 O 2 4 q 4 5 3 4 q q 4 4 4 4 q q e 3 q 4 q 3 O + @ 3 3 3 3 3 3 3 3 2 2 2 3 3 3 3 3 2 3 2 3 3 O 3 2 2 2 2 2 2 2 2 5 5 3 3 3 3 2 2 2 2 2 2 6 2 6 6 2 2 3 3 3 3 # # O 0 w w w w 0 w q q q q q w w w 3 5 q 0 0 0 q q q 2 O P 4 3 w 5 q q q q q q w w w w 0 0 0 0 q q H 2   . |.S . y r w.X.O 0 I 3 P q q w w 0 0 0 0 9 u # O I H w e w w q q q q q q w @ O 3 p 5 5 3 4 4 4 2 3 @ @ O s 9.t % *.o.  7 1.O.#.@.3 4  X6._ ) ) ( Y _ I w 3 3 3 3 7 7 7 7 3 3 # 3 3 # @ # 2 2 1 1 2 2 @ @ O @ 3 1 6 3 @ # 3 # # # 3 @ @ 3 1 1 1 @ @ @ 2 2 O O               @ 5 5 6 3 3 3 3 2 3 @ # u P U T U P 3 O O # + ) O./ O.3 P ,.,.] ) ,.7.<.) ) 8.X.O   r -.9.X.9.# o.9.#.-.9.9.9.-.9.-.9.9.X.a # #.#.e.e.#.",
"@     O @ 1 @ @ @ O @ 2 4 2 2 2 # @ @ 3 0 4 q J Y I J K ' | { Y.W.R.W.W.W.W.W.E.L     L { ] I ` W.Y.} ) O E ^.W.T.E.(.JXPX[.O . @ X O 0 p p 0 O 3 / O.) ) ) O.U O I ( ( ) Y ( ( ) I ( ) 0 q ) ( ] ( Y ( P O _ @.) _ I p 0 4 2 2 p 0 O @ 2 2 q q 4 4 4 4 3 3 4 3   X 2 4 4 4 4 3 4 4 e 2 4 3 O 2 4 4 4 4 2 2 2 2 4 2 3 O O 3 2 2 O @ 4 4 q q e 3 4 4 4 3 3 3 2 2 2 2 @ @ @ # # # O % x.O 6 2 7 2 2 4 4 2 6 6 2 ( | ` ` ' ' ' ' ' ..( 2 e T.Y.{ { T.T.T.T.T.T.T.T.T.Y.R.!.<.0 8./.3.O #.}.+X0.O 4 @ @ @ @ @ @ @ @ @ @ 2 2 2 2 2 2 @ # 3 3 3 3 3 3 3 3 3 e p 0 @ I }  .Q.Q.Q.Q.Q.Q.2.7.'.@ #   O O 2 2 4 4 4 3 3 3 2 2 4 4 4 4 4 5 O 2 q q 4 5 e 4 q 3 4 4 4 3 5 q e 4 q 4 q 3 O + @ 3 3 3 3 3 3 3 3 3 2 2 3 3 3 3 3 3 3 2 3 3 O 2 3 3 3 3 3 3 3 0 3 3 3 3 3 3 3 3 2 2 2 2 2 3 3 3 2 2 2 3 3 3 @ @ O 0 w q w w 5 w q q q q q q q w 0 0 0 q q q q q e @ O P 4 3 w q q q q q w w w w w w w q q q q q E 1 #   g $ t O.*.N.+.# 2 p w 2 q q q 0 0 5 5 5 5 3 + O I P w e w q q q q w w w 0 @ O e P 5 0 0 q 3 3 3 3 3 @ @ : t - S M.M.r # 8.O.#.1.0 2 q.2.X.U u 3 2 3 3 # # # # # # # # # # # @ @ # @ O + 2 2 @ @ 2 @ @ @ O @ 3 1 6 6 @ # 3 3 @ @ 1 @ # # 2 2 3 @ @ @ 2 2 @ O           O   @ 6 5 6 3 3 3 5 2 2 # 3 U R U r # O 1 u U T u ) ) U ) u I [ ) ] [ ) _ [ 8.,.I   + X.O.#.9.#.9.o #.9.-.-.-.#.#.0.w.0.o.t r b #.;.0.5.4.-.",
"O       O O O O O O O O O O O O     O O O O O 1 O O O @ 4 q q q w Y ] | Y.R.R.E.L   O L Y.' 4 q ` R.^.L 1 | W.W. .R.E.(.KXLX^ . u #     @ @ @   O 0 w I ) / X.r O _ ) ( ) Y ( ( ( I ( ) w w ] ( ( ' ] <.,.2 ) I P I _ [ ] ( H w 2 O O O O @ q w q q q q q 3 4 4   X 2 4 4 4 4 3 4 4 4 2 4 3 O 2 4 4 4 4 2 2 4 2 4 4 3 O O 3 2 2 O @ 3 4 4 4 4 3 2 4 4 4 3 3 3 2 2 2 2 @ @ # # @ O & x.O 6 2 7 2 3 4 4 2 3 3 O I | ' ' | { { ' ' ..( O 4 Q.R.Y. .| } T.T.T.T.T.T.Q.T.!.!.( 2 8.6.<.O 9.w.+X|.  O @ @ @ @ 2 2 @ @ @ @ @ @ @ @ @ 2 O @ # 3 3 3 3 3 0 3 # 3 p p # w } } { } 6.Q.2.{ ) [ ~.@ @ + +   2 4 2 4 4 3 3 2 2 2 4 4 4 4 3 3 O 2 q q 4 5 3 4 3 3 4 4 3 3 5 q e 4 q 4 q 3 O + @ 2 3 3 3 3 3 3 3 3 2 2 3 3 3 3 3 2 3 @ 3 3 O O 3 3 3 3 3 2 3 3 2 2 2 2 2 3 3 3 @ 2 2 2 3 3 3 3 2 2 2 3 3 @ @ # O 0 w q w w 0 w q q q q q q 0 0 w 0 q 3 3 3 q q e @ O I 3 3 w 5 0 0 0 5 w 0 w w w w w w q q q q 4 q @   . n 0.).|.|.}.w.p 2 4 q 0 q q 5 3 3 3 6 6 @ O O u w 0 e 0 0 0 0 0 5 3 2 3 @ O 3 0 5 0 0 3 2 2 2 3 @ @ O   t *.n.S %.r r 1.X.@.1.u O w w # # @ O @ @ O + # # # # @ @ @ O @ @ O O O O   O @ @ @ @ @ @ O O O 2 2 2 3 3 @ @ 2 2 2 2 2 2 2 @ 2 2 3 @ 3 3 2 2 @ O           O   @ 6 5 3 3 3 3 3 1 3 @ 3 u 3 6 o O 3 P ! 3.,.P I T U O.0 P ] ) <.) ) ,.<.<.p O r X.9.9.#.9.9.e.= -.9.-.-.9.w.w.0.o.t % t 9.9.0.&.:.;.4.9.",
"        O O O O O O O O O     O O O O O O O O O O @ @ @ O O O O O O O O 4 w K ] 2   + K W.{ ` W.Y.L Y.J 2 | E.].W.` R.W.(.LX{.X T O.r # 5 P T p 2 4 O O O # r # O _ ( ( ) ) ( ( ) ( ( ( 5 5 ) Y Y ( Y ( _ O ) _ <.) Y I I I Y ) H w 2 2 @ O O O 2 3 e e q e 3 3   O 2 4 4 4 4 3 4 4 4 2 4 3 O 2 2 2 4 4 4 4 2 2 4 2 e O O 3 2 2 O @ 3 4 4 4 3 2 4 4 4 4 4 2 2 2 2 4 2 O O @ # @ 1 < b.O 1 @ = 2 3 @ @ O 3 # O w ] ( ( [ [ [ ] ) ( I O 3 <.Q.} Q.} T.Q.Q.T. .Q.!.T.T.T.2._ 0 1.2.X.0 9.H.+XM.  0 O @ @ @ 2 2 @ @ @ @ O O O O @ @ @ @ 3 3 3 3 5 5 0 3 3 3 I I e p } } } }  .!.Q.Q.} 6.!.4 @ 7 #   2 4 4 4 4 3 2 2 2 2 2 4 4 4 5 3 O 2 q q 4 5 3 4 3 3 3 3 q e q q e 3 q 4 q 3 O # @ 2 3 2 3 3 3 3 3 3 3 3 3 3 3 3 2 @ 2 @ 3 0 O 2 O O 2 2 @ O O O 2 2 2 2 2 @ @ @ @ 2 2 3 3 3 3 3 2 2 2 3 3 @ @ # O 0 w q w w 5 w q q q q q q q q q q q q 3 3 3 q 0 @ O I 3 3 w 0 w 0 0 5 5 0 w w w w w w w q q q 0 w O O + N.+XOXZ + 7 X.p 3 w H q q q 0 5 5 5 5 0 O     3 6 3 @ 3 3 3 3 3 2 O O O O   O O O 2 O O O O O O O O O o ;.z.l.l.>.o u 9.@.O.@.U 3 3 3 + r u H ( I r r u u u u r r r 7 # # O   O       @ O O   O       O 3 2 2 6 2 @ @ 2 2 2 2 2 @ @ @ @ @ @ @ @ 2 2 2 @ O               @ 6 6 3 3 3 # 5 2 6 @ @ # O # + 3 O.,.) ,.R u ) ] U ) 3 P ,.[ _ ] 8.8.U # 3 U 9.9.9.9.9.9.9.#.r 9.-.9.-.w.9.-.b # .   t H.*.Z -.-.-.9.9.",
"        O O @ @ # @ O @ @ O O O 1 1 2 1 2 2 4 2 4 5 w 5 5 5 w p H H q 2 4 4 2 2 O   . L W.R.E.].E.E.` 2 O 4 E.(.].R.[ ..].JX+XX ,.q./ 4 2 J Y w P ) _ I 0 # +   O 0 e H ) ] ] ( ] ( ( ( 3 5 ] ( Y ) ( Y ) O <./ ( I Y ) ] Y I J K I q 0 3 O @ O O O 2 2 e 3 4 3   O 2 4 4 4 4 3 4 2 4 2 4 3 O 2 2 2 4 4 4 4 2 2 4 4 e O O 2 2 2   @ 3 3 3 3 3 3 2 4 4 4 4 4 2 2 2 4 2 O @ 3 3 # 1 , b.O 1 @ # @ O O O O @   O 2 2 2 2 q 0 5 2 2 O #     1 1 4 K ^ ' ' K L L ' } }  .K H O.U q.7.#.O 9.}.+XN.  @ O @ @ @ @ @ @ @ @ O O O O O O @ @ @ 3 3 3 3 3 3 5 3 3 2 I _ w P J (  .6. .T.T.Q.|  .'.q O # # O 2 2 4 4 4 3 2 2 2 2 2 4 4 4 5 3 O 2 q q 4 5 3 4 3 3 e e q e q q e 3 q 4 q 3 O # @ 2 3 2 2 3 3 3 3 3 3 3 3 3 3 3 2 2 3 3 p U 0 p 2 3 p I p p p p 0 0 0 3 3 3 2 2 @ 2 3 3 3 3 3 3 2 2 2 3 3 @ @ # O e q q q q 5 5 q q q q q q q q q q q q q q q q 0 O O I 3 3 w 0 w 0 5 5 5 0 w w w w w w w w q q 0 X @ X   ;.+X&     O # O 1 5 2 q q q 0 u p u P p @     # @ @ O O O O O O @ @ 3 3 0 # @ 2 1 3 O 2 2 2 3 3 3 @ @ . ;.l.l.=.=.% O.9.1.#.1.1.1.O.@.u / ( Y ] Y w u 3 3 3 3 3 3 3 3 0 0 @   O O   O                 O # @ @ 2 @ @ @ 2 2 2 2 @ @ @ @ @ @ @ # # @ @ @ @ O               @ 2 6 6 3 # @ 4 2 3 @ O # 3 a 9 5 ,.T R 3.a u ) ) I ) 0 I ,.] <.,.p O @ p #.w.#.9.#.9.1.#.w.#.r w.9.w.w.9.a + r a 0.b o *.x ;.9.9.4.4.8.",
"          @ @ O @   O O O       3 O   O   O O     O     O O O # 2 4 q w P I w 2   1 4     1 3 p (.[.].K @   O K E.JX].Q.R.JX[.  p q.~.,.O 3 U U 4 I [ [ ] ] ) I J 4 O O O O # u P ) ] Y 2 w ] Y I ( Y ) T 3 O.T Y T T ) ( Y Y I H w w q q q 5 5 @ @ O O O O O O O O @ 2 3 3 3 3 4 4 4 4 3 2 1 O e 4 2 2 4 4 4 4 4 @ 3 O O @ O 2 O @ 4 q 4 4 4 4 2 2 2 2 2 2 2 2 2 3 @ O 2 @ O @ O 7 o.. O O O O O O 2 1 2 2 O 0 # O O @ O   O H J I J H w 4 @ O O O       + @ p q O O @ 3 0 X.}.O.# 9.H.+X9.+ # @ @ @ 2 2 2 1 1 @ O O O O O O O @ @ 3 3 3 3 3 r 0 3 # @ I Y 4 J ) P 4 e / _ _ ) ) 6.'.@ # # O   2 2 2 2 2 4 4 4 w 4 4 4 2 4 q 5   @ 3 w 4 4 4 2 4 q q 5 5 q q q 4 w q 5 w 1 1 T O e 3 2 e 3 2 3 2 0 5 2 3 3 2 2 w I I I T I p I @ p U U U U U / / / U O.U O.u @ # @ O + # 3 3 + 3 # @ # # 3 # @ O I w 4 w 4 4 w 5 w w 5 4 q q q w w q 5 5 4 4 5 e O @ w p 5 4 5 u 5 5 w P H 5 H w w q w w w q q H 2     + u 3 # = - v.).W H I q 4 e 0 u p p w e X       O X + X @ + .   O Y J H w w w w w w w w q q q 5 0 q 5 3 . M.b.D S >.o t 9.1.<.@.O.3.<.I p ( O.P { ] 9 r u 7 3 3 7 3 3 7 3 3 # O O O   O     O O O       2 2 2 2 6 6 6 6 3 @ @ @ # # @ # 2 2 2 2 3 2 2 2 O                 O 5 6 2 # @ 6 3 @ # 3 3 u p p 3 U ) T ,.,.u u ] Y T ) 3 O.1.O.3 @ @ O U 9.9.1.1.1.9.1.q.1.w.U t }.w.$.t   r O.4.e.$.#.o o.w.8.9.9.9.-.-.",
"          O O                   O     O O O             O O   O O O O O O O O   O 2.^.O O 5 T @   [ E.W.].^.L 1 @ ] W.].[.[.[.4 O p U ) 4 3 3 3 q P ( ( ( ) ) ( [ ) ) _ p 3 O O O O 2 e 2 4 _ ) _ ] ' Y P O ) ] ,.] ) I J J Y ( I P H w w w 5 5 # 3 3 3 @ @ # # O O O @ @ @ @ @ 2 2 2 3 6 3 2 @ 2 2 2 2 4 4 4 4 4 @ 3 O O 2 @ 4 O X 2 4 4 4 4 4 2 2 2 2 2 2 2 2 2 3 @ O 2 @ O @ O   =   @ 3 @ # 2 2 3 6 3 3 2 p ) Y ( ) / e ( Q. . .6.6.6.<.[ [ ) ( ) _ u ) )  .[ ) _ I P 3 O 3 O @ }.}.+Xw.O O @ @ @ @ 1 1 O 1 @ O O O O O @ O O O @ 3 3 3 3 3 3 3 # @ I ) w / I H 4 2 q 4 4 w I [ 7.@ @ # + O 2 2 3 3 3 3 3 3 q 2 4 4 2 4 q 3   # 0 w 5 w q 4 4 4 5 5 5 q q q 3 w 3 3 0 @ @ U O 3 3 @ 3 2 2 5 3 3 2 @ 2 3 u U P I P p P w w P @ u U I U U U U U _ U ) U O.3 @ 3 r u 3 # @ # 7 @ # # # # # 3 3 2 _ P q w w w w 5 w w 5 5 q q q q q q q q e 3 3 @ O O q w 4 5 q 0 3 6 5 w w w H q q q q q q q q 4 2 @   O O + b x =.N.N.q.] Y _ ) I 0 3 2 2 2 2 0 e 3 3 3 3 @ @ O + .   O Y H w 0 0 w w 0 0 0 0 q q 3 3 5 5 3 3 7 *.D =.>.-.  b w.1.<.@.#.1.<.) I ( ) P } ( 9 r u 7 3 7 7 3 3 7 3 3 @   O     O     O O O       2 2 2 2 6 2 2 2 O O O @ @ @ @ # 2 2 2 2 3 3 2 2 O                 O 5 6 @ @ O 1 O O @ # 3 u p P 3 P ) T ,.,.P U ] T _ ) 3 u r @ 0 p O.a O.1.1.1.9.9.8.8.q.1.q.X.A $.+   x Z -.q.#.e.#.9.% Q 0.4.#.9.9.9.9.",
"                    O O       O O O   O O O O   O O O O O                       O ] ~.2 O P ( 2 $ # ] 4 L [.JX].L   o q ].LX[.# r 3 O I I H w w P ( ( ( ( ] ] _ ( ) [ ) _ U u @ _ w 2 e @ @ / @.( ] ' ] I 2 ) } I Y ) ) ( Y J J H H w w q q 4 4 3 3 3 e 4 2 2 2 @ @ @ @ @ @ @ @ O O O @ @ @ @ O 4 4 4 4 3 4 3 2 4 2 2 O O 2 O 2 O @ 2 4 4 4 4 3 4 4 4 4 4 4 4 3 2 3 @ O 2 2 @ 2 2 O = + 3 q 2 3 2 2 3 2 2 2 2 P ' ' ` | ] q ' R.{ } T.T.T.T.T. .Q.Q.Q.6.Y 2.} T.{ Q.!.!.!.!.<.) 0 3 }.H.+X9.  @ @ X O O O O @ O O O O O O @ O O O O @ # 3 # # 3 u 3 # @ I I 4 w 2 I [ 6.6.7.[ ,.(  .!.O O @ @   O O @ @ 2 2 2 2 3 2 4 3 2 2 3 3   O @ 1 2 2 2 @ 3 3 3 3 e e 0 0 q 0 3 3 0 2 @ p O 3 3 3 3 3 2 3 3 # 3 3 3 @ 3 p P P p w I I I T O u U U U U U U U U U U T O.@ @ u U / p 3 @ @ # # # 3 3 # @ # # O u 3 @ 3 2 2 2 3 5 0 3 3 0 0 3 3 3 3 3 3 3 3 3 @ O @ e 3 3 0 5 u 3 6 5 5 u u u 0 0 0 0 0 0 5 5 w O       O . b N.|.N.v O H ( 2 e q e 5 w p P P P P P P P 5 5 6 O + .   O Y H q 0 0 q q q q q q q 3 3 3 5 3 3 6 # >.n.=.S $.. Z w.1.#.1.1.1.<.[ T ( ) P } ' 7 r u 7 3 3 3 3 3 3 3 3 @   O   O O     O O O       @ @ @ 2 2 2 @ O O O O O O O @ @ @ 2 2 2 2 2 2 @ O                 O 3 2 O O O O 2 w 5 2 3 7 5 p 3 P ! ,.,.T u W I _ O.) O O r U O.#.9.U O.#.1.8.@.q.q.X.4.~.9.+   a #.;.N.v.A 9.#.9.9.0.= n 0.4.9.9.9.9.9.",
"          O O   O O + @ O O O @ @ #   O 3 2 O 0 3 2 O O O O @ @ O O O O O         1 L q O T E w ` {.6.> % 1 ` JXJX[.O X 9 JXJXd $.y O I ) ) ) ] ) ) ] ( ] ] ) ( P ( ) I I U u # / _ I ) I 2 2 @ P I Y I 0 O U ) ) ) ) ( Y Y J J J J H H H H H w @ 2 4 4 2 2 2 2 2 2 2 2 2 2 2 3 O O O O @ O O O 4 4 4 2 2 2 3 2 4 2 3 O O 2 O 2 O @ 3 4 4 4 4 3 4 4 4 4 4 3 3 3 2 2 @ O 3 2 @ 3 2 @ a 7 0 4 1 3 2 2 2 O 2 2 1 p ] ' ` ' [ 4 ' T.{ { } } T. . . .T.T.T.{ L } | | | Q.!.!.!.'.!.!.8.3 9.w.+Xw.  + O O O O O O O @ O O O O O O O O O O @ 3 3 3 3 3 # @   O 3 2 O O H [  .[ [ [ 2.7.<.6.'.2 O O @ O O O O O O O O O     O O O O O O   O O O O O O O O O O O O O O @ @ @ O O @ O O 3 O @ 3 3 0 3 3 @ 3 @ 3 3 # @ @ @ P I I I ) ) _ ) @ u U U U U U U I I U p ) U O 3 I I U U U p 3 O + + 3 3 3 # # @ O # O O @ O @ O O @ @ @ O @ O O O O O O O O O O   O O O O O O O @ O O O @ @ @ @ O O O O O O O O 1 O O X O O . o.|.z.& . U Y w Y p w p P I U I I H H I I P P u w 3 # +   O I H w q q q q q q q q q 3 3 3 5 5 3 6 @ 0.v.Z x -.= Z w.#.@.1.1.1.<.<.,.( U P  .( 7 r u 7 3 7 3 3 3 3 3 7 +   O   O O   O O O O       @ @ @ # @ @ O O O O @ O O O O   @ @ @ @ # @ @ 1 O                   @ @ O @ @ 3 Y [ I 6 u u 3 u 3 U ) ) ,.T 5 p / u 3 u u U O.#.1.1.1.u X.1.1.1.8.1.1.q.w.#.W i -.0.N.M.N.z.t 9.4.0.0.N.- n 0.9.9.9.9.9.9.",
"  O O     O O       @ O O O O @ 3 @   O 5 w 4 w q 2 2 O O @ 0 0 0 e 4 2 2 O O O   1 H 0   ] L 4 JXLX'.O U @.O 5 R.LXKXI   e +X7 o.A O U <.] ] ( ) ) ( ] ] ] ( I 4 ( [ ( _ / p @ P Y I ) ) P w 2 O O O O O   U O.,.) ) ) ) ) I H H H w w w w q 5 2 4 4 4 2 2 4 3 2 2 2 2 2 2 2 3 3 2 2 @ # # @ @ O O O O O @ @ 3 2 2 3 @ @ 3 2 2   O 3 4 4 4 2 2 4 4 4 4 3 3 3 3 @ 2 @ O 3 2 @ 3 O @ b # 2 2 2 5 3 2 4 2 2 2 2 I ] ' ' ' <.2 } T. . . .6.6.Q.Q.Q.6.6.!.[ w <.} {  .T. .} T.T.T.!.~.O O.w.+X}.  @ O O     O O O O O O O O O O O O O @ 3 3 3 3 3 3 # @   + u 0 5 3 ) 6.6.[ [  . .6.[ !.'.2 @ # # @ @ @ @ @ @ @ @ @     O @ O 1 2 @ 3 3 @ @ @ 3 3 @ @ O O @ # @ @ # @ @ O @ @ @ O # @ @ @ @ # 3 3 O # @ @ @ @ r u @ ) ,.) _ ) ) T I @ p U U U U U U I I U p O.U O u P w p I ) ) I w 3 @ # # # 3 3 # O 3 @ # # # 3 # # # # @ @ @ O   @ @ 3 3 3 # @ @ @ @ # # @ @ # @ O O O @ @ @ O O O O 2 2 @ O O @ 6 @ 3 3 3 # + x N $ c M.O.Y <.I ) _ I P I P P I w H p p w 0 0 0 5 3 +   O Y H w 0 0 q q q q q q q q 3 3 3 3 3 6 # y , c =.-.o %.w.#.@.1.1.,.<.<.<.( _ P  .' 7 s u 7 3 3 7 3 3 3 3 7 # O       O   O O O O       O O @ @ @ @ O O O @ @ O O O     @ @ # # @ # @ @ O                   @ @ O @ # u ] [ w O 5 u 3 u 3 U ,.T ,.,.u r u 3 0 U @.#.#.O.O.O.#.a #.4.1.1.q.1.9.w.#.b Q w.0.0.).N.|.b.- $.M.0.0.N.- Z 0.4.-.-.4.9.9.",
"@ @ @ O             @ O O O @ 2 3 @   O 4 4 4 2 4 4 0 3 O O e 4 w q q q w 4 O O   O Y @ X I L J Y.} 1 Y K ^ ) / 4 6 [.LX^.1 ^ ! b o.@ P ] ( ] ( ( ( ( ] | [ ( ( 2 I ) ( ( ,.U 3 Y ] Y J Y T ] ] X.p I u #     O 2 3 0 I ) ) I p I P w w q q 4 3 2 4 4 4 2 2 4 3 4 4 2 2 2 2 4 4 3 2 2 3 3 3 3 3 2 2 1 O O O O @ O O @ O O @ @ 2   @ 3 3 4 4 3 3 4 4 4 2 4 4 2 6 @ 2 @ O 2 2 @ 3 O # i   O q 5 5 4 2 4 2 2 2 2 P ( ' ' ' ,.O [ T.[ [ [ } 2.2.2.6.6.6.!.<.w <.7.{ }  . .Q.!.Q.Q.!.~.@ 1.w.+X X  @ O O O O O O O O O O O O O @ O O O @ 3 3 3 3 3 3 u 0 # u U U U p q ( [  .6.6.[ [ [ !.'.2 @ # 3 # 3 3 3 3 3 3 3 3 + # 0 p w w p w w w 0 3 3 0 0 e 0 3 3 0 0 0 0 0 0 e 3 0 0 0 3 0 # @ O O O # 3 # 3 2 0 0 u ) U O T ) T I I T Y Y O u U U U U U U U U U U / 3 3 P I I I I I _ ) ) U u 3 @ @ # # # + 3 # 3 3 3 u 3 r u u r r r 3 + 0 0 u u u u 0 0 0 3 0 u 0 0 u 0 3 3 r r r r 3 @ 3 0 u u 0 0 0 0 P 3 2 2 p u + + m z.G.N.U H Y I I I I I I P w 5 p p w q e 4 4 4 4 # + O O Y w 3 0 0 0 0 0 0 5 5 q q 3 3 5 3 3 3 # t g =.M.-.. %.w.#.@.1.@.O.<.<.<.[ ) P  .' 9 r u 7 3 3 7 3 3 3 3 3 # O O     O   O O O O       O @ @ @ @ @ @ @ O @ O O O @ @   O @ # # @ @ @ @ O                 O 3 3 @ + # u ] T 3 O 3 u 5 p 3 U ,.T ,.3.P 3 # u @.#.#.U O.1.@.#.1.a O.1.3.8.4.#.#.b = :.w.w.0.w.).N.B.z.m ).N.0.>.M.- Z 0.e.9.9.9.0.w.",
"O @ @ O               O O @ 3 2 3 @ O 2 4 L L q H w P 0 O O q 2 2 2 2 4 4 O O O   O J 0 # H L 6.R.2   . # 5 R ! 1.C 3 { LX].2 h X.#.@ w ) ( [ ] ) ( ] ] ' ] ] ) ( ] ] ^ ( ) p + H ] Y Y ) I I I U P ] ) X.s u 0 @ @ O O @ 0 p U I P P p p 0 0 0 2 2 4 4 4 2 2 2 3 4 4 4 4 4 4 4 4 2 2 2 3 3 3 3 q 3 3 3 @ O O O O O @ O O @ O O   @ @ 2 2 2 3 3 2 2 2 2 2 2 2 2 2 2 @ O 2 2 @ 2 6 3 a . @ 5 2 2 2 2 4 2 2 2 2 p ] ' | ' <.O } T.| { } } 6.6.Q.Q.6.} 6.[ q ] 6.{  . .}  .!.Q.Q.!.!.4 8.9.+X X  @ @ @ O O O @ @ @ O O O O @ 2 @ O O @ @ 3 5 6 3 5 q # O 0 P P P 3 [ 6.6.[ [ [ [ 7. .!.'.2 O # # @ 3 3 3 3 3 3 3 3   @ 3 w 5 4 0 e q q 3 4 2 0 0 0 3 O O 3 3 3 2 3 3 2 3 3 @ # 3 # # @ # # @ 3 p u P w T ,.) ,.) 1 H Y I P I _ _ _ O u U U U U U U U U p / / O u U ) ) _ I I I _ ) [ ) U p 0 3 # + O # # 3 3 # 7 3 3 3 3 3 3 3 # O 5 5 3 3 3 3 3 3 5 1 3 0 0 3 0 3 3 0 3 3 3 3 @ O 2 3 5 0 3 3 3 3 5 q p w 4 1 O t .Xz.n.M.O.Y ] T I Y ( ( ( H 4 O I P w w w w w q 4 3 O O @ Y w 3 0 0 0 0 0 0 0 0 q q 4 3 3 3 3 2 + *.l.z.;.-.. Z 0.-.@.#.O.O.<.[ ,.[ ) P { ] u s r 7 3 3 3 3 3 3 3 3 # + # + @ @   O O O O       # # # # # # @ @ O @ O O @ # @ O   O # # # @ @ @ O                 O 6 5 3 # @ 5 U u 3 3 r u 0 P 3 U ,.T ,.,.u 3 p U O.U 1.O.1.O.1.1.1.u W 1.3.3.4.i W +.t -.0.0.N.w.N.N.|.N.%.N.M.0.>.M.- n 0.e.9.9.9.#.#.",
"O O @ O               O O @ 3 2 @ O O 2 4 E | [ H 5 P 0 O O P w w w w p 3 @ O     4 H e X ] L Q.'.O .   O O O u ! Y.Q.+ ..LXK h W #.O P [ ( ( ( ( ( ' ] ' ( ( ( ) ( ( ^ [ <.U + P ) I I _ p I / [ K ' K P w I ( a U p r @ O O O @ @ O O O @ @ @ O @ 3 3 4 2 @ @ 2 2 2 2 4 4 4 4 4 4 4 4 2 2 2 2 2 3 3 3 3 # @ @ 3 # 3 + @ + O O   O O O O O @ @ 2 2 2 2 2 2 2 2 2 2 @ O 2 2 O 2 O + n = 3 2 O @ 2 2 4 2 4 4 2 P ' | ` ` } 1 T.R.| { } } Y.Y.T.Y.Q. .Q.6.w ] 6.{  .[ ] ] } Q.!.!.6.@ @.9.pX X  O 1 O O O O @ @ @ O O O O O O O O O @ 3 3 5 3 3 5 0 3 @ u I P T 0 ( [  . .2.{ [ <.[ !.'.2 O # 3 2 2 2 2 2 2 2 4 2 O @ 0 H H w w e 4 q q 4 4 q q w 0 2 2 3 0 3 3 5 3 6 3 0 3 3 3 3 @ # u p 0 u U U ) P _ ,.) ) ) w w ( _ Y _ ) _ Y @ u U T ) U U U T U u X.U O U T U I I I _ ) ) _ ( ) O.O.U u 7 3 @ # 3 7 3 # 5 3 3 3 3 3 r r 3 @ p w w w w w w 0 u 2 3 p p w 0 0 0 0 5 3 3 0 3 O 2 5 w w w 5 5 0 H 4 4 q H 5 @ i b.B.b.-.O.Y Y T T I I I ( I P P P P P P Y Y Y Y q 3 O O O Y P 0 0 0 0 0 0 0 0 0 q 4 4 3 3 3 3 2 7 ;.v.=.=.;.% n 0.-.#.@.O.,.<.[ ,.[ ,.P  .' u r r 7 3 3 3 3 3 3 3 7 3 # 7 7 # #   O O O O       3 3 3 3 # # # @ @ @ O O @ 3 @ O   O # # # # @ 3 O                 O 5 u 7 3 O 5 3 @ # u u u p P 3 P ,.) ,.T 6 3 u O.1.U O.U ,.,.@.O.O.a #.4.O.U i b ).).v 5.M.5.w.N.N.N.|.v.Z w.0.0.>.N., Z w.9.9.#.W r # ",
"O @ @       O         O 2 2 4 2 + O 2 4 5 2.!.^ 2 4 w I O O w P K ( U 3 O 2 w O   7 L P 3 ^ 1 [.[.O     O O O   + # -.q.w !.<.p o.O.O I ] ( [ _ ( ( ] ] ] ] ( ( ( ( ( ] ( ( ] 2 u _ ( ^ _ : U a ( ( ] ) w @ 0 O.U p U p # u ) K I I K K Y I O # 3 @ @ @ O @ 3 @ O @ 4 4 5 4 2 2 2 2 2 2 2 2 2 2 @ 2 3 3 6 2 @ @ 4 4 4 4 3 3 3 3 3 3 3 3 @ @ O   @ O O O @ O O O @ O O O @ @ @ @ O = z.; O @ O 6 4 O 2 1 2 2 1 H ` ' | ' { 4 | T.] ] 2.!.} { Q.}  .T.T.6.q ,.{ {  .6.e w  .'. .!.~.O <.7.+X|.  # O 3 2 O O 2 3 + X O O 3 @ O 1 1 O O 2 3 3 3 3 3 3 3 @ 3 I P P w [ [ 2.2.[ [ [ 6.} !.'.O @ 9 @ 3 3 3 3 3 2 2 3 3 @ O 0 w 4 q 0 0 0 5 3 3 3 0 0 0 q 2 2 3 3 3 3 3 3 3 # # 3 3 @ # P I ) ) p 2 0 O.( ,.<.) _ ) _ I X _ T ) I ) _ _ X u <.) P U u U T p p X.r @ X.W T ) ) U P I ) ) ) ) ( | ] ) O.3   + # # 3 3 5 6 # 3 3 0 w 3 +   0 u w 0 5 u u P 3 3 3 3 5 u 0 0 0 3 0 0 3 0 e @ @ 0 0 4 q q q q 5 5 0 q q w O t N.=.=.-.P ( ( ( I / _ / I I I U U u q w w w w P u @ 3 @ O / 0 q 0 0 0 0 0 e e e 5 5 3 3 3 5 3 @ # z.=.Z &.-.o &.N.#.e.,.<.,.2.[  .[ ( (  . .w 7 7 # 7 # @ 3 # # 3 3 3 3 3 3 3 3 @ O O O O O     3 3 3 @ @ @ @ @ @ # @ @ @ # 3     O @ @ 2 2 2 @                   O 3 5 5 3 O + # 3 6 3 u u u u O T 3.T 3 O U 3.3.1 R 1.X.X.O.O.9.X.1.3 # 7 7 +.5.).N.).i 4.0.N.N.;.@X}.`.V.-.w.0.0.;.N.t -.0.#.> = 8 *.M.",
"O @ @                 O 2 2 2 @   O e w 4 H H 4 4 4 q Y 1 O 2 I L I u 2 1 H I O   3 q w u ^ 4 KX'.O # p I w 1   O @ 3 p 8.w r X.o.O.O I ) Y ) I Y ( ' ' ( ( ( ] ] ] ( ] ( ( ) 2 u ) ( I p # p I ( ( ( ) / P u u U p I p 3 T !.6.,.<.[ } 2.<.3 p U u 5 3 3 2 @ O @ @ 2 2 4 2 2 2 2 2 2 2 2 2 2 2 @ 2 3 3 3 2 @ @ 3 4 4 4 3 3 3 3 3 # 2 3 3 @   O # @ O @ # @ @ # O O O O @ @ @ @ @ . &.- O 4 2 @ 3 2 2 2 4 2 O p [ ( [ ] [ 2 ( [ K J I ( ( } !.} 6.T.Q.2.4 [ { { Q.2.U <.!./.| !.9.@ #.0.+XOXO 2 O O O @ # @ O # # 3 5 O O # @ 2 O @ 2 3 3 3 3 3 3 u @ 0 I P I I [ [ [ [ { [ [  .[ !.'.@ @ 7 @ 3 2 2 2 2 2 2 2 2 @ O 0 w 4 5 q 0 q 3 3 3 3 q q q 0 3 2 3 5 3 3 3 # 3 3 3 3 @ 3 U ) T T U p 0 u I ) ] ) ) _ _ ) ) 3 p / T I T I _ O w q.}.'.~.O.1.( _ X.W + 3 U p I U U U I _ _ U ) I [ ) Y ,./ O 3 3 @ @ # 3 3 3 # 3 5 5 w 7 # + 0 0 0 5 5 5 u u 7 3 3 3 5 u 0 0 0 3 e 0 3 0 e @ 2 0 0 4 q q q w q 5 0 q q w O x =.l.N.N.) ] ( I I ( I w q P I P I P H I I H w P w @ 3 @ O / 0 q 0 0 0 0 0 0 e e 5 5 3 3 3 5 3 @ # z.=.S ;.;.o %.N.#.8.<.<.<.7.[ 2.7.2.| T.} p r 7 3 7 # @ r 0 3 # 3 3 3 3 3 3 3 @ O O O O O     3 3 3 3 3 3 @ @ # # @ @ @ # 3 O   O @ @ 2 2 2 @ O                   3 w w 5 O @ # # 3 3 5 u u u 3 5 9 6 u U 3.,.,.P U U X.1.#.#.O.r U W 1.a i 0.5.N.N.).v 5.w.5.}.N.@X0.`.V.o.0.0.N.N.N.t Z n   y $.;.M.M.",
"O @ @                 @ 2 2 2 X O O q w 1 1 2 K E.` 2 w 0 O 2 Y L I 2 O w ) I O   # q 4 p J 4 LX!.O @ u P E Y R J O O O '. XO Z n X.O I ( Y ] ( ( ( ( ( ( ( ( ] ] ] ( ] ( ( ) 4 0 I P P 3 u _ | [ ( ( ( ) I q O 2 2 2 4 O 5 2.| ] [ ] ] <.,.@ u U U u u u 3 @ @ 0 2 2 2 2 2 2 2 2 2 2 2 2 2 2 2 2 2 3 3 3 @ @ O 3 4 4 2 3 3 3 3 @ @ 2 2 3 # @ O 3 2 2 3 3 3 3 3 @ O O O O O O O O   ;.n   X @ O @ O O O O O O 3 e 4 0 0 p O q p Y ) ) H w ] Q. .}  .Q.2.4 ,.2.T.{ T.6.Q.T.R.T.!.!.2 ) -.+X|.  q O O +       + r @ O O O 3 # O O O @ 2 3 3 3 3 3 3 u 3 5 P u I Y  .[ [ [ { [ [ [ } '.'.@ 2 3 @ 4 3 3 3 3 3 3 3 3 3 O w w 4 q q q w q q q q q w q 0 3 2 2 3 3 3 3 # 3 3 3 3 3 u O.O.I P U I 3 3 p ( Y _ ) ] ) _ ) # 3 / I _ ) T ,.r @ 3 3 3 u X.q.I U O.O.O u I I 0 p I U ) ) ) _ _ I ] Y ) ,.3 2 O.U u 3 # # 3 # 3 7 u 5 5 3 # + w 0 0 5 5 0 5 5 7 3 3 3 3 5 3 3 0 3 e 0 3 0 0 2 2 0 0 4 q q w w w 5 0 q q w   x .XB.|.N.u I I U ( ) I q q I Y P I P I ( ( J H H w 2 # O O _ w 4 0 0 0 0 0 0 5 5 5 5 3 3 3 3 3 O + z.=.*.z.0.o S N.#.8.<.1.<.!.[ [ 7.<.(  .} P u u 7 u # # p p 3 @ 3 7 3 # # # # @ O O O O O     3 3 3 3 3 3 @ @ # 3 @ # @ @ 3 O   O @ @ @ @ @ @                   O 3 w H w @ @ # # 3 0 3 3 3 3 @ 3 P P O.,.3.3.,.,.O.5 u O.W U p 9 ! q.).W v N.5.M.0.).i 5.).).q.).}.N..XV.Z N.).0.0.;.& . x x y 0.N.M.0.",
"O @ @ O               @ 2 3 2 O @ 2 q 4 1 1 q  .[.E.2 e r O 2 ( J I O O I ] P O   @ q w U q L LX[ O 0 u w 5 w 5 ^.'.O O p 9.y *.o.X.O P ( ( ] ] ] ( ( ( ( ( ( ( ] ] ( ) ( ( ) w X p I w O U [  .] | ] ( ( I w 4 Y Y ( ( P H !.} ) ] ] ] [ ,.@ u U a u u U 3 @ 3 e 3 4 2 2 2 2 3 2 2 3 3 3 2 2 2 2 2 2 2 3 2 @ O 3 4 4 2 3 3 3 2 @ @ 2 2 2 # @ O 3 2 2 4 3 2 2 2 @ @ @ @ @ @ @ @ O   n l   O O   @ O O O O O O 3 @ O @ @ e O 2 q | [ _ 4 4 ) 6. .}  .Q.2.4 / [ { { T.!.6. .!.!.6. .@ C 0.+X X^ {.{.T.2 O 3 +   O   9 O # @   2 2 O O 2 3 3 3 3 3 3 3 @ 3 p u P P [ [ [ [ } } [ [ | !.'.O O 3 6 w 3 3 3 3 3 3 3 3 2 O w H 4 q q q q q q q q q q q 0 3 2 2 3 3 3 3 3 u 6 1 u ) ) T P ) U 0 p O.U O I I _ ) ) ) ) ) u 3 <.( ( ] T ,.O   + = = o + # 5.a 0 p O U P ! u u p U U ) ) ,.( [ I I <.P O ) <.<.) U 3 @ + # # r u 5 3 7 3 O p 0 0 5 5 0 5 5 7 3 3 3 3 3 3 3 e 3 3 e 3 0 0 2 2 0 0 q e w q w w 3 e q 4 w O n .XB.N.M.U ) Y I ( ) _ I Y ) ) I I H H K K J H J w 2 @ X O I w 4 5 5 0 0 0 5 5 5 5 5 3 3 3 3 2 O # z.l.=.z.0.o S N.-.4.<.3.3.7.[ 2.7.[ ( } Q.I r u r u @ @ U U 5 O 3 7 3 # @ @ @ @ O O O O O     @ @ @ @ @ @ @ @ # 3 @ 3 @ @ 3 @   O @ @ @ @ @ O                   O 2 5 5 5 @ # 3 3 3 3 3 # # 3   r 3.3.3.,.3.3.3.7.3.u 3 U W a ! 3.4.q.).R v 5.5.w.0.).8 5.).).}.).N.N..Xv.b M.0.-.o.- - &.G.%.y 0.M.;.M.",
"O @ @                 @ 4 5 O   O 3 e 2 6 6 2 J W.R.L I r O O K J I O O ( ] q O   2 H H / 2 ` LX# O p w 2 O w H Y.+X8.  +   y A $.X.@ P ( ( Y K ( Y K ( ] ] ( ( ( ( ( ( ( ( ) I X p ] u O ,.{ | ] ] ] ( ( ( ] ] ] ' | [ Y 4 2.' [ [ ] ] <.,.@ i R U u u u 3 O 0 e q q 5 4 2 2 2 2 2 2 3 3 2 2 2 2 2 2 2 3 2 @ O e 4 4 2 2 2 3 2 @ @ 2 2 2 @ @ O 4 4 2 2 4 2 2 2 3 @ @ @ @ @ @ @ 2         7 @ # @ @ # # # @ O u [ ) [ [ <.) ] [ ] w O O w 7.6.} 6.Q.Q.2.2 I Y K Y 1 # 7 u 5 5 7 %   % n }.'.W.].JXKX[.'.UXUX'.O     O O + @ 1 5 O O 2 3 3 3 3 3 3 0 @ 3 I p w w ( [ [ <.[ [ [ <.} '.'.2 3 3 2 4 2 2 2 2 2 2 2 2 @ O q w 4 q q 4 q q 4 q q q q q w 3 2 2 3 3 3 3 3 3 6 u O.,.T Y Y P w U <.3.U 2 _ ) _ I I ) ,.] T q [ w q 0 5 9 t b n n n c t . }.N.0.! O O.U 0 p U U U U I U T Y ,.I ) ) 2 w 1.] ) ] O.U 3 # # # 3 u 7 u r 3 + w w 0 0 0 0 5 3 3 3 3 3 3 7 3 3 3 3 3 3 3 0 0 2 @ 0 0 q e w q q w 3 e q 4 w O n |.l.n.N.O.) Y / ( I Y ) ) _ Y I I H H K K L J H 0 3 @ @ O U p q 5 5 5 5 3 3 3 3 5 5 3 4 3 3 2 O # z.=.*.l.;.o S N.-.8.<.1.<.7.[ ( <.2.( } Q.I 3 u u u @ @ U U 3 O 3 7 3 # O O @ @ O O     O     @ @ @ @ 3 3 3 3 # # @ 3 @ O 3 #     @ @ # 2 @ O                   O 2 5 5 5 O @ 3 # @ O @ 3 U O.r u 3.) 3.3.,.3.3.3.4.,.u U q.#.4.q.4.4.q.i ! 5.5.w.).}.8 4.N.5.q.M.}.}..Xb.*.M.%.l N z.B.v.B.l.y 0.0.;.M.",
"O @ @                 @ 4 5 O   O q w 1 6 5 1 4 ` T.L I w O 2 H J I O O ( ] w O   4 P L I 2 E.KX  O I H 2 O P ] ` LX}.  s X.u 0 u u O p ) ] ( ( K H H Y ] ( ( ( ( ( ( ( ( ( ) ) + u 7.I 2 <.| ` { ' K K ' } } } } | } { ( 4 Q.| ) ) ( ' ] ] @ u R R a u 5 2 2 0 4 q q q 4 2 @ @ 2 2 3 3 2 2 2 2 3 2 2 2 3 3 @ O e 4 2 2 2 2 2 2 3 @ 2 2 2 @ O O q 4 2 2 3 2 2 2 2 2 2 @ O O O @ 1 O   o 7 u @ 3 2 @ 3 3 3 2 O p } ' { ] ] ' ' | ] J 2 O p !. . .} Q.Q.6.2 _ ( ' 8.r     O O O O 1 1 1 O + U ] !.].W.].{.Y.+X+XO J 2 H @ O r O 1 O @ 2 3 3 3 3 3 3 r @ 0 U I p 5 I _ [ ,.[ ] [ ,._ 7.7.@ u 3 2 2 3 3 3 3 3 3 3 3 # O 0 w q 0 0 3 q q q q q q q q 0 3 @ 3 3 3 3 3 # @ 3 O.1.T H Y I P I <.1.) I U 0 U ) U I ) ) Y Y 2 u r 7 x m N t &.l.x.x.l.S $ s y V.OXz.8 # _ a a U U U U U U _ ) O.O.@ 2 8.O.] ) ) ,.O.u 3 # @ @ 6 7 7 7 3 @ w w w 0 0 0 5 5 3 3 3 3 3 3 3 3 3 3 3 3 3 3 3 @ O 0 0 e e w q q q 4 3 q 4 5   Z |.b.N.H.) ( J ) ( I I ( ( I P I I P J ( ( Y H H 3 3 @ @ O u p 5 5 5 5 5 5 5 5 5 5 5 3 3 3 3 2 O # z.=.*.l.;.o S N.-.e.<.1.<.8.) O _ 8.[ } Q.Y u u r u @ @ U U 5   # 7 3 # O @ @ @ O O     O     3 3 3 3 3 3 3 3 # @ @ 3 @ O 3 3     O @ @ # @ O                     3 w w 3 O O @ @ # 3 7 u U O.s u 3.) 3.3.,.3.3.,.q.q.R U w.1.q.! R ! ~.! ! w.5.5.).).7 0.}.).}._.}.-.N m y n n v..XB.B.b.G.=.t 0.M.M.M.",
"O O @ O             O O 4 5 @   2 q w 1 @ 5 3 e { T.4 J w O 4 w J P O 2 ( ] w O O q J K H 6 [.[.  w Q.Q.Y O q L ^.LXX.+ p U [ J 0 3 O 0 P Y I ] J H J ( ] ( ( ] ( ] I ( ) ( ) ,.# @ 6.( J 2.] { } ' ' ' { { ' ' | ' ' ] Y O 6.[ ) [ ] ] <.,.3 a R i i u 3 3 u p q 5 5 q q 3 @ O @ 2 2 2 2 2 2 2 3 2 2 2 3 3 @ O e 4 2 2 2 2 2 2 3 # 2 2 2 @ O O e 3 2 2 3 2 2 2 2 2 2 @ O O O @ O @ s O.i 5 1 2 2 O 2 O 1 O O p } ' } { { } | } } [ ,.2 w 6.} T.} } Q.2.4 ) } T.^ @ X X [ '.'.'.[.[.[.Y.2 + . . ` E.E.E.E.K 4 Y E.[.[.'.2 O u O O @ 2 3 3 3 3 3 3 3 @ 3 p p w 0 O @ 2 2 4 4 4 4 O I / O # 3 5 4 3 3 3 3 3 3 3 3 # O 3 e 2 3 3 3 3 3 3 3 3 3 3 3 3 @ @ # 3 3 3 3 # 3 r U ) P w Y w 7.7._ w ) @.I 2 u _ ) _ ) ) ) 3.r t l.x.c.m.C.c l.a.t.a.x.=.g $ $ $ k z.OX}.O U a u U U U U U T T O.U O u 1._ <.] ] ,.) p u I u 3 @ # 7 # @ @ w w w 0 0 5 5 0 3 3 3 3 3 7 3 3 3 3 3 3 3 0 3 O O 0 0 e q q q q w 4 3 q 4 5   n B.b.G.|.O.) ( _ ( ( ( ( Y I I I I p w I Y I w w @ 3 @ @ O u p 5 5 5 5 5 5 5 5 5 5 5 3 2 3 3 2 O + l.l.=.z.;.o S H.>.4.1.1.<.8.) O _ 2.( | Q._ u u r u @ @ I P 5 @ 3 3 3 # # # @ @ O O     O     # # @ @ @ 3 3 3 # @ @ 3 @ O 3 3     O O @ @ @ O                     3 3 6 # O + @ 3 u R R R R P # 5 3.,.3.3.! 3.,.3.3.4.T R 7.1.q.7 R 4.).! i w.w.5.w.).7 0.}.).9.m = . m m o.V..XB.B.B.B.b.B.n.> M.N.0.M.",
"O @ @ O               @ 4 4 @   2 2 w 5 1 3 @ 0 K | 4 ( w O 2 u Y p O 2 ( ] w O O q P ^ H 6 [.{.O H R.Q.] 5 ] Q.KX X    #.I ^ | ) U 2 3 @ 2 2 H J Y ( ] ] Y Y ) ( ] I ( ) I ) <.i O 6.| ( [ ] } ' ' | T.T.| ' { | ' | { ) 1 7.[ ) ] ] ] [ ,.@ i ! R i 5 3 3 p 3 w q 4 q w 0 2 O @ @ 2 2 2 2 3 3 3 2 2 2 3 3 @ O q 4 4 2 2 2 2 @ # # 2 2 2 @ @ O e 2 @ 3 3 @ @ # 2 2 2 2 O O @ @ 6 O # O.+ 5 5 2 4 2 2 2 2 1 1 P | ] } ] ' } ( | | } <.@ w ~. .Y. . .T.{ 2 ) { T.q O   p !.' L L r J {.[.{.R.W.` 0 ) ' ` E.Y.L I ].].].LXKXO : O O @ @ 2 2 2 @ @ @ # O # 0 3 0 0 ) / _ / ) O.O.O.@.7.<.O # # 3 O 2 2 2 2 2 2 2 2 O   O O O O @ @ O O O O O O O O @ O O @ 3 3 3 3 3 u 0 @ 5 I Y I ~.<._ ) O._ U @.u p I U I Y <.!.q.t d A.C.g.g.g.h x.c.s.s.x.D & S.s.g :   t |.XX4.! u u U U U p I O.U # u U e ) ] ) ,.] P 5 I 7.O.u + 7 7 # @ @ w w w 0 5 3 5 5 3 3 3 3 3 7 7 3 0 3 3 3 3 3 3 O O 3 q 4 q q q q q 4 3 w 4 5 O n XXL.B.&.+ w P P J ( ) ( Y ( Y I p 0 2 4 w q 4 3 O # O @ O 3 p 5 w w w w w 5 5 5 5 5 3 2 3 3 2 O o l.l.=.z.;.o S H.>.9.8.8.1.8.) / 8.8.^ | !.( 3 u r u 3 2 I P 5 @ 3 3 3 # # # # @ O O     O     @ @ @ @ @ @ @ @ @ @ @ 3 @ O 3 3       O O @ @ @                     @ O O O   # u u u P P R U T u 5 3.! 3.3.! ,.) 3.,.3.,.! 1.4.4.u q.).).+.i 0.5.5.N.}.8 5.5.i 0 %.N.|.OXm = B.B.B.m.m.m.m.B.b.> M.M.;.M.",
"O @ @ O             O 1 4 4 @ O O @ e q 4 4 q H <.4 4 ( e O 2 Y L e O # ) ] 4   2 7 e ^ L Y.[.w O Y T.!.T 3 r p 5 $ 1 / ) ` ' / I [ ] Y Y H 2 @   O   # u r U U Y ( ] [ ( Y ] <.U O [ } ` | ' ' { ( ^ !.' ' T.{ [ K | { ] 1 2.{ ) ) [ | | 2.2 t ! R U 5 3 u 5 5 w w 5 q w 0 3 O 3 @ O O @ 2 3 3 3 3 3 4 2 2 @ O 0 e # @ 3 3 # # 2 2 2 2 2 3 @ O 4 2 2 2 2 2 2 2 2 2 2 2 @ @ @ @ 1 O a X.O w 2 2 3 1 2 2 2 O O p } } { { } } } } } |  .5 w Q.{ Q.T.{ 6.6.O ] <.J O 1 4 R.[.R.W.Y.` L W.[.E.W.{ { ].E.E.R.| { 4 I R.E.(.JXPX[.O 4 3 @ 3 3 3 3 3 3 R u O   O @ 3 r ) <.[ ( [ <.) ,._ '.}.  @ O O O O O O O @ @ O 1 @ @ @ @ @ @ @ @ # # # + + + + 3 @ # # + 3 3 3 3 U I U 3 O p 3.8.X.R /.] ( / C A ,.. O.,.T.).).! @ $ 5 #X#XJ.$XZ.b C.C.s.c.g.g.% :X#X%XZ.f . . + X.0.}.-.> p Y | ] T R 6 U U _ e I ,.1.I 3 ) 2.) ,.) P 3 # 3 7 +   # 3 # # 3 3 u O O O O O O O O             O O O   O # @ O 3 @ @ O O @ @ O   o..XN $ + 3 w q O X X O O @ @   o O O @ O @ r # O O O @ @ O O O O @ O @ O @ @ O @ O O O O O O O O + *.v.n.;.;.. Z H.9.#.3.1.#.1.7.Q. .6.) )  .( P s r u @ 3 U u 5 @ # 3 7 3 # + 3 # @ O O O       @ @ O @ @ @ @ @ O O @ @ @ O @ # 6 O       O O @                     O O 2 @ O 3 u u u u P R R R 7 5 ,.,.3.,.,.,./.3.3.3.,.u q.1.4.9 :.).).q.! ).V.).}.N.= . l :.B.G.B.B.`.+.  B.B.B.m.B.G.G.G.b.= ;.N.b.N.",
"O @ @ O             O O 4 4 @ O O X 3 e w P I I w 2 H ( 3 O 2 J J 2 O q ] K @   2 u C e 4 /.'.@ O ] T.!.P O @ O + i.5 s T ` ' _ ) I ( ( ' ,./ 0   # @ @ O O O @ 2 4 p / / I U ) a O ( { Y.{ ' ' ' ' J [ } Q.} ( ' | T.' P 2 6.| [ ] [ ( ' } 3 r ! R U 5 6 p 0 P w q q 0 0 e # @ 2 2 @ @ O @ 2 3 @ 2 2 2 2 3 @ O 4 4 2 1 2 @ O @ # 2 2 2 2 2 O   4 4 2 2 2 6 2 2 @ @ @ @ @ @ @ @ 2 O a W 2 q 4 2 2 O 2 1 2 1 O p [ [ ( ( ( [ [ ( [ | { 1 5  .{ Q.T.} Q.6.2 [ [ q   r p _ { ' { { 2.[ | Q.| | H 1 ( ^.E.(.{.{.K w ].W.E.[.].IX+X  @ @ # 3 3 3 3 3 6 3 # X 0 I p 3 w ( <.[ [ [ ) <.( '.}.O 3 3 2 3 3 @ @ 3 0 3 3 3 3 3 3 3 3 3 # # @ + + 7 7 + # # # @ # 3 # @ 7 U I I I U I 0 I 1.] _ C C <.2.( ] ..= I '.0.c X . f k.z 1X&X-X&X-Xx C.Z.m.J.Z.C.% 3X%X;XuXy.Z.m.g d . > 0.G.B.x r p a 0 u p O.i ! T U T 3 I 3._ ] ) ,.O.U 7 @ + 3 + + # # # # 3 3 3 # # # 3 3 3 3 # # # # # # # # 3 3 # # @ O 3 O @ @ + @ 2 @   t $ d =.M.1.] <.@._ _ U p I u O # U I u 0 3 # 3 0 3 0 p p 0 3 2 2 3 3 3 @ @ @ O @ 3 3 3 3 3 3 # @ # *.=.D =.;.$ c N.0.q.q.9.#.<.<.6. .6.) (  .{ P y u p # 3 U u 5 @ # 3 3 3 # # # # @ O O O       # @ @ 3 3 3 # # # + + # @ @ @ # 6 @ O     O @ 1                 O O # 3 3 3 @ 7 u u u P P R T T u u ,.) ,.,.3.3.3.3.3.4.,.i 4.#.4.R 4.q.~.5.! :.N.5.o.b . -.|.B.N.B.N.B.`.5.o A.B.B.B.G.B.m.G.B.r 0.M.M.M.",
"O @ @ O             O O 4 4 2 @ O O O @ 2 q q 4 1 4 K I @ O e H p @ O I } J O   4 ( / q L ^.P O 4 } { Q.H O O.@.g oXT p ,.^ ' _ _ J ] | Y ] <.e p ) _ I 3 O O @ @ O O O O O O @ # O 2 K { ' | ] ] ( 4 I ] ] ' 7.} ' | [ Y 2 6.T.T.Q.Q. .T.!.P 3 W a a 7 3 p p P 0 q 0 w 0 3 2 3 @ 2 2 2 @ O @ 3 @ @ @ 2 2 3 @ O 4 q 5 2 5 2 @ @ 3 2 2 2 3 2 O O 2 2 2 @ 2 2 2 2 @ @ @ @ @ @ @ @ 2   b i 3 4 4 2 3 O @ O @ O O p  .......[ { ....[  . .5 P !. .Q. .} 6.[ 2 [ ] 4   > 3 @ O O O O   o     : C s s . # O 4 K ( u 7 W.W.].].JX].IXe O @ 3 3 3 3 3 3 u 3 @ @ I ] ) I q w <.<.) ) [ ,.( '.}.O 3 e 3 0 0 3 @ 3 u 0 0 0 e 0 3 3 3 3 # # # @ # # 7 3 # # # # # # # 3 u ) u / O.@.@.3 @ O.@.) ( _ r n ,.E r N e ) $ f j #X%X*XG J.eX3X9X*Xc K.j.h.h.=Xh.% <X-X-X=Xr.;X%X%Xg.j O O l B.L.L.;., r _ / O.R :.I @.@ 0 <.) ] ,.) ] <.<.U 3 O # = # + + + + + # 3 3 3 7 7 7 7 7 7 7 7 7 r r r r r r 3 3 @ O 0 3 4 0 r @ 3 w # = b.x.v.-.X.) ,.U ,.] ,.) ) T 3 u <.) _ U p 2 u O.) ,.,.) T T I I p w u e 0 3 O 3 0 0 0 0 3 3 3 3 o v.n.n.v.>.x *.G.0.1.3.4.9.1.) [  .{ ) (  . .R u i a # # u 3 6 @ # 3 3 3 3 # # # @ O O O       @ @ @ 3 3 3 3 3 3 3 # # # @ O O 2 3 3 O O @ 3 6                 O O 3 3 0 3 O 3 5 u u u P R U T u 5 O.) 3.3.3.3.3.3.,.,.! R ~.4.4.7 ! ~.).w.7 + v ! b -.. N.|.z.N.N.N._.`.M.> L.B.B.B.G.B.m.L.G.3 9.M.M.M.",
"O @ @ O             O O 2 4 4 2 O     O O O O O 4 H ( w O O w H s O @ ( } w     P ^ w 5 { /.+ O H Q.{ T.4 O 8.<.M yXP _ O.J L _ ( ( [ [ Y ( _ 2 J [ [ [ Y 2 O @ @.@.<.1.<.U u 3 0 @ O H ] ( | ] ] Y @ @ 2 H J ( ,.] [ 2.Y 2 T.E.R.E.^.E.E.'.' 2 W a a r u I u 0 0 0 0 u 0 @ 2 0 2 2 2 2 @ @ @ @ 3 @ @ 2 2 3 @ O 2 5 5 3 5 3 @ @ 3 2 2 2 3 @ @ @ 2 2 2 2 2 3 3 2 3 @ @ @ @ @ @ @ @   b t 3 2 4 2 3 2 2 O @ @ O u { { | { { Y.{ | ] { ..2 w Q. .}  .T.Q.[ 2 [ ] H O 6 5 H E H H H L L L L L L L | ..^ e X   + 6 O . ' (.].JX(.PX{.  @ # # # # # # I @   2 _ ] ] 7.) 4 ) [ ) [ ,.) ( '.}.O 3 3 2 3 3 @ @ 3 0 3 3 3 3 e 3 3 3 3 # # 3 # # # # # # # # 3 3 # 3 U U a / @.@./ / p 0 0 K ,.! :./.H a ;.+Xv.. B p.%X3X9X6XwXk.h.ZXeXrXeXB :X-X<X:X<Xs.; 7XeXeXK.d.,X$X#X%X=XC.B .   # q.OX; t X._ / ,.T U O.O u 1.T <.] ] ) ) ,.O.I 3 @ # + + + + + + + 3 3 3 3 7 7 7 7 7 7 7 7 7 7 7 7 7 7 3 3 # @ u u q u u 3 0 u # 8 z.l.l.n 7 w Y I I P Y I T U u u T I Y ) I 0 P ,.T T U I P P I U p w w q w 0 2 0 0 0 5 3 3 3 6 6 + v.a.a.=.>.>.N.N.*.X.O.#.9.1.) [  ...] ( ..6.U r u u # @ 3 3 # # 3 3 3 3 # 3 3 # @ O O O       @ @ @ 3 3 3 # # 3 3 # # # @ O   O 3 3 @ O @ 1 6                   O 3 3 0 3 O 3 5 u u P P u R U 7 7 ,.,.3.3.3.,.3.1.3.4.! U 1.O.,.i w.).1.i 7 b 4.0.w.|.= N.|.N._.N.N.B.`.0.> A.B.B.m.L.L.G.L.B.# 9.M.v.n.",
"O @ @ O             O O @ 3 4 4 @ O O @ 2 4 4 q I H L q O @ w w + O w | ( 2   + T ^ 4 P !.Y . X J  . .6.2 O 8.K t.K.4 _ T ( I ) ( ( ( ( [ <.I 2 Y ' ] [ [ I 2 @ [ [ <.7.7.2.] ( O./ q ( } ( ] ] [ Y p w 5 2.] 2 w [ <.I O 4 ^.E.E.E.E.Y.R.E.{ H O.U U 3 u I u 3 0 0 0 0 3 2 2 0 2 2 2 2 2 2 @ O 3 2 2 2 2 3 @ O O X O O @ O   O @ O O O @ O O O 3 2 2 2 2 3 2 3 @ @ @ O @ @ 1 O O   A t 3 2 2 3 3 2 2 O @ @ O 0 } } } Y.Q.Q.Q.Q.2. .( 3 u 6.Q.!.Q.Q.6.( 2 Y ) Y O 2 q P ] ] ) ] | ' Y.R.Y.Y.R.^.].[.[.'.[.[.W.E.!.O O w [.JXIX+X  @ # # # # + @ 3 O O w ] ( Y [ 8.4 ) ) ) ,.,.) ( '.}.O 3 3 3 3 e @ @ 3 0 e 3 5 e 0 0 0 3 3 3 # 3 3 r 3 3 # # # # # 3 3 u U U U #.O./ a U @.O.@ 3.,.Y T R 1.|.H.w . d k.eX9XeXeX6XwX&Xp.gX1X:Xg.d c.g.C.m.s.h + <X#X<Xa.d.aXaXF.K.=X=X=XK.m.z . . t _.5.R R @./ @.# u 3 U q.T ] ] ] ) ) ,.O.U 3 # + # # # + + = 7 3 7 7 7 7 7 7 7 7 7 7 7 7 7 7 r r r r # @ 0 3 q 0 r 3 w 5 # v b.B.B.N.a 1 4 0 e 2 e 4 2 3 O   Y I Y _ ( I P I p p w 0 3 0 w p w 4 q q q 5 @ 0 w w 5 5 5 5 5 6 O ;.=.l.v.;.=.S ; % r U O.#.3.1.@. ...| ] ..6.U u p u r 3 3 3 3 # 3 3 3 3 3 3 3 # @ O O O O     @ @ @ 3 3 3 # 3 3 # @ # # # O   O @ # 3 3 @ 1 6                   O 3 0 0 3 @ 7 u u u R u u u U u u 3.3.3.,.! R 3.1.1.3.U O.q.4.~.4.~.! + i :.N.).w.5.).$ M._.M.N.B.N.B.`.;.< A.L.L.B.G.B.B.L.B., 0.b.l.x.",
"O @ @ O   O O       O O @ 2 4 4 @ O @ 3 q q H I P w H q O @ 0 4 O q ] [ q O 3 P _ L 4 ' Q.2 + # K } T.} 2 3 ~.K s.K.L ] U <.] ) ( [ ( ( ) ( e e <.] ' ] [ ] w 0  .| ] ' ] } } 6.<.<.I 2.2.| ' ' 2.H _ !.2.!.!. .0 4 @ O O 5 ^.E.E.R.!.R.E.E.R.K ] T I 0 0 I u u u u 0 3 6 6 3 0 3 2 2 2 3 3 @ @ @ 2 2 2 2 2 @ O   O O O O       1 O O O O O O @ @ O O O O O @ @ @ O O O @ 1 1 1 O O b s 3 4 O 3 @ O @ O O O O @ 0 0 w w p p p u P ^ p @ 3 ] [ ] } 2.<.w 2 p I I     X     X   @ w 2 e e e 0 w 2 L ` E.{.KX[.` [.JX[.]   O [.IX{.O # 3 # # # # O @ 3 3 u ] ] ] ] 2.2 [ [ [ ) ) ) ( '.}.O 3 3 3 5 0 @ @ 3 0 0 3 5 e e 0 0 3 3 3 # @ u U U u u 3 # 3 # 3 u a R ! 1.O.p / O.U ) O.P = ) ^ ..H.G.S   d k.#Xp.rXwX0XrXwXzXaX& &     . @ & % . . o   2 4 . $   ; k.%XeX3X-X%X%X%X%X=Xh.  o $ ;._.V.b #.u 3 O.p 7 O.T <.) ,.,.) ) ,.,.T 3 3 3 7 7 + + 7 7 7 7 7 7 7 7 7 7 7 7 7 7 7 7 7 3 r r u 3 @ 0 3 w e 0 0 w 2 # +..XB.B.N.#.U ) ,.@._ _ _ U / p r ) ) ( Y I I I w p p p p p p w w w q q q w 5 O 0 0 q 3 3 3 3 3 3 + 0.b.n.&.x = $ L.H.N.~.q.1.1.O.O. ...} ] [ [ U u a u u r 3 r 7 3 3 3 3 3 3 # 3 # @ O O O O     @ @ @ 3 3 3 # 3 3 3 # # 3 3 @ O     O 3 3 1 1 6                   O 3 3 3 2 O 7 u u u R u 7 u U u u 3.,.3.,.,.O.3.1.1.,.R O.4.4.4.R W i W 5.M.5.0.0.w.N.m N.|.N.M.B.H.B..Xv.% L.B.L.L.G.m.G.L.L.$ =.b.b.m.",
"  O @ O     O   O     O @ @ 2 4 @ O @ e q q w H 4 q J q O @ 3 2 q Y { I # r U K w 4 Y !.I O p 3 } T.T.( O u ~.4 Z.K.4 ^ R _ ] J ( ( [ ) w 2 w ) [ ( ] ( ] ) 0 u } { [ 2.2.[ ] ( [ ( J [ | } ' ' { q ( !.Q.T.Y.[.[ 4 O 3 = # [ | | ( <.[ } | } Y ( ' ] I w u u u u u u 3 2 3 0 5 4 4 2 2 3 3 3 # O @ 2 2 1 2 @ @ O @ @ O @ @ O O 5 2 @ + @ O   # O O O O O @ @ O @ O O O @ 2 2 1 2 @ r # O 2 O + O O @ O O @ O @     O   O O O O O X O O O @ @ 1 2 2 @ O O O O O           O   e E K E L Y Y E H = # H ' '.` ^ '.].].[.` 0 X  XLX@ 3 3 # 3 3 # O 3 u r w Y ] [ [ <.1 [ ) <.) ) <.I '.}.O 3 3 3 3 e @ @ 3 0 e 3 5 3 3 3 3 3 # # # 3 p U / U I u 3 6 3 7 u U O.,.,.p U O.O.U I T ,.X > B.G.A . f #X&XtXeXj 3XrXwXvXvXeXm.O 6 R i d 3 o o # r % : r 0 g d - #   ; A.tXrXeX3X1XsXuXj j J.j ; d N.N.n 3 O.X.$.a 3 ) ,.) ,.,.,.O.,.,.,.U u u U a 7 + 6 + + + = 7 7 7 7 7 7 7 7 7 9 9 9 3 7 r u 3 @ u 0 w e 0 0 H 5 3 $.B.b.B.B.o.w I ) ) P _ T I ) p 0 ) ) _ I I I I I P P P P P w w q p 0 w w p 0 @ u q q 4 3 3 3 3 3 3 $.S g - % o = oXH.4.3.9.9.9.<.+.(  .} ] [ ( U i p r u r # 7 # 3 3 3 3 3 3 # # # @ O O         @ @ @ 3 3 3 # # # 3 3 # 3 3 3 O       @ 3 3 2 1                   O 3 2 3 @ O r R u u i u 7 u U r 5 ,.,.3.3.3.3.3.q.~.q.R U u 3 . = Q 5.5.5.5.).0.0.M.M.:.%.M.N.B..XG.B..XM.% .XB.L.J.J.L.L.L.x.. N D x.m.",
"  O @ O     O   O     O O @ 4 4 3 @ @ q w w w H 2 w K q O @ 3 1 Y ' K 2   b <.L 2 6 } '.O 2 _ 7 | { T.( O W ~.1 K.=X1 ' ,.I ] ] [ J ) ) 2 O _ <._ I [ ] | ] w p { [ ] ] ] ] ] ] } ( K | ' } | | | | { { T.^.R.R.[.^.2.1.=   : @ 4 O + @ 2 O p 3 L ' } ] I I r u u u u 1 2 0 w 5 4 3 e 3 2 # 3 3 O O 2 2 1 @ # # @ 3 3 2 6 @ @ # u 3 # # @ O @ # 3 3 @ @ # # # # # @ @ O @ 2 2 1 1 O + O O @ O O @ @ 3 # 3 3 @ 3 ] ] ] ] ] ] ] ] O./ w + # e e I I P U p / O.I P 7 O O u T 5 1 E { Y.^ q [ q 2 K ^ e p 3 4 Y.[.].].E.E.JXLX'.# +X3 3 3 3 3 u 3 O 5 3 3 P ] ] ( [ 7.2 ) ( 2.[ _ <.( '.}.O 3 3 3 3 0 @ @ 3 0 0 3 5 0 0 3 3 3 # # # u p I I U U u 7 6 u u 3 ) ~.9.5 U O.U I O.,.T T n.%.U . f #X&XtXtXwXrXd.;XAXvX5Xg.X   % h d u : k % , = 9 & , - k % % 7 u r # O @ a.2XrXrXeX<Xf -X-Xj.a.& X $.  U O.W X.#.W r U ,.T T ,.,.O.O.,.<.) U ! W u 3 + * * * = = 7 7 7 7 7 7 9 9 9 u u 7 u r u 3 @ 0 0 e 3 3 3 w 3 # Q G.m.b.N.-.) ) ( ) I ] ] Y ) I 5 _ _ ) _ I w w I P P P H J H H H u 3 0 0 u 3 @ u q e 3 4 3 e e e @ = & g ;.0.o., oXN.9.9.8.1.1.1.+.^  .} ,.) I U a a r i u # r # 3 3 3 3 3 3 3 # # @ O O         @ @ @ 3 3 3 # 3 # 3 3 # 3 3 3 @       O @ 3 3 O                   O # 2 3 @ @ u R i i i u 7 i W 7 5 3.,.3.,.3.,./.3.,.R O r y a = o.0.5.5.).).).N.5.N.N.|.l - n .XoXL.m.XXv.o XXL.L.m.B.L.L.m.d , n c c B ",
"    O O O O   O O O O O   O @ 3 @ @ 2 q w w L L q H P 2 O 3 w I y 0 4 2 ( <.P 2   K +X2   L Q.2 ' R. .a O | ~.  5XG.O I ) ( | I ' K [ I O ) ] <._ _ ) ] ] <.4 p [ ] ] ] ] ) ) ) ] [ L } | } !.] y p ^ ^.E.Y.!.Q.E.^. X@Xy 1 /.'.^.T.!. .} 2.P u 3 0 I ] { ] Y E U u # @ 3 p w 3 w 5 4 4 3 3 2 2 2 2 2 2 2 2 2 2 3 2 2 2 3 @ @ @ r 3 # # @ @ # 3 2 3 3 2 2 3 3 @ 3 @   O @ O O O O O 2 2 6 5 5 5 4 2 3 2 3 2 @ P { | | | | | | } } ..T.r q [.R.^.!.!.!.!.^.^.^.'.'   . w K @ O L Y.| ( 4 J | H H E ' L L ` '.E.W.].E.E.].PXIX[.R 3 3 3 3 3 3 3 @ 0 0 2 p _ ( ] ] 2.2 _ ,.[ [ [ ) ( '.'.O u 6 O 0 r 3 @ 3 e e 0 2 w 0 5 3 @ # u p _ I I U U u u u r a @ O  X1.u U { a Q P _ O.P  Xc.o X h.tXwXrXwXrXwXvX%Xa.G.< @ % = = , - t t , = , = = t t - - = & - - - - - - P O   a.2XgXy.=XeX1X;Xk.:XV $ G.:.y / 3.O.X.X.r ! O./ _ ,.,.O.0 #.4.r u O.p u 3 = = 7 * * 7 7 + 3 3 7 7 7 r i u r r r s # @ u 0 0 0 0 3 p 3 + W B.B.B.;.7.P Y ] I ( Y I _ ) Y w U _ ) _ I P P w P p w w w w w w p 4 p 3 0 0 O u w q 4 q w q 5 q   &.b.z.b.B.l : oXN.7.~.4.1.<.,.#.p H 6.!.) a ! a u a a 7 3 3 3 3 3 3 3 3 3 # # # + O O O O     2 2 @ O # # # 3 @ @ # # @ # 3 @ @   O @   # 3 O                     # 3 3 u 6 u u u 9 u R 9 9 R u 3 3.,.,.,.3.3.#.i + r O.4.w.w.+.! 5.).M.+.o.y %.b.N.OXM.8 |.z *.*.g M.XXA.o L.K.P.K.yXXXa.g l S S S S S ",
"  O O O O O O O O O O O O O O X # @ 2 e q q q H q H I 2 O 4 0 I q 4 H ) [ p O O 1 +X[   4 Y.T.p } Y.} p 2 !.} . 6Xm.2 ) O.K ( ) { ^ ) w 2 ,.) Y ) ) ) ( ) [ 4 p [ ] ] ] [ ) ) ) 7.w H } } } K !.I O ' Y.Y.^.Q.T.T.'.'.@.I O H !.^.!.!.!.'.'.,.# p p H J ( ] ] ] U r 3 3 e q 5 w 5 5 5 3 2 2 2 2 2 2 2 2 2 2 2 2 3 2 1 2 2 3 @ @ # # # # # O @ + @ 2 2 2 2 3 3 @ 3 @   O 6 2 O @ 1 2 3 3 3 5 5 3 4 2 3 2 3 2 2 P { | ] | | | | | [ ..T.r q [.R.!.R.R.R.R.E.R.R.^.'   . O 4 O   1 L P 2 O @ 2 2 # q I P I K R.E.E.^.(.].W.` ].IX! @ 3 3 3 3 3 3 @ 0 0 2 w _ ( ] ] 8.4 ) ,.[ ] [ ] H  X}.  2 5 3 3 3 @ O @ e 0 e e 2 5 3 @ @ u U / I I U U p u u p a 3 7 3 X.# W W x O.p X.,.U I.p.4 y.j.=XvXwXrXwXzXvX5Xf . . . ; % = , - - t t - - , = = t t - - x l t t t t t t < d ;   O x y.ZXgX9X7X1X#Xt.O Q H.q.' W *.A U <.9 u _ _ T O.U 0 u 3 @ U U p O.3 + * 7 * * 7 7 7 3 3 7 7 7 9 u u r r r u 3 @ u w 0 3 3 4 0 3 @ i B.G.v.x U J ] Y _ ) _ Y ( _ I q ) ] ) I w w P I p p P P P w p p w 4 w 3 e 0 O u w 3 6 3 3 3 2 2   ;.b.l.v.b.l 0 oXM.<.7.4.9.q.q.1.U P ( ] _ U ! a u a a 7 3 3 3 7 3 # 3 3 3 3 3 # @   O O O     2 2 O O # # @ # # # 3 3 @ # 3 # @   O O O @ 3 2                     # 3 3 5 6 u u u 5 5 9 5 u ! a 5 ,.R ) 3.3.U + i #.w.q.1.+.4.i +.).5.! 8 -.N.N.B.B.|.c x |.N.x . ; =.A.A.> .X.X;.Z >.A & z t.S &.=.=.l.",
"O O O O O             O O   O   X X @ 2 4 e w H K K I 4 O @ 2 w ' Y I p r + O # [.+XX   O '.W.@ | R.!.O O ^.Y = CXm.O 0 I ] ' I J I ) 2 5 ] [ | ) ) ) ) ) ,.3 I [ ] ] ] [ ] ) ) ) ] q ( 2.Q.} } ] L H 6.!.T.R.E.~.}.e.] !.e O E !.6.H w Y ) U 3 U I w w J ] ] ] u 3 3 u p 4 4 w 4 5 3 3 2 2 @ @ 2 2 2 2 2 2 2 2 3 2 2 2 2 3 @ @ @ @ @ 3 # @ O O O @ 2 @ @ 3 3 @ @ @   O 3 6 1 2 2 3 5 3 3 3 3 2 4 2 6 2 4 2 2 P | ' ] | | | | | ] ' T.r q [.E.!.T.R.T.R.E.R.R.^.'     O O       O @   O O O         O 3 4 ' Y.^.,.].].Y.9 L LXUXO # 3 3 3 r 3 @ 0 0 3 p _ ( ] ] 2.2 _ ] ) _ ) ) ) }.'.  0 w 2 3 0 3 @ 3 3 e 3 3 3 3 # O # U ) U I U U p u u p p i # a U 3 O O.O.<.U / K ) I.f.. f.rX6Xr.vXqXrXzXnXF.$ 7 U 9 ! d = , t , t t t , , t - = t y t t t t - - - t - - $ & , a u 3 $ a.5XeXtXeXj.y.S.; X l.b.I ] -.Q ] O.O C @.u U #.X.u 3 @ p / X.#.7 # 7 * * + * 7 7 # 7 3 + 7 7 r 7 u u r u 3 @ u 0 w 4 q 5 q 0 3 3 =.c & t / ( ( H ( _ _ Y ( ) ) T I ( _ I P P I I w w w p w w w 0 p e p 0 0 0 O u p 0 3 3 0 3 3 3 o ;.b.l.n.b.l r XXN.8.~.4.@.@.3.8.@.U p p U X./ U u a u 3 # 3 3 7 3 # # 3 3 3 # + @   O O O     2 3 2 @ # @ O @ # # 3 # @ @ 3 # @ @ @ O O O 3 5 O                   3 3 3 5 6 u 5 u P u u 3 5 U # 7 7.1.3.! 3 O ! +.1.4.4.1.4.w.X.+.5.:.5.M._.N.|.B.|.N.$ m b.B.B.M t.a.A.P.o $ @ O # = l c D =.&.=.l.l.l.",
"@ @ @ O                 O O         O O @ 2 3 e w q e @ O O O @ 4 4 3 O O O O w +X2   .   ^.R.e | R. .O w '.I & CXa.@ I U ) ' ] ) @.,.2 P ] ] ] I Y ( ) ) <.q I [ ] ] ] [ ] ) ) [ ,.O Y Q.} { | Q.Q.4 ( '.Q.R.E.~.q._ R.[.Q.q O K [ p 6 1 6 u @ u u p w P ) T P 3 # 3 p p q 4 q 3 3 3 3 3 3 2 @ 2 2 2 2 2 6 6 6 3 2 2 2 2 3 3 3 @ @ @ 3 3 @ @ O O 2 2 @ @ @ # @ @ O   O 6 5 2 2 1 2 3 3 3 3 4 4 4 2 6 2 3 2 2 P | | ] | | | ' | ] ..T.p q [.E.R.R.R.R.R.R.R.R.^.'     O O         O O 5 w O           O O O 3 P _ | [.[.~ 1 LXLX  # 0 3 3 r 0 @ 3 0 3 p _ ( ( ] 8.4 ) <.,.) ,.,.I '.@X  3 6 2 w 0 3 2 3 3 3 3 3 0 3 @ @ r O.) P U U p u u i p p # i U O.X.r u p W I P %.oXi . U.zXrXfXg.eXzXvX-Xh + 6 , % 7 9 % t t y t t y y t t y , = t x t t t t t x x x x t ! 0 @ < d d 5 L $ U.eXeXp.3XtX-Xf . x b.:.Y ) o.O.1.p # U O.U X.O.O.# @ U O.U u a u 7 + + * * + # # 7 * 7 7 7 7 u u 7 u 3 @ 0 w w 4 w q 5 0 3 # $ g S ;.O.w Y [ ( _ ( I ( [ <.3.( ( ( I I I P p I P p 0 p P P p q 4 0 3 0 e O 3 # @ @ @ @ @ @ O o z.b.l.l.b.l r oXN.<.~.).w.8.1.e.1.@.U U O.O./ U a a u 3 # 3 3 3 # # 3 3 # # # + O     O O O   2 3 3 3 3 3 @ @ # @ # @ O @ # @ @ + + O O O 2 0 O O                 3 3 3 5 6 u 5 u u u u 7 5 U y 3 U R 9 @ O 3 q.1.+.1.4.4.5.4.b o.M.V.N.N.|.N.N.M.G.N.. %.z.m.B.c.P.m.C.XX, l n.m.B.a.x.b.D S x.c.m.m.m.",
"3 # @ @ O               O O O O       O O O O O O O O         O O O O O O q K !.I 1 O   . 2 } Y 6.Q.J O u ' O c DXF O w r 4 4 P I p e O I ,.[ ( Y Y Y Y ) [ 4 p [ | [ [ [ [ ) ) <.) w 2 J 2.' !.^.Q.] 2 I '.!.R.<.| E.{.[.[.^.O O <.8.O.P U ) O 3 u p p p I u 2 t i r r 0 p w 4 0 3 2 3 0 0 3 @ @ 2 2 2 2 2 2 2 2 2 6 2 2 # 3 @ # # @ @ 3 3 @ @ 2 2 3 2 @ @ @ @ # +   O 2 5 2 2 O 2 3 3 2 4 4 4 4 2 4 2 2 2 O p } | | | { | | { | | R.p q ^.R.R.R.R.R.R.E.R.R.^.| O   O 4     O 4 @ P ] ] ( @   # O # 3 O       @ 9 R.JX4   UX+X  # 3 # 3 7 7 3 3 0 2 p ) Y ( ] <.2 _ ,.) ) [ [ I  X XO O 2 3 2 3 3 2 3 3 0 3 u 3 @ O # r p U ) U U u 7 u a U u 3 X.a X.#.a # # c G.XXoX< $ <XzXrXwXZX-XS.J.d 6 6 R b . , o.> < t y x y y y x t t x t = t x x t t t t x x x x t < = R a > < t 8 9   , t.eXvXrXeX3Xh.  . n.N.@.3.,.U # p ,.T W U W 1.u O 3 u p U O.U r * * 7 7 * + # * * 7 9 r u u u r u 3 @ 0 0 u 4 w q 4 0 3 # %.B.G.B.X.P ) ) _ ) _ ( ( ) ,.<.~.7.) P p I I p P w w w P P w 5 2 2 2 1 2 2 O 2 # @ @ @ @ # @ @   l.m.l.n.b.l r oXH.8.7.1./ / q.@.1.1.#.#.O.O./ W a a u 3 3 3 3 @ # 3 3 3 # # # + O   O O O O O 2 5 e 3 0 3 @ # # @ # @ O @ 3 @ @ @ # + O   @ 3 2 O                 3 3 3 5 6 u u 5 3 3 u 5 u W p O O @ 3 u @ s 1.3.3.:.1.#.:.5.b -.}.N.N.N.B.N.M.v.b.N.$ N.L.L.P.C.Z.C.C.P.g B.uXP.oXm.M B c.A.K.K.P.P.P.",
"O @ O O O               O O O O O @ @ @ @ @ @ O O @ 3 @ # u 3 3 + 7 3 O Y '.^.Y.  !.| O % O q 1 P ^ O   O 4   d aXS J I U _ Y O O 2 O O P ] <.<.) ) ) Y ( ] 3 I [ | [ | [ ] ) ) ' 6.I O O ( Q.^.^.R.!.] 1 ( '.'. .E.[.{.E.[.[.: O 0 U @.,.T U # r s u u u r 3 @ o.o.b 7 3 u p q 0 3 3 3 0 u 3 3 @ @ 2 3 3 3 4 2 2 6 6 2 @ @ 3 3 # 3 2 2 2 3 @ O 2 3 3 2 2 3 @ @ 3 3 X O 2 5 2 2 1 3 0 5 4 4 4 4 4 2 2 2 2 2 O p } | | | { | | { | ' T.p q [.R.R.R.R.R.R.E.R.R.^.| O . 5 J     5 ] q Y ] Y.Q.q   O O I Y p # #   O   @ R.Q.e.IX! O + # # # 3 3 3 3 0 2 p ) Y ( ] q.q ) <.,.,.<.,.) ~.w.O 3 w q # 0 3 3 3 3 # # # # @ # # # @ 0 T O.U r r u i r # W X.W X.W W W i H h B.2 $ 0XzXrXrXzX0XC.* 6 4 a k & o > I 3 t x t y x y t y y t t b t = , x x t t 8 - - t t t t b & x t q u & d - u E * y.cXvXnX3X3X-Xj   h B.,.T 9 - o.O.T ,.#.X.O.1./ @ 3 U W O./ u 7 7 7 = * * = = * 7 9 r r r r r r # @ 0 0 u 0 u 0 0 u 3 u .XB.c.b.$.O.) H I ( _ ) ) _ T T 7.<.) I I I I u w P I I I I w 1 4 q 4 2 0 5 6 3 0 0 0 0 0 u u 3   ;.m.l.n.b.l r I.G.q.9.+.# : #.<.@.1.1.1.O.O.O.W a a a 7 3 3 3 @ # 3 7 7 3 3 7 O O   O O O     2 3 3 3 3 3 @ @ 3 # # @ O @ 3 # @ # # + @ O O 3 q O                 3 3 3 3 6 u 9 u u u a 7 # r O # R T O.1.3 + 4.4.4.4.:.:.5.N.o.:.N.N.N.b.N.z.;.M.b.N.- B.XXP.P.Z.C.L.P.iXh x.z.k z ; x.XXP.:X:X:X:X:X:X",
"    O O O O O O O O O O O O O O O 2 4 4 3 5 5 5 w P I q H ] ' K O 0 Y L T.'.] O J ^.!.I Y T.` w O 4 O   u 2.r & f . ' ] U I I O P ) ) ) I p I ) ) ) ) ] ] <.q I [ | [ | [ ] ] ) } | 2 <.T 1 ] !.R.^.^.'.' 1 2.'.[.{.{.{.{.^.!.2 O   X ] !.] 3 # r r r 7 3 # # # %.*.Z t 7 r 0 0 3 3 3 0 0 r 0 3 @ 2 2 3 3 3 4 4 2 3 3 2 @ 3 3 3 @ @ 2 2 2 3 @ O 2 3 3 2 2 3 3 @ u r @ O 1 5 2 @ 2 5 0 q 4 4 4 4 4 2 2 2 2 2 O p { | ' | | | | { ] ..T.u q ^.R.!.R.R.R.R.!.R.R.^.'   . q H O O H ] w q ( } Q.I O O 2 ] ' ' ( I O O     O T IX8.$ + @ @ # 3 # # # 3 0 2 p ) Y ( ] 8.O e w e w p w 0 p p   u 5 3 e 0 # @ @ @ O O   + + # # + + # 0 U u 7 9 i r r 3 W W X.X.W ! 4.W   . t 0.y.vXzXZXvXcXh O s d % # g & & U u i n * t y x y t y y y y b t = , x x t v x x l l x x x 9 t , g g k t , < i k l 5 d 7XvXeX3X3X-Xf.= * d   M.H., a 1.u X.O.X.q.q.U 3 p O.) ) U i = * * * = = = * = 7 7 3 3 r # r + O 3 3 3 3 3 3 3 3 + a B.c.x.B.b 0 Y ] Y Y _ ) ) ) _ _ ( _ _ _ _ I P w P ] 2.<.) Y I w w p q 0 p p u u 5 5 3 3 5 0 0 2 . l.m.l.n.b.l r >XN.#.w.).-.U #.8.<.,.<.<.O.O.,.W a a a r 7 7 3 3 # # 3 7 7 7 7 + O O O O O     2 3 3 3 3 3 @ 2 3 # 3 # O @ 3 @ @ # @ @ # O O @ w 2           O     3 3 3 3 3 u 5 u a a u #   + 3 U 3.,.,.1.7 r 4.4.4.5.4.5.-.:.t x 0.;.z.%.;.;.M.v.N.M.- G.XXZ.P.oXXXH.x.c.. d d n.XXf S.iXK.>X:X:XP.P.:X",
"  O O @ @ @ @ O O O @ @ O O O O 2 2 q q q q q 2 q J K 4 L Y.Y.W.4 4 ` R.R.K O + T.Y.R.!.^.(.^.q.3.Q.Q./ 6 E U m.J.U L J X._ _ O ) <./ <.p e @ 2 H I ) ] <.<.4 p [ | [ [ [ ] ) ) Y.L Y ~.8.T 2 K '.'.^.^.[.{ O ) [.{.R.{.[.] 0 3 .   X 2 K 2.R = # # 7 7 + + + # S Z Z n t 3 3 0 @ 3 0 0 3 3 3 r @ 2 2 3 3 3 4 4 2 3 3 2 @ 3 3 3 @ @ 2 2 2 3 @ O 2 2 3 2 2 3 3 @ 9 r @ O 1 2 2 @ O 3 q q 4 4 4 4 4 2 2 2 2 2 O p { | ' ' | | | { ] ' Y.r 5 ^.R.!.R.R.T.T.R.R.R.^.(   . X 2     w Y 5 O J [ 6.,.O     J K Y.!.!.4   O @ s 3 E 6 X # @ @ 3 r # # # 3 0 2 p ) Y ( ] ~.e p p w p I p I 8.q.O 3 1 1 @ O     O O O O + 6 6 + 7 a U s @ 3 @ # 9 i i p a 7 W W a $.! ! u M &X$X& & ZXrXzX6X. 3 t r d f r o t ! 9 g h , U t x x y y y x x y b t = - x x t t t x x x l t l , n 7 t g < r u i % : : h 7 . -XvXeX;X-X2Xg.d p   . OX|.> / X.+.W U O.8.8.u @ #._ O.#.W 8 * * = = = = * + = 3 3 # # + # O   @ @ O @ @ O @ O   a B.B.b.b.t P | { <.] ) ) ) ) ) ) T ) ) T I I I I w ) <.) w 5 w w 0 p 3 3 0 5 5 5 q w q 5 q w q 4 o l.m.l.z.b.l r P.H.9.N.M.A A N.3.<.,.2.<.O.O.,.W a a a u 7 7 3 u 3 # # 3 7 3 3 + O O O O O     4 0 5 3 3 2 @ 2 # # # @ O @ # @ 2 2 O O # O O @ I 2 O         O   O 3 3 3 3 3 u 9 u 5 3 # O # i O.! T ) ,.1.3 r #.#.+.! ! b n Q o.n *.%.;.;.N.N.N.M.|.;.& .XoX:XL.n.N o $ d < x.-X=X,Xr.h.>XK.:X:X:X:XP.P.",
"O O O O O 2 2 2 1 1 1 1 1 1 1 O O 2 2 q w w q 4 4 H H w J [ | K O H [ ] 0   O 5 [ T.!.~.|.oXOX.X X[.{.[.~.X $ c.ZX=.P Y J ! Y X ) <.,.) [ ] ) ) 4 3 @ 0 @ p I w ] H I ) H q ( 7.J L Y.^.Y.^.!.1 > '.[.(.'.'.] O | '.'.^.Y w # +         O # 3 r 3 3 3 0 u 0 3 3 # o.Z c %.v O 2 2 0 u r 3 7 0 0 3 @ O 2 3 3 2 2 3 3 2 2 2 2 @ @ @ 2 2 2 2 3 @ O @ 3 2 1 2 2 @ @ # # @ O @ # 3 3 2 2 5 4 4 4 5 w 3 3 @ @ # # O 2 Y ) ) ] | | } [ ..[ [ 1 K '.W.R.R.^.^.R.E.R.R.E.Y O @       O u U 1 1 ) [ Y.} +   5 _ ( Y.[.w O O $   ' [.LX  # # # # 3 r 7 3 # # @ 2 Y K ( Y ( ~.6.7.6.6. .6.!.Q.}. XO 2 @ # 5 3 3 3 3 7 7 * + # + 7 i U U U U u r r t y p U ! 1.` & ,.J ~ n.O #XeX9X3Xf 6XAX%X. % - , - t t - = , t r t a a u t b b x x x x c t x t = , x x y x x y y y x x x x t t t t t t t t t , , , - % . k.gXeX&X1Xc.l.#Xy.%   P.B.m b C X.X.W W X.X.p 7 ,.I 3.O.<.O.9 + * * $ * * + # # + + + # + 3 u u u 3 u # r 7   X.B.b.b.M.3 L Q.} Q.6.] ) @.O._ / O.) _ U U U I I p ) H I T w w 5 4 q 4 4 e w q w q e 3 3 q e e 3 % v.n.a.n.M.x , yXG.0.w.M.M.0.>.4.1.8.<.<.7.O.) U U a a i r 7 # i 3 @ # 3 7 7 7 + @     + # O O 3 3 5 5 6 2 @ @ # # 3 @ O @ # 3 # # @ # @ @     w p O               # 3 3 3 3 u 7 3 O O 5 u u u ! O.! ,.O.3.u 3 q.3.3.q.4.4.4.~.-.-.N.M.;.N.N.M.b.N.|.Z > H.N.x o   o 1 :.P.B -X,X%XuXj d.,X:XXXP.P.K.<X>X",
"O O O O O O O O O O O O O O O O O O O O O O O O O O O O O O @ O   O 1 O       O @ q L I 0.OX+XdXdXpX+X X~.`   s.cXl P ( ^ ! Y   U O.O.) [ ] ) ] <.) I u O p _ _ ) Y I ( I q ) I H 2.Y.Y.^.^.^.^.0 4 Q.[.{.[.[.' 1 ' !.( O 3 +             @ # 3 U I p p u u 0 3 + r n %.n b u O e 0 r 7 7 0 0 3 0 # O 2 3 3 2 2 @ 2 3 3 2 @ 2 3 @ 2 2 2 2 3 @ O @ 3 2 1 2 2 @ @ # # @ O O @ @ @ X @ q q 4 4 2 @ O O O O O O O @ 1 O O O 4 L J p ( I 3 O Y '.^.!.E.^.R.R.R.R.R.E.I O @       O I p q ' I [ Y.Y.#   4 _ ( ^.'.0 2 L * X L KXLX+ : # # # 3 3 3 3 # 7 3 3 _ ( ] ) ] ( ] 2.6.6.6.6.6.} '.}.O 6 : 0 5 3 3 0 0 r 7 7 * + + 9 p U a p U U O.X.i r a O.O.v ..,., :.aXi.f &X6X7XrX1XS.m.  = , y t t t t - , t , 8 t b a s t b a i b b x t y b t = t x x t b x x x x x t - t t t t t t t t t t , t t t - =   i.eXgX=Xr.sXF.C.p.    pXB.Y.! W W X.X.O.O.p 3 O.@./ / ) O.! i = * * = 7 7 7 r s r r 7 3 7 u u u 3 u 3 r r + ! B.m.m.b.r ) !.} Q.} Y I _ ) ) ] ( ( ( ( ( ( ( Y w I H I Y P P q 0 w q 4 q 0 3 3 e e 3 3 e e 3 3 . n.m.m.b.>.l g XXB.9.q.w.w.9.e.w.1.<.<.3.7.<.@.U a a p a u r 7 a r # # 3 7 7 7 + @     + # O   2 3 5 5 6 2 # # # # 3 @ @ @ @ # # # @ # @ @     w w O               # 3 3 3 3 3 3 3 3 5 R R u u ! ! ! ,.O.3.u 3 q.3.4.4.4.4.4.w.W *.N.N.M.M.M.M._.N.}.Z   . . . H W m.A.<X,XN P.K.;XuXD.A.=X<X=X<X:XZ.s.B ",
"O O O O O O O O                                           O O O     O O @ X O O     O O   % , S oXpXVXIXUX4 . %X0X$ U ( ^ W Y   U O.O.) ,.[ ) [ <.) ) _ @ P ,.) ) <.Y ( [ I ) 1 P 7.!.!.R.R.^.'.'.O + ~.[.[.[.'.] 2 @                     O O @ u p u 0 w p w 3 3 @ 7 m o.n t   u u r 3 3 0 0 3 r 3 @ @ 3 3 3 2 @ 2 3 3 @ @ 2 3 @ @ 2 2 2 3 # @ O # 2 O 2 2 @ @ # # @ O @ @ @ O   X @ @ @ O O O O O O O # O @ w w 0 3 e w w O   O O O O 2 L H 4 Y ] ' ] 2.2.6.!.w O O       O ) 3 ^ '.q ] Y.T.#   6 ( ] ^.Y.O P R.u q L LXLX. # # # # 3 3 3 3 3 # # O p w P w P e _  . . . .6.[ { @X}.O 3 0 0 5 3 0 0 0 r 3 # + + 7 i U U a p p U O.W r r X.1.#.F Y /., a.pX$ j.0X7XeXvX6X- 2 p - t l t , , , - t t - , b o.X.b a A a y b X.b t x x - % - b x x x x l x n n x t x x y t t t t t t , , t t t t , m $ d f.d 6X*X,X=Xg.=.  d m.> ,.U X.X.X.O.@.U 0 u 1.U @.) O.1.O.= * * = # 7 r u s s s r 3 r u 0 u 0 u 3 r r + ! .Xc.c.B.v 6 ) <.T. .| ] } ] ' ' ( ( ' ' ( ( ( ( p I I I I I I 4 q 0 4 2 q 0 q q q e e e 0 0 e 3 - l.a.a.b.v.x g yXL.H.H.G.G.G.N.w.#.<.<.<.3.<.<.a p p p a a i u i 7 3 3 3 3 # # + @   @ # + O   2 6 3 5 3 3 # # @ # # @ @ @ @ @ # # # # # @     5 P O             O @ 3 3 3 3 # @ 5 u R R a u u O.O.! O.O.3.u 3 3.3.4.1.4.q.q.w.-.4.0.5.0.N.N.|.N.t .   % c S N.A.XXP..XI.:XB <XaX-X<Xi.m.yX<XC.F M j B a.",
"                                            O O         O O @ # O @ 3 0 w w q 5     @ O       . + # c iXOX  f 3XeX$ X.I ( U I + U O.O.) ,.[ ) [ ( Y ,.,.4 I <.Y ( <.( ] 2.<.) 2 O w 2.!.^.^.'.^.'. Xp O !.[.{.[. XO     o     O                 2 0 P u P P P u 0 3 O t o.t o t r r r 7 0 0 r 3 3 3 @ @ @ 3 3 3 3 3 3 2 @ O O @ O 2 2 2 2 3 # @ O @ @ O 2 6 2 @ @ @ @ @ 2 2 @ O O O   O @ @ @ @ 6 3 2 3 3 @ 5 _ ( _ _ <.2.2.0 O L ( [ ] ( L J P 5 w w w w 6 1 1 @       O O 2 ] O } '.@ ) Y.T.#   4 ] ' '.Y O ] {.Y L W.LXLX  0 # @ # 3 u 7 3 3 # @ O 3 3 5 1 3 ( [  . .[  .6.6.{ @X}.O 5 0 0 5 0 0 0 0 3 3 + + + 7 a U U a a a W i # 3 a #.#.O.C ! #.1.F   1 h.0XrXZX6Xj . - * - , , , - - , t , , , , x n n b o.$.X.b o.-.$.o.b b , % t n Z Z n n c Z %.*.%.c x x x y t t t y t , , , , , , , < 8 3 3 $ ;XZX3X-X=XZ.t.  d B J W O.X.U X.O.O.U   $.#.@./ O.,.,.= = = = # # 3 u r r r r 3 3 w e u r u 3 u r 3 a B.c.m..X-.3 u O.] <.6.7.!.2.] ] ( ( ) ) Y Y I Y I U T T P I _ e w w q 4 q 0 q 0 e e 3 3 3 3 3 3 + v.H.m.l.Z % g I.P.H.F d j n.L.-.O.<.<.,.3.1.@.U p p p p p a i 7 7 3 3 3 3 3 7 @ @   @ + + O   2 6 3 5 3 3 # # @ # # # @ @ O O # # # # # @     5 P O             O # 3 3 3 # # 3 u u P R u 5 i ) O.! O.O.3.u 7 3.,.1.1.4.q.4.w.W 4.).N.N.N.%.l $ & n z.|..XL.XXP.>XK.OXP.:Xj ;X;X2X6Xp.c.A.f t.C.Z.P.:X=X",
"          O O O @ @ @ @ @ @ @ O   O O O @ @ @ @ O     O @ @ 2 2 3 3 4 q H K K J + 3 u 0 3 O   . 6     . O X h.rX6X= a P | / I # T O.O.) [ [ ) ) [ ( ] ) 2 Y <.Y / ) Y [ [ 7.0 U 8.6 O Y '.'.E.{.^.[.[.' O _ [.[.!.O #   . . O O                 O 3 I P P P u w 5 0 3 # t = - %.# 7 r r r 3 3 r 3 # # @ # @ 3 3 3 2 @ @ 2 @ O O O @ 2 2 2 3 # @ O 3 3 1 2 6 2 @ @ @ @ 2 3 3 2 2 2 @ O = 7 # 0 w 3 4 2 2 3 1 5 ] ` ' Y ' | Q.Y 0 {.^.T.!.'.!.'.!.R.'.R.T.T.{ ` ' @       O O 4 ' O !.' @ Y Y.T.#   4 | | '.H   ] E.4 ` ].KXLX. 0 3 O @ 3 u r 3 # r 7 @ r p U 0 U 6. .[  . . .6.6.} @XH.  5 0 0 6 0 0 0 7 3 # + # # u a a a U W W X.# # p #.#.X.X.' D A Y.~ i.m % 3XCX%X% . j d c - - , , , , g l l l , - - , t , - t - $ & - - l l l & $ - l x x g - & & - g & $ - - , , , t t x t t , , , , , , 7 , d k r y CXrX6X-X&Xj.: < s.U W W X.U X.O.O.O.# i #.U U O.O.1.7 7 7 = = # 7 u s r s r 3 0 u q u 0 u 0 0 u 3 u .X.XB.=.r O O O 2 0 w 0 p P U O.) ) / ) ) / / / 3 3 I I w P _ I p P q 4 q q 4 4 3 2 3 2 3 3 3 2 O n g & $ . o Z =.x o   + t x t n / 8.7.] 3.1.X.W U a p p p p a 3 3 3 3 3 7 7 7 + @ O O O O O   3 3 3 5 5 3 # @ # # # # # @ O O @ @ # # # @     4 P O             @ 3 3 3 # # # 3 u 9 9 P P 5 u ) ) ! O.! 1.a 7 q.,.1.4.4.4.4.w.! 5.0.-.n - - g l.B.L.G.L.L.L.I.P.I.K..XP.>Xt.,XsX5X=Xp.f y.:X<X-X%X%X%X<X",
"@ @ @ @ @ @ # # 2 2 2 3 2 2 @ @ O @ 2 4 4 4 4 4 2 O O O 2 5 4 4 5 2 2 q K ' K w O 5 O.,.) P 8 N t..     ; p.*XrXK.O s P ' a p O ) ,.O.) [ ] ) ) [ ) ) _ 2 ) 2.( ( ( ( | [ 2.1 3.~.~.O.O 1 Q.'.^.'.E.].[.3.# w ^.5 O #       O O                   O 0 P P w 0 u p 2 3 @   b ;.n 7 7 r r r 3 3 u # 3 3 # @ @ 3 3 2 @ O O 2 3 2 @ @ @ 2 2 2 3 # @ # u u 6 6 3 2 @ @ @ @ 2 3 6 2 6 4 2   b W 3 5 4 5 4 2 @ 1 O 5 ] Y.' ' ' ` R.L w {.W.{  .T.E.R.Q.T.R.R.!.'.^.'.'.u         O w Y O !.q @ U T.T.@   L { { '.w   ' !.1 E.].LXLX+ @ 3 @ @ 3 r 3 @ @ I p 3 u U / p T 6.[ [  .6. .<.6.} @X}.  5 0 0 5 0 0 5 7 7 7 # 3 3 i W a a W X.W r + 7 O.1.W W #.1.Q ..Y =X3X%X% & d $ # , , 7 ; g - - , , - - g g g g g - - , g g l l g g - - g & g & & g g & & g g & g g g g & , g g g , - - , - - - - - - - - k d & & % @ ; gXvXfXeXh.4 4 h c.n n W X.X./ ) O.a # O./ 1.1.O.U = = * * * = 7 r s r r r 3 7 u q 0 0 0 0 0 r 7 7 m z & $ r w ) I 3 r 3 2 3 # # 7 # @ @ @ @ # 3 3 O O 0 w 3 4 2 e 3 3 2 O 3 5 3 q 0 0 e e 3 3 3 3 O x c F v.N.o.%.c S v.N.M.0.M.M.x a 7.!.[ <.#./ W W a a p p a i r r r 3 3 7 7 # @ + @ @ O O     0 5 5 q 5 3 # @ # # # # # @ @ O O O @ # # @     4 P @             O # # # @ # # 3 u 9 P R R 5 u T T ! O.O.1.R 7 4.3.1.4.q.w.4.w.b b - l g ; S |.B.L.A.A.P.P.J.P.oXL.K..XyXuXt.=XZ.y.y.p.%X2X2X%X<X<X,X<X=X",
"@ @ @ @ @ # # @ 2 2 2 2 2 2 2 2 2 2 4 q q q 4 4 2 1 O O O 2 2 @ 2 @ @ e P E w 3 5 U <.,.] T l B -XS.D.Z.tXrXrX%Xj 4 a R ' y w O ) ,.O.) [ ] ) ) Y ) ) _ q ) <.) / ( ] ' Q.) 5 w.~.q.).).u O )  X[.{.{.[.[.Q.q O +             O                     3 p I p u u u O # @ O b ;.c b t 7 0 0 0 3 3 3 r r 3 @ @ # 3 2 @ @ @ 3 3 3 2 @ 2 2 2 2 3 @ O # u u 6 6 3 2 @ 2 @ @ 2 2 2 2 2 2 @   o.:.# 2 1 w 4 2 2 6 1 L ] ' ' ' } { ^.K K {.Y.Q.Q.Y.R.{  .Q.Q.Q.Q.Q.Q.!.'.I O       O I I O  .q + U Q.} @   H { T.'.q   | T.4 ].].LXLX  2 3 @ # 3 3 # # 3 U U 3 r U I 3 P [ [ [ {  .[ 2.7.} '.}.  5 3 0 5 0 3 7 7 7 7 7 # 7 a W U a W X.a   = U #.O.W X.#.A ,.Q.m.7Xu.7XF @ 8 ~ m h : I d g - - g g - - g g g g g l z z z g g g z z & & g z M M M M M h z g g g g g g g h h c c c g g - - - , g g , , g g % d v l f j   - 7XDX<Xt.A.$ + i.*.n b X.X.U U O.O.# u 1.#.O.W r 7 * * * * * = 7 7 = 7 7 # 3 r 0 u u 0 0 0 r 7 # $ g N ;.~.<.<.) O.<.,.) ) u #   p 0 e e w p p p e 2 p p p 3 O 3 2 3 2 2 0 p 0 0 p u 0 w u u u 0 = M.B.b.b.b.&.v.L.m.m.m.n.n.n.b.Z y 7.'.2.,.O.a W U a a p p a i u i r 3 3 7 7 + @ + + @ O       0 0 0 0 0 3 3 @ 3 @ @ # # # @ O   O O # # @ O   4 I @               @ @ @ 3 3 3 3 5 u P R P 5 u T T ! O.! 3.R 7 4.4.4.+.#.4.#.$.. - m z.B.&.x.L.m.A.C.A.L.L.P.oX|.L.<X>X2X;XV r.g.#X:Xk.FXvX$X1X:X<X=X<X<X",
"3 2 2 2 2 2 2 2 @ @ 2 2 2 2 @ @ @ @ 3 3 3 3 3 6 u u u 3 O O   O O       O 1 # o [ ] O._ [ 1.D s.f.$XrXrXeX-Xf X $ L #.,.] a C O T O.O.) [ [ ) ) ) <.) I 2 _ <.[ I ( ] K !.H P ~./.~.q.).+Xq.O 2 '.'.'.{.[.[.I .   o   O                             O 3 u 3 @ @ O 3 u 0 # . 8 ;.$.a # 3 0 0 3 3 # u a 7 @ O @ # 2 2 3 3 2 2 3 3 @ 2 2 2 2 3 @ O   7 u 3 3 3 2 @ 3 2 @ 2 2 2 2 2 2 O   *.;.= # 2 5 2 @ 2 6 2 5 ' ' ) ) ] K !.L L {.{ !././.^.T.Q.R.T.T.R.R.R.R.'.I O       O U w 1 | J @ U /.' O . L ` R.'.0   { ( L ].(.LXLX  w # @ # 7 3 # 3 a I U 3 u U U q Y ( [  .[ [ 2.6.7.2.}.|.  3 # 0 5 0 3 3 7 7 7 * + 7 a ! U U X.W a o a 1.O.! O.O.W 1.A ! 7Xs.I.k.d g j ; m f d r h g g g l l g g z z l g h c c z h c c g c c g g Z M D B M M M M D h c M c z g g h g h c c c h h h g l l z l g g g j - g a L % r.O ; L.h F.9Xp.O : M.o.x n X.U / @.1.3 @ #.r # i 7 t 8 7 8 8 * * = = + = + + 3 u u u p 0 w 0 u u O l N.|.N.~.,.<.O.] ] ] ] 2.) 3 O [ ) I I ( ) ) ( _ P U ) O.U @ p I U P u P I w w u w 0 0 0 u 0 3 $ z.m.c.m.b.a.x.G.n.x.b.M.v.v.v.*.y 8.'.6.) U a U U a a a p a i i u r 3 # 7 7 + @ + @ @ O       0 0 0 0 0 3 3 # 3 # @ # # # @ O     O @ # @ O O 4 I @               O # 3 5 5 5 3 u 9 9 P 9 u R T T ! O.! 3.R 7 q.~.q.R i W r . l N.b.z.D j x.B.m.A.A.L.L.L.P.P.,X>XK.z.j y.a.%X&X&X2Xk.MX*X:X;X&X&X1X1X-X",
"2 2 2 2 2 2 2 2 2 2 2 2 @ @ @ 2 2 2 2 2 4 4 4 4 H ( K K ` ` | ' ' K J J 4 4 w O r ) 7.o.O./.:.Z.a.X x a.8 O 7 | [ I ) ] Y ) U O U @.[ [ [ ) I ,.[ ,./ / O / <.( ( q ) <.<.O 7.~.7.~.~./.~.+X}.:   Q.[.[.[._                                     O     @ @ O 4 J T w 3 u r # 7 b Z b i r 3 3 7 3 i r 7 r 3 @ 2 5 3 3 3 3 3 2 2 2 @ O 2 6 2 2 @ O O # 3 2 2 2 @ @ @ 2 2 2 2 2 3 3 # #   a.l.@ 6 + 5 4 2 @ 3 1 5 ] ' ( ] ' { ^.' H '.T.} 2.Q.R.!.T.T.T.Q.T.T.R.R.'.Y O     O @ T w 4 ] J q K 2.,.  . K { T.[.L O | K ` [.(.LXLX  = # 3 @ 3 r @ # O.p I 0 3 U U 0 p  .{ [ [ [ [ [  .] }. XO @ #   7 + + + + + * * 7 u O.U X.W #.p O 7 t t b :.! w.O.*.v sX=Xp.j.& m g g , g g g g g z z z z z z c c M z N g c c c h g c c h c z & S n n N N N N N M c g S z N z z z c c c c z z m x g l l l l l l l g c g g x g l g > . 9 ,X&X-Xt.X & o.A W W n o.y X.X.3   u X.X.#.X.X.a = * 7 8 7 * = 7 7 7 7 * * + # 9 3 O 0   . A.b.H.N.).[ [ O.) / _ _ _ ] )   I ) ( ( _ _ ) I / I Y I ) I O I P P p w w w w w p p p w 0 0 0 0 + B.m.n.m.n.*.b.m.m.n.n.n.b.b.b.Z o.W q.1.U #.a U O.P P t - b r u p r # # 3 # # @ @ @ @ @ O O O w w 5 3 3 3 # 3 3 @ @ @ @ # @       O @ + @     4 P 3         O   O 7 5 3 u 3 3 r u 9 9 9 P u 7 U T O.,.T ,.R 7 1.u @ O   % %.z.>.G.x.z z.S l.A.m.L.A.A.G.L.oXyXB.h d p.F.-X%X&X3X&X2X#XvX&X-X1X,X;X;X1X-X",
"2 2 2 2 2 2 2 2 2 2 2 2 @ @ 2 2 2 2 2 2 4 4 4 4 H ( Y ' Y.{ Y.Y.Y.{ | } ` | Q.K + 1 ! ;.w.1.F =XZ.    - P ) X.Y ) I ) ] ) O.U O O.@.) ) ] [ ) ,.( ) / / O _ <.[ <.H w P w P ~.~.7./.~.~.!.~. X X$.O { +XJ                                             O 3 P Y Y P 5 5 u 3 # # # n *.b # # 3 7 u 8 7 r u 7 3 2 3 3 3 3 3 3 2 2 2 @ O @ 6 2 2 @ O O 3 3 2 2 2 @ @ @ @ @ 2 2 2 2 2 # #   a.l.@ 6 + 5 4 2 @ 3 1 5 ] ' ( ] ' { E.K H E.Y.} Q.T.T.Q.Q.T.T.Q.T.T.R.R.'.I O       5 ) 4 1 8.I 2 ] /.P O . L '  .[.(   [ w W.].(.LXLX+ 2 # 3 @ # 3 @ 3 #.I I 3 3 U I 0 p [ ] ] [ <.[ 2.6.6.H.}.O 3 #   7 7 * * * * 7 7 7 # p u a W U s + t x A x b :.r #.P oXVXf XXV z & g g g g g g g g g g g g g h z c g g M M h h g S h M c z N z d S M M M c c M M M c h c h c M M M h h h c c c z z l l l l l l g g g c g g l g g g x h = p.5XZ.r.  $ n X.a X.W b O.O.X.r + O.#.O.W @.#.X.i 7 7 = + * = 7 7 7 7 * * # # 7 # O 3   - P.B.N.N.).[ [ O.) / _ ) _ ] ) O I ) ( Y _ ( ) I / I Y I ) I O I P P p w p p w w 2 e 0 0 0 w 0 3 o B.b.n.m.b.=.b.B.b.b.b.b.n.n.n.c N.a W }.9.#.9.$.# 0 W W b a u r u 7 + # 7 7 3 # # @ @ @ O O O w w 0 5 0 3 @ # 3 @ @ # @ 3 #         O @ @   O H P @         O   O 7 5 3 5 5 3 3 u u P R R u 7 O.R R O.3.q.u O   # u X.#.x N.|.S n.x.b.|.z.D L.c.A.b.L.XXP.t.d f h.uXsX6X3X3X3X3X&X3X$X*XeX&X3X5X1X1X1X1X",
"2 2 2 2 2 2 2 2 2 2 2 2 @ @ 2 2 2 2 2 4 4 4 2 2 w Y Y | T.Y.Y.Y.R.Y.Y.R.Y.E.[.Y.L 4 O   n N.Z.1X:X. O T { ^ C / ) / ) ] ) O.U O U O.<.[ [ [ [ / [ [ ,.U O 0 ) ( P q q I O 2./././././.!.~.^.^.[. X!.2 1 O O O @                                         2 Y ] K P P u u u 7 3 @ t Z t + 7 i i i r r r u 3 @ @ 3 3 3 3 3 3 3 2 2 @ O 2 6 2 2 @ O @ 3 3 2 2 2 @ @ @ @ @ @ 2 2 2 2 @ #   a.l.@ 6 + 5 4 2 @ 3 @ 5 ] ' Y ] ' ` R.K J {.Y.} !.Q.T.T.6.T.T.Q.T.R.R.R.'.p         0 _ 2 O / e w } 2.O O   L ` T.[._   u @ {.JX(.LXUXO q @ # @ 3 0 @ 3 X./ I 3 u U U 0 p  .{ [ 2.2.[ [ 2.] }.OX+ @ # o * 7 * * 7 7 7 * + + 7 # # r # = 7 n x y % a a #.> x i.% V j g M t g g g g g g g l c c c c z c c c M M h c D |.n.c M M M c S c g S S S M M M M M S F h g M h h M h M M M M M M M M c h h z g h g g h c g g l l g g g ; 7 i.y.f i.>.c b X.X.W b b X.% t r # X.O.O.O.a X.X.i = + = 8 = = 7 7 7 7 7 * r * 7 # + 3 . x XXB.N.N.}.[ ] O.O./ ) / ) ,.O.O P ) Y I _ Y _ I ( I Y I ) I O I P P p p p p p w @ 2 q 0 w p 0 3 # B.b.n.m.b.=.m.m.b.b.B.b.n.n.b.=.H.-.+.W i o.t Z . 7 p a a u I r u 3 # 3 r 7 3 3 # + @ + @ O O 0 w 5 5 u 3 @ # # # # # # 3 3 O       O O @ @ @ P 0 O             O 3 3 3 5 3 3 5 u 9 9 9 R a u O.O.O.U 3 # O + 9 #.4.9.w.= *.;.h l.b.b.G.b.B B.A.A.L.L.a.f r.P.2X2X2X2X5X3X3X3X&X3X&X&X&X0X0X3X&X3X3X3X3X",
"2 2 @ @ @ @ 2 2 2 2 2 @ @ @ 2 2 2 2 2 4 2 2 2 2 H Y Y | Y.Y.Y.{ Y.Y.Y.Y.W.E.[.R.R.Y.} H O . t.aXpX& 2 ] ` ^ I ) ) _ ) ) T ) U @ u O.q.,.] [ 2.<.[ ) [ e O O I P I 3 3 0 1 '.~././.!.!.!.^.^.^.^.[.+X'.O   + O O                                   O   O O J ' ' P 5 5 6 3 3 3 # . = v v i t i u i t 7 3 # @ @ 3 3 3 3 3 3 3 2 2 3 @ 2 3 2 2 3 O @ r 3 3 6 6 @ @ @ @ @ @ 1 1 1 1 @ #   a.l.@ 6 + 5 4 2 @ 3 @ 5 ] ' ( ] ' { R.K J {.Y.} Q.T.Y. .6.T.T.Q.T.!.R.T.'.I O     O 0 ) p 3 @ 2 [ ( Y 1 O   H | ^.^.( 2 O 4 {.].].LXLXO 4 @ @ # 3 u # @ r p 0 3 u U p 3 w 2.[ <.2.[ ( ( ) J @X X+ @ # % * = * + * * = * + i i 9 7 W = t n o.n b $.3 p b OXt.k.VXF.d 9 g h g g g g g g g c c c c c c c M M h S F c S G.n.c M F M M S c d S Z c c c c c M M D c & S M M S h c c M M M M M M c h h h h z c c c M l l m l z g h ~ R p.j.uXj.:.M.x a $.a b +.r % b n t i X.O.O.#.#.X.i 7 * = 8 * = 7 7 7 7 7 * = * 8 8 7 7 . m XXb.N.N.}.[ ( O.O./ / / ) ,.O.O H ) Y I ) _ _ Y ( I Y I ) I O I P P P p P P p p 3 q w p p p 0 3 % B.b.n.m.b.l.m.B.B.m.b.b.n.b.z.b.z.N.N.t b }.%   0 ,.T U X.p P i i 7 # 7 r 3 3 3 3 + + + O O   2 3 6 3 3 # @ 3 @ + # @ @ 3 0 O   O O   O O 2 w I 3               O 3 3 @ 5 3 3 3 u u u u R u 5 u 5 3 # O 7 # a -.w.0.-.0.t - x n.B.B.m.B.B.D L.B.m.XXXXj J.pX,X,X2X;X1X6X1X-X1X&X3X&X3X3X&X0X9X&X*XeX3X3X",
"2 2 2 2 2 2 2 2 @ @ @ @ 2 2 2 2 2 2 2 4 4 4 4 2 I ( K { Y.Y.Y.{ T.Y.{ Y.W.^.[.W.Y.| Y.R.Y.H . $ c . @ / I O.] ' ) ) ) _ _ ) U 3 O 3 p O 2 w [ [ <.) <.P p P <.O.<.U O.@ O O.~.}.^.^.!.^.'.^.^.[.].JX'.@       O                                       O O 4 Y Q.U u 5 5 u 3 3 7     n 5.x = t r i 7 # # # # # @ 3 3 4 4 3 2 2 2 3 @ 3 3 2 3 3 @ # r u 6 6 3 2 @ 2 2 2 @ 2 1 1 1 @ #   a.l.@ 6 + w 4 2 @ 3 O 4 ] ' ( ] | { !.K H {.Y.|  .T.T.T.Q.T.T.T.R.R.R.R.'.p     # O 2 0 e p @ X I 4 4 6 O   3 { {.Y.{ Y.4 { W.Y.E.LXLXO . # @ @ 3 u 0 # 3 3 # 3 u u 0 3 0 I / [ [ [ ( _ [ ) $.>.  5 o o = * * + + * = = 7 i i i a +.t b o.W b *.b u 7 .XL.k.k.-XFXf.* Z d g g g g g g g c c c c c c c M M M c D F S c M S F F F M D c d D Z Z S S S S S S =.c & =.S S =.Z N S N N N N M N c c c c c c c c c N h g m z z g < ; 8 ;XeX%Xk.~ %.x = X.Q b +.r % $.Z n t 4.#.X.O.p r 7 r t = + = = 7 7 7 = = = = * 8 i 9 7   Q XXb.N.).}.[ ] ,.O.) ) ) ) ,./ O H [ Y I ) _ _ _ / I Y I ) I O I P P p p P P P p p p p u u u 0 3 o B.b.m.m.m.l.m.A.A.m.n.n.b.b.l.n.n.v.v.;.0. Xx 2 '.'.' T W b a u i 7 # 7 7 3 3 7 3 # # # +     O @ @ @ # @ @ 3 @ @ @ O O 3 w 4   O   O O @ w Y p @ O           O O 3 3 @ 5 3 3 3 u u R u u 3 O # O O 7 W #.a X.:.-.4.-.0.0.= Z .XB.b.B.B.B.B B.L.L.F j s.uX<X=XF.;X2X1X1X1X&X3X*X3X6X3X3X&X9X0XeXeXeX3X6X",
"2 2 2 2 2 2 2 2 @ @ @ @ 2 @ 2 2 2 2 2 4 4 4 4 4 I Y K ` Y.Y.Y.Y.Y.} } Y.Y.^.[.R.R.!.R.W.E.'.~.2.% ; + ] y W | | ( ) ) _ ) ) I 2 P I p O U / <.[ <.,.8.,.1.<.8.<.,.O.~.3 @ @ 5 O.^.^.^.^.{.[.[.{.JX[.4 O O +   +                                         O O w <.U u 7 u u 3 3 3 #   = -.%.b b r 7 # # 7 r r # @ 3 3 4 4 3 2 2 2 3 @ 3 3 2 3 3 @ @ 7 5 3 3 3 3 @ 2 2 2 2 2 2 1 1 @ #   a.l.@ 6 + w 4 2 @ 3 O 4 ] ` ' ' ' { !.K q {.R. .Q.T.T.T.T.T.T.T.T.T.R.T.'.3 O   p 0 2 O O O e O 2 L H U O     ` {.` Y.{.` Y.L K Y.LXLXO & 3 @ @ 3 u u u 0 r 3 7 u u p I _ q I [ [ [ [ <.2.7.@XM.  7 O o 7 = = = * * = 8 i i 9 7 r i 7 W +.$.x Q 7 i }.a.p.#Xk.3XbXf.h o N g g g g g g c c c c c c c M M M a.M F M l.D D D F F F F D h d D S S S S S S S S =.g g S M c S N S S S N M M B B c c c M c c h h c S z l z g z g x M & 7XeX#X1Xs.g %.t y $.x b b . b A X.= W p i # # r s t 7 * 8 7 7 7 7 = = 7 7 = * = 7 7 #   %.L.v.N.N. X[ ] ,.) ) ) / ) ,.)   P ,.I P ) ) ( _ / I Y I ) I O I P P p p P P P w p p w 0 0 u 0 3 o B.m.b.A.m.l.C.A.A.m.c.b.B.b.b.b.N.v.&.;.*.H.b K [.!.K T a i i u u 7 3 7 7 3 7 7 3 # # # +     # 3 3 3 3 # @ 3 @ @ @   O @ w H O O O O @ 6 P Y 0 O               O 3 3 3 5 3 3 5 u 3 3 # # # @ 7 R U +.O.X.r +.4.-.5.4.-.N.= ;.G.b.B.B.B.L.a.c j h f.J.p.:X,X2X2X2X;X,X5X3X3X9X3X3X6X3X3X3X9XwX0X*X3X%X1X",
"2 2 2 2 2 2 2 2 2 2 @ @ 2 @ @ @ 2 2 2 4 4 4 4 4 I Y K ` T.Y.Y.Y.Y.} } Y.Y.^.[.R.W.` { E.^.q.M.~.pXP.. ` C O.' / ) ) ( P I ) I 5 ( ) p O 8.1.O._ O.O.<.O.,.) ) _ 2.) O.@ 9.$.r   I /.'.[.(.{.[.[.[.{ O X   O O                                             O O 0 # # # # # @ @ @ 0     t *.Q t 7 # # 7 r r r # @ 3 3 4 4 3 2 2 2 3 @ 2 3 2 2 3 O @ 7 u 3 5 3 3 # @ @ 2 2 2 2 2 2 @ #   a.l.@ 6 + w 4 2 @ 3 O 4 ' ` ' ' ' { ^.K 2 R.T.Q.Q.Y.Y.T.T.T.T.!.R.T.R.Y.'.5 O @ _ I Y 5 3 1 P H L ( 2.}.O @ . K {.Y L Y.I K ` { W.LXLXO % 3 @ # 3 r u u u u u a u u U ,.] 0 / 8.<.[ <.7.7.!.+X X  @ + = 7 = = = * + 7 v +.! W i i + 7 X.X.y ;.= o.+X& f =X#X#XvXcX; R h h z h z z h g c M n n c c M S N S M F D M M D D D D F F F D M g D a.a.a.a.a.a.a.a.a.d M a.a.F a.a.a.F F a.a.a.a.a.c c M M F M M M c S c c c z z g - F . 4XAX&X#X%XN S %.t x %.n n % y o.b = . # 7 a X.#.#.a * * 8 7 7 7 7 = = = 7 = 7 = * 3 # . :.L.b.N.N.}.[ ) O.) / _ / ) ) _   P ,.P w ) ) Y _ / I Y I ) P O I P w w w P P P p p w w 0 0 u 0 3 o B.m.b.A.m.n.C.C.m.m.m.B.n.n.v.M.>.M.M.%.b |.o.O I ( T O.X.i u u u r 3 7 3 # 7 3 # + # # # O   3 r r 7 r # @ 3 3 @ # +   O 5 H @ O   O # 0 P Y @                 O 3 3 6 5 3 3 5 3 @ O O @ 7 u U U R ! +.+.i -.4.+.4.:.-.N.x M.B.B.G.B.A.XXG., f.Z.iXyXi.>X<X1X;X1X5XfXfX3X1X3X3XeX&X3X3X3X0XkX0X&X&X&X3X",
"2 2 2 2 2 2 2 2 2 2 2 2 @ @ @ @ 2 2 2 4 4 4 4 2 I Y K { R.Y.Y.{ R.Y.Y.Y.W.{.[.R.Y./.Q.W.Y.0.N.~.uXuX* W.^ ,.' C ] ] I q w I I p ( [ p O 9.1.O.1.@.<.<.,.] ) [ @.[ ,.O.O w.w.N.M.: O Y [.[.[.JXJXQ.O   . X O O O O O O O O O O O                             O O # 3 3 @ @ 3 r 3 @ r o % x =   # r r r r 7 r # + 3 3 4 4 3 2 2 2 @ O 2 6 2 2 @ O @ r u 5 0 3 @ @ @ @ @ 2 2 6 6 3 @ #   a.l.@ 5 + w 4 @ @ 3 O 4 ' ' ' | ' { '.K O L ' [ } ` Y.R.T.!.!.^.R.T.T.T.'.3 O O q 5 Y P P ] H Y ( L ] +XO 2 o L ^.U O 2   H W.E.W.IXLXO 2 @ @ 3 r r u u 0 r r u r u T ) I 3 / 8.<.[ <.8.<.7. XH.  9 # o * * = = * + = b +.U W W X.  + r + % < . OX+X; =X#XF.;XFXS.$ w j m z z z c z h c S c c c c M M N S D F F D F D M D D F F F D M g D J.J.C.C.C.C.C.J.a.f f.m.J.m.C.m.m.m.m.m.m.C.C.C.h M M D D D D D G D c c N c c h h h 3 d.AXeX&X%XB.g ;.x . M.M.Z a o t t o.t $.-.#.X.W X.W 8 * * 7 7 7 7 = = 7 7 # 7 7 7 7 7 . ;.L.b.N.N.}.[ ] ,.) / _ ) ) ) _   P ,.H w ) ) I _ / I Y I ) I O I P w w w P P P w w w w 0 w u 0 3 o B.m.m.m.m.n.J.J.C.m.B.n.M c %.N.=.;.v.;.n }.X.x > a r # t u p i p u 7 3 # @ 3 3 + + # # + +   @ 3 3 7 7 # O @ 5 2 3 =   O 2 H 3 O     3 p P H     O             O 3 3 3 5 3 3 O @ # 3 7 u U U R ! ! ! ! ! 9 -.4.+.4.4.M.M.c %.L.b.B.m.A.L..X, Z.P.P.P.s.:X=X;X3X6X2X%Xk.j.%X%X6X&X*X&X3X0X0XzXvX&X*X&X6X",
"2 O O 2 2 2 @ 2 2 2 2 2 2 2 2 2 2 4 4 2 4 3 5 5 I H K ' } Y.Y.Y.T.{ Y.R.Y.[.[.Y.Y.Y.R.^.Q.!.w.M.oX>XO ( O.` ' ) ) [ ] ) U T ) / ' ) p @ q.3.O.,.O.O.O.O.O.O.O.O.) @.X.  }.N.:.).|.%.o O } [.[.E.      O O O O O O O O O O O O O @ O O                       O r ,.Y I u 7 9 u 3 3 # 7   - x x l 0 r r r 7 7 3 3 @ 3 0 3 4 2 2 # @ @ @ @ # # # #   # 5 u 5 3 @ @ @ @ @ 2 2 4 4 2 O @ . ;.;.. @ 3 # @ X O O O O 3 @ @ @ @ 2 2 X O O . . . O 1 2 e q w P P / ) I q O     o = 7 7 + L ; - L 2 b.OX  o % @ | W.4 O X 1 [.KXPXIX XO 9 3 # # 3 r u r r 3 p 3 u u ) ,.) 2 @.2.[ 6.2.<.~.!.+XH.. 9 = = 7 = + 8 * . W #.W W W X.i   o.:.-.,.0 X : % i.1XeX*XAXVX; b & g ~ g c c c h c S =.a.a.a.c.a.c.c.c.s.d.s.s.C.C.C.C.m.d.s.m.m.j & & g h h h M g z h d h h h h h h h j j j j j M M M d h z B B B B M c h g h M M M h ! h g . jXbX&X3X&Xf.$.V.N X : i x . +.o.$.b t $.X.X.X.O.X.7 . = 7 7 7 8 8 7 7 7 8 = 7 + t = . ;.L.c.H.|.).3.[ ( ) _ _ ) @.O.0 O w I _ / ) ,.] ) _ U _ I ) I O U P I P P u P P P p 0 p 0 u 3 0 0 7 m.h.A.h j sX;XA.C.d.dXa.h P.m.M.M.M.;.;.n H.$.W #.X.W O.+.+.W u i r r r 7 # 3 7 # + + # # @   # 3 3 5 0 3 @   3 3 3 @ @   O P u O O 4 H P u O                   O # # O 3 O @ u u u r @ a R U R U U ! O.! 7 4.-.-.4.-.5.}., ;..XB.b.B.L.L..Xg B.I.P.<Xi.-X3X3XI.s.f j.&X3X3XeX0X0XvX0X0XtX0XzXzX&XeX&X&X",
"2 O O 2 2 2 @ 2 2 2 1 1 1 2 2 2 @ @ 2 2 2 3 4 4 Y K K | T.Y.Y.Y.Y.Y.R.R.Y.{.[.W.T.T.R.Y.Y./.~.M.yXyX@ I X.` ( _ ( [ [ ] ] ] <.) ' ) w   8.3.] [ O./ / O.O.@.@.@.,.O.X.+ N.4.4.).w.}.}.I 4 4 ' 4         O O     O O O O O O O O O O           O               + ) _ I u 7 9 u 3 r 3 7   - o.n n r r r 7 7 7 3 6 O 2 3 4 4 2 2 # @ @ @ @ # # # # O @ 3 3 u r 3 # @ # 2 2 2 2 2 1 4 O   *.v.% O @ O O @ O @ 2 O 2 w H H J Y ( ( ( ( e O O I { ] K L q 2 O O O 2 w + O O @ O 2 q L . I L 1 6 pXr.L 7 O 2 6 ! /.Y.E.c O {.LX+XO 3 3 3 3 # 3 3 3 # # # 3 O # @ u p 0 # p U I _ I I ) ) w.*.+ 9 + % = = + 7 * + W #.W +.X.$.i + +.:.-.V._.n 9 ! . ; x.7XDXj & x Z c d c c c c g g h h h M j j h j B B M M h h M M h M a.i.i.a.a.a.M S h h h h M d g g j M M M j j j j j j j h h h h h h j M M M j h h h g d g h h h h h & g m d DXAXfX,Xd o l k > A F o.= W o.+.b = Q O.O.X.O.O.t * = * * 7 7 7 7 7 7 - * 7 + 9 = . *.oXb.S -.1.U I C I _ I p 0 3 @ O 2 q w w w w w w 0 w ) I H 0 O 3 0 p u u p p 0 q 3 2 3 @ 3 @ 3 @   H.J.b.a.uX,X:Xx.m.B.m.d =.iXL.v.v.n.z.z.c N.*.X.4.#.O.#.O.X.a u a i u i 7 # 3 3 # + # # # @   # 3 5 5 0 3 O   3 3 3 # X   O 5 p O 1 J J 5 3 O                   O # # # 3 3 5 u 5 u r @ a P U R R U ! O.! 7 4.o.-.w.0.-.N.- ;.m.B.B.L.L..XOXd P.Z.S.>X>.C.a.h f y.r.;XeXeXeX0X0XrXrX0X0XtXwXzXzX9XeX9X&X",
"2 @ @ 2 2 @ @ 2 2 2 2 2 2 2 2 2 @ @ @ 3 3 3 3 3 K L K ` Y.Y.Y.Y.{ Y.Y.R.W.[.[.W.Y.Y.R.R.Q.~.~.0.yX,X@ P X.{ <.1.) [ <.] ] ] ( ( | [ p O 8.2.( ) <.<.O.O.O.,.O.) ) ,./ 0 }.w.w.1.^.!.'. X~.@ . .                             O O                               O I ) I 0 7 i r 3 3 7 3 + = *.%.c u r r 7 9 7 3 3 O @ 3 4 4 2 2 @ @ @ @ @ @ @ # # X @ @ @ 3 r 3 @ @ # @ @ 2 4 2 2 2 3   . . . . O O O 3 3 5 5 1 5 Q.!.!.!.!.!.!.^.!. .J 4 !.'.'.'.'.'.!.[ H q w I @     > x , & $ u &   = uXC.4 L 6 4 K s @ L ! V pXG   O @ # 3 3 3 # # 3 r r r 7 r 7 O 0 3 u p w # O # u P P P u w C A . 7   = 7 = + 7 * * ! #.W +.X.+.r # +.o.:.Z %.;.V.~ C.4Xd.; h $ S , l z j z c c c c h h h z z g g ; g h z x x g g g g d g h j f d f j B M F D F B a.j F D a.a.F F B B B B B F F B B j j j j M B B B M j M M M M M M M B D h n c m ~ r.DXh.f p.f.G %.;.&.h *.t y X.X.W = b O.O.X.O.O.i = = * = * * = = = * = $ 8 * 7 = o x l.; . $ . # 3 : O 4 3 2 @ 3 u U I _ _ _ Y Y I I e O 4 2 4 w 2 3 @ # O O @ @ @ X 3 3 0 @ 0 3 3 @ d L.m.G.oXaXf l.c.n.P.j $ b.B.m.H.b.b.b.v.c M.v.a #.#.$.#.$.O.a u a i u i 9 # 7 3 # # # 3 #     @ 3 5 5 0 3 @   @ 3 3 # @   O 3 I 2 4 Y P O O                     O 7 3 3 u 5 u u 5 r r @ a P U U U ! X.+.O.7 -.-.$.#.-.0.}.x =.L.G.m.L.L.oXOXh C.K.yXyX& r.D.L.2XsX=X1XtX3XeX0X0XrXwXwXwXwXwXxXxX0X0X0X0X",
"2 @ @ 2 @ @ @ @ 2 2 2 2 2 @ 2 2 @ @ @ 3 3 3 2 6 J K ' { T.T.R.R.!.R.Y.Y.W.[.[.W.Y.R.R.^.!.~.~.w.yX,X  e r L p 0 p P P P _ ) ) <.Y ) 0 O 8.8.) / ) ) ) ) ,.<.<.<.,.8.p 3 w.4.q.q.^.^.^.'. X XM..                                                                 0 ) _ e 7 u 7 0 3 r # + + Z n c u r 7 9 r r 3 3 @ # 3 q 4 4 2 @ O @ @ @ @ # # # + O O O @ # @ O O O O O O @ 2 @ O @   % n ;.$.+ 3 6 3 6 5 5 2 w T.T.Y.{ { { { { { } ^ 2 ^.E.E.E.E.'.T.H 2 w Y Y p   $ t.S.=X-X-XK.Z.2X*Xj.d @ 3 O 5 <.4 : i.#XcXDXG . i # + # e 3 # # 7 u a p p p u # U / ) ) ) $.u U 8.7.q.~.q.7.H.H.+ 9 + = + = + * * 7 X.$.X.X.W X.7 # +.Q o._ / a Q r.%XbXGXH.. +.h d m m h h z c M M M M M B N M M g c M N B B B B B B B t.a.a.a.B F a.a.a.F a.F B a.j F a.a.a.a.a.a.a.a.a.B F a.a.B j j B j M B B B B B F M M M M M M M F Q d h m - h $ ; VXDXF.a.;.~ ~ -.*.x = X.X.+.r a #.O.X.O.$.b = * * * * 7 7 = = * = $ 7 * * = o = f m.L.OX%.U U / ,.@.,.,.,.<.8.8.,.<.,.[ ] ] ] ] _ O w H I ) ) / _ _ p 3 p U I / P I I 3 u p p 3 d m.C.L.m.d.f.>.s.f.>Xi.G XXC.J.B.H.G.G.N.n Z , r #.#.O.#.$.O.U u u u r i 7 3 7 3 # # # + +     @ 3 0 5 0 3 @     O @ @ X     # Y L 5 P 5 O                     O @ 7 7 3 u 5 u 5 7 r r @ a P U U U ! W +.O.7 #.-.-.9.4.5.N.x ;.L.m.H.oXOX.Xn.$ L.I.P.<Xa.2X6X6X1X6X#X%XrXeXeX9XwXrXwXwXwXwXwXxXxX0X0X0X0X",
"2 @ @ 2 @ O O @ O O O O O O O O O   O @ O O 1 2 O O 2 q H L L L L L L ^ { '.[.R.R.R.R.R.Q./.~.).iX,X  e = 4 3 @ O   @ @ 3 0 # u T ) 3 O ,.3.O.O.@.@.O.O.@.@.O./ ) ,.u p }.#.O.~.^.[.[.^.'. X+XX.              O                   O O O                         @ _ ) w 3 7 7 u 3 u 7 7   b %.S i r 7 r r r r r @ @ 3 3 3 3 3 3 @ # 3 3 3 3 3 3 # + O   O @ @ O O O O O O O O O O   = o.0.;.n r 5 5 5 2 2 3 1 w T. .} } }  .} }  . .( 2 '.{.E.E.R.R.T.K L [ 2.( L 1 O @ % % h G K.Z.t., 1 ` 4 1   >   V #XwXAXjX&   + # 3 i 3 0 7 3 3 3 u u u u p r @ U O.O.O.,.#.0 I 8.<.<.7.8.7.+XOX. 9 # % 9 = + * + 8 +.+.X.+.! X.= r $.o.o.v ;.+.4.c.&XvXAX, v m h j l k G M M j M M M M j B D B B h M B F B t.t.t.a.a.t.a.a.F a.a.B a.a.a.a.a.t.B a.j a.a.a.a.a.a.a.i.a.a.B G a.a.a.B B B j B B B B B B B B B M M M M M M ~ G j M h c ! = cXbXk.c.;.N :.@.o.b = b +.$.i r O.O.X.O.#.W 8 * = = = - = = = = = * 7 7 * = * . >X,XK.L.N #.<.,.<.,.) O.) ) ) _ ,.[ ] ) ) ) ) ) ) 2 ,.2.<._ _ ) ) ) P 1 I I Y Y I I U 3 u p a # 0 L.F.m..Xc.C.A.L.OXyXd.c XXm.m.B.v.&.- o o , . W 4.1.#.#.O.O.p u i u r i 9 3 r 3 # + O + + O   @ 3 0 5 0 3 O     @ 2 @ +     @ Y E w 2 O                       O @ 7 3 3 u 5 u 5 5 u u @ R P U U U R U ! +.9 #.#.+.9.0.N.N.n %.G.b.b.l.h ; M l.C.K.yX-Xr.1X3X&X3XsX-X#XrX0XeXwXwXrXwXwXwXwXqXxXzX0X0X0X0X",
"2 @ @ 2 @ O O @ O O O O O O O O O O O @ O O 2 w P P P I I Y J L ' | | ' L | | K Y.Y.R.Q.Q.!.~.w.yX,X+ I o.] O.O.>   r r 3 3 O @ 1 O O O R ,.1.9.1.1.1.1.#.@.O.O.O.1.p r ).w.4.q.'.'.'.[.[.'.+X~.        O O O O O       O @ @ O O O O @ O O                     O u _ P 3 7 7 r 3 7 3 7 O 8 *.S b t 7 7 r 7 7 r @ @ @ 3 3 3 3 3 @ # 3 3 3 3 3 3 # # @ O O # # 3 # 3 3 @ @ @ @ @ @ O a y     O 3 2 2 5 2 5 5 2 w  .} | | } } } | { { ( O '.^.E.R.E.E.R.!.!.Q.{ ' a #       O O O x eX1X$ v R & u.c.d r.$XtXrXI.  @ O 3 3 5 5 3 3 7 3 3 3 u u u u i r @ U O.O.) O.@.p / 8.2.<.7.8.)  X|.  i o . 9 = * * * 8 X.X.X.X.! X.# t :.o.:.z.N o.4.t.0XAX4X$ n d h M l c x M M M j M M B B B B B a.h B B B B F F F F G G a.a.a.a.a.B a.a.a.a.a.a.a.a.j a.s.a.a.a.i.a.a.i.i.a.a.a.a.a.B B B j B F a.B B B B D F B B B B M M m M h c g n 5.. F.FX%Xc.D F *.y S %.= a #.O.a 7 X.O.X.X.$.! 8 * = = 8 - = = = = = = 7 7 = = = % =X=Xj.P.D U ) [ O.O.,.,.] ) ] <.,.] ) ] ) ) ) <.U 1 ] ] ] I I I ( ] Y 4 ,.T Y Y I I U 3 u r r O p m.j.L..XB.m.c.x.v.a.N   - d d ; d z g t -.0.t O.q.3.#.#.O.O.p u i i i i r 3 r # + O   O O     O 3 3 5 0 3 O   @ 3 6 2 +     O K Y q O                           O 3 3 3 u 5 u 5 5 u r @ R R U U U U W O.#.9 #.9.+.4.0.N.N.l - M g $ ; x.A.L.G.P.P.iX=XG 2X2X;X1X3X-X%XrX0X0XwXwXwXwXqXqXqXkXmXzX0X0X0X0X",
"2 @ 2 2 @ O O @ @ @ @ @ @ @ @ @ @ @ @ 2 2 2 w ) [ [ <.2.} } } } R.^.^.^.{ Y.Y.R.Y.R.T.| ] ~.~.4.iX>X+ I o.] O.@.a @ / <.) <.) / T 3 O @ 1 1 @   r s u y a X.#.1.8.@.a + a 9.~.q.^.'.'.[.[.[.+XT O O   O     @ @ O O O O O @ @ O O @ @ @ @ O                       3 / I u 7 r 0 7 3 3 3 @ + %.S n t 7 7 7 3 # # # @ @ 3 3 3 3 3 @ @ 3 3 # # # 3 3 # @ O @ 3 3 3 3 7 7 3 # # # # + @ X.s + u 5 2 2 2 5 2 5 5 2 w T. .} } } } } | | } ( 2 !.^.^.!.^.R.T.T.!.!.!.^. .^ X     @ # O 2 . 6XCXk O r.hX&X$X$X0XcXN 1 8 @ 3 # 3 3 3 3 7 7 3 3 7 u a a a y r # X.O.O.) ) @.p U 8.7.8.7.q.7. XOX. i o o 7 = * * * t ! W X.X.W X.+ a :.o.o.3.b A 0.p.0XAXI.; d D N N h h l M M M B B F F a.F F F a.j B a.a.F a.F a.a.i.i.f.f.i.a.a.B B a.a.i.a.a.a.a.j i.a.a.a.a.a.a.a.a.a.a.i.i.a.i.B j j j B a.a.a.F D a.B B B B B M M M j N S M N z h ; f.GX7Xg.n.D o.F Z *., r #.O.X.3 X.O.X.X.#.+.t * = = = = = = = = = = * 8 8 = = % >X<Xj.P.=./ [ ] 1.<.<.<.] ) ] <.] ) ) ) ) ) ] [ ) 5 ,.Y ] ) ] _ I ) T 1 ,.I I I I I I 3 u 3 7 @ 8 oXL.M l h d G t.B B m.n c A.G.L.B.G.n.c v.M.- O.9.#.O.$.$.O.U u a i u i 9 3 r + + + + + +     O 3 5 5 0 3 O   # 0 5 1 @ O     K Y q O   O                       O 3 3 3 u 5 u 5 5 u r @ a P U U U U ! #.#.7 W 4.-.w.#.b t & l a.B.G.a.L.A.C.C.m.J.yX>Xa.2X2X1X*X6X%X%XrXeXeXrXwXwXqXkXkXqXxXmXkXrXrX0X0X",
"@ @ 2 2 @ O O @ @ @ @ @ @ # # 3 @ O @ 2 2 2 J ] ' ' ' ' | Y.T.T.E.E.E.^.R.E.E.^.E.^.` 4 H q.}.0.iX>XO I X.' ) @.I O I [ ^ | [ ] ,.p p @.U p 0 @             # r U + #.-.t = W 1.'.[.[.[.[. X X# O O O O O @ @ @ O O O O @ 2 2 2 @ @ @ 2 1 @ O                     @ p _ p u u 3 i 3 3 5 #   %.N o.i 7 7 3 # + # 0 # 3 3 3 2 2 6 @ # 3 3 3 3 3 3 6 # O O @ # 3 1 @ 3 3 3 @ @ # @ @   X.U # 3 1 q 3 2 3 1 2 2 1 w | | { { { { { { Y.} ( 4 ^.'.E.R.R.^.^.!.T.R.R.Y.E.^.^.| Y U s     6   d.h.k r.wXwXwXvX;X;   % 3 + , . > # 3 7 * r 3 3 7 u u u u u u 3 X.O.O.) ) O.p U 1.7.8.8.8.8.H.OX  + % t + = * = * t ! W X.X.X.X.+ b -.o.o.O.*.>.M.g.vXAXx $ S x Q n h d D M M B B B B B B F D D a.j F a.a.t.a.a.a.a.a.i.s.i.i.a.a.B a.c.a.a.a.a.a.s.j a.f.a.a.a.a.a.a.a.a.a.i.i.a.a.a.B r.j B a.a.a.F F F F F F F F F M M M N z M h j j B - DXnXj.a.%.5.l.n ;.t = #.X.#.7 X.O.O.O.#.+.i = = = = = = = = = = 7 * * 8 * * % P.:XZ.P.S p <.,.<.) _ ] <.<.[ ] [ ] ] ] ] ] ] <.5 w ~.Y ( ( ) / I / _ O / I I / Y I I 0 u 3 7 +   < . r N y.Z.A.Z.K.K.:Xa.a.,XJ.C.m.L.b.h l.b.d $.9.#.O.#.$.O.p u u r r i 9 # 3 O O + + + + O   O # 3 5 5 3 O   # 3 4 1 @ O   O L Y w O   O   O                     7 3 3 u 5 5 5 5 u r @ a P U R U U ! O.X.  7 b 7 7 + = x %.N.x.G.G.j P.S.Z.K.Z.=XyX=Xj 2X3X1X1XsX=X1XrX0XrXqXqXzXzXkXkXqXbXmXqXrXwX0X0X",
"2 2 @ @ O O @ 2 2 2 @ @ @ 2 2 2 @ O 4 2 @ @ I ' ' ' ' [ } } Y.} R.E.E.R.R.R.E.E.[.].[.1 #.~.U t 3 $   { I O.) <.p O _ ] [ [ ) ] <.2 Y <.<.<.,.<.O.) ) ) a O @ O 2 #.=.N.).~.] Y i T '.^. X+Xq.O O O O @ @ @ @ @ O O O O @ # @ O O O O @ # @ O O             O O   O q p u t r u 7 # 3 # # # 8 :.*.x # + # 7 r i r 7 # @ e 3 2 5 @ # 3 3 3 @ # # @ 3 @ O 3 3 @ 3 3 3 3 3 3 # @ @ @   Q t 3 2 3 3 5 2 5 2 5 2 1 P Y.} { } } } | { | Y.( @ E.E.!.E.E.E.Q.T.E.E.R.Q.R.R.T.R.R.R.' O O   @   & m r.0XlXbXI.. 6 9 O 0 7 # + + 7 # # 3 r 3 3 7 u i u u p u 3 O.U U O.) / p O.<.8.1.7.!.6.|.L.  u $ ; 7 = 7 * 7 8 W ! W ! +.i   +.+.+.+.#.#.q.l.k.bXjXd m M h G c h z B M M B B B B a.a.a.a.a.c.f D a.a.i.i.a.i.i.s.r.s.d.a.a.x.a.a.s.s.m.a.s.a.m.j B m.f.a.s.a.s.d.a.s.s.s.p.s.s.r.r.i.M B x.a.a.F D l.F F F F B B D M G M N m D M h M $ 4XbX%Xa.G Z F Z Z Z o -.W #.r i +./ O.O.X.! 7 7 8 7 * * - - = $ - * % - - o % =X=XK.L.O.) 3.Q <.<.] ( ) [ [ <.] ] ] ] ) ) ] ,.3 p !.( Y ] ) I I ] ) 2 p _ Y I H I I p r 7 # O 3 a.m.Z.S.m.Z.Z.S.C.A.P.d.i.:XL.J.J.C.m.x z.B., b w.1.p w.#.O.O.y y i p r 3 3 7 # + + + # +     O O @ 3 @ + +   @ w 9 O     O O L ] 2 O +     O 1 O O             @ 0 3 6 3 3 u r r u 7 O p p u p U p u 3 # # 3 u u X.= x v.l.l.=.G.n.F P.S.L.P.J.:X2XK.S 3XuX%X1XeX-X&XrX0XtXlXlXqXzXqXkXlXMXxXqXwXwX0X0X",
"@ 2 @ @ @ @ @ 2 2 2 @ 2 @ 2 2 2 @ O 2 2 @ @ I ' ' ' ' ] | } } Y.R.E.E.R.R.R.E.E.E.].{.2 +.~.4.;.N.m.. K O.X.I / a @ _ ] [ ] ) ) <.q I <.,.,.[ ,.<.<.<.<.W   3 O ( w.*.0.q.!.^.!.~.<.Y ' /.).U   O O   O O O O O O O O O @ # @ 1 2 @ @ @ @ @ @ O               O   O 2 4 O + # 3 + O # 3 3 # * x = o + 7 i i r 7 r r # @ e 3 2 5 @ # 3 3 3 @ @ # 3 3 @ O # @ O @ 3 3 3 3 3 3 @ @ @   Q t 3 2 6 3 5 2 3 2 6 2 1 P } } | { } } | } | Y.( 2 E.E.Q.E.R.R.T.T.E.E.R.Q. .Q.Q.!.!.!.,.+ O . O @ % # $ #XZXp.. O # 7 s O 3 3 7 i a r # 3 r 3 3 7 u i u u r # 3 O.O.O.O.O.<.p @.1.7.1.8.8.] |.OX  3 $ 8 7 * = = 7 i ! $.$.X.+.b + +.+.+.X.g F G.B -XGXI.6 h h h N ~ z d j F F D a.a.a.a.a.a.a.a.c.j a.a.i.a.a.a.a.a.a.a.m.i.i.f.i.j f.d.f.d.p.d.d.J.a.a.d.m.n.m.s.c.c.a.m.l.f.a.a.a.a.x.t.j B s.i.a.a.a.G a.a.a.a.F D S c F M N M D h h M - x.GX*XZ.l.W 5.Z $.$.+ X.$.1.U t $.O.O.O.#.+.= = = = = = - 8 = = - * * 7 = % - <X=Xj.P.%.U 2.8.<.<.<.,.<.<.,.) <.<.,.[ ] ,.<.<.p 3 <.<.<.) I _ T ) ) @ w U _ ) ( _ I 0 3 # + O j K.J.Z.C.b.K.S.Z.K.L.:XC.t.aXI.J.J.A.m.x x.B., $.9.#.w.0 U U r y y i u r 7 7 7 # # + + # +     @ @ 2 3 # + +   O u P 1     O O 4 ] w O O O     L 1 O             @ r 3 6 3 3 u r r u u @ u u 7 3 # # @ # u #.q.9.4.q.a x b.n.n.l.L.B.F S.P.P.J.H.P.uXP.F 3X2X*X3XeX-X&XeXeXrXzXlXzXvXqXkXxXMXkXqXwXwXwXwX",
"@ @ @ @ O @ @ 2 2 @ 2 2 2 2 @ @ @ O 2 2 @ @ I ' ] ' ] | | { Y.Y.E.E.E.R.R.R.R.E.E.[.{.q +.q.).N.OXVXl.I O.A @./ a @ _ ) [ ] ) [ <.q I 7.,.,.] ,.<.<.2.2.X.O 3 O ) w.*.0.!.!.{.{.^.[.'. X! O O + O O @ @ @ @ O O O O O O @ @ @ 1 2 2 O O @ @ @ O @           O O   O ( ) u r u 3 r 3 r 3 3 +   % - = 7 r u u r r 7 r 3 @ 3 3 2 5 O @ 3 3 3 3 3 3 3 3 @   # # @ @ 3 3 3 3 3 # @ @ @   Q t # 2 6 3 5 2 2 2 6 2 1 P } { | | } } | } | Y.( 2 E.E.Q.E.R.R.Q.T.E.E.!.!.T.Q.[ ' L H 0   O   X s . 1 1 d d . 0 p   % b 5 # 3 7 i U u # # r 3 3 7 u i u u U 3 p X.X.U ) ) / 3 ) <.8.1.7.7.Q. XL.  r $ - 3 = * * + * 7 7 = + + # . b b o.o.9.*.0.h =XCXi.V h c N m N z h a.j G F a.a.a.a.f.d.d.d.m.j i.s.d.i.i.s.s.s.s.h.P.%X1X1Xj.y.k.2X5X5X;X7X5X;Xy.u.5X-X-X;X%X%X%X#X%XK.<X<XK.d.a.a.a.j s.P.C.d.d.m.m.c.s.s.s.a.D S c a.D B B D h c c j d cXbXA.3.:.a.$.*.#.+ u #.O.U = X.O.X.X.+.W + * = = = = - = = = = * * 7 = * 8 K.<X<XP.N U ) w / / O.O.<.1.<.O.) ) _ _ _ _ ) O.U O p _ ,.) ) 1.T T U O e p I I w w 0 # # 3 3 # G =XZ.=XZ.c.K.L.Z.K.K.K.m.h 2X=XJ.J.J.B.x n.B., #.1.@.2 p O.u a a p i i r 7 7 3 3 # # + + +     # 0 e @ # + + O   0 Y w O     . O I I 1 O O @   Y 2               O 0 3 3 r 3 u u r r 7 O 3 @ @ O 3 u X.O.#.#.1.q.9.q.a - z.l.z.l.A.n.f.:XP.J.K.Z.:X2X=Xt.2XuX-X#Xk.y.&XrX0XwXlXxXqXwXkXxXxXMXxXkXzXwXwXwX",
"O O O O O O @ @ @ @ 2 2 2 2 2 2 @ O 2 2 @ @ I ' ' ' ] | | | } Y.E.E.E.R.Y.R.R.E.{.[.{.4 +.~.).M.B.VXx.5 U b <.,.y @ _ ) [ [ ] ,.<.q H 7.,.[ [ ,.,.[ [ <.U   # O _ w.-.w./.^.E.{.{.[.'.+X X-   O O @ @ @ # # # @ @ O O O @ @ @ 2 2 2 1 1 2 @ @ O @ O         O O   O ,.7.U a W u s 7 r 3 3 # + t *.n i r 9 r r t 7 r 3 # 3 3 2 5 O @ # 3 3 3 3 3 # #   O @ # # @ @ @ @ # # @ @ @ @   Q t # 2 2 3 5 2 4 2 2 2 1 p } | | | } | | } | Y.( 2 E.E.Q.E.E.R.T.T.E.E.T.[ {  .[ ( K K ) r ' I O   ; 3 L   1 4 4 2 s , # 5 3 3 # 7 r 7 # 3 u 3 3 7 u u u u u O a U O.O.O.O.O.r O.1.1.@.8.8.[ |.G.  7 * * 3 * * = 7 t v v v X.a b t x - , - 4 = : O $ %   4 d z l.F j M m z F a.a.s.c.c.m.m.m.m.m.m.j t.s.d.d.h.h.s.s.p.p.j.K.Z.g.y.r.r.y.y.f.f.p.r.r.f j s.h.g.h.h.h.h.h.d.Z.=X=Xj.p.f j j f r.d.i.r.r.i.s.s.s.s.a.a.B M F B B j M M c M g W i h.vX%XF >.G *.%.*.- t 4.+.$., X.o.X.W +.W 8 * = = = = = = = = * 7 i 9 # + = uXuXZ.a.o u O.x i s 0 @   O O O 2 2 @ O O O @ 2 3 O @ 2 3 p w p 3 2 e O @ 3 2 1 @ 3 3 # r u r 3 M >XC.h.Z.m.=Xj.P.K.P.yXb.$ j.,XJ.L.P.m.c b.B.< X.~.O._ +X}.#.O.W a y i t r 7 + 3 # # + + +     # p 0 O # 3 + O O 3 J J q O   .   3 P w 1 O @ X Y @               O 3 3 3 u 3 r r 3 # 3 O 3 O 3 W X.O.#.#.#.#.$.4.1.q.X.- v.z.z.b.L.m.a.S.C.I.dXd.Z.K.d.& r.y.p.#X&X#X*XrX0XwXlXxXkXkXxXkXwXlXxXzXzXwXwXwX",
"O @ @ O O @ 2 2 2 2 @ 2 2 @ @ @ @ O 2 2 2 @ Y ' ' ' ' ] | | | { R.E.E.R.R.R.E.E.{.].{.2 :.).~.N._.dXz H ,.U Y [ y @ ) ) | [ [ ,.,.w q 8.[ ,.,.,.) [ [ 2./ O # O O.N.;.w.!.^.^.{.{.(.'.+XOX. + 2 O O O @ @ @ @ @ @ @ @ @ @ @ 2 2 2 2 2 2 2 @ @ O 3 @ O             O _ ,.5 r a u r 7 r 3 # # # a %.o.v t t t r 7 7 r 7 # 3 3 6 5 @ # # @ @ @ # O # @       # # @ # @ # 3 3 @ @ @ @ O o.t # 2 2 3 3 2 3 2 4 2 1 p } | | | } | | } | Y.I @ {.E.Q.E.E.R.R.R.E.R.' w Y.R.Q.!.^.^.!.] R.'.O ; pXl.1 r u 3 3 u 7 # 3 w r r 3 # 7 3 3 u u 3 3 7 u u u u i @ O.#.8.#.O.X.p r #.1.1.#.9.8.[ OX.X  3 * & 3 8 t v Q o.o.+.+.*.o.-.;.M.M.B.B.:X1X1X5X3X1X8X%Xi.; - h h j B z j j j j j j j j j f f f f j j f j M j h h d d f h d h B a.F B j f f f f t.s.a.r.B j j j j j g ; $ ; ; d j j s.s.a.j r.j r.r.j j j j f d h f f f M j h h j z h d d h ; V F > r d h & g & $ x - x = = t r 8 t = - t t t 8 = = = = = = i ! W 7 # # m.t.d h o.1.:.N -.o.X.r O @ u p U U U U U U U U p r U u 0 0 O O 0 2 u 3 p p p p u u u s t y r @ a.>XJ.P.L.x.P.:XL.I.C.r.; D =X=XJ.L.P.B.h x.B.> U '.O +X+X@.3.a W U a i i i 9 7 7 # + + + +     @ p w O @ 3 # O @ O 4 Y Y 5         6 P P 1 O 0 I O               O 0 3 3 r 3 3 # # # r 7 p 7 U #.O.X.X.X.#.1.4.9.4.w.O.- v.z.n.x.A.G.f.XXyXpXK.X g t.J.d.r.5XfXeXvX1X9XrXrXtXzXxXmXmXMXkXtXkXxXxXzXzXwXwX",
"2 2 @ @ @ @ 2 3 2 2 @ 2 @ @ 2 2 @ O 2 2 2 @ Y ' ' ' ' ] } } Y.} E.E.E.R.R.R.E.E.{.].{.3 -.).q.).OXdXN K <.@.] [ y # ) [ | [ ) ) <.w 2 7.[ [ ,.<.,.<.[ 2./ O 3 1 O.N.;.w.!.^.^.{.[.{.^.+X}.  + O @ O O O @ @ O O O O O O O O O O O O @ @ @ @ O O 3 @ O           . O I <.u 3 3 3 3 3 r 3 # +   > %.o.x r r t t 7 7 t 7 # 3 3 3 6 O @ # # @ 3 5 7 7 3 3 #   # 3 # # # 3 7 3 # @ @ @   o.t 3 2 2 3 3 2 5 2 4 2 1 u } | | | } | | | | Y.I @ {.E.Q.E.E.R.R.R.E.R.' 2 {.'.!.!.^.^.!.^ R.[.q B SXP.  # o o = 7 3 U p @ r u 3 3 3 3 3 u u 3 3 3 u u u u r   3 u r 3 3 # # 3 O.X.#.O.@.@.[ N.n.  a - $ r b b b Q n x v x x x c n n N :.;.m.Z.K.=X<X;X7XvXAXK.k %.h V B j B B B j j j j j j j j t.a.s.a.r.r.a.B B a.a.a.r.p.k.k.g.p.p.k.k.j.k.k.#X#Xk.k.#XF.j.j.j.j.j.h.y.D x.s.s.C.m.h.g.C.s.s.a.c.s.a.s.a.a.B B s.c.s.s.B B j j M B f i.eXzXvXeX%Xy.c.m.x.F a.D M S n %.Z b n n n n x n n n x x 8 = = 7 = = t W v 7 * . . a.A.XXN.+.A e.Z A o.a # r O.1.O.O.O.O.@.O.O./ @.O.O.O.X.p 2 ,.<.U O._ O.O.O.) T U p s t t r # i.<XP.:Xc.; f h r.f r.g.Z.yX-X=XJ.P.P.A.c b.B.< 9.}.U  Xq 3 W ! a a a i i i i 9 3 # + + + +     @ w w 2 @ 6 # @ #   O w T P 2       O u Y 2 O p w O               O 3 # @ # @ @ # 3 3 u a W 7 p W X.O.#.#.1.#.#.9.#.q.X.% v.n.b.n.L.l.G pXP.a.f B.yX:XuX2Xu.tX&X*XeX#X&XrXrXtXzXmXNXNXHXMXzXzXmXxXlXzXzXwX",
"2 2 @ @ @ @ 2 3 @ @ 2 2 2 2 2 2 @ O 4 2 2 @ I ' ' ' Y ' ' | } { R.R.E.R.R.R.E.E.[.[.E.@ ;.).~.).|.dXn 4 p X.,.<.u @ O.[ [ [ ] ] <.w 2 7.[ [ ,.,.) [ [ <.U O 3 2 O.N.-.w.!.^.^.E.{.{.[.+Xq.  = 5 @ @ @ @ @ @ @ O O O O @ O O O O O O O @ O O O O 1 @ O O           O I 2.T 3   @   + # + 3 = + > ;.*.x 8 7 r t t 7 i r # 3 3 3 6 O @ # @ 7 R R R P u u 3 @ 3 5 @ # # 3 r r # @ @ @   n t 3 2 2 3 3 2 5 2 4 2 1 u } | | | } | | | ] Y.I 2 ^.E.Q.E.E.R.R.R.E.!.] 3 {.^.Y.T.R.^.^.{ R.^.4 j DXK.# + = t = 7 5 1 @ a 3 r 3 # 3 3 3 r u 7 3 3 r u u u y # @ p p U O.X.p X.#.u U / a p ( S j   i 8 $ b b b x n Q b m Q n n n n n Z %.*.X.N S o.5.! g c.bX8X$ Q z B B G t.t.a.a.a.a.s.a.B i.d.m.c.c.m.h.h.j.p.p.g.h.h.p.g.g.g.g.h.Z.h.g.h.h.h.k.h.j.j.k.k.k.k.j.k.j.K.g.y.#X=Xj.F.h.h.h.s.s.h.s.s.s.s.c.s.d.i.B a.c.s.s.a.i.G F a.t.f F.MXnXk.B.G f.K.D B.n.b.n.=.%.%.n Z b o.b n %.c n Z n n x x = = 7 = % - t = = % . A.pXuXP.b.5.#.$.$.o.$.b + 3 X.O./ / / / O.O./ / _ / p U X.p 2 '.3.I ) I U I Y I T U p r > t t 7 a.P.s.f d l.,X:X,X,XyX-X%X&X9X%XL.L.P.J.c n.B.% X.q.}.7.O r i v a a a i t i i 9 # # + + # +     O e P q O # 3 @ @ O   @ w Y J 2     O O H H 1 I q O                 # @ @ 3 @ + 3 r 7 r u U 3 u #.O.O.O.O.O.#.1.9.1.q.#.= b.b.b.b.L.h < a.j h A.h.<X=X>X,Xa.1Xk.%XeX3XeXtXwXwXxXBXNXHXNXxXxXlXMXmXlXkXzXwX",
"2 2 @ @ @ @ @ 2 @ @ 2 2 2 @ @ @ @ O 4 2 2 @ I ' ' K L H K ' | | { Y.Y.R.T.^.^.{.[.[.` O M.).).).OXdXg 1 7 . # i r O ) [ [ 2.<.<.<.H 2 7.[ ) [ [ ) [ [ <.U O 3 2 1.}.-.q.!.^.{.{.^.[.[.+XU   # 2 @ @ @ @ @ @ @ @ @ @ # # # # 3 2 # # # @ @ @ + # 1 @ @ O       O . O H 2.O.r # u 7 7 9 7 7 7   o %.%.n y 9 r t 7 7 i r # 3 3 6 6 @ 3 3 @ 3 u i 9 P u u 7 O @ 5 6 # # 3 u r # O O O   n t 3 2 2 3 3 2 5 2 5 2 1 p } | | | } | | | ] Y.I @ ^.E.Q.E.Y.T.R.R.E.!.| 0 ^.!.Q.Q.!.^.!.| T.^.4 a.DXK.  w 5 5 3 # 0 p r * 3 r 3 # 3 3 3 u u 7 3 3 u u u u u 7 # #.O.O.O.U X.#.O.3 O.9.8.q.8.+XOXo @ 8 - r n x x n n n %.%.:.-.-.$.$.-.$.*.8.V.z.%.V.B.P.-XxX7X; h h B B a.r.r.i.a.a.s.d.d.t.a.s.d.d.d.h.d.C.C.s.r.s.Z.Z.p.g.h.h.h.h.h.h.j.k.k.k.F.j.j.j.j.j.j.j.j.k.j.K.g.i.>X=Xh.h.C.h.h.h.g.h.p.s.s.s.s.s.C.s.B a.a.i.a.a.j j t.D.t.f 4XbXzX-Xa.=.V.s.>.z.=.l.=.%.%.-.b Z b o.c n %.c x n n n n v 8 = 7 - = - = . = - . =X2X<XJ.l.#.O.:.$.Z o.W 3 u @.<.O.O.) / O.O.O./ T <./ U O.p O ~.<.H ) _ ) _ ) Y Y U p s t y t 7 2 ; d C.:XZ.&X&X&X-X:X&X9X9XtX#XB.L.P.J.c n.B.% -.w.'.+Xq.#.}.;.a W W i r r 9 7 # + + + # +     O 2 P w O O 3 O O +     1 ( ' q   O O O 4 I 4 E 5 O         O       3 # 3 u r r 3 u 3 # 3 U 7 p W X.X.O.O.#.1.1.1.#.q.#.$ v.=.D c d < N.M m.|.B.Z.>X:XuX-Xa.*X6XcXeX%X0XtX0XrXmXNXHXMXlXlXMXxXmXmXlXkXkXwX",
"@ 2 2 @ O O @ 2 @ @ 2 2 2 @ @ @ @ O 2 O 3 O J | ' ' ' K K K ` K H 4 4 4 H E ] [ [. .. $ # q. XN.XXdX$ W p U p r %   + 3 @ 3 p u X.# : 8.<.,.,.) [ ,.<.@.0 O O q :.}.5.~.^.^.^.^.{.^.[.+X, @ 6 # @ @ @ @ @ @ @ O O @ 2 @ 2 2 2 2 2 2 @ @ @ 2 2 3 2 @ @ O         o   3 /.T 5 u a r r 7 7 7 3 # + n %.o.8 r i 7 s i r s # @ 3 2 3 @ # @ @ u R 9 R R R u # @ # 3 6 @ 3 7 u 3 # @ @ O # y r O O O 3 2 2 2 2 3 2 1 H | | | ' | | | | ) | p # {.E.!.Y.R.R.R.R.R.!.[ q '.^.} Q.!.Q.!. .W.{.% Z.DXK.+ X 3 3 3 # # # # # # + + + + + + # 3 r # 7 i u u r a # r O.O.X.#.u a @.X.# O.8.1.7.7.+X:XO , = 9 x A n b b b x n n Q o.+.+.$.+.-.;.M.0.;.5.5.V.P.2XbX8X; j j M F r.i.r.a.i.c.d.s.d.j d.d.f.n.m.d.h.C.#Xd.f h.j.%Xs.g.j.k.k.j.j.j.j.j.k.K.#X#X#Xj.F.j.#Xj.j.#Xj.=Xg.s.;Xj.A.h.Z.C.Z.C.C.h.d.C.c.m.a.s.s.d.r.a.s.a.s.a.a.F j a.i.f F.bXbX1Xp.d.a.M.n.l.=.=.=.S Z o.o.n n n n n x x n b A o.n x - - - - - $ 8 k * 8 * Z.uX:XC.b.4.#.o.o.$.o.o.# 3 8.@.O./ / O.O.) ) O.,.I ) ) O.p @ ~.<.I ) / ) U T I T ) U t t t a = j Z.F.=XZ.C.2X-X3X#X&XtXtX9XwXp.a.XXI.L.M B.}.= w.}.O.q. X X0.b W W a a i 7 # # 7 + @ # 3 r 3 O + O e I e @ . $ # +       2 I ] H O       5 Y Y # O               O r 0 3 u 3 r 3 3 3 3 p U 3 a X.X.X.X.O.#.#.#.#.#.~.#.+ y $ & l $ n.B.m.m.m.A.Z.<X:X,X:Xy.3XfXrX&X9X0XtXrXzXxXNXHXxXlXzXNXxXxXBXlXvX0X9X",
"@ 2 2 @ O O @ 2 2 @ 2 2 2 @ @ @ @ O 2 @ 3 O J | | ' | { ' Y.T.T.Q.Q.Q.Q.Q.Y.| | L 2 n G.g d a |.dXdX$ b X.O.O.U + # p U u u u 2 5 O   0 q w w I I I / / 0 O O O 9.w.5.~.'.E.^.{.{.E.[.+X> 6 5 X @ @ @ @ 2 2 2 2 O 2 2 2 2 2 3 2 3 2 @ @ @ @ 2 2 @ @ @ O O           5 7.Y P p r s r r 7 3 # + @ o.-.o.t i i 7 7 = # 3 @ @ 3 2 3 @ # @ @ u R P P u R u 3 @ # 3 3 # 3 5 u 7 3 @ @ O O r 7 @ @ O O 2 2 3 2 2 2 1 P { | | ' ' ' | ' [ { p 3 {.E.Q.E.R.E.R.W.R.E.' q ^.^.| Q.!.^.'.T.Y.E.$ =XDX<X  @ @ @ + + + + + + # # + * * + + # 7 r # 7 u u u u a # r O.O.X.#.u U @.O.3 #.9.1.7.7.+X>XO % = 7 , t t y b b n n n x n n n Q %.%.&.=.=.=.&.%.c.:X2XbX*Xk j j B a.t.i.r.a.B f.m.C.C.B a.g.h.h.C.C.m.h.,XC.r.K.j.;Xs.h.j.j.k.j.j.j.j.F.j.=X#X#X#X#XF.#X#Xj.%X#Xj.=Xk.p.;XF.Z.h.h.d.j.h.h.h.h.d.i.f.f.d.h.d.r.a.s.a.c.m.a.a.i.a.G V %XMXnXk.%.|.b.Z G n.=.D S S Z Z o.o.n n o.o.n n o.n b n n x - * 8 i v t b b 7 7 * Z.,X:Xm.v.#.#.;.o.o.o.o.# 3 1.O./ / / / / ) ) ) / I O./ O.p @ ~.<.I ) / / T T I T O.p i t t a 7 a.=X=X=XZ.C.-X-X=X-XtXwXqXrXk.$ m.P.L.B.M c g . }.}.#.X.U U a a b a a a i t r r = + @ # # 0 0 @ .   3 P H 4 1 O @ O   O   O 1 w Y 4 X   O H Y J +                 O r 0 3 u 3 r 7 3 3 3 p U 7 p X.X.O.O.O.#.O.O.4.@.q.W = n v.n.N.M B.B.m.m.m.A.P.=X:X,X,Xs.&X&X&X&X7X0XrXrXwXxXNXNXlXkXzXNX0XnXNXxXzX&X#X",
"@ @ @ @ O O @ 2 2 2 2 2 2 2 @ @ @ O 2 @ 3 O J | | | { { | Y.^.R.R.R.E.^.^.^.^.^.^.2 D oXA.iXg = =.;.  X.1.O.O.X.7 U @.,.<.,.,.) ,.p @ w q 2 O # u 3 @       # 3 9.q.0.q.R.E.^.{.].[. X X. O 3 # @ @ @ @ 2 2 2 2 O 2 2 2 2 3 3 2 2 2 2 @ @ 2 2 2 @ @ @ O O @ @ @   O 0 2.Y u p t r r 7 3 # # + + % y r # 7 7 # = = = 7 # # 3 3 0 @ # # @ 7 R R P 9 R u 3 @ @ # # @ # 3 r 3 # @ @ O O 3 3 # 3 @ O 2 2 3 2 2 2 2 P } | | ] ] ] ] ] | { w 4 E.E.T.W.R.R.W.R.E.^.{ e '.'.{ Y.Y.^.^.R.8.!.j <XCX,X. & 3 7 7 r r 9 9 9 3 3 7 7 * 7 # # 7 u 3 7 u u u u a # r O.O.X.O.u p @.O.3 O.8.<.8.8.+XuXO & - 9 , y b n o.o.o.$.*.Z *.S =.z.z.z.V.b.N.N.N.B.A.:X-XbX7Xk j B F a.r.i.i.s.a.c.C.J.J.M i.h.k.p.h.J.C.h.2Xs.r.K.=X1Xh.j.j.j.j.#X#X#X=X%X%X%X#X%X%X%X%X%X%X#X%X%X#X-Xk.s.1Xj.C.j.h.J.Z.C.C.Z.C.d.i.m.s.s.C.s.i.s.s.a.c.s.j a.i.a.i.t.;XMXbXk.N M.n.h j v.=.=.=.;.*.%.Z o.Q n n n n n n b x x n x = * t a a i W W 7 7 + K.,X<XC.S w.#.$.$.o.o.o.# 3 1.O./ X.O.O.O.O.O.) ) / <.U ) p 2 ~.<.P ) / / _ T I Y O.U i y y b r a.:X=X=XZ.h.-X1X$X9XwXqXtXy.d k.P.P.C.d.s.a.F M b w.w.9.O.$.$.b X.W a a i 7 7 7 = + + # @ # r u     O w Y ' ' ` 2 O O @ O   O @ I I 0 O 1 Y Y 0                   O r 0 3 u 3 r 7 7 3 3 p U r p W ! X.O.#.1.1.1.@.~.9.= %.v.b.B.|.D m.m.m.A.A.A.P.=X>X<X<Xp.&X&X3X3X7X*X0X0X0XbXBXNXzXqXzXBX#XU.BXxXwX$X#X",
"@ @ @ @ O O @ 2 2 2 2 2 2 2 @ @ @ O 2 @ 3 O J { | ' | ' ' { T.Y.E.E.R.E.E.E.^.[.[.H h L.iXDXm.O o = r O.O.P T O.@ / [ ) <.3.<.8.3.<./ @.<.) 3 y q.1.#.A t %     a e.M.w.'.[.[.E.{.^. X4.. 7 0 X @ @ @ @ 2 2 2 2 O 2 3 2 2 2 2 2 3 2 2 @ 2 2 2 2 @ @ @ @ @ @ @ @ O O 2 3.T 5 r i s r 7 3 # # + +   o + . 7 7 7 7 y t a 9 3 u 3 0 @ 3 # @ # u R P u P u 3 @ @ O O @ @ # # # O O O 4 O 3 7 3 7 + O @ @ 3 @ @ 3 1 p ] ( ( ( ( ( ( ( ^ K 2 4 !.^.^.R.^.E.R.R.E.T.K X Y.!.Q.!.Q.'.'.[.^.W.=.:XDXuXO 4 7 r r r r r 9 9 7 3 7 7 7 7 # + 7 u 3 7 u r i i t = r O.O.X.O.u p #.#.r #.9.1.q.<.+XuXO % - 9 l n n n x b x m x b n c S S &.:.5.M.v.b.N._.L.K.#XbX8Xk j B M F i.a.a.d.s.h.C.K.K.j s.m.m.m.m.h.j.F.5Xh.y.=X<X3Xj.j.#X%X#X%X%X%X%X%X%X%X%X&X&X0X%X1X%X%X%X%X%X1Xk.p.1XF.K.=XF.J.j.F.h.h.h.g.d.J.p.s.Z.s.s.m.d.s.m.C.i.a.i.t.a.V k.bXbX&Xc.V.m.z._.M.v.;.;.0.>.*.%.-.*.o.o.o.o.o.o.n b x n x - - 8 U W U W a 7 = # K.,X=Xd..Xw.o t #.o.X.o.= 3 1.O./ O.O./ / O.O.) / p U p / I 2 ~.<.I ) / ) _ T U Y O.U b b b n t s.:X=X=X=Xh.$X3X9XtXqXwXc.t 3X9X>XI.P.C.C.L.L.B.c Z $.#.O.X.X.a a i i i i r r r 7 + + #   O # 0 0 # O O 6 H J K ( w O       O O O p P L H T w                     O r 3 3 u 3 r r 7 3 3 p U r p O.O.O.O.O.O.#.#.#.w.b , N.b.a.n.H.M b.m.m.L.L.A.K.=X>X<X,Xp.3X3X9X9X0X9X0XrXrXbXMXmXqXwXkXmX$X. nXxXwX$Xk.",
"@ @ @ @ O O @ 2 2 2 2 2 2 2 2 2 @ O 2 @ 3 O J { ' ' | | ` Y.^.^.E.E.^.^.^.E.E.E.[.J h XX:XgXL.( #.X.O.) ) U O.P @ O.<.) <.,.) ) ] <.@.<.7.3.7 y 1.#.9.9.-.9.-.o.  o - m [ ^.'.'.'.^.+X! 6 + # 2 @ @ @ 2 2 3 3 2 O 2 3 2 2 2 2 2 3 2 2 2 2 2 2 2 # @ @ @ @ 3 3 1 O O 3 !.<.I u a i u r 7 3 # + +   a t i a t t v b x b r 7 r 3 3 3 3 3 @ @ 7 R P P u 5 3 # + O   @ @ @ @ @ O O @ q 2 3 3 # # @ O O O @ O @ 3 O 3 H L H H H H H q q 4 O O e w ^ L L L L L K L 2 O L ( [ 2.2.Q.} !.'.` C.6XZX1XO L 7 7 r r r 7 7 7 7 7 7 7 7 7 + + 7 i 3 7 u r i a t r r O.O.O.#.p u #.#.r #.8.@.8.3.OXaX+ % = 9 , x x x l t t x x m m l x = x b W m c N S %.a.g.=XbX8X; G B j B s.s.s.h.s.h.j.<X=Xr.c.c.c.L.Z.h.j.k.6Xg.y.Z.<XeXj.#X%X%X%X%X-X%X-X&X-X&X&X&X0XzX&X&X%X%X%X%X&X3Xk.y.5X<XZ.=XZ.P.Z.F.j.F.K.K.<XpX>Xs.C.p.d.d.s.s.m.C.i.a.r.t.i.V k.bXxX*XJ.oXU.b._.b.z.;.*.*.o.%.%.Z n b n n x c m n o.Q x t 8 - - ! W ! b v 8 * * :X,X<Xs.UX9.  Z -.o.X.o.= 7 1.O.X.O.O.U U O.O.) / # 3 r X.p @ ~.<.P _ I _ U T U T O.W b x x n t s.<X%X-X<Xk.$XeXwXwXwX0Xy.0XtX7X>XK.>XK.C.C.C.m.L.D Z -.4.O.W #.W b a a i 7 # # = + + # O   @ @ w p #   . + O O ' Y 0 O   + + O   6 E K E w O                     O 0 3 3 r 3 r 7 3 3 3 U U r a O.O.O.#.1.#.#.4.9.t , v.l.l.n.n.B.j m.B.J.L.A.m.P.-X<X,X,Xy.3X&X3X&XeXeXrXrXwXwXMXmXqXwXqXxXk.6 8XxXwX$Xg.",
"@ @ @ @ O O @ 2 2 2 2 @ 2 2 2 2 @ O 2 @ 3 O J | ' ' | | ` Y.^.^.R.R.R.^.^.^.^.^.JX( M OX:XgXL.K #.X./ _ O.O.1.u 7 O.,._ O.O.U / <.2.<.,.2.3.# > q.-.#.$.o.-.9.9.~.$.; N y w ! ,./.'. Xu 6 O X 5 3 3 @ 3 3 3 3 6 O 2 3 3 3 3 3 2 4 4 4 4 2 2 2 2 2 @ O O @ 3 # @ # # 2 ) I u r 7 3 # # # # # # + = o.X.X.W 8 v x m x v r 3 r 3 3 u 3 3 # O 3 u P a u 3 3 3 3 X   3 2 @ @ @ @ @ 3 2 O 3 @ O @ O O O O @ O 3 0 1 4  . .Q.Q.Q.Q.6.} 6.8. .K   2 { ' ' ' ' [ } } 2.<.H 4 X O 2 5 1 4 t 1 f j.fXaX$ $ r u u u u r 7 7 7 7 * 7 7 7 + # 3 u 3 r i r a p a r r O.1.O.#.U p #.#.r #.9.1.8.q.OXaX+ % = 9 - - - l m n o.o.Z :.Q Q Q . b =.=.v.l.a.x.m.m.K.;XbX8X; a.a.j B s.s.C.K.h.h.=X,Xj.f K.;X1X5X-Xj.=X=XCXg.p.=X2XZX=X%X-X1X&X&X&X&X&X&X1X&X&X&XzXzX&X&X&X*X&X&X*XeX%Xs.1X5X,X-X=XK.=X=X=XK.Z.S.S.:XZ.h.C.s.h.m.s.s.C.C.i.a.s.a.i.B ;XMXxX%Xa.x.G Z x M c c n n x c c x y x x x l l x x c x - & - - * = * v t 8 8 $ $ <X,X<Xd.OXN.o.0.#.o.X.o.= 7 1.O.O.O.O.U U O.O.O./ @ @ r O.p O ~.<.P ) I _ U T T _ O.W b c c n t s.-X%X-X-Xk.$XtXwXqXqX&X$XqXhXvX5X=XK.K.J.C.J.m.m.a.S t a U i t W a i i 7 # + + + + + + + + +   O q 3 + * % . . 1 H P @ O # 3 @   O H ] Y O                       O 0 3 3 r 3 0 7 3 3 3 U U 7 u O.X.O.#.#.W b b # % Z N.D n.b.n.B.M m.B.J.J.C.C.Z.-X>X,XuXr.2X2X6X&X%X#Xk.p.p.r.*XxXwXwXqXkXu.8 *XzXwX$Xu.",
"@ @ @ @ O O @ 2 2 2 @ @ @ @ 2 2 @ O 2 @ 3 O J | | ' | ` ` Y.E.E.E.E.R.E.E.E.^.^.[.w t.OXP.DXL.H 1.,.O.U U U 1.a = p U p a i i U <.,.<.,.2.~.u y 9.#.-.>.-.*.+.o.~.#.; .XH.#.:.-.5.N.o O 4 s # 1 3 3 # 2 2 2 2 2 O @ 2 2 3 3 3 2 2 2 4 2 2 2 2 2 2 @ O O @ # @ @ @ O O w 6 O O + + + + # # # # # = o.b W ! = t y l l v 7 7 r 3 0 u 3 3 3 @ @ u u u 7 3 3 3 3 + O 3 6 6 6 3 6 6 3 @ O # @ O @ O @ 2 4 3 2 5 w 4 q R.T.T.T.Q.Q.T.T.Y.6.^.{   I [.E.^.!.!.Q.Q.Q.Q.Q.!.2.) O O.~.~.q.9.E.' 1 x - 1 W 3 7 7 r 7 7 7 3 7 = * * 7 7 + + # r 3 r i u a p a u r U O.O.O.U U 1.1.u 1.q.3.q.8.OXaX6 , = = & $ $ & l x o.o.o.%.%.+.#.. a.L.J.J.C.h.J.P.:X-X&XbX8Xk i.r.B B a.r.s.C.h.h.C.P.p.f j.,X7X7X%Xk.F.:X1Xp.p.k.%X3Xu.#X-X1X&X&X&X&X&X&X3X&X&X&XzXkXtX&X&X&X&X&X&X1X#Xr.%X*X6XCXcXjXeXeXfXsX;X=Xj.F.k.Z.s.h.C.C.h.d.C.C.a.a.i.a.G V 8XMXnX#XD.y.t.z.B B j M S *.o.n n $.*.*.*.n x x x - , - & & - - - 8 = t - = - % & <X,X=XC.M 0.H.*.$.o.X.X.# 3 1.O.O.O.O.O.O.O.O.O.y # s p O.p @ ~.<.I ) I _ U _ _ _ O.W b c c n l s.-X%X%X-X#X&X9XwXqXkXtX9XqXwXeX5X5X:XK.P.A.L.m.C.L.n.. . p a 7 7 7 = 7 7 7 7 r + # # + + 3 3 O O 0 3   @ + O O O 4 r @ O 3 w 5   O L ' J O                       O 0 3 3 r 3 0 7 3 3 3 U U 3 r U p i u = +   +   b v.=.=.b.D v.b.h b.B.L.P.Z.C.P.<XpX>XA.h p.p.k j r.g.#X&XeXfX*XzXtXtXqXqXy.; zXvXwX#Xu.",
"@ @ @ @ O O @ 2 2 2 @ @ @ @ @ 2 @ O 2 O 3 O J { | ' | | | R.^.^.E.E.E.^.^.E.E.^.[.r D.OXP.CXC.P 1.#.O.O.#.X.X.3 % i X.O.+.b t y 1.<.<.<.2./.0 0 9.#.o.-.*.*.-.-.q.@.. B.>.>.b.0.OXpX% 2 1   + 6 @ @ @ @ @ @ @ O O O 2 2 2 3 3 2 2 2 4 2 2 2 4 4 2 @ O O O @ @ @ @ O 2 3.<.u 3 i r r r r r 7 # + - o.v Q Q 8 t t l l v 7 7 7 3 0 3 @ 3 u 3 # u u = # 3 3 3 3 # @ 5 6 6 5 5 6 2 6 # O # 3 @ 3 4 q 2 4 q 2 2 5 2 w Y.T.T.Y.Y.Y.Y.{ W.} E.W.O ( [.W.R.Y.T.T.R.R.R.T.T.Q.6.O ,./.~.7.~.^.H.=XCXh.6 6 r r r u u r 9 7 7 * * * 7 7 * + # r 3 r i u a p a u 7 U O.U W p r W U @ W #./ O.O.H.aX+ < = = - t - & - m Q o.o.S n #.-.$ m.uX2XuX4X5XaXsXsXfXeXxX8Xk G j B B r.a.j j i.r.j i.f B B f f j r.p.g.g.u.h.j.j.#X#Xj.#X%X&X&X&X&X&X&X&X3X&X&X&XkXkXrX&X&X&X&X&X#X%Xj.XXk.u.u.k.k.k.#X#X#Xk.u.g.g.g.u.p.f i.s.d.s.i.i.r.j a.j a.i.f %XMXzX9XcXcX7X5X;XL.B.l.=.-.;.;.;.9.>.0.-.n l - 8 8 - - - - 8 8 m -.o.o.t = = $ - ,XaX,XC.G.-.0.S o.X.n X.# 3 1.O.O.X.X.O.O.O.U O.r 0 / U O.w O ~.<.I ) I _ U _ _ _ O.W b c c n l g.2X-X-X-X-X9X9XqXqXwXqXqXrXqXB k.,X>XP.J.m.L.m.d.m.b., W O.W +.W a t 7 = + # # = = = + O r s + + a 0 O @ w P ( 0 0 # O O 6 5 1   O 4 ] e   O                     O 0 3 3 r 3 0 7 3 3 3 U U 3 7 +     + = r n -.A t v.=.l.l.;.N.H.c m.L.P.I.K.C.A.p.t.d d t a.c.%X*XeXrXvXwXwXZX6XtXwX9XwX9Xc.K.%X#Xu.j & ",
"@ @ O O O O O O O O O O O O O O         O O 4 2 7 # 3 5 w H Y ] Q.W.(.^.^.E.E.[.JXL D.yX:XDXB.7 #.#.X.X.X.X.a   u 3.3.O.U a X.7 <.[ 2.[ [ 7.r t -.-.-.-.-.-.-.-.q.e.$ N.w.0.M.w.|.+Xt O 3 2 @ # # # @ @ @ 2 2 2 2 2 2 @ @ O O 2 @ @ O O O O O O O O O @ @ # @ @ # O 3 8.7.U u r r r r = = 7 7 + * +.b b b 8 l l l l i 9 7 0 e 0 3 3 r 3 @ # 7 7 3 3 3 3 3 # @ O 3 2 2 2 6 3 3 2 @ 0 0 4 q q 4 e 4 4 5 2 4 5 2 w T.T.{ } } } } } } } E.Y.O R.].T.Q.Q.T.T.T.T.T.T.T.Q.2.O ,./.7.~.q.!.|..XAX5XO r r r r r r r 7 7 = = = * + + r U + + = # + # 7 # # = r = = = #     = r r y p r r s + ; # , r 9 , - & & - t x t t t v 8 t x t = - h B h f.C.d.I.-XeXDXf a.F j a.a.a.i.s.s.s.s.h.h.g.j.%Xr.s.%X#X#X%X%X%X%X%X&X&X&X-X&X&X3X&X9X&X&X9X*X&XtX9XxXtXqXkX9XtX9X&X&X3X%X&X&X#X#Xp.f k.p.u.u.u.u.p.p.p.p.p.i.y.r.; j i.a.s.s.s.s.a.a.t.t.*XMXFXcX*X-XF.F.l.S M g c S x Z n n c x l l - - - - - - - - 8 8 l l t - - - - = XXA.s.j c %.&.D o.+.+.W + r @.@./ / O.O./ / O./ 6 p A n ] b . '.<./ _ ) ) ) ) ) / #.o.b x n n m j.1X&X1X3X&X9XhXtXwXzXkXqXwXqX9X#Xk.sX>XC.L.C.B.d.m.z.x i W Q ! U a W a r 7 7 = # # = # + 3 w Y O P Y O   o 4 Y.W.` 5 @ O O 2 6 . O O ' Y O                       O 3 7 # # 7 3 r 7 r u r # O   o y y A $.b b *.x , >.=.;.l.=.v.m.d G.J.L.V.Q $   . h h.,XfXeXeXeX0X5X0XtXrXrX7Xg.u.&XwXwXj.d.#X  o # = = ",
"O O O O O O O O O O O O O O O O O O O O # 1 Y K w w H J L 4 4 4 . 1 L @ # w 2 y /.1 D.iXuXgX.Xp X.X.X.X.O.X.r   ) 3.1.X.p a W t <.) 2.[ <.7.r y -.-.-.-.-.-.-.-.q.e.$ N.w.0.V.w.|.+Xt O 3 3 3 3 3 # # # 3 e e 3 4 3 3 3 3 2 2 3 3 3 3 2 # # # # @ @ @ @ 3 3 3 @ 3 O 5 8.7.U u t r r = = = 7 # + + +.b b Q t v i x m v 8 7 3 3 3 3 3 3 3 O # 7 7 3 3 3 3 # # @ O 3 2 2 2 2 2 2 2 @ 0 0 4 q q 4 e 4 4 5 2 4 5 2 w R.} { } } } { } Y. .E.T.O R.].T.T.T.T.T.T.T.T.T.T.Q.2.O <.~.7.~.q.Q.|..XZX5XO r u u r r r 9 7 7 + 7 7 . + a X.U + + 7 7 # 7 r 7 r i b b W X.W a = O.#.#.9.9.4.9.e.).A.# % 3 k % - & - - t x x t t v l x n x y x 3 P : o d j . j k.F.f B B a.B a.s.s.s.s.d.h.h.Z.Z.K.-Xi.h.%X#X%X%X%X%X%X&X&X&X&X1X3X&X*X9X9X9X0X0X&XtXtXzXxXtXwXxX0X9X9X9X&X&X&X&X&X&X&X=XZ.3X,X1X1X1X;X;X;X;X-X%XK.=Xj.B a.h.C.d.s.s.s.s.a.a.a.d f.g . & k 9   h g g g g l & l l l l l l t t 8 - - - - - - 8 8 8 8 - - - - = *   % %     X 2 @ - r i i O + / #.#.@.O.O.X.O.O.X.+ A 3.b E , O / a r p p p p p X.y X.o.n n N c l S.%X%X2X1X&X0X9X9XtXlXlXqXqXqXwXkX9X#X6X;XZ.Z.h.L.H.D b X.O.U W U y a W a i 7 # # = = * + # 0 H 2 H K 2   + O L ^ } ( 2   X e 1   O 2 K H O O +                     3 u r r r 7 r 3 @ @ + # r y y A b A o.y b ;.Z , =.S =.v.b.G.G.& % $ $ $ d h C.>XaXaXuX,X,X,X;X5Xh.rXZX;Xj h h & g.#X#Xh H.m.7 a U a a ",
"@ @ @ 2 2 2 2 2 @ @ @ @ @ @ @ @ 2 @ # @ 3 5 [ { ' ' Q.^.'.^.^.^.8.^.^.' ( ' L r 9 @ . X l.sXOX3 #.O.@.U O.X.# # ,.,.<.) U X.i r <.[ <.[ 2.7.r y -.-.-.-.-.-.-.-.q.e.$ N.0.w.N.w.|.+Xt O 3 3 @ 3 # # # @ 3 0 0 e 4 e 3 3 3 3 3 q 4 4 2 2 2 2 2 2 3 @ @ @ # 3 3 @ 3 @ 0 8.3.u r r r r r = = = # # = o.b b v 7 t t , t t 7 3 3 7 r 3 3 3 # O # 7 7 3 3 3 3 3 # @ @ 3 3 3 3 6 6 2 1 @ 0 w 4 4 q 4 3 4 4 5 2 4 5 2 w R.} | { } } { } Y. .E.T.O R.].T.T.T.T.T.T.T.T.T.T.Q.2.O 3.~.7.~.q.!.|..XZX4XO r r r 7 r 9 7 7 3 r # + 3 a W p u = = r i u i a i i W X.X.+.$.$.X.# O.9.1.8.8.9.w.@X+XdXO % 3 k % - - - - t x x x x b x n *.o.Z *.m.x.f.C.CXSXr.f j h B B B a.t.a.s.s.s.s.h.h.Z.Z.Z.=X;Xs.s.%X#X%X%X%X-X1X&X&X&X&X&X3X0X*XeX0XzXzX9X9XtXwXxXkXwXtXxXzX9X0X9X9X&X&X&X&X&X&X#Xg.&X-X%X%X%X%X%X%X%X#X%X=X=X=Xt.s.j.h.h.d.s.s.s.a.a.a.D.j f 4XDXP.x.m.=.=.=.=.%.%.c n c c x x l t - - 8 - - - - - - - - - - - - - * . r.P.>XL.B $ b X.+     +     + O r s r r r r r 3 > % E 6 & % 3   > = r 7 # # o - = t x c c c z z r.p.k.$X#X&X0X9X&XtXmXmXkXkXwXqXqXqXu.g.=XJ.H.B.a.M , a 9.8.O.@.U y y U a r = 7 3 = = % o + 3 3 e e ^ L 3 # O O @ ] Y.L     3 4   X e ( w O                         3 u 3 3 3 # + @ @ # 3 r y A y y b $.$.x x -.x x M.v.v.=.c c y +     , B L.>X,X,X<X=X<X,X,X,X3X2Xk k.m.; r.sX4XI.L.P.j 2 '. X! ,.1.1.1.",
"2 2 2 6 3 3 3 3 4 4 2 4 2 2 2 2 4 2 2 @ 2 4 { } ' ' { T.R.R.R.R.Y.(.[.E.^.[.[. X|.-.%.A : d . ! p p O.X.1.O.O 3 2.] <.) U X.u i 2.,.<.[ 2.7.3 a -.-.-.-.-.-.#.-.q.e.$ N.w.w.N.w.|.+Xr O 3 2 O @ # @ @ @ 3 3 3 2 2 3 3 3 # @ 3 e 4 4 4 4 4 4 4 4 3 3 @ @ # 3 # @ # O w 7.1.u r r r r 7 = = = = # . b b n b t a a x x b t 7 3 3 3 3 3 3 # O O # # 3 3 # 3 3 # @ @ 5 3 3 3 3 3 6 2 @ r w 4 4 q 4 3 4 4 4 2 4 5 2 w R.{ | { } { { } }  .E.T.O R.].T.T.T.T.T.T.Q.Q.Q.T.Q.<.O 3.~.7.7.q.!.|..XZX5XO r u r r i i i i 9 7 3 3 a U u 3 3 * 7 i U p U W a i W X.W W X.W b # O.8.1.1.1.1.q.q.OXVX  t r 8 = - - - 8 x x x x v x Q %.*.o.%.%.s.z.n.d.eXGXj M M M D t.a.r.s.a.s.s.s.s.h.h.h.Z.j.K.1Xs.s.-X%X%X-X-X1X1X&X&X&X3X&X3X0X0XrXzXxXzX9XwXqXxXxXqXwXtXlXxX0X0X9X0X9X9X*X&X&X&X#Xk.&X-X-X-X-X-X-X-X-X-X#XZ.#X=Xi.i.j.h.h.d.s.s.s.a.a.a.r.j f CXHX8Xd.d.n.z.v.=.Z c c n *.%.o.n x t - - 8 - - - - - - - 8 - - - - - * . ;XsX,X<Xs.d *.Z a % a A X.b t     # r r t s r 7 o o.a 9 jXb.: t t t a y t = % , x x c N N N D D :X-X1X2X%X&X0X9X9XwXBXmXkXkXqXqXqXkX#XV j.j : n B M l X.q.1./ #.#.p 7 r p t = = 3 = * % % # + + # 4 K ' K 3 + . . w ` ` @   @ K 2 2 L ( J 5 @                     O # 3 @ O @ O @ # 3 u u u y a b y a b o.b y -.n = t $ $ $ & g x :.*.  x b.>X>XK.K.K.=X-X;X,X;X;X7Xm.i.o   X p & y @ X >   @ 3.a W O.U O.",
"2 2 2 2 2 2 2 2 2 2 2 2 2 2 2 2 2 2 2 1 2 4 | | { ' ' | | | | | | E.[.Y./.^./.).N.N.`.iXdXsXm 2 u 3 u 3 u u O u 7.,.<.T U O.U #.<.[ <.[ 2.3.# A -.-.-.-.-.-.-.-.q.4.$ B.w.w.).w..X+Xt @ 0 3 @ 3 3 3 @ 2 3 3 2 @ 2 2 3 3 @ @ 2 2 e e q q q q q q 0 3 # # 3 3 3 2 # O u 7.8.u r r r r r r 7 = = =   a o.$.n t t 8 & - 8 = # # + + # @ # @   O @   @ @ @ @ # @ O O 3 2 2 2 3 3 2 2 O u p 4 4 4 4 4 4 4 4 2 4 4 2 w R.{ | | } } { } {  .R.T.O R.].Y.T.T.T.T.T.T.T.T.T.!.<.O 3.~.7.7.q.!.|..XZX5XO # 3 3 7 7 7 7 7 7 O U O.U 3 u u u * 7 i a a a a 9 t a W W X.$.$.X.r #.8.1.8.8.9.q.q.OXVX  x r ; = - - & - y b x x b x o.*.%.%.*.%.v.0.w.B.cXGXA 5 B a.j t.a.t.a.a.s.s.s.h.h.h.j.Z.Z.K.1Xp.g.1X-X-X1X1X1X&X3X&X&X*X0XeX0X0XtXzXmXqXwXqXxXxXqXwXwXzXlXmXzX0X0X0X0X9X&X&X&X&X#Xk.3X;X;X;X-X-X-X-X=X=X%X=X=X<Xs.s.Z.h.h.h.s.s.s.a.a.a.i.v.V VXFX<XB.m.n.v.v.v.S n %.;.*.o.o.n x t - - 8 8 - - - - - - k 8 - - - - = % aXaXK.P.x.8 q.8.% % -.o.$.o.b r + a O.X.X.X.b X.# Z . i.NXU.  v r s p U X.U r a n c c S S D a.x.1X1X&X3X3X0X0XtXwXkXNXBXlXqXzXqXkXqX9X%X3XS.B.h.A.B.&.+.4.#.W #.#.a + # U W 7 + = = = = % o o + + O 4 ' ' q @   . O L ` 3   2 ` Y L L L L P P q O                   @ # @ # 3 3 7 7 7 r r r i a b n o.A o.n = t . . x Z >.M.B.H.H.oXoX  $.B.K.J.L.I.yX>X<X<X;X1XaX&X#XZXeX1Xh.x.s.r.j h . *.x . O O O O O ",
"2 2 2 2 2 2 2 2 2 2 2 2 2 2 2 2 2 2 2 2 4 4 | { ( ' ' ] ] ] ] { ( R.[.T.!.^.!.).N.M.B..XiXDXN q U u u @ 3 3 O u ) ) <.<.<.<.O.<.,.[ ,.[ 6.3.# $.-.-.:.-.-.-.-.-.q.9.$ B.w.N.).w.|.+Xt + w 0 3 0 5 3 3 3 3 3 3 @ 2 3 3 3 3 2 2 2 2 2 2 2 2 2 2 2 3 # @ # 3 3 3 2 # O u 7.7.u r r r 7 7 r 7 = = 7 + r a t = * & & ; & = # # 3 3 3 # @ # #   @ # @ @ O O @ # @ O @ @ @ @ @ @ @ @ @ O r p 3 2 4 4 2 4 4 4 2 4 4 2 w R.{ | { { } { } {  .R.T.O R.].Y.T.T.T.T.T.T.T.T.R.!.<.O 3.~.7.7.9.!.|..XZX5X  # 7 # # # # + + + U U U u r u u 9 * 7 i a i a i 9 i W X.X.X.$.#.+.# O.1.1.8.9.1.9.q.OXVX. - > ; t - - & - y b x x b x Z -.%.%.=.%.d.c.B.Z.cXFXa.M r.i.r.r.a.c.j d.s.d.h.h.h.h.j.j.=X=X5Xg.g.3X-X1X&X&X&X3X3X*X9X9X0XeX0XrXrXzXmXwXxXkXlXkXwXwXlXxXxXxXkX0XrX0X0X0XeX0X*X0X%Xj.eX;X;X;X;X;X%X%X%X%X=XK.#X<Xs.i.Z.d.h.h.s.s.s.s.i.a.i.D d VXHX-Xm.B.=.=.z.v.n x %.*.*.o.o.n x - & - 8 8 - - - - - 8 8 - - - - = = = 5X5X=X:Xa.$ #.9.> > 0.o.#.-.-.X.O a O.b b a a X.~ < . jXNXf.# Q # 0 u u X.U # t m z c N D B D a.&X&X&X&XeX0X9XtXwXlXHXHXbXqXkXqXqXkX9X&X9X-X:Xk.A.A.=.Q 9.1.W $.y a r # i i = = = = = = = # # o =   O I | L X   + 4 q L w 6 J K Y L L 4 1 6 6 4 O                 O # r 7 r u 7 r 7 7 7 7 7 s a y y A y A A + o -.*.;.>.v.l.v.n.a.Z.yX  -.G.K.J.P.P.K.K.=X>X,X,X;X,Xj ZXvXvXZXvXZXrXZX,X. pXOX  r s s r s ",
"3 2 2 2 2 2 2 2 2 2 2 2 2 2 2 2 2 2 3 2 4 4 ' } ] ' ' ' { { ] ] ` E.[.W.E.E.^.~.V.).|.|.yXDXz O u p U ) U p @ O 3 u U O.<.,.<.] <.,.<.<.7.<.@ $.-.-.#.-.-.-.-.-.q.9.& B.w.N._.N.|.+X, @ 0 e 3 0 w 5 3 3 0 3 3 @ e 3 3 3 3 3 3 2 O O @ @ @ @ X @ @ @ @ @ # 3 3 @ # O 0 1.<.r 7 = = = = 7 7 # # 7 O   + . o l N S &.%.b i r 7 7 # 3 3 3 3 + # 3 # + O @ # 3 # 3 3 @ @ @ @ @ @ @ @ O u u 3 2 5 2 2 4 2 4 2 4 4 2 w R.{ { { } } { } Y.T.R.T.O R.].T.R.T.T.T.T.T.T.T.R.!.<.O 3.~.~.~.q.!.|.A.ZX5X  # a i i i i i 9 7 O.u 3 u p u 7 7 7 7 a U a a a 9 a W O.! W X.O.! # O.1.1.8.9.9.w.~.OXVX  - o d 8 - & & - t b x x x x Z ;.*.=.;.%.b.m.m.Z.cXGXh f r.r.i.G a.c.r.d.d.h.h.h.h.h.j.j.=X=X6Xh.p.1X-X1X&X&X3X3X*X0X0X0X0X0X0XrXwXxXxXqXxXlXkXqXwXzXmXxXlXzXkXwXrX0X0X0X0X9X*X9X%Xj.eX1X1X;X%X%X;X;X%X-X%XK.#X;Xs.i.K.C.h.h.d.s.s.s.i.a.B D d jXHX;XB.B.l.l.v.N.S c =.%.-.$.o.o.x - & - 8 - - - - 8 8 8 - - - - - = = - 6X;XF.K.f.< e.$.y = -.b #.-.#.A O U O.a U a u U k < d xXFXi.+ Q a a a p O.a # y c c S S &.a.a.x.%X&X3X&X*X9X9XwXwXxXHXHXHXxXlXkXzXkX&X3X3X=XF.P.C.B.D n 9.O.3 i r X.a # 3 = # 7 = = = = # # # # # +   P ] 4 O   ' w X 2 J E K K H 2 w 2 O                         O 3 u u u r 3 # 3 7 u r r s a n t > o > b = A -.*.>.=.n.=.b.z.v.P.:X. $.m.P.XXZ.K.<X>X<X<X,X,XeX2Xj eX9X&X-X#Xh -XgXr.O  X>.  3 y a a X.",
"@ @ @ @ @ @ @ @ 2 2 2 2 2 2 2 2 2 2 3 @ 2 2 ' | ' ' ' ' ' ' | | T E.[.Y.^.^.^.~.).).A.P.>XCXB 5 u u u p p u U u 3 u 3 0 I Y 2.} 2.2.7.<.7.,.O $.-.#.#.-.-.-.-.-.q.9.% B.w.N._.N..X+Xt @ 0 3 2 3 5 5 3 3 3 3 3 # 0 0 3 3 3 0 3 2 @ 3 3 3 3 3 3 3 @ @ @ # 3 3 3 3 # O 3 ,.O.3 # = = # # = = + + = u 3 r t x %.&.N B n t 7 7 r s r u r 7 # @ + # @ + O @ 3 3 3 3 3 3 3 3 3 # # # # O u u 3 2 4 6 2 4 2 4 2 4 4 2 w R.{ { } } } { } Y.T.R.T.O R.].R.^.!.!.R.R.T.T.T.T.Q.<.O 3.~.~.~.q.!.|.A.ZX5XO = i u u i i 9 9 7 # r u r 0 r t 7 * 7 i a i a i 9 i W O.O.! +.$.+.o o.4.#.1.#.-.0.~.OXVX  v o g * - & & - t b x x x x Z ;.*.=.=.S >.m.B.C.CXGXh r.a.j F F D a.s.g.h.h.h.h.Z.Z.Z.Z.#X=X6Xh.p.&X-X1X&X3X3XeXeXeX0X0XrX0XrXwXqXxXnXkXxXlXzXkXlXmXmXzXzXzXkXqXrXrX0X0X0X0X0X0X%Xj.eX1X1X1X1X;X-X-X-X-X-X=X%X1Xp.r.=XC.h.h.h.d.d.s.s.a.i.f.f jXGX;Xd.d.l.l.l.v.c g =.%.+.o.o.o.x - & k 8 8 - - - 8 8 8 - - 8 8 - = = - aX2X=XP.a.8 4.5.- % 0.o.#.$.#.$.O U O.W O.W u p N : F bXbXM c x x b b y A y % x x c n S S a.a.x.1X1X3X3X0XtXtXwXzXbXHXGXHXBXlXkXkXwX3X3X;X:XK.B.C.J.=.A #.U 3 O.O.1.p + r a 7 # + # # # 3 # # # X # . p T 1 O t E.q   X Y ` ` K w O X     .                         # r 7 r r 3 r 3 3 3 3 7 y X.> = y b $.o.% b *.*.=.=.l.D b.n.e.oXP.. $.m.P.A.L.P.K.=X;X1X3X6X2Xh.2 & d r.s.%   k.eXp.  }.:.O   u U U W ",
"2 2 2 2 2 2 2 2 2 2 2 2 2 2 2 2 2 2 2 2 3 2 ' Y.' ' ' ' ' ' ' ' Y E.[.^.Q.^.^.~._.B.B.XXiXZXG H a y y 7 p ,.[ [ [ ( _ I p O X 0 u u u p r # O # y -.>.-.-.9.-.-.#.9.y >.H.N.N.w.|.+XX # 3 u u @ 3 3 3 3 3 3 3 # 0 0 e 3 3 3 0 0 @ 0 e 0 2 3 e 4 @ 3 3 @ @ @ O @ 7 @ @ ~.8.u b t t r t r 7 # + a i r r r t *.l y l x y r r r u u r 7 r 3 @ # 3 # + O # 3 3 3 2 3 2 3 3 3 2 2 2 2 O 3 X.@ 5 1 5 3 @ 2 @ 2 @ 3 O 3 ] ( [ [ [ 2.' ' ` Y.| 2 @ 2 ( ^ Y H ) P ) <.6. .8.H 2 O   X.O.T ) @..X-XSX5X  w u u a i i t 7 * 7 7 7 7 7 = * * 7 + i b r U p 3 # #.X.a +.+.X.O.7 X.9.1.#.1.-.0.).oXjX= * s d ; - = & - l n o.b b t x ;.v.%.*.S f.c.B.J.DXDXj N D j a.j i.s.s.s.S.Z.j.=X=X=X<X,X2X,XeXj.c.1X&XeXrXvXwXzXrXrXvXrXkXvXrXzXzXxXxXzXlXlXlXxXBXNXxXlXkXlXzXzXvXrXvXwX0X0X0XrX#X#XZXrXeXeX*XeX5X7X&X1X,X1X-X;Xh.i.P.J.j.h.Z.g.h.g.s.a.i.D d jXFX1Xm.m.z.b.z.n.S z ;.%.o.Z o.n t - 8 8 8 8 8 8 - - - - - - 8 - 8 - $ , 7X;XK.>Xx.o 9.;.y # -.o.n #.-.o.+ t ..3.v   c.i.d R k.mXnXf o 9 A a > a a A r = x n S S D a.a.a.&X3X3X&X*X*X0XwXGXHXnXu.FXHXxXlXlX9X3X2X1X:XP.Z.C.L.a., w.u W q.#.X.u 7 u i 7 = = = = = = = # + # . . | ` O H W._ @   O K ' 2 .                                     r r r u 7 7 3 r 3 7 3 = a b b x -.b $.*.% x -.*.;.=.v.&.v.v.5.I.L.  D J.m.I.P.>X,X<X:XC.D < *   k a.  h.tXM   j tXk.  H.e.. O U ! a ! ",
"2 2 2 2 2 2 2 2 2 2 2 2 2 2 2 2 2 2 2 2 3 2 ' { ' ' ' ' ' ' ' ' T E.[.E.^.^.^.2.! M..XXXiXZXF 5 a y p r u ,.[ [ { [ <.) O.p p / p p p u 0 3 @ O o > y A *.*.9.-.w.w.b *.N.M.N.w..X+XX 0 3 3 0 0 3 0 0 3 3 0 3 # 0 0 0 3 3 e 0 0 X 2 0 2 2 4 4 2 @ 0 3 @ 2 2 # 3 # O O ~.8.u a t t r t r = # + a a u s r t %.l t x x v t 7 7 r r r 7 r 3 @ # 3 # +   # 3 3 3 2 2 2 3 3 3 3 3 2 2 O 3 U r 6 1 O 2 @ O O @ O 3 O 3 4 1 2 2 4 J K ' E.{.E.` ' ] ' L 4 2 q O O O 2 L w q H e O # R P $ / 9.C.DXdX  . u u i i i i 8 7 7 7 7 7 8 7 * * 7 9 b b a i r U p u U ! X.#.$.X.= O.#.#.#.#.-.9.0.oXjXo 9 # ; - - = & - t x n b Z n Z ;.M.;.;.=.m.P.U.F.SXDXf j i.r.a.B a.d.s.s.p.j.F.%X;X,X;X-XZ.s.u.f ; k.g.y.#X3X&X&X&X0X0X0X0XtXzXlXkXxXxXqXlXxXlXlXNXNXmXkXzXzX0X&X9X0X&X&X&X*X&X%Xk.y.=X1X&X3X%X&X%X8X&X-X%X-X%X-Xp.r.Z.j.K.C.J.d.h.s.a.B f a.V jXFX;XJ.m.l.l.v.b.S g *.%.*.o.o.n t - - - - 8 8 8 - - - - - & 8 - - - $ g 5X4XF.:Xc.> e.-.= . $.$.o.-.#.A # x ] +.b   Z.cXG 1 %XmXnX- t.#X. . > X.a > = x x n N S D a.a.a.;X1X7X3X6XeX0XqXHXHXjXy.bXNXxXlXzX&X&X&X%X-Xj.J.C.L.l.Z 9.U p O.O.W r 3 u u 7 = # # # # = = # + @ $ . K | 2 2 R.w O O q K H O                                       r r r u 7 7 # r 3 7 r r b Z Z n $.x o.o.% o.S S =.D z.=.v.z.e.I.H.O =.B.A.A.C.a.c 7   . d i.%X;XfXsX% r.&Xa.  & 9Xj.  M.8..   e J <.A ",
"@ @ 2 2 2 2 2 2 2 2 2 2 2 2 2 2 2 2 2 2 3 2 ' { ' ' ' ' ' ' ' ' Y E.[.E.!.^.^.| P n OXXXiXZXa.5 b a a u I ,.[ [ [ [ [ ] <.Y ) <.2.8.2.,.,.<.,.)     o = =   r > a b = x N.).}.).+XOX  0 0 3 r 0 e 0 0 3 3 0 3 # 0 q e e e e e 0 # 2 e 0 2 3 3 4 3 0 3 @ 3 3 # # 3 O @ ~.8.u i t t r t 7 = # # a i i t t l ;.m t m x x t 7 7 r r r 7 7 3 O @ 3 # + O # 3 6 3 3 3 2 2 3 3 3 3 2 3 O + +   @ 6 O 2 3 O O 3 2 3 O 0 K H J K Y ] ' } ].[.[.{.^.^.^.E.Q.T.!.} <.w L 6.6.!.!.~./ U ~.~._.O.I d y.i.  m u a a i i t 7 * 7 7 7 7 7 7 = =   r i t b r p  X~.u X.$.a +.$.X.+ X.O.#.1.#.-.o.. L.VX  8 = d - & & - - - l b y , t l n n c n g o.M a.x.g.r.- h f f f j F a.j f x S M h B j j r.u.p.j.F.t.k.s.d u.#X#X#X%X%X%X*X*X#X0XwX9X0XxXlXlXxXkXxXNXNXNXlXkXzXrXrXwXzX0X&X&X&X&X&X3X1Xk.k.k.k.p.u.k ; j.j.f f f t.j g c g f f j j r.j B B m.G d jXHX8Xd.B.b.n.b.H.%.x -.-.*.o.o.o.x 8 8 8 - - - 8 - - 8 8 & & 8 - - - % l aX4X=X:Xs.> e.-.a # +.-.-.-.#.b   a / n s O k.FXF.  0XmXzXO g.wXo o a $.O.= = l x c n S D a.a.a.-X3X3XtX9X9XwXkXNXNX*Xy.lXxXxXlX9X&X9XeX6X1X2XC.L.a.g n #.1.b W b a u r u u 7 = = = = = = = # # X % . w Q.H 1 T.2 O 3 I H 2                                         r r 7 u 3 3 # r 3 7 r r n Z y b Z x -.o.o $.=.=.l.D D l.l.=.;.I.F O > - 7 . O   % a.K.2XeXfX6X3X3X;X  - -Xa.  $ 3Xj.  0.8.  . r I e a ",
"@ 2 2 2 2 2 2 2 2 2 2 2 2 2 2 2 2 2 2 2 3 1 ' { ] ' ' ' ' ' ' ' Y E.[.E.Q.^.^.^./.r .XXXiXZXa.u b a a u I ,.[ [ [ [ [ ) <.I ) <.[ <.<.[ ,.<.<.[ 0 s 9.-.Z = 0.0.U #.b = r o b :.|.0.  0 0 r u 3 3 0 0 3 3 0 3 # q q q q q q q q # 2 0 0 0 e e 3 2 0 @ O @ @ @ @ 2 2 2 ~.8.r i t t = t 7 = # # a i t t 7 l ;.m - z x l r 7 r 0 0 r 3 7 3 O @ 3 # + O 3 3 3 3 3 3 3 2 3 3 2 3 2 2   # >   @ 5 6 3 0 2 O 0 3 3 O p 6.| 2.6.6.2.| } W.(.].E.W.Y.E.^.!.R.^.!.!.J 4 !.!.!.T.!.I u ).~.8.7.).dXgX>X    r i a i a i 9 * 8 8 8 7 7 7 7 7 7 i v t b 9 7 w.1.# W +.a +.X.X.o A r r X.9. X XG.dXVX= 8 8 d % - - - - ; - x y t x x x c n n & x F f.B.S.h.h G K.K.i.F D a.i.d.p.k.k.k.#Xj.%XeXtX1X&X3X6XrX1Xy.*X&X*X*X0X0X0XbXnX$X9X9X9X9X0XlXlXlXxXNXNXNXNXxXlXlXkXzXwXwXbXzXrXwXwX0X0X0X0XrX0XrX0XtXZ.y.eXwX6X&X&X1X1X-Xj.u.i.r.B i.a.r.a.a.j h ~ B.sXZ.G a.D M S S , , x y x t x x - - - - - - - - - - 8 8 - - 8 - - - $ l sX5X<X<Xs.< e.1.t   = > r > #   O X.O.$.A @ j nX=X$ wXmXzX- g.0X. > O.A b 7 t - x x n N D a.a.a.&X*X&X*X*X9X9XwXxXmX%Xp.lXlXqXqXhX&X3X-Xg.p.dXpXl.$ $ n #.9.o.+.b W a u a u 7 = = = = = # = # + + o + 2 <.) 1 K 4 O w I 2 O                                         r r 7 u 3 3 # r 3 7 r r b b b A o.b -.b . Z Z Z D D >.v.v.v.;.d.$   .   : F h.<X2X3X3X5X2X<X,X;X-X=XO i 1Xp.  % %Xj.$ 0.@.    % + U H ",
"@ @ 2 2 2 2 2 2 2 2 2 2 2 2 2 2 2 2 4 2 3 1 ' { ] ] ' ' ' ' ' ' Y E.[.^.Q.E.^.[.[.u B.iXiXZXa.P a a U u I ,.[ [ [ [ [ ] [ I ) <.<.<.<.2.<.<.7.7.0 X.N.v.n , }.}. X}.'.'. XH.#.y = o X w e 3 0 e e 0 0 0 0 0 3 3 e q q q q q q e 2 # 2 0 e e 3 3 0 0 X O @ 3 2 2 2 2 O 7.8.u t t r = r 7 = = # a i i t 7 t ;.x & m m x t r r u 0 7 3 7 3 O # 3 3 +   # 3 3 3 2 2 2 2 3 3 3 2 2 2   Z N.= u 1 5 3 0 O O 3 3 2 O p  .] | [ | } | Y.Y.W.[.{.E.E.R.R.^.Y.Y.{ !.J 4 ~.T.T.Y.!.) p }.~.'.8.0.2XSXaX@ w 7 9 i i a a 8 7 8 8 9 9 9 7 7 7 a t t i Q W + @ 3 @ X.X.W +.r t $.w.a # o o A b n.B.F.o - 8 k > - - - - ; - x n o.%.n S %.;.;.l a.K.F.,XZXAXp.f j.K.i.B B a.s.J.c.Z.Z.S.Z.h.j.2X;X=X=X%X&X0Xj.k.3X&X3X3X3X&X&XvXnX0XwXwXkXlXlXzXlXlXNXNXNXNXNXNXzXlXkXkXwX9XzXzX0X9X0X0X0X0X0X&X3X3X&X0X%Xr.3X-X-X%X%X%X#X=Xj.j.<XK.d.m.d.i.a.a.i.l.~ d p.r.h F M h N g g Z b y x t x x - - 8 - - - - - - 8 8 8 - - 8 - - - = l 6X;X%X,Xr., 8.,.i + # # r # # O + C U ! $.U   h d d nXBXxXk.y.p.. y 9.$.a o t x x x n N D a.a.t.0XeX3X3X6X0X0XzX0XlXh.a.zXwXtXwX&XeX<X$ . G.VX}.$ . n -.-.-.+.o.b X.U a u u 7 = = = # # # # + o o O @ O p [ L 4 q 2 P 0 O                                           r r 7 r 3 3 + r 3 3 3 r b b b n b b $.b = *.>.*.0.0.;.*.x x X . . x F D B :XF.<X>XZ.Z.>X,X<X=X;X2X;X& $ #Xk.    k.=X. 9.O.  @ @ 2 O . ",
"@ @ 2 2 2 2 2 2 2 2 2 2 2 2 2 2 2 2 4 2 3 1 ' { ] ] ' ' ' ' ' ' ) R.[.^.!.^.^.[.[.I B.:XiXCXa.u a a U u I ,.[ [ [ [ [ [ <.Y ) 1.@.O.@.<.,.) [ 7.u #.M.=.g , }.9.q.'.}.'.}.}. X+X7 O 0 e 0 0 0 0 e 0 0 0 0 0 0 3 p p p p w w p w 0 # 0 e w e e 0 0 0 @ O 3 w q q w w 2 7.9.u r t r = r 7 r = # a v i y t v z.c y c c x i r u r r 7 3 7 3 @ # 3 3 + O 3 3 6 3 3 3 2 2 3 3 2 2 2 2 . *.}.+ 5 O 5 @ 3 O O 3 3 2 O p } | } { } 2.{ } 2.` {.E.R.R.R.Y.Y.` ` | ^.K 4 7.{ T.T.!.I u }.~.~.1.N.<XAX5X+ 9 = 7 7 9 9 9 7 + 7 7 7 7 7 7 = * i 7 i y v X.a r r a #.W ! b 7 i o.w.9.9.#.X.A x x %.U.p - 8 k % - - - - & x *.-.n o.c n %.v.;.g c.S.K.uXeXFXK.V r.i.t.x.x.a.s.Z.i.h.h.h.j.j.j.#X#XK.:X%X3XeXu.$X*X&X*X&X0X0X0XnX0X0XwXwXzXxXxXzXlXmXNXNXNXNXNXNXMXlXlXqXwXtXzXxX0XeX0X0X0X9X0X*X3X&X&XzX8Xs.-X#X%Xj.K.K.j.j.h.C.-Xj.r.s.s.i.a.t.t.G d jXFX;XK.A.B.b.b.N =.N.*.$.*.o.o.o.x l l 8 - - - - - - 8 - - - 8 - 8 - $ , 6X1X;XuXj t 8.:.$.b X.X.#.$.#.X.* C 1.3.-.-.O . f s.mXBXmX%X; O . % A X.y o = l x c c M B D D B %XeX0X9XtXtX0XzX$XqXp.G wX9X9XwXhXeXk.< +XVXH.$ $ x v.;.o.:.#.a b X.U u u u 7 = = = = = = = = = = # @   # ] ' 5 # 2 H 2   .   O                                     r r 7 r 3 3 + 7 3 3 0 r n n y b A A o.y o b A t t o . = . & o.D G.OXI.G.B =XXXiXP.m.J.>X-X%X,X-X,X5Xa.  r.m.h O i.:X. #.3.    I 1 ; <X",
"@ @ 2 2 2 2 2 2 2 2 2 2 2 2 2 2 2 2 4 2 3 1 ' { ] ] ' ' ' ' ' ' ( E.[.^./.^.[.[.[.T m.iXyXCXD 0 a a / u I ) [ | [ [ [ ) <.I / 1.1.1.<.<.<.,.<.7.0 #.-.%.g l }.w.9.w.w.@X}.H.H.+X4.3 w @ e 0 3 2 e e e 0 0 0 e 3 r u u u w w 0 0 2 # 2 e w w 0 w 0 0 @ O w K K K Y J 2 7.q.u r r r = t r r = + t a s s r t :.x t g l t 7 3 3 3 3 3 3 3 # O @ 3 # + O 3 3 6 5 3 3 3 3 3 3 2 3 3 2 . o.0.  + O 3 3 3 @ O 3 3 3 O p | | } | | 2.{ | <.' {.E.R.T.R.^.} } R.T.^.Y q 7.T.T.!.!.w p }.~.q.w.-.j.SXsX. k 8 8 7 7 7 7 7 * 9 9 9 9 9 7 7 7 a b X.y 8 i W X.a X.X.W n +.+.-.X.#.#.#.4.-.9.0.*. XoX0 $ - k > - & - - - x *.-.n n n n %.;.;.g d.K.J.P.7XFXI.j s.i.a.a.a.i.s.Z.s.j.F.j.j.K.=X%X=X=X=X%X&X7Xg.9X*X&X*X*X*X0X0X0X0X9X0XrXrXlXxXkXxXNXNXNXNXNXNXNXNXlXlXkXwXwXzXlX0X0X0X0X0X9X0X0X0X0X3XcX;Xc.&X%X%X=XK.K.=Xj.Z.h.-XF.r.d.s.s.a.a.t.F f DXGX-XP.h.m.b.b.M z.H.x Z *.Z o.Q x 8 - & 8 8 - - - - - - - & - - 8 - % - aXsX>XP.d r @.o.X.X.o.X.#.o.#.X.. s b p s 7 & k.#X#XmXBXBX&X. 2 . .   o o % % , l x c c M B F B 6 b.;X&X0XwXqXkX#XtXg.p.wX9XhX9X#X$Xr.pXVXN.$ & c n.=.&.o.-.o.p b X.U r r u r = = = = = = = # # $ 2 O . . H ' 5 + @ q O   .   O                                     0 r 7 u 3 3 + r 3 3 3 r b b b b A b y =   . % o = . % v.b.L.A.L..XB.C.v.y J.Z.>X=XF.F.=X:XuX<X=X,XsXI.8 ; C c O h d.. / ! . 7 $ f ,Xk.",
"@ @ 2 2 2 2 2 2 2 2 2 2 2 2 2 2 2 2 2 2 3 O ' ` ] ] ' ' ' ' ' ' I E.[.R.Y.E.[.[.JX( a.iXiXCXF 0 a a X.u I ,.[ | [ [ [ ) <.I / #.@.#.@.O.<.3.8.,.e 9.>.=.d g N.N.N.N.w.}.H.H.N.OX+.O w 0 s 0 @ w 0 e e 0 3 0 3 @ @ @ @ @ @ @ @ @ X O X 2 e 4 3 e 0 0 @ 1 H K K ` w q O <.9.p t t t = t r r = . r b s r # * x . . $ % * + @ # 3 3 # # # @ O O @ O O   @ @ 1 2 O @ 3 3 3 3 2 2 2 2 . %.M.. + 1 @ 3 3 @ O 2 2 3 O u { | | L K } } Y.] K {.{.E.R.T.Q.!.!.^.R.!.L H 7. .} !.!.w U }.7.'.1.w.Z.SXsX  8 8 8 7 7 9 a W W a a a a a i u r y a y t b X.i a W b b o.Q W +.b #.+.#.#.4.4.#.-.e. XOX@ g 8 k % - - - - & x o.$.n %.n N %.=.*., B.K.K.:XeXFX4Xf a.j s.a.a.s.h.K.s.g.j.j.j.Z.=X=X=X%X-X;X3X6Xh.9XeX&X*X*X0X0X0X0X0XtXwXkXkXwXzXkXmXNXNXNXNXNXNXNXNXxXzXzXzXqXzXxXwX0XeXeX0X0X0X*X9XeX2XvX&Xg.&XK.%X=XK.K.j.j.j.h.-XF.r.d.s.a.a.B B D f cXFX-XS.Z.m.n.n.M b.G.l *.o.n Q n x l l 8 8 8 8 8 - - - - - = - = 8 - $ % j.J.f ; . _ e.Z o.#.#.X.O.X.#.X.. X .   X + r.9X#XF.BXmXMX*Xd d Z *.b %   o % , t l c c M B D a.l.d ; ; h j s.s.d #Xk & #Xy.u.c.r.. B.dXy 6 R : h b.D v.%.$.a O.Q +.W r r u r # = = # + + +     . 2 O     1 4 O   O O O       2                                     r u 7 u 3 3 + r 3 3 # r b y = . o .   = y A Z ;.N.S c B.b.m.m.m.N.m.J.N.Q K.K.>XP.Z.P.:X<X;X;X1X2X&XeXaXg.& d 2 o d & 0 O . 1 f 1Xp.  ",
"2 2 2 2 2 2 2 2 @ @ @ @ @ 3 3 3 # 6 2 2 5 3 T } ' | | | | | | ` ' T.[.E.W.^.[.[.[.` V.XXuXgXS r a W y p p ) [ | ) [ ) ) <.p @.#.#.#.@.#.#.<.<.<.0 -.>.=., y }.M.w.w.0.@X@XH.H.OX-.O 0 0 r 7 r s 0 0 0 r u r 0 0 0 0 @ 3 r 3 r 0 3 3 3 3 @ @ 3 @ 1 y O 6 ^ T L e # # > @ I _ O # + + + # + + + + 9 @ = x > t &.S n N &.m = u u r 7 r r 3 @ @ 3 3 3 3 # # # @ @ @ @ @ O   O @ # # O o.;.  # + 8 = e O O 2 3 O O p { { p     p } Y.,.L {.].^.Q. .R.T.}  .{ { Y w 8.!.}  .7.u U ~.~.0.~.3.L.ZXsX$ 7 i t 8 8 8 R T T R R R R R U i 7 a W i a W a t b x Q W W +.+.W X.O.X.X.9.9.-.-.0.q.H.oX$ # l ; k - - - & & x n x N %.Z n ;.&.=., n.K.K.=X7XHX4XV a.j a.a.s.i.h.K.a.k.k.h.=X%Xj.=X=X:X-X-X2X7Xu.6X&X*X*X*X0X0X0XrX0X0X0X0XzXqXqXkXNXNXNXNXbXNXBXBXNXmXzXzXqXqXvXzX0X0XeX0X0X0X0X*X*X3X&XvX1Xg.%X%X=X=XF.F.=Xj.#Xk.1Xh.c.g.p.s.a.t.a.&.d jXFX$X:XJ.m.n.n.h v.G.x #.n Z o.n m 8 - 8 8 - - - k k k 8 8 - & - k 8 - %     g i.j = O.X.O.#.X.O.O.#.1.U $ = Z &.k $ k.tX#X8XBXBXNX*XV f.h l.&.y + + i 8 l l k m m h F F %.i.k.&X#Xk.p.%X&X%X&X*X*XeX0XeX2Xr.y O + - . O D x.n.=.*.o.o.o.b o.X.i t r 7 r 7 @ 9 % + n.=.l.*.X.X.X.u 2 L Y.{ ` ` ' K H w 4 # O + # + + O                       r 3 # r 7 7 o + # 3 # @ O   . , y b t o.%.%.=.=.v.S g N.b.n.N.m.B.m.L.m.h L.J.P.>XK.=X=X<X<X=XaX5XF.i.h o O .       + 1   . f 6Xg.%   ",
"2 2 2 2 2 2 2 2 @ O O O O O O O   O O O @ O w K Y Y Y ] ] } } } | Q.[.^.^.[.[.[.[.^ C.>X<XCXc U b X.a a p ) [ [ [ [ ) [ <.p #.#.#.#.@.@.@.1.1.1.0 -.v.=., y }.M.w.w.w.@X'.}.H.OX-.O 0 0 r r 0 s 0 0 0 0 u r 0 0 e 0 @ 0 u 0 u 0 u 0 u u 0 3 0 0 I X e + ..5 Y X r = > @ _ <.@ % = = = = = # # # 9 # y Z y x &.c n N &.m = u u r r r r 3 @ @ 3 3 3 3 3 3 3 3 3 3 # # + @ @ # # #   %.%.O w 5 6 2 w 1 1 2 3 1 O w Y.} ( @ @ I } Y.) ` [.].E.^.R.Y.T.T.T.T.T.K L !.| Q.Q.6.O 3.}.7.!.~.:.Z.ZX6X. E t t 8 8 8 W ! T ! ! R R R U a 7 7 i a a W b i b = t 7 7 9 7 # = + = r a A o.o.o.9.L.oXl 3 t ; 8 - - - - & x n c N S n n =.=.=.% d.K.K.K.1XFX4XV a.a.a.a.c.s.h.K.*.h.J.L.h.j.<Xj.%X=X%X%X1X*Xk.*X0X&X9XeX9X0X0X0X0XwXwXwXqXqXzXxXNXNXBXnXtXNXmXmXNXmXlXkXkXzXzXlXwXrX0X0X0X0X0X0X0X&X&XcX%Xg.;X#X=X=Xj.j.K.Z.Z.p.1Xd.a.d.f.a.F a.i.G d jXFX-XC.d.c.n.l.c n.|.x o.Z o.o.n x 8 - 8 8 - - - - - - * 8 - - - 8 * $ $ d L.pX,XI.c 3 $.X.O.O.#.#.#.#.p O a >.o.8 f #XtX#X&XBXBXBXnXr.a.h S z.l   r b t - g m k M D j a.k.u.cXxXrXwXvX&XG.n.n.a.F F j j f * [ | @ $ - $.l.b.n.l.*.O.o.o.b X.b i r 7 # 7 + : *   oXdXH.VX+X}.}. X}.p L [.Q.{ } } ] ) _ I 7 # # 3 3 3 # O                     r r 3 r 3 3     O # # # + o b o.o.*.x o.%.%.*.*.v.Z c N.b.b.v.m.B.m.L.m.h L.J.I.>XJ.:X:X<X<X2X=Xr.d B Z.-X%Xj.h.i.d . ! X.X L.K.$ O . ",
"@ 2 @ 2 2 2 2 @ O O O O O O O O   O @ O #   q H 2 2 4 4 5 4 4 4 O 2 L L q ] 6.Q.^.u S.CXgXZXM w a U i p p @.[ [ [ [ ) [ <.p #.#.#.#.O.O.O.@.1.1.0 -.v.l.g y H.M.w.N.w.H.'.}.H.OX-.@ 0 0 u r 0 0 0 0 e 0 u w 0 0 0 0 # 0 u 0 u w u 0 u u e 0 0 0 s e : = { 5 8 > s r = @ ,.~.r % v x t t 8 8 8 8 7 @ y %.a m B c c N &.m = u r 7 r r r 3 O @ 3 # 3 3 3 3 3 3 3 3 3 3 3 @ @ # # #   &.N . 6 6 6 H u 2 2 1 5 6 1 w | } ' K K | } } Y L {.{.E.R.E.E.Y.Y.Y.T.T.L 4 !.R.Y.| !.1 O.~.~.@.}.:.C.ZXsX. i t i t - 8 ! O.! ! ! R R R R i 7 r W ! a W b i t   = t a W X.X.O.b X.r     # # . # M j $ 3 = & 8 - - - & - c %.n N n n Z =.z.=.% m.S.P.P.6XGXI.V i.a.i.a.s.p.h.F.D h.h.Z.F.#X=X%XF.=X%X%X;X7Xk.%XrX0X0X0X0X0X0X0XrX0XwXwX0XwXwXxXNXmXBXmXrXNXmXmXBXxXlXzXwXwXzXzXwX0X0XeX0X0X0X0X9X9X&X0X%XZ.=X=Xj.=XF.K.K.K.P.A.5Xh.a.d.d.a.t.t.a.a.f jXFX1XP.L.m.b.z.M l..Xc o.n n n n x 8 - 8 - - 8 - - - 8 t 8 - - - - * % % =XaX,X%X>XN 3 #.O.#.X.O.O.O.#.a   y ;.r o j %X9X#X%XNXBXBXnXt.~ M M v.-   p U t , - c - M M d P.AXy.$XwX0X9XvX>XK ( ( ( J H Y I U L ` Q.O   h b.l.x.x.=.o.O.$.+.X.b b b t 7 r r 3 % 8 * VX<Xy  X~.8.7.!.q.w 1 [.( J H I P P P w 7 # # # # 3 #                       # 3 # 3 @ O   O + 3 r r r > o.$.$.*.x o.o.%.S S ;.n c N.z.m.v.m.B.m.L.m.h L.K.P.I.J.:X:X<X<X>X>XI.d.i.p.#X-XeXgXrXvXeX1Xs.  d d   q # ",
"2 2 @ 2 2 2 @ @ O O O @ @ 2 2 2 @ @ 4 2 0 @ I K I I I I I J J H [  .T. .[ / w q E 2 $ b v.P.Z U a a t p p ) ) [ [ [ ) [ ,.u #.$.#.#.$.@.@.@.1.1.3 -.v.v.l y H.M.w.H.w.H.}.}.N.OX#.@ w w w 0 w 0 w e e e 0 e e 0 0 0 # 0 u e w w u 0 u w 3 0 0 0 : q p   [.` ; a r r = O ,.~.r % t t 8 8 = = = = 7 O y n t m B c c N &.c 7 u r 7 r r r 3 O @ 3 # # # # 3 3 3 3 3 3 3 # @ @ # # @   x m = @ 6 + 2 3 @ @ O 3 3 @ 3 ] }  .} } Q.Q.[ <.K {.[.E.Y.Y.Y.T.T.T.T.Q.L q ~.{ T.Q.Q.2 1.~.1.w.-.+.P.DXsX; $ t v x - 8 ! ,.) T U R P R R R 9 9 i i i r 7 = * # a O.#.1.#.O.#.#.#.X.= X.9.w.0.o.f.s.% t & g l - - - & - c %.n N n Z Z &.v.=.& d.Z.K.F.3XFX<Xj s.a.a.a.s.s.Z.K.a.j.k.h.=X=XK.%X-X;X1X;X1XsX#Xk.9X0XeX0X0X0X0X0X0X9X0X0X0X0X9XzXNXBXNXFX0XNXxXmXBXbXwXwXwXkXwXtXrXzXwXvXeXrX0XeXeX0XeXeXk.u.%X=X%X%X%X%Xk.k.k.k.,Xh.s.d.s.i.r.a.&.&.d jXFX&X<XZ.m.B.;.n S G.c o.o.o.o.n x 8 - 8 8 - - - - t b X.- - & - - - $ x 5X;X%X%X=Xz u 1.#.#.O.#.O.O.#.U + z z.% . r.$X9X$X#XBXNXNXmXt.t.F a.v.=   p a r t = x g z h d L.NX0Xu.#X9X&X%XDX!.~.7.7.[ E ] ] ..4 L /.2   M c.x.x.x.=.$.#.#.:.X.t a b r = 7 7 3 .   i DX#Xe.}.7.6.!.] 7._ 1 '.[ I I Y Y Y Y P 3 @ @ # 3 3 3 O                     @ O O # # # r r r u p y s > A o.o.$.x o.o.%.*.%.=.n c N.z.B.v.m.B.m.L.m.h L.K.I.>XJ.:X:X<X<X%X;X1X3X-XZ.%.P + B d.K.h.f a L   $ + 1   ",
"2 @ @ 2 2 2 @ @ @ @ @ 2 2 3 3 3 @ 2 4 2 5 2 Y ` ] { } } } } } } E.(.[.[.[.[.[.[.[.8.v O.b d . T a X.a a p O.) ) [ [ ) <.) u #.#.#.#.#.#.#.1.1.1.# -.v.v., y H.0.w.H.N.H.}.}.H.+X-.# p w p u p w u 0 0 0 w 0 w u 0 r 3 0 u e w e u 0 u u 0 0 u w e J 6 E PXJX+ i r > = O O.~.r = = = 7 7 7 = = = 8 X x N y m N Z c N l.n 7 u r 7 r r r 3 O @ 3 # # # # # 3 3 3 3 3 # # @ @ # # # e           .       O   @ @   O I / [ [ ] ] T I u 2 ' !.'.Q./.!.} 6.{ } 6.I w 8.~.6.] w O i }.}.!.q.%.=XSXaX  O.i v x - 8 ! ! ! T T R R R R R R r + # r t 8 7 8 = W $.$.O.O.W X.$.#.X.t 9.9.-.-.N.oXdX& # - g - - - - & & c %.m N n Z Z S z.S & G L.yX=X6XGXI.; x.j G F j j r.i.j r.a.i.r.a.=.i.r.y.p.r.y.g.f f f t.s.y.p.p.u.k.B 8XFXMXNXmXxXxXBXNXnXd -XmXxXxXxXnXbXbXxXmXMXnX&X%X%X#X#Xj.k.#Xh.k.p.h.h.m.i.s.a.f B B B t.j h j j F D D G j G G j f VXHX6X<XK.m.b.=.%.c N.Z $.o.o.n c x 8 - - 8 - - - - t b X.* - & 8 8 8 $ S 5X-X;X2X=Xx p #.O.O.O.#.#.O.#.a   m N.l d u.&X9X9X#XnXmXBXxXy.D.F b.&.=   s U r 8 t v 8 z z d f nXBXMXvXvX*Xk.DX^.!.| { | | Q.' ( P ! ,.#   =.m.l.x.l.=.+.O.+.+.$.b b W t = 7 = 3 ,   + SX=X[ ~.~.6.Q.2.q.p O '.] J L J K Y K H 3 @ # 3 3 7 3                       @ O O r u a y i i i a u r # o.$.o.$.x Z o.o.*.*.;.n x N.n.B.v.m.B.m.L.m.h A.J.P.I.K.:X<X<X<X2X,X,X,X5X6X6X6Xa.    O $ . g $ : . @ O h ",
"# @ @ @ @ # @ @ @ 2 2 2 2 2 2 2 1 2 4 2 5 1 Y | ' ' ' ` | | { { E.{.(.(.(.^.[.[.[. XA.S.uXDXJ.O s a a X.p O.) <.,.[ [ <./ r 1.#.#.#.#.#.#.1.#.#.# -.v.v., y H.M.w.H.N.H.}.}.N.+X-.+ p u u u p s u r r u u u u p u u 3 u u 0 p w w 0 w w 0 e w w e P 4 [.JXPX2 i r = = @ ,.~.7 % = > r r r 7 = = = O n N b n B A n N l.n 7 u u 7 r r r 3 O @ 3 # 3 3 3 3 3 3 3 3 3 3 # @ @ # 3 3 O ; M M c M B d     @ X + @   O O O O O O O 1 2 ( p 4 O 4 4 L 4 q J 4 q w O O @ w q I ) ) 3 U p ) 9.! s.CXdX  = t y t - 8 i U R U R R R R R R R W 7 7 a b b b W + i X.W O.#.1.1.O.O.W i w.9.0.0.>.I.VX$ + - - * - - - & & m %.c N N c c N &.g & # 9 N d.k.%X& ! f j a.f.s.m.C.C.P.K.K.Z.h.h . p.m.p.d.h.h.h.h.P.k.u.%X1X3X3X3X&X; 8XbXkXlXlXzXzXmXBXj y.#XMXxXvX0XbXbXkXzXzXxXMX;Xr.-X%XF.y.=X%X$X&X%X1X3X3X&X1Xs.r.j.F.=X=X=X=XC.s.i.h f t.r.F i.i.V F U.y.h h j j c x & Z = t x l l l 8 - - 8 - - 8 - - - 8 t 8 8 & 8 - 8 $ D 5X,X<X-XK.Z p A O.X.a X.a a O.X.  # b   . j p.p.p.f ; d m d $ - , c g %   # a s 8 8 8 m l z N ; ~ %X*X0XrXu.; pX} | ] ) I Y ) w p a b =     S B &.=.=.%.+.#.$.+.b y y y s r r r O % = + VX>X_  X7.7.!.7.8.r O '.[ ( Y ( Y Y Y J + O + # # # +                       3 # # r u u t t t i i i r = o.o.o.$.b o.o.%.*.S 0.Z g N.b.n.v.m.B.m.L.H.h A.J.P.I.J.:X:X<X<X%X-X-X,X2X-Xk.k.=X. X w 1 @ X..     @ % j.",
"# @ @ @ # @ @ @ 2 2 2 2 2 2 2 2 @ 2 2 2 3 1 Y ' ' ' | { | | | | R.{.{.{.[.'.'.{.{.}.b.B.U.pXsXh o r t a s / / [ [ ) [ <._ 0 4.-.#.#.#.#.#.#.#.#.# -.v.v., y }.N.w.H.N.H.}.}.H.OX*.o s r r s r 0 r r r s s s s p u u 3 u u 0 p w w e 0 0 0 0 w 0 w O {.LXJXPXL s r = = @ ,.~.7 > = = = = * + + + *   %.&.v m M A n B l.n 7 u r r r r r # O + 3 # 3 3 3 3 3 3 3 3 3 3 # @ @ # 3 3 . x.XXL.`.V.V.n 3 @ 3 3 3 3 O 0 I H p p P I ' Q.!.!./ 2 ' { 2.[ ' } ] | [ ) ) 2 P ~.'.!.~.~.~.[ Q i ! ; f h + j 8 8 8 - 8 9 R T R R R R R R R R R 7 7 v i y v a # b X.! O.#.#.#.4.1.X.7 9.-.9.0.M.P.dXd r x ; t - - - - & c %.c N S c c N &.g Z >.n.i.F.7XcXd.$ r.yXC.d.C.C.C.C.j.j.Z.=X2XZ.f sX7X*X6XeXeXeXeXZXCX7X0X0X9X0XeXvXd *XxXwXzXzXzXkXMXjXD.wXzXbXlX&X&XvXwX9XrXrX0XxX7Xu.rXrX0X$XrXwXrXvX&X%X1X&X%X&X=Xj.sX;X%X#XF.F.S.j.j.m.P.,X=XC.s.d.D.f.U.K.K.P.h.a.x.l.S S x x x l l l 8 8 8 l 8 - - - - - - * 8 8 & 8 * k . D 1X,X,X;XK.c p #.#.X.y y y a #.#.O           X X $ R u < , R , 2 % . t t   @ s > t - - c l - n m # O O   X e O : <.O         +   O       O + = $ . $ $ . + # # % o = # + # # # # 7   7   c j @ O.U ) ) p s + O I p 0 0 0 0 0 0 3     O + O O O                     O r r # 3 3 7 r t t i i i s r X.A A $.b Z Z o.S Z N.%.- b.b.D v.m.B.m.L.G.h B.J.P.I.J.=X=X<X<X<X>X,X;X;X;X-X;X6Xp.. . $ S 9.O % o O j -X",
"# @ @ @ # # @ O 2 @ @ @ 2 2 2 2 O @ 2 @ 3 @ I ' ( ' ] ' ' ' ' ' E.[.(.(.[.[.[.[.[.).V.`.A.S.DXf   > r t # u p P / _ ) ,.I 3 -.-.9.-.-.9.4.4.1.1.# -.v.v., y }.N.w.H.N.H.}.}.N.OXZ   > : 3 r : # r # r s s r s s u r 3 r u 0 p w w e w 0 0 e w w u   [.PXJXPX6 > r # # @ <.~.r t t t 8 8 8 8 8 8 = O %.&.y m m Z z B l.m = u r r r r r # O + 3 # 3 3 3 3 3 3 3 3 3 3 # @ @ # 3 1   =.b.    O 2 @ 3 2 5 5 5 6 1 P | ] ) ) ) ' T.'.W.T.I P ~.^.Y.Q.T.Q.T.Q.Q.!.7.1 ] ~.Q.T./.!.!.'.~.}. XoXCXoXO i 8 8 - k 8 9 R T ) T T T T T T T i 9 i b t v ! v # W #.1.4.q.4.#.$.1.$.7 w.9.0.9.;.oXdXg . , & 8 - - - - - c %.n N %.n n &.l.h v.m.C.F.cXAXvXh.f r.sXj.p.h.s.h.Z.C.C.P.j.-XP.f %X=X%X<X-X-X-X&X1X1X3X3X*XeX0X0XeXk *XzX0X0XwXwXwXxXk.9X9XtXzXzX#X&XzXwXwXwXwXrXzXr.%XrX3X6X&X0X0XrXbX1X=X;X;X%X;X#Xk.sX%X#Xj.K.C.C.j.j.i.i.k.k.d.B.f.f jXHXvXeXeX>XZ.A.B.l.&.N c *.%.o.c x 8 - 8 8 - - - k k k 8 8 k & 8 = k . l.7X-X;X5XK.x U #.O.O.O.#.#.O.#.O.*   % x.D.$ 5.OXG.).z.B V._.l.n.A . -.-.  O > + & , - g g g g ; r.p.G 9 p.*Xp.E IX2.O u u u 0 u w e @ 0   . . n i l t t t p v x t b t # r r # # * @ 6 % O . O       O       O O                                                   O r r # r u a t t i i i r r r o.o.A $.x n b n Z Z N.*.& v.b.M >.m.B.n.L.G.h B.C.P.K.F.=X=X<X<X<X;X;X1X3X2X2X2XeXfXa.    a.a..   O 7 J.1X",
"@ @ O @ 2 3 @ @ @ @ @ @ @ @ @ @ O O 2 5 6 6 L | ' ' | | { Y.{ | E.{.{.{.{.[.[.{.{.}.b.B.A..XDXf.# O.O.X.X.X.X.#   @ O O     = > : o # r r a # > O s -.0., % w.}.}.}.H.|.|.|.OXOXr r s > y r y > > r y y y y y r s r 0 0 p p I p p p p 0 e e w p s O JXKX^ PXW.* : > = O 8.7.@ x t t t 8 8 8 7 7 7 o %.M.m d %.Q %.c z.n = u 7 t 7 r r 3 @ @ 3 3 # 3 3 3 3 3 3 # # # + @ @ # # # O x.=.X 6 = : # 3 @ 3 3 3 @ @ U ' ( ] T ,.( T.^.T.Q.( L !.!.Q.2.[ 6.} T.Q.} 6.2 Y !.!.Q.!.Q.6.!.!.q._..XfXDX> 9 t 8 - - 8 8 8 - 8 8 l v v v 8 8 * b b t v v t b # W 4.#.1.1.1.#.#.#.$.t 0.-.0.9.M.OXsX, = l * l & - - & - c %.n N N x %.%.S z =.n.m.C.jXvXvXj.9 r.I.a.a.m.m.m.m.S.h.J.=X%XK.M %X-X-X-X;X;X%X1X1X1X3X&X3XeX*XeXeX% 8XzX9X0XeX0XwXwXh zX9X&XvXxXp.%XkX0X0XwX0XwXzXp.6XtX0X3X&XeX9X3X&X1X1X-X;X-X;X#Xj.3X=X=Xj.Z.j.J.C.J.a.i.A.s.s.s.p.d jXbX#Xj.K.J.A.b.z.z.D z o.o.o.Z c x l - - 8 k 8 - 8 8 - - 8 * 8 8 k - $ v.fX3X;Xj.F . s C X.X.O.O.O.O.O.O.=   : N..X. + 9 + j F.8X&Xk X & h , b O   + > % , , , g k x , . #XzXrXtXvXzX%X2 IX/.1 O.3.,.,.T / p U X.0   . , z l c n $.o.#.X.o.o.X.a i i a a 9 + : o 9 1 F 1XC.P <.a Y Y u u 0 0 1 6 5 5 w 6 # + # # # @                         r r # r u r r r i u i i = t o.o.A A b , n %.=.0.L.F > B.n.S >.m.H.m.A.L.d m.J.L.yXC.:X<X=X<X<X,X<X,X2X,X5X,XB *XZXf.. a.l.. $   % P.<X",
"@ @ @ @ 2 3 @ @ 2 2 2 2 2 2 2 2 2 2 4 5 6 2 L ' ( ( ( ( ' | | | E.{.{.[.[.[.[.'.'.).m.B.A.A.CXJ.@ O.$.O.O.#.#.r   @ O                 O   O   + +     %     >     > , A S S S c : r y s y r y > r r > r s y y r r r # : r u u 0 u p r 0 3 3 e e s 2 JXJX^ PX{.8 s t = O 7.~.# t t t t t t 8 7 = 7 = %.&.d g &.%.N z l.c # u 7 t r r r 3 O @ # @ 3 3 3 3 3 3 3 # # # # @ # # # 3 O x.=.O 9 = @ 3 3 2 3 3 3 @ @ I ' Y ( I ) Y | Y.Y.Q.( K !.T.T.Q.Q.Q.Q.T.Q.} !.2 Y !.Q.} !.!.!.!.^.8.N.B.sXCXt i l t t t t 8 8 8 8 8 8 8 8 8 - * = b b t v v t b # W 4.#.1.1.1.#.#.#.$.t 0.-.0.9.>.OXsX, . - - % - & - & - c %.n N %.c c N =.M =.n.G.C.5XAXZX%Xd f s.y.h.h.g.g.Z.S.U.L.Z.1XP.m =X%X%X%X%X%X1X1X-X&X1X*X&X&X0X0X0X9 y.eXzXqXwX0XwXk.s.zX&X&XkXnXf , *XvXrXqXwXvXeXr.eX&X*X*X&X0X0X3X&X1X1X-X-X-X;Xk.h.3X=X#X%XP.F.j.h.Z.s.s.Z.g.s.s.s.V jXnX#X,XZ.C.C.m.n.l.D l n n n x x l l 8 k & 8 8 8 l 8 - - 8 = 8 * - & $ c n.d . o @ O 9 ~ 9.#.X.X.O.#.#.#.+   % B.B.$   i V u.MXNXMX; , ; =.M.x   O   > = > - - g g l , . %XtX0XrX*XwX$XX LX^.O U O.T ,.O.U r u a 0   o t n l c x A n +.b X.X.W a a t i i 3 + # : 9 O a.CXJ.9.2.9.) 2.#./ p p 3 w P u P 5 # # # # # O                         r r # r u r r r i u i i = t A o.o.o.o.%.;.;.=.9.A.F : V.l.Z =.b.B.H.A.L.& b.J.J.>Xh.=X=X=X<X=X<X-X1X1X1X1X1Xd =XAXAXj F c.N @ X X d f ",
"@ @ @ O @ @ @ @ 2 2 2 2 2 2 2 2 @ @ 2 2 1 2 H ' ' ' ' | ' ` | { ^.{.^.[.[.[.[.[.[.~.B.B.A.A.DXI.O X.O.X.X.#.#.r s #.#.#.#.$.-.o.#.U O p X.O.X.W a r r A A $.-.> % b Z *.=.=.S , r > a y a r y s y r > : > s y s t r > r r r r 0 # r r r r u p p e X JXPX].PX{.o s t =   8.'.# = t t y t t t 7 = 9 o l =.N g z M N M D c t p 7 7 r 7 7 # O @ # @ O O O O @ O O O O O @ @ @ @ @ @   x.=.O 9 7 @ 5 3 2 3 3 3 2 O I ( K ( ( [ ]  .R.Y.!.K K '.Y.T.Q.Q.} Y.T.} } !.2 ( ~.!.} !.!.!.!.^.q._.L.aXCXc t l l l l l l k 8 8 8 - - 8 - - - = b n y v v t v # W 4.#.1.1.1.#.#.1.$.t 0.-.0.9.H.G.aX, , l - , - - - & - c %.c N S n n N =.M =.F B.K.7XZXZX&Xd M F a.f.a.d.h.h.j.F.j.#XeXF.f %X=X=X=X-X-X;X-X-X;X%X1X&X3X*X*XcXK.; $ k k B h & . 9 k.y.&X$X$ V 9 j r.y.k.u.g.d f 6XeX*X1X%X3XeX1X1X1X;X-X;X-X;X#XF.6X=X=X%XK.j.h.h.J.i.i.J.f.i.c.x.k 7XnX#XiXK.C.m.b.z.z.=.n n Z Z n x l t - - - 8 - - 8 - - 8 - - - & - - % . % m.P.pXm.- + # # # # 3 r r r r #   o b.c.c   t u.$XxXBXnXV d 7 l.|.=   +   = , = % = - - t 7 + P.rX0Xp.p.rXF.o LX'.O U O.T ) / / r u U r   + t z l x x o.$.-.+.b b b a a t t r # 7 =   3 O s.gXC.1.I M.P ] O._ / U 0 w P P P 5 # + + # # O                         r r # r u r r r i u i i = t X.A o.o.*.;.;.*.*.$.A.F : V.n.Z ;.B.n.n.B.L.< G.K.K.>XZ.=X<X=X;X>X,X,X,X1X1X5X5X) 6 a.J.- O h d O   n x.c.",
"@ @ @ 2 @ 3 @ @ 2 2 2 2 2 2 2 2 @ 2 2 2 2 3 H ( | ` | Y.Y.{ | Y.{.{.E.{.[.{.[.[.[.~.b.B.A.A.ZXI.  O.#.X.X.#.#.3 # #.-.#.-.9.9.-.'.q.# X.9.4.q.1.#.#.9.w.9.w.w.b Z v.H.H.H.G.|.G.A > a y a s y y y y r > r y y y y y y r r r r r # > r t s y p a C O JXPXJXPXW.= r > =   <.'.3 % t t t t t 7 = = r . % n =.D M B B B a.c t p r r 3 # # # @ # 3 # # # # # # # @ @   O @ @ @ @ # @   x.l.O 9 7 X 5 4 2 3 4 4 2 O I ' ^ ( Y ( K | Y.Y.!.L ' '.{ T.Q.Q.| T.Q.Q.Q.7.@ J !.!.} !.!.!.!./.8.N.G.aXCXz ; x l l l l l l l l t - - - - - - = n n y v v t v + W 4.#.4.1.1.#.1.1.$.t 0.-.0.9.0.|.DXr $ & % & - - - & - c %.c Z c n %.%.&.h l.f.N.d.*XzXvX8Xh d j c.d.s.C.C.h.Z.%X=X2XCX=Xr.-X=X=X=X-X-X%X-X;X1X;X1X&X&X&X&XeXMXnXjXjX7X7XjXjXjXj.%X1X0XeX4XcXAXnXjXjXjX7XcXjXDXeX0X*X&X&X*XeX1X1X1X-X-X-X-X;X=Xh.1X=X<X=XP.K.K.Z.Z.i.s.C.d.s.p.i.z 8XnX=X=XI.J.m.B.z.=.S x x o.o.n c l - - - 8 8 - - 8 8 - - - - & - - = = . 2XfX2X;Xh.G h   u U #.1.#.O.O.$.p X   D c.x.% . j #XzXBXnXf d e z.H..   +   = t r = r t 8 t r + p.wXu.$ t.0X%X; KX'.O T <.] O.O.) u u U r   . t l l x y $.-.w.9.A b a a a t t r X 8 7   3 O a.gXh.X.p H.I ' T ] ) I 5 w w w P 5 # + @ # # O                         r r # r u r t r i u i i = t X.y Z *.*.*.*.Z S o.A.f.# b.b.%.S A.m.H.A.L.% n.U.J.I.U.J.I.K.K.<X<X<X;X1X2X5X5X7X=X. O N m       % B.yXK.",
"@ @ @ 2 3 3 @ @ 6 2 2 2 2 2 2 2 3 2 2 2 4 3 H ( ] ( ( | Y.} | ' [.{.{.[.[.[.{.[.{. Xb.B.P.c.CX>XO O.#.X.X.#.#.3 = 9.9.$.-.-.-.$.9.q.3 X.#.U #.1.O.#.9.9.9.w.$.# =.v.N.N.b.H.G.OX>., y s a y y y y y y y r y y y y y y y y y y y > r t t r r r r s X JXPXJXPX{ - r > -   <.'.s - = = = = = = = = = 7 = $ l =.z.l.m.B.b.N = @ @ 7 # + # # # 3 r 3 0 0 0 3 3 3 3 3 O # 3 3 3 3 3 3   c.l.O 5 7 # 6 3 6 3 2 2 O 1 I ' ' ' Y ( Y } R.Y.!.q ( '.{ Q.6.Q.} Q.Q.!.6.7.@ Y !.!.Q.Q.6.7.7.!.q.B.L.aXCXM k m m l l l l l l l g - - - - - & = W W y v v t v # W 4.$.4.1.1.#.1.1.+.t 0.9.0.9.M.|.sXi 8 8 8 x 8 - - & - c n x n n n Z S &.h l.f.|.m.7XAXZXh.* t.a.m.c.m.c.s.A.b.a.j j g.f g A.%X-X%X-X;X-X1X-X%X3X*X&X&X3X*X*X%X1X%X&X*X&X3X1X8X#X$Xg.k.$X%X%X$X%X*X*X*X0X0XjX6X$X&X&X1X3X#X#X&X3X1X&X1X1X&X1Xh.i.#Xh.Z.g.c.h.s.s.s.r.t.m.c.s.s.f.d r.;X=XZ.h.h.m.b.M.;.&.n o.n n x x l 8 - - 8 8 - 8 m m 8 - - & = 8 - = = . ,X5X;X,XC.h t 7 1.9.q.1.@.O.#.4.@.a   - l.b.S   w d nXBXbXf h X b.S . o O @ # r p u a a i i i 7 j %X%Xh.  %X6X  KX XO P ] ( T O.U u u U 3   + v l x x t $.#.-.-.o.b a t i t i i : * + 7 7 O i.ZXK.A #.H.u [ O.2.) T w w P P P 5 # @ @ + + O                         r r # r u r t t i i i i = t A % n -.*.%.%.*.*.$.L.n.o x.n.S c A.m.m.C.L.h a.C.J.I.C.K.>X>X<X1X1X5X5X6XaX5X5X3X1Xj   m.J.. + X . a.K.s.",
"O O O O @ @ O O O O O O O O O O @ X @ O O O 2 4 # 0 0 q w p w 0 E.R.^.^.{.'.^.'.[. XB..XA.XXSXK.  X.X.X.O.@.#.0 = -.-.o.-.$.*.*.q.'.s X.#.@.#.1.b O.9.9.9.w.-.t H.N.b.N.N.H.b.H.H., y r p a y y t y a y r r y y y y y y y y y y > r t t r r r r 3   JXPXJXPX^ - > = t + @.'.y l 8 - = = = = 7 8 * 8 8 * * l N N b.z.M & o # + + 7 # # 3 # 3 r 3 3 3 3 3 3 3 # # @ # 0 5 5 5 3 3 O l.&.@ 5 7 : 6 3 3 3 @ @ @ O u ] ' ' Y ( Y } Q.Q.!.I ( !.| 6.[ 2.[ 2.] } ] ) 2 _ !.!.!.!.!.~.~.~.w.B.L.aXcXh ; m z z z z z l l l l - - - - - - 7 W W t v v t b + W 4.$.4.1.4.#.1.4.#.t 0.-.0.9.0.v.r.+ 8 8 8 8 8 - - - - c n x Z %.%.g g n.F x.m.N.m.k.1Xg.d h h h d & h d d $ ; t.a.a.s.r.G a.r.r.r.h.C.p.p.r.f k.k.#X=Xj.k.p.y.f d g - - d f r.t.y.r.j r.f r.D.~ f r.y.g.k f d y.r.j j r.r.f f i.a.a.a.a.t.t.r.f k.j r.f f f h h j d d h h g f f d t.j.k.Z.C.s.h h Z &.&.l - o.o.n x x t - - - - 8 l Q Q l - & $ & - - * % , aX4X,X,XC.m R Y ~.q.#.O.@.#.#.O.<.#.+   n l.b.x L O i.jXF.- d g v.%   O   + # i a u a p u s i r 1 %XvXu.$ 0X*X1 [.'.2 P ] ] ] O./ p U U 3   o x l x x y -.$.+.-.-.X.i t t t i i o 7 # > = O h 2XK.n w.N.# ] ,.] ) Y 5 w P P P 5 # @ @ + +                           r r # r u r t t i r i i = r X.o n ;.%.%.S ;.S $.A.n.> V.n.*.c m.J.H.A.G.h a.m.m.L.c.C.P.:X:XP.Z.C.d.s.r.f f 1 @ $ . O 7 . O O   n.m.n.",
"O O O O O O O O O O O O O O O O O O O O O O O O   X 4 q q q e @ 1 1 4 1 4 H 5 u J = j a.B B.sXG # W a A X.X.#.u o -.#.o.-.*.*.-.9.w.> y #.#.#.O.b $.w.9.e.9.Z x b.n.b.B.G.G.H.G.|., y s p a y y y y a y y y y y y y y y y y y y # r t t s s p p I o JXPX].PXe y r = - # @.~.i l t t t t 8 8 8 8 8 = 9 9 = * & g $ ; . . # r r 8 7 7 7 7 # 3 7 3 3 3 3 3 3 3 3 3 O @ 3 5 5 3 3 3 O d g @ 5 + @ @ @ @ @ @ @ @ O 3 U H H 5 5 @ 4 q q 4 X O 4 O 2 O O O q 2 4 2 O O O 4 4 H I Y ) ) q.H.|.oXsXCXc m m m z z l l l k l l l 8 8 8 - - 7 W W t v v t b + W 4.$.4.1.4.#.1.4.#.t 0.-.0.9.;.+X<Xo * k v - 8 8 - - - c n x %.%.S % g B.a.n.B.b.OXF.7Xs.k G t.a.c.s.S.:X:Xy.f h.h.C.Z.F.F.Z.P.m.B ; ; i.d.Z.P.C.p.y.y.r.r.m.j.j d s.k.u.y.f y.t.t.y.y.t.s.y.y.r.p.p.;XK.l j.5X3X-X,X2X1X3X-Xk.-X%X%X-X%X-X-Xg.a.=XC.Z.h.C.C.C.m.C.c.s.s.a.a.s.j h jXGXCX5XF.I.a.N ;.M.z.n t -.*.o.n x l - - - 8 8 l c m 8 - - * 8 * - - $ l 6X3X,XK.h , x Q 9.1.O.O.1.1.O./ O.4.i X : z x.=.% r 9 + $ + j ~ y   O   O @ 7 a u 9 u u r r i t 1 hXxXeXu.0XAXs.) <.u U <.] ) X.U u u u @   o l g l x x 9.#.o.-.9.X.i t i t i i . 9 2 o ; 3   j Z.Z w..Xu ] 1.[ ) Y 5 5 H w w 2 # @ @ + @ O                         r r # r u r t r t r i i = r $.o Z ;.%.%.S *.S $.A.f.y V.l.*.t l.H.H.B.&.% h < % < % . h h h ; ; h j j i.t.a.p.m.K.,Xd 1 O @ O B.yXa.=.",
"@ @ @ 3 3 3 @ @ O @ @ @ @ @ @ O O @ 2 e 7 9 7 0 H [ ^.^.^.^.Q.| <.) ) u r W x Z b D r.a.x.7 d 0 u X.a A X.O.#.p # -.#.o.-.$.o.-.9.H.a a $.#.#.-.b o.9.9.9.N.$.x b.b.H.b.b.H.H.G.OXx y s p a y y b b y y y y b y a a y y a a y s : r t t s s u r w X ].PXJXPXe 7 s = - # <.~.i l t t t t 8 8 7 = t 7 7 7 + i v - 7 Z n b a r 7 t r 7 7 7 # 3 7 3 3 3 3 3 3 3 3 3 O @ 3 5 5 5 3 3 O $ . O 6     O O O O O O   O O @   O O 3 + # : 4 0 r 0 w q u 3 O p 1.,.7.2.,.<.<.,.T _ I w w 0 @ A B c.,X7X- ~ m m z l l l l k l l 8 8 8 8 - - 7 W ! t v v i b + W 4.#.4.1.4.#.1.4.#.t 0.-.0.9.v.oXDX  - l & - 8 8 - - - c n l *.Z c - c G.a.n.m.H.H.%XFXjXV i.l.D a.s.s.j.aX=Xd C.d.m.S.j.F.S.#X1XsXp.p.aX2X&X1X1X7X7X6X6X%X%X&XK.$ c p.p.c.i , y.r.f y.r.r.r.r.s.g.y.%Xp.. -X1X$X3X1X%X3X3X%X-X6X1X-X;X-X;X1XZ.i.#Xh.=Xj.C.h.d.d.m.d.a.a.F a.D.V.f VXFX1Xg.C.I.f.=.;.%.S %.0.*.%.Z c x l 8 8 8 l - & - - - 8 8 8 l * k l $ c sX,X,X>Xd c y X.9.3.#.#.#.#.@.O.<.4.O.X   ; d S M.G B b +.#.n.t O   # O @ @ 3 r u 7 u i r r a i X t.S.p.& r.d.r.O + + O @ @ @ : # @ @ @     > x g l l b 0.o.X.-.9.X.y y a t t i $ 7 @ o ; 7 O < h.x #.+XX.I @.[ ] Y w w P H w 2 # @ @ @ @                           r r # r u r t r t r i i = r X.o o.;.N ;.%.*.=.#.m.G r x.M l O . > o d & y N.G.l.b.x.B t.t.a.s.h.,X5X5X6X3X6XeXsXsX7X%X. 1 ; F yX=Xi.F ",
"1 2 2 2 2 6 2 @ O 2 2 2 2 4 2 2 O 2 e q q q 5 5 q | T.R.^.Q. . .!.{ [.{.# |.}._._.A.uXeXrX*XO %.o.X.o.O.$.a #.#.o $.-.$.*.*.*.*.-.H.y r #.#.$.9.A X.9.9.9.9.-.% b.B.H.b.H.G.G.G.OXy y h g C s x y x x y y y y y y y y y y y y y t t = x t # t i s . {.PXJXKXe & 8 r & $ <.'.t t t , , t t t t 8 7 7 = * l m n N Q a.c.r i r k 5 8 7 r = + # r 0 0 3 3 7 3 3 3 3 O 3 5 5 e 3 3 3 3 3 3 3 5 3 3 3 3 3 5 6 3 3 O O 2 Y ] ] } } ] 2.] | } Q.!.!.Q.} O ] !.Q.Q.!.!.!.!.!.!.~.!.!.~.~.-.2   & l k < M m k n N h M z k Q Q - k l - x % - Q b i i v b t + b 4.1.#.4.4.#.#.#.-.> 0.9.w.-.M.oXsX+ * g , 8 & 8 - $ l n x 8 n n N %.=.n.n.l.m.J.U.P.SXcXd a.a.a.s.x.x.c.Z.<Xh s.h.j.h.C.Z.j.=X;XeXC.j ;XK.P.=X#X1X;X5Xg.p.=Xj.s.d M a.s.s.i.f j j d j f r.r.u.s.y.p.k.s.g =X1X1X1X-X-X;X-X%X&X1X%X-X%X%X%X;XC.r.=XZ.=X=Xd.h.s.C.g.h.K.r.a.a.F a.j jXGX4Xh.G.I.a.S ;.;.*.%.;.n n n c x t - - - - - - - - - - - & - 8 = - $ c 6X5X,XP.M t t A 9.#.O.#.1.#.O.X.3.1.1.u O O =   % , Z *.*.x o   O @ + @ O # r 7 r r u u i i i i - &   + +   9 6 t H e > 5 L e O 2 @       # l l t t x b -.o.$.-.-.W i i i u s u 3 $ $ L 7 ; 4   2 : X x i O e - u 3 @ @ + @ O O O           O O                     # r + 3 i u i i r r i i 7 7 b y a $.-.-.Z b y # # > # o o , F F l.n.m.B.L.L.L.L.I.oXs.C.:X<X2X%X=X4X,X<X<X,X<X<X<X<X,Xj O h >XI.L.a.a.",
"1 2 2 2 2 6 2 @ O 2 2 2 2 4 2 2 O @ e q q q q 5 q ' T.Y.T.Q.} } T.[ [.E.# _.N.B.B.m.=X3XrXeX, c A A X.U y # y y o $.-.*.*.*.*.$.9.}.y r #.$.o.-.y A 0.9.9.9.9.> l.b.B.b.H.G.G.L..X< s T R C A h x x x y y y b b a y y y y y y y O a r r a X.y > : % K JXJX[.# , t y - . _ '.x x t , t t t t t 8 7 = * * x n n n m a.c.7 i r k 5 8 7 r = + # r 0 0 3 3 7 3 3 7 3 O 3 5 5 e 3 3 3 3 3 3 3 5 3 3 3 3 3 3 2 3 3 O @ 5 Y 2.] ' { } ) } } } T.Q.Q.Q.!.@ ] !.R.Q.!.Q.Q.6.6.6.7.!.!.!.!.).K > J.CXaX- ~ M m n m z j M z 5.:.l k k ; l $ = n b i i v b x + a #.#.#.4.4.#.-.#.#.> w.-.0.9.;.oXsX= 8 g , v * k 8 - x x c n %.%.%.%.&.z.n.l.B.f.n.P.AXnXd D a.a.a.f.l.f.h.K.g m.d.g.C.C.C.C.C.F.1Xa.t.%X%X#XK.=X-X=X>Xp.Z.K.#Xh.f j a.y.r.i.t.f d f a.f r.s.g.r.y.h.j.g.d %X1X-X-X-X-X;X;X%X-X,X=X<X<X;X=X-Xh.r.%Xk.j.j.m.h.d.d.i.d.I.i.F F r.t.r.nXAX1XZ.A.J.a.=.-.*.=.%.n o.o.o.n x l - - - - - - t t k k - & - t - 8 ; c sX;X;X<XJ.c y y 9.#.O.O.O.O.#.#.9.O.O.O.3                         + r # O @ r u 7 7 r r u r r u M 9 %XvXrXk.Z ~.9.T.[ A ,.' w x I p o     + t g x t y b 0.-.$.o.$.W i i i y i y   3 i + = #   r.=Xy.$ 1 2   o   O O O O @ @ O O # O @ O O @                         r s # 3 u r r s 7 7 r r 7 r t = # % = % % % t t t . - -.M.N.H.H.G.G.B.B.m.m.G.L.L.I.a.d.K.=X-X,X=X,X<X,X,X<X<X<X<X<X5XM O c I.I.J.a.a.",
"1 2 2 2 2 3 2 @ O 2 2 2 2 4 2 2 O @ 3 q q w q 0 w ] } { } Y.} } R.[ [.E.# _.N.B.B.m.Z.3XrXZXS t $.X.O.O.#.y y @ + $.-.*.*.*.*.$.9.}.a > -.#.$.-.y A w.9.9.9.0.A S =.N.b.H.G.G..XI.< s > > p $.M A A b x x A A b A A A b A C a y # b r s s > o r U X.# R.[.T.- y t a l . _ '.v x , , , t t t t 8 8 = * - c N n n m a.c.# i r k u 8 7 r = + # r 0 3 3 3 7 3 3 3 3   3 5 5 3 3 3 3 3 3 3 3 5 3 3 3 3 3 3 2 3 3 @ 3 H I [ } ' } 6.] | | } } } Y.T.Q.O ) Q.T. .Q.T.T.Q.6.6.6.7.7.7.7.~.4 x >XZXeX$ z B h n m &.M M g %.%.k l k ; l & - o.! i i v n x = n -.-.#.-.-.+.-.-.#.r w.-.9.0.=.oXsXo 8 & & 8 & - - 8 x x x n n Q Q N S &.l.l.N.m.|.A.AXjXk l.a.a.a.a.a.f.h.K.d m.d.s.C.C.C.h.n.K.5XD N #X#X%X=X-X%X%X5Xp.k.<X=Xh.f f i.s.r.a.a.t.t.t.s.t.i.p.y.r.p.h.k.k.f #X;X-X-X-X<X<X;X=X%X;X%X%X%X%X%X-Xd.j =XC.Z.h.B.m.m.d.p.C.I.i.F F l.&.f nXAX2XA.B.I.n.v.>.*.;.;.o.Z n n x x t - - - - - - - - - - - - = 8 - - ; z ,X2X1X%X=Xh , # 9.9.8.1.O.O.#.#.#.U X.#.U @   O 2 w w 3 0 r 3 @ o + # +   @ r a u u i a a a a a $ j vXwXvXvXK.4X@XY.( O T Y O 8 ) I +     @ t g = . o 8 -.-.-.#.W b i i i u r r o O 9 ; o   r.sXrX6XC.q.K | T ` p 5 3 3 5 3 3 3 3 3 3 @ O + O                       r u # 3 u r 3 s s s y s 3 3 r > = t t t b *.S ;.=.g n b.B.b.n.b.b.B.m.m.B.B.B.A.J.I.a.m.Z.=X-X5X=X<X<X,X<X<X>X<X<X<X5XM O S I.P.J.a.a.",
"1 2 2 2 2 6 2 @ O 2 2 2 2 4 2 2 O @ 3 q q q q 0 H ] } { } 2.}  .R.[ [.E.# ).N._.B.B.=X3XeXZXd.7 $.X.O.1.~.q.q.X.+ $.-.$.*.*.*.$.e.@Xa # -.$.$.-.y A 0.9.9.9.N.9.=.>.H.H.H.G.G.L.m.7   U.VX> R c x x y y x x b y A A A A A A A y t > r A t o -.n O.4.m _  .U Q a 7 s t $ <.'.8 , , - - - - - - 7 7 = = 8 n N n n m a.c.# i r k u 8 7 r = + # r 3 r 3 3 7 3 3 3 #   3 5 5 3 3 3 3 3 3 3 3 7 5 3 3 3 3 3 2 3 3 2 w ( J Y } | ' | [ | } T.T.T.T.Q.Q.@ ] !.!.Q.!.Q.Q.Q.Q.Q.!.7.!.7.!.'.3 S XXrX0X- >Xm.h N m l.B M h l m g l l - l & - n b t t t x x % n -.-.#.-.-.#.#.9.#.t w.-.-.0.=.oX5X  v g g k - - * & x n c n n n %.%.S &.l.b.B.d.B.Z.bXjXd t.a.a.a.a.a.s.Z.<Xd d.h.h.h.h.h.h.j.1X2Xj N :X=XF.j.=XF.=X<Xj.r.Z.F.p.j j t.r.r.r.f r.t.f j r.r.f t.a.m.m.g.C.m =X1X-X%X-X-X-X-X%Xj.=X<X=X=X=X=X;Xd.j K.s.s.p.m.s.s.s.i.h.C.r.t.a.G &.V nXAX;XC.G.I.a.=.;.%.S %.o.Z n n x l t - - - - - - - 8 t t y y = t - g ; l sX;X;X;XI.d l t y O.1.3.3.1.O.O.O.O.O.#.#.y +   Q.!.] U X.O.O.O.t + O   O 3 u u r u u u u u i i O j vXkXvXK.B cXH.' } @ ,.] u W ( P O     O t l = . . o o.+.#.#.b a i i i u r r O % @ # O d &X#Xp.C.h.dX}./.T ] ] Y H w 3 3 3 0 0 0 0 O O #                         3 s + # u u r u s r r 3 # 3 b b X.o.o.Z %.-.D =.=.N v.B.b.n.b.b.b.B.m.m.m.B.B.L.J.I.a.m.K.=X,X<X<X<X<X<X<X,X<X<X<X<X,XM O S P.K.J.a.n.",
"1 2 2 2 2 3 2 @ 1 2 2 2 2 2 2 2 O @ 3 q q q w 5 H ] } { } } } } R.[ [.E.# ).)._._.N.:X3XeXvXh.3 X.O.#.1.9.4.'.q.o $.*.o.*.*.-.-.9.'.a o *.Z Z o.t A 0.9.9.0.N.w.M.N.H.H.G.L.L.I.H.. oXDXDXG P x x y , , , y , , A A A A b b b x - = t t = l +X- O 8 8 > % * r o 7 # = * 8.q.* = - - - - - - - = = = - l n n z n Q a.c.7 i r k u 8 t r = + # r 3 0 3 3 3 3 3 7 # O 3 5 5 3 3 3 3 3 3 3 3 7 5 3 3 3 3 3 2 2 3 2 P | ( L ( } [ ( | | }  .T.Y.Y.T.Q.@ ) Q.T.Q.Q.Q.Q.} 6.6.6.6.!.~.~.'.+ h XXZXeX$ CXpXj &.B B B M M z m l z l g g - - n b b v y x x + t +.$.$.#.-.#.o.-.$.t 9.>.>.-.;.oX5X. 8 ; - * - l - & x n Q n n Z %.%.%.&.=.l.N.d.B.F.FX7Xd a.a.a.s.x.x.x.C.K.f a.J.m.d.C.C.C.-X6X1Xf.B Z.-XF.%X#X=X=Xj.<Xk.y.f f i.s.r.r.s.r.r.f f f f f r.r.k.p.p.p.j.p.; %X;X%X%X-X-X-X-X-X%X%X1X%X-X-X=X<Xg.r.<XZ.j.k.h.p.m.m.s.s.c.j t.D j i.f nXFX6X=XI.L.a.;.M.;.=.%.-.%.%.Z c l l - - - - - - 8 b +.O.X.n - l g k - l 7X;X,X>XD $ o.l > y X.#.3.3.1.1.O.#.O.X.O.X.3   | ] 1 O O   + 3 s O   O # u a r u u u u u u u u ^   F.nXj.. aXcXJ.R 6.C ,.' Y T ] I @       = l :.X.b t o.X.X.b b a i i i y u r O % # = 4 d 0X#Xd   d ,XOX} } ] ] Y H 5 2 2 3 0 5 3 0 @ O # O                     O r s # # r r r s # @ + # 3 y b b o.o.o.n n Z S S S g v.b.b.B.B.B.B.m.m.m.m.B.B.A.J.I.a.m.K.=XK.h.>X>X=X,X>X<X<X<X<X=X,Xh O S P.J.J.a.n.",
"1 2 2 2 2 3 2 @ 1 2 2 2 2 2 2 2 O @ e q q q q 5 H ] } } } } } } T.[ [.E.@ ).)._._.b.=X3XeXvXF.1 $.$.#.#.9.#.8./ + o.*.o.*.*.-.-.9.}.X.o >.Z *.*.y A 0.9.w.0.w.0.N.N.H.B.G.L.L.I.H.  pXp.VXH.X A x x x , , t , , b Z Z A b A b x - = t = . m dXD s m t s g v 0 y r @ $ * 8.q.* , t - - 8 8 8 8 8 = = - x n n m N %.l.c.r v r k u 8 8 r 7 + # r 0 3 3 3 7 3 r s r O 3 5 2 3 3 3 3 3 3 3 3 5 5 3 3 3 6 3 2 2 2 2 I ' { K H ] 6.[ } 2.}  .} } Y.Q.!.# ) Q.Q.Q.Q.Q.Q.6.Q.Q.6.6.7.!.~.^.  F yXAXeXd 5XoXf D N B t.M z M z z l g g k k = x v v b v x x , b -.-.-.-.-.-.#.#.o.y >.0.0.-.5.OXaXa v - g 8 l Q m - - l x l x x x m c c c M h G :.a.7Xa.> h h h h h h c h f ; g l g h j h h d r.B a.D b.h.K.j.j.Z.h.j.h.K.i.a.j m.c.j j a.r.t.h f B j j j a.y.g.k.p.j.g.B ;X1X-X-X;X-X-X-X%X=Xj.j.k.g.h.g.s.j k s.x.n.i.S F F F G M F M S c F M ; F.6X<Xh.f.a.M S %.%.=.%.o.x x x x t - - - - - - - 8 W $.#.X.+.= - - - & 8 -XsXyXF % t o.M x t r s a p p U X.a a X.O.X.s + L ' 2 O % .         O + # 7 r 3 u u u u u u u u # ; 6 ; . g ZXAXpX:.<.$.,.Y ( ' P r         = x -.-.-.o.4.o.+.W X.W i i t r 3 + : @ 9 & e O =XgX-X3   yXN.` [ ` Y I P w 3 @ @ # @ @ # O O + O                       3 s + # 3 @ + # # # r r s a t y b n o.o.*.*.S =.=., ;.v.z.z.n.n.b.b.m.m.B.B.B.L.L.I.a.m.K.=Xs.f J.>X<X<X<X<X<X<X<X=X,Xh O S I.L.J.a.x.",
"1 2 2 2 2 3 2 @ 1 2 2 2 2 4 2 2 O @ e q q q q 5 H ]  .{ { } } } T.[ [.E.3 ).)._.B.N.=X3XfXvX=X4 A a X.#.~.q.q.p   o.*.$.*.*.*.$.4.N.A % 0.=.v.v.Z $.0.9.w.0.0.M.v.v.N.B.G.L.J.I.n.< h S OX< : t x x x x x x t , x Z Z x x b b x , = t y - l OX.Xx W 5 > & a u t 7 # = * 8.w.- l t t - 8 8 8 8 8 - = = x n n z N ~ x.c.r v r k u 9 8 r r + # r r 7 3 3 7 3 7 r r   3 5 2 3 3 3 6 3 3 3 3 r u 3 3 3 2 e 2 2 2 2 Y ' ' Y w J [ 2.} 2.6.Q.Q.Q.Q.Q.!.# _ Q.Q.!.!.Q.!.Q.!.!.!.7.7.!.~./.  b.aXnXeXf p.a.V B &.a.t.B m z h g g g g g k % t - = t - t -   = t y t t t 8 t . . . y y x t 9 ;.k.6 = ; - 8 l m m - - - t l x , - l m c M M F M m I.y.k A G G G G G F F i.i.a.n.; h f.r.a.t.Q h = t.B 9 d d d c l h a.d j S r.f r.f d d g d d d d M d d d f z Q c - d d O f f d d d d ; ; d N $ z j f f h d j g f & - d 3 x d h h h j M F M n c ! h f f r.j d g g g g h & t x x l l - - - - - 8 g - 8 b X.O.X.X.= - - - - * m.n.j . , b $ g n = . + # # # # +   O + O @ O   L } 2       + +     + r # 3 3 3 3 3 3 7 7 7 7 7 d o L + % X d.3XI.! q 0 9 3 # 6 O O       O 8 m $.#.4.#.9.#.#.+.#.+.a r r r #   @ 7 -   0 # M eX&X9 ! dX<.` : X H H w 0 2 O O O @ O O O O O                         + 3 O # 3 # + 7 r i b a i i a b n n n n Z %.c =.>.g v.N.b.n.B.B.B.m.m.m.m.B.L.L.L.I.a.m.K.=Xm.f i.>X<X<X=X>X>X<X<X=X,Xh O S I.J.J.a.n.",
"1 2 2 2 2 3 2 @ 1 2 2 2 2 2 2 2 O @ 3 q q q w 5 J |  .{ | } } T.T.[ [.E.@ ).)._.B.B.=X3X6XvX%X4 *.$.o.O.1.#.3.U   o.-.*.-.*.*.o.4.N.Z % v.&.z.=.>.>.0.9.w.0.w.H.v.M.H.G.G.J.J.I.m.% @.$.IX( UX|.< x x x x , , , , x x x , x x , , y > t , % d h d 0 9 8   9 ~ . + @ = * <.w.- , t - - 8 8 8 - 8 8 = = l N N z n ~ x.c.r v r k u i 8 r 7 # # r r r 3 3 3 # # = %   3 5 2 3 3 3 6 3 3 3 3 u r 3 3 3 2 e 3 2 2 2 Y } K Y H 2 w ( Y L K ] { } | ' K O 3 Y ' ] [ } 2.{ 2.6.6.!.!.~.'.4.X V.sXbXvXf B V b.B B F j B %.M z z z l l - - x Z x y v y x t % y o.+.+.:.-.-.-.= = b *.o.*.*.4.*.p.7 i l g 8 & - & - x n n %.%.n x n ;.z.b.b.V.C.F.nXAXa.d D.a.s.C.C.m.C.J.K.;XaXr.p.aX;X5XuX2X1X4X1Xk.d h.P.-X=X,X;X1X6X1X,X4X4X5Xh.a.m % % d $ $ g $ $ ; h B $ ; t.j.=XyX&X-X-X;X;X-X<X,X,Xp.y.,XsX5X1X1X1X%X=X%X=XP.j.a.s.J.P.P.P.C.s.c.c.s.i.x.f p.-XsX:XG.B.M.;.l.N g -.o.o.Z c x t - - = - g - t W O./ O.O.= - g g - = 1   =.l.F l.z.S A % . y o.$.X.X.O.X.#.X.s a W # L ^.^ O     r # s # 3 s r r r r u u p p p p p p : X d 8 4   X 6 ; O 1 O               . O O 8 %.-.-.4.o.4.$.$.$.#.+.a t i a r # 1 & ; L H ; . %X&Xd I.sX!.W.! P P P w 0 3 @ @ # +   o O O O O O                 O   O + O 3 i i i a t r i i t a y b o.Z n n %.%.S =.=.g v.n.n.B.n.n.n.b.m.m.B.B.B.B.L.P.a.c.Z.K.oXL.i.>X=X<X<X=X<X<X<X=X,Xh O S I.J.J.a.n.",
"O O 2 2 6 3 @ O 2 2 2 4 4 4 4 2 X # 4 4 4 q q 0 J [ } } } Q.} } Y.Y.[.].4 ~. X).B.B.S.9XrXZXJ.e U a p a p p p p . o.%.*.*.o.-.*.-.H.A > ;.=.;.>.;.;.>.0.0.M.M.M.0.v.H.m.B.J.J.yXn.c b }.IX@ IXIX. < c t < x i t , , l l l , , , - t l l , - & & % >.> = y = y   P -.& . 7.!.r d t t , - - - - - t o % c %.N c $.S c.c.d U i 8 t 8 8 t t = # 7 r r r r r 3 3 # @ O @ 3 3 3 3 3 3 3 3 3 5 9 3 # 7 # @ 2 @ # # @ w H P w u U p 2 4 H w q q 4 q w P w 4 2 2 q 2 3 O   0 # # 0 0 u u   1 v P.AXnXy.B j F D.t.p.c ~ r.B M M z z z k d n *.x b b b x b = o.-.$.-.-.-.-.9.y o.N.N.N.N.H.N.yXCXo 7 k k t l - - x Q n x Q n o.n c %.=.l.z.b.n.c.6XFXd.8 t.a.a.a.s.s.s.d.s.h.P.i.F c.m.m.C.C.Z.J.>Xd.f Z.K.J.J.C.C.J.J.Z.Z.Z.C.h.h.h.s.& = %X%Xd j h.j.$X&Xl.; f Z.,X2X2X2X2X2X2X2X2X2X5X6Xs.j yX<XK.K.Z.J.C.Z.C.C.Z.C.j m.>XK.K.J.d.f.n.a.G x.N i.nXCX>XK.G.m.n.l.l.%.c &.S n c c x l - - - k - ; 8 b o.@.#.n l ; - - $ - K.<X=XK.m.=.=.=.=.z.l Z M.4.1.#.#.#.#.O.1.O.1.a K W.` .   X o = r r 7 r u u r a p I I I I I I _ b r r : P 6 - j d ; $       #             o x n #.#.#.#.1.$.#.A #.X.i r i a a 7 + + # # # + + + $ l.VXpX X!.' ' Y I w 2 2 2 5 6 3 3 +                               r r # r s t t t t i i i i i t a b n x n %.%.D S *.g >.v.v.v.n.n.n.n.m.m.B.m.A.L.L..Xa.m.K.J.:XK.F :X,XI.<X>XI.>X>X=X>Xc   M P.J.A.a.l.",
"O @ 2 2 6 3 @ O 2 2 2 2 2 2 O O @ 3 q 4 4 4 q 3 L ' } | { } { } Q.2.[.{.O N.}.N.}.a.:X<X`.S - h X.X.W X.O.#.1.1.o o.-.*.o.Z *.o.>.}.A > v.=.=.*.>.>.0.w.w.0.0.>.=.v.H.G.L.L.J.pXn.% , OXIX: @XIXA t y t Z < < , t l l l l l , , t t t , - - - - o b X.X.X.i . . ) -., . 7.~.= g t t , , - - - - % = , l m %.N x , x.m.& y i i t t 8 t - + + 3 3 # # # # # # @ @ O @ @ # # @ # # @ @ O O O     O O O @ O @ O O 0 I I I I T I P T 2.<.<.<.[ <.<.7.) ) <.2.7.,.@.3 U 3.,.) ) U U a y r C # % G &.f t.F t.s.j.D ~ F B M M z z z k d n *.x b b b x b = o.-.$.-.-.-.-.9.t o.M.M.M.M.N.M.oXCX< 7 k k - 8 * & x n n n o.Z *.%.n %.=.l.z.b.n.m.6XMXG 8 a.a.a.a.a.a.x.x.s.s.P.a.D m.m.m.m.m.g.d.Z.c.h S.h.C.Z.Z.S.Z.S.S.C.C.C.h.h.C.c.& o Z.j.g f f J.=Xy.. & j d.h.g.h.h.Z.h.Z.Z.j.j.j.K.h.f K.Z.h.h.j.h.Z.Z.C.h.C.C.r.m.i.r.i.a.a.a.x.a.a.x.m r.FXCXP.J.m.n.z.l.=.S c %.S Z n n x t - - - k k 8 l n X.W b t 8 - k k $ - dXsX5X>XB.=.=.D =.v.l x 0.#.$.1.#.$.#.X.#.O.O.3 ( W.K     @ . O 7 r r r u r 7 u I U U U I I I U ( T p X # 9 m.SXdXs.b.t @   O             t o.Q #.#.O.4.1.+.o.o.$.X.y i a p u 7 # # # # # + + +     A , U ] Y u w 0 e 2 2 3 3 3 O O O                               3 3 + 7 r r t t t i i i i i t a n o.*.*.%.%.D S =.g >.v.b.n.b.b.B.B.b.b.m.B.A.m.J.P.a.s.Z.K.=XF.G =X;X=X%X<X<X<X=X<XuXj   M K.J.J.F l.",
"O O @ 1 1 @ O O 6 6 6 6 2 2 2 2 O 2 5 L 4 4 4 5 K |  .{ {  . . .Q.| [.{.O ).}.B.>.m.`.d 7 < # +.X.X.X.O.O.#.#.1.o y -.%.Z ;.;.-.;.H.A & v.z.=.>.>.>.>.>.>.0.M.M.n.m.H.H.L.J.K.pXn.,   UXIX,.s IXVX  b A i - < n , t t t t , , , t t t - - - - - = # W O.#.a   7 O.*.,   8.~.# g , , - - - - - - - = = l N &.M g o l.B.- s i k 8 t 8 t - . . # 3 # # # # # # # 3 @ @ @ @ @ @ @ @     o o o o X   O O # @ @ O @ p I Y I I U I ) 2.2.2.6.2.2.2.2.2.[ [ 2.2.6.2.8.q 2.'.~.~.'.~.~.~.'.B.I.uX>XU.V B D.i.s.g.$Xy.t.F B B M M z z k d n =.x b b x x c = Q -.:.-.-.-.-.9.t o.M.M.v.M.N.0.I.CXx = - d - l - - x n n n o.Z *.%.Z %.=.l.b.b.n.C.6XbXj c B D a.a.a.x.x.x.x.p.P.a.G c.c.n.m.m.C.m.C.m.h Z.m.C.S.C.Z.Z.Z.Z.Z.C.C.h.h.h.m.d   = % 1 k $   8   d x.t.C.g.h.Z.h.Z.Z.Z.Z.Z.j.K.K.Z.r.K.j.h.h.Z.h.h.h.h.h.h.h.j n.n.a.f.n.a.a.x.a.a.x.N j FX5XL.L.m.n.b.l.=.S x S n n n n x t - 8 - k k - - = = + t - 8 - k k $ - aXaX;X,Xm.S ;.=.S v.l x 0.$.X.#.O.#.#.X.#.O.O.3 ( ` 4     7 $ @ 7 r r r u r 7 u _ _ _ U I I I I L | I : r = h DXCXp.m.k O O             = n %.%.e.O.a w.1.#.X.o.$.a s u a i u u # # + + # # + O X o     @ O O   O O                                                 3 3 + 7 r r t t i i i i i a b b n b n n n Z S S S & =.n.b.l.z.b.b.B.B.m.B.G.A.m.J.L.a.s.Z.K.-X<Xj <X,X:X-X<X>X:X:X=XyXc O Z I.J.J.a.l.",
"O O @ O O @ O O 3 3 3 3 3 3 3 3 @ 2 4 w w w w 5 q ' { ' | | | } W.Y.[.].1 ~.~.M.m.b.:.m.aXCXx.L U / X.O.O.#.1.9.> r -.-.%.;.;.;.;.N.x % z.l.=.;.=.>.>.>.>.v.v.b.m.J.J.G.L.J.K.aXA Z = UXIX8.u VXIXG < , t Z h g , , , , , , , , - t t t t - - - = = + W -.t = - W o.t   1.'.= g t t , , , - - - 8 = o - N x.D M $ N b.- s v v t t t t t + + 3 r r r 3 3 3 3 3 7 3 # # + @ @ + # % t o.%.%.n x = @ @ 3 @ # # @ I I I I I P I ] 6.{ } } } } } } } ] ] } ' [ 2.7.w ( !././.~./.~.~.2.V.-XeXAXnXr.x.y.i.g.g.$X#Xg.j B B B M M z g d N =.x m b x x c 8 Q :.:.-.-.-.-.9.t o.M.v.v.v.N.0.L.CXx = - d = - & - x n x x n n o.n c %.=.=.n.M.l.d.6XcXf c F F a.a.a.a.s.s.s.s.P.a.G c.C.m.m.m.h.C.C.c.d C.C.C.C.d.d.h.C.C.C.C.Z.h.h.h.m.j & z h . Z.=X$ . & B c.f g.C.Z.Z.Z.j.j.j.j.j.j.j.F.K.r.j.j.h.Z.Z.C.h.h.h.h.h.C.t.c.n.a.f.n.a.a.a.a.F t.g j FX7XL.m.m.b.b.l.=.S c S c n n c x - - 8 - - - - 8 l b b v t 8 ; 8 g & l aX5X;X,Xf.c %.=.S v.l x 0.+.W O.O.O.O.X.#.#.#.3 ^ W.4   X # % 0 3 r r r u u u U _ _ U U I I I I p / u X u R . d.aXr.c.g   O   o + o . % x o.n %.-.a 3 ~.1.#.b o.#.W s u u u u p 3 # + + # # +   B P.s.l.%.O 2 o @ @ @ O O @ + O @ O O                               r r # r s r t t t t t i i a a a b n o.o.%.%.S *.=., =.v.b.n.b.b.b.b.b.m.m.m.B.G.L.L.s.c.K.j.:X>Xc I.>XI.=XI.=X=X<X<X>Xg   S P.K.C.a.a.",
"@ 3 3 2 2 2 @ @ @ @ @ @ @ @ @ @ @ @ @ 2 4 q 4 2 H ] 2.} } 2.2.2.R.| [.[.1 }. X}._.a.s.,X-XCXZ.O s y a X.X.#.4.9.r # o.0.;.0.;.M.N.N.Z = ;.=.=.v.=.v.v.v.v.b.n.n.c.m.m.J.L.J.K.4X:.& % w. Xb < o U.I.h l x , b , l l l l l l l l t t t t t t , - - - = n o.t & $ b b y   O.}.t , l l t t t - - - = t = $ z b.B.n.x.c.c.x a ! t r i t t t = # r u u u r 3 3 3 7 7 r 3 3 3 3 3 # # O 3 a ! v v a 3 @ @ e 2 @ # 1 I I I I I P ( } 6. . .Q.6. . .Q.Q.] ] 6.} } 6.~.q <.~.~.!.~.~.q.w.~.).XX,XbXnXy.t.s.i.g.k.tX9X&Xr.t.B B B M z g d N ;.x x x x x c t Q :.:.-.-.-.-.9.t Z M.v.v.M.b.M.J.CXy # k k = & & - x o.o.o.o.*.o.n Q ;.;.z.n.N.m.J.DXcXd g D a.a.a.a.a.a.a.s.a.C.a.F s.c.f.s.m.s.d.h.m.d g.h.C.h.h.h.h.h.h.h.g.h.s.s.s.s.j M d j . #X7X$ $ g F m.j s.h.h.C.J.C.C.Z.Z.J.K.K.J.K.i.h.Z.C.Z.Z.C.C.h.d.s.s.C.t.n.m.c.s.a.a.a.a.a.a.s.h j FX7XJ.B.b.n.z.=.=.S n *.n n n n x 8 - 8 - - - - 8 v b Q v t 8 * - - & x aX5X;X,Xf.g %.=.&.;., b 0.#.O.O.X.O.O.W #.O.#.3 ` (.W.+ O @ % - 7 r r 3 u u u T _ U I I I I U U C p i   5 T T , C.a.n.x     + o.o.Z x o.-.o.x o.-.a @ }.3.#.X.o.$.U i a p r u a # # # + + # +   s.sXZ.B.m.a ' b I I p u 7 7 7 7 3 + O                               r r # r s r s s t t y i i i t y b o.%.Z n n S *.-.- %.v.b.l.n.n.n.n.c.m.m.m.B.G.f.L.c.a.P.Z.K.I.h K.,X,X;X,X4X<X<X;X,Xh   j XXL.G.l.v.",
"@ 3 3 2 2 2 2 @ O O O O O O O O @ O O O @ X O O O 4 H L K K J J Y u Q.}   :.w.z.~.x.m.L.S.DX:X  O O O @ O O O @ X   = a n o.n Z Z A t o n %.=.;.l.v.v.z.l.N.B.B.L.J.C.J.P.K.>X4Xp.7X8Xk.k.8X8X4XI.4Xj k < x W , , , , l l l l l t , - = = - - - g % l 8 = 8 . = , = s + t $.- & - - - - - - & & - t = . ; z l.B.A.c.D.t t v 8 r i t t t = # r r r r 7 3 3 7 7 r 3 3 3 3 3 3 3 3 q @ @ +   O 3 X # 2 3 2 3 @ 1 I I H I I I ) 2.} } } } } } }  . .[ ( 2.} | } !.4 ) ~.7.8.q.q.w.w.#.*.oX4XAXAXy.g.s.s.g.j.9XkXwXy.t.t.t.B B M j k N ;.x x x x x c v o.$.$.-.-.-.-.-.t Z v.v.v.v.N.N.J.CX, # k g 8 - - t m c x x x Z n x x n N N N S l.a.>XF.k c S a.a.a.a.a.a.a.a.x.C.a.a.s.c.m.C.m.d.m.C.m.h d.C.h.h.C.C.h.h.g.g.h.h.d.C.m.s.j a.* y O j.;X  P W j c.r.s.d.h.h.h.h.Z.Z.Z.Z.Z.Z.j.Z.i.h.Z.d.h.g.d.h.d.d.C.d.m.B D C.m.c.a.F F F F j a.g ; GX7Xd.J.B.b.n.=.=.%.x n Z n n n x 8 - 8 8 8 - - - - * * 8 - - - 8 8 = l 4X5X;X<Xd.c %.=.=.=.- x -.#.#.O.O.O.#.O.#.O.#.u L ].(.+ O 4 > ; r s r 0 u u P T T Y I I T T T Y U P R # 3 P U   d B =.y     = M.>.*.*.;.;.n b $.-.a @ }.1.O.+.X.u 7 r i p u u u # # # + + # +   h 4XJ.a.d.i ` a T I P 5 3 3 3 3 3 @                                 r r # r r r s s t t t y i i a y b b n n Z *.Z %.*.- *.>.v.v.l.n.m.m.m.m.m.A.G.b.G m.n.a.L.P.:X:Xt.S.K.C.h.m.f.a.a.j x.3 O # h h h % , ",
"O 2 2 2 1 1 2 2 2 2 2 @ @ @ @ @ @ O O X O O 1 2 w J J K K K K K P 3 ^ L   = H   N m.V._.XXCX=Xp o.O.X.a p i r r r r O   .       O   X   . = t y Z S Z c n l.b.B.L.L.C.J.K.K.>X:Xz f.G l.n G G h h d c Z < A t x , l l x x l l l t t t t t t - = - = = 7 u U a u .   p O.a t & & - - - - - - & & - . . = $ $ ; n z d ; . # k 8 y i 8 8 = * = r r r r 7 7 7 7 r r 7 3 3 3 3 3 3 3 2 O   $ . . .   @ @ 2 2 3 3 3 I I H I P H ( } } } Q.6.2.} } }  .[ ( <.2.[ <.~.q <.~.~.7.q.9.0.0.~.B.;X&XbXbXy.g.g.k.#X#XhXkXkXu.t.r.t.t.t.B M j S ;.m x x m x c b $.:.$.-.-.-.-.-., Z v.v.v.v.N.N.J.CX, = k - t - - & & - - - - , , - - k - & d & d ; ; & 9 F c F F F F F F F a.S B g c j t.F B D a.f.a.D , a.a.c.c.m.C.C.C.C.C.C.m.n.c.a.a.j D t.& . #X7X& c j t.c.t.s.C.Z.Z.Z.j.j.j.j.j.Z.j.j.J.a.m.Z.C.C.Z.C.C.d.C.C.c.m.z c x.x.x.a.a.l.a.a.a.a.n k DXDXP.C.b.z.l.S *.S l x c x x x l 8 8 8 = - - k k 8 8 8 - & - - 8 - $ - aXaX;X>Xm.S Z S *.%., n #.O.1.O.1.@.@.O.#.O.1.U 2 W.{   O 0 t 7 r r r u I P P Y T T Y T _ _ T I I P R   # p r < s.a.D x     = ;.*.o.*.-.*.o.$.$.-.a @ '.<.O.+.W 7 r r u i i u u # 3 # + + + + O X >XI.n.h.v ` U Y I P 0 3 3 3 3 # O                                 r r # r r r r r r t t t t t a y x b Z %.v.G.S Z %.= o.*.-.=.=.=.=.=.=.a.D F c & & h h d j F c.a.# & g X     . $ % . - 1 2 O f.F l.F n.",
"1 2 6 2 2 2 6 6 2 2 2 2 2 2 2 4 3 2 3 q 4 2 H T [ } } | } } } } ^.T.{.].!.^.{.{ =.C.`.XXS.DX:Xp -.#.#.#.4.4.4.-.4.q.p # s a X.s p 0 p @     .   o , y , g c h h g h r.g.k.h.Z.p.v - , x v v 7 a x 9 y y a Z h Q x x b n n n b x y x n o.o.n t = = t O ,.~.7.~.Y .   1. X9.g l m l l t t t t 8 8 k - > y n m k & t , , s s k - % 8 = = = = 7 u u u r r 7 3 3 3 3 u 7 3 3 3 7 7 3 * $ B m.C.C.C.c.@ O @ O 1 3 3 P I I Y I w ( Q.Y.} } 6.2.} { | | P w [ !.6.7.7.2 ) ~.~.~.~.w.w.N./.V.-XeXFXbXp.j.j.#X#X#X$XzXzXu.s.t.t.t.t.t.B V S ;.m x x m x c Q $.:.$.-.-.-.-.>., S M.v.b.N.N.w.J.CX, = k ; t l l - 8 t x x n x n n n n m m S =.&.x.b.n.R d & - , g g c c c M A d & S a.a.G ; & d & ; - % k ; & & & d h j B a.j j d ; ; d $ g f . + j.6X& ; r.& & g h F j r.s.d.c.c.s.s.c.s.s.r.d f t.a.s.g.h.C.s.i.t.j B d , $ & & , g z h h h j x + y.F.d.C.D M M c Z Z l l , - - l l 8 8 8 8 - - 8 8 8 8 8 8 - 8 - - - $ - 4X5X-X<XB.=.S S S n l $.-.$.1.U @.O.O.O.O.U 1.X.. L 1   @ 3 * w 0 r u I ) _ I ( _ _ T _ _ _ T I : _ p   o U   n aXp.F 8 O O > >.*.*.;.-.*.-.9.o.-.X.3 ~.<.X.-.b X.X.W a r u u r @ 3 # + . + + @ 1 :XyXc.Z.c ` W I I p 0 3 3 3 3 # O                                 r r # r r r r r r r t t t t t y b Z n x c %.c x x   = o o % % . . & Z S c & l l z.D S z.S M c < s B s.c.Z.S.I.P.I.I.P.&   d P.P.P.C.P.",
"@ 2 6 2 2 2 2 2 2 2 2 2 4 4 2 2 4 2 3 2 5 4 4 I | ' ' | | { { { Y.Y.^.[.{.{.[.Y.D.K.G.B.XXZX=Xw -.+.#.o.o.#.#.#.#.9.s # 0.-.0.-.9.-.w.0.+.r   . - , , > > = % $ 8 O k p.p.j 9 o d R #   $ : i j < < < h 9 y c c l x n n n n n b x x n a a b - - * l & r !.!.I % o # 4.4.%.z g l l l l - - - - - g - = x N M M S B.m.=Xn ! c v l t t y t = 7 r u r r r 7 7 3 7 r 3 3 7 3 7 3 3 3 . @ P.;.z h ;.oXP.h .         + @ @ @ O @ # 3 u I / U w H H H q 4 @ X # U 3 O   2.~.q.9.9.0.0.N.e.V.2X6XFXnXu.k.#X$X#XhXwXlXwXk.g.p.r.r.t.t.j j S z.l l Q x n n c t b *.*.*.-.-.4.y Z M.b.b.b.N.N.J.CX- - x = v x v t t Q o.n o.Q o.o.*.*.%.g v.m.G.>XfXAXF.. N D & l =.l.b.b.b.c.m.s.m.oXpXyXi.g c.s.g.Z.uX2X-X-X<X=X=Xr.$ . d d d d j z M c c h 8   #XeX  m j c x % . d d h h h h h z z z M M h j j j G j x X : ; % < d & h , h j j j g $ M j j h 8 d.i.; O + d b.H.G.b.z.n , b b b n n o.b - - Z X.A 8 8 - - 8 - & - k 8 . S 7X=X<X5XK.F Z F o.*.*.$.b y X.a X.O.O.O.O.O.O./ O.U p # O U I H _ _ _ _ _ _ T _ Y _ _ Y T _ T I @ p 4 q u #   x 7XJ.=.g .   a 0.q.w.>.=.;.4.#.#.$.$.# q.O.O.X.o.O.O.U u a u 7 t 3 7 3 @ + # + + . m.aX#XC.,.' i I U p 3 0 0 3 0 # O                                 r u 7 r # > t s p y t = r s r t t = = t   % . % l Z %.S S D j d .Xc S x.B.m.C.P.P.P.:X:X:X=Xa.j <XuX,X;XpX,X<X>X>X<XpXx   t I.C.C.C.C.",
"@ 2 6 2 2 2 2 2 2 2 2 2 4 4 2 2 4 2 3 2 5 4 4 I | ' ' | { { } { 6.| '.{.{.^.[.` +.J.B.XXiXZXF.^ :.:.+.+.#.#.#.#.-.w.a > 9.-.9.#.0.-.-.>.N.-.t n S c c Z %.S %.&.l.A t.%Xj.p.D.F 3 %.k.K.>X< R % k a ! k +.C c z g x n n n n n b x t b b b b - - = , ; = Q.!.I % o # 9.-.%.c z l l l l l g g k - g - = x N M M S M B j.x v g m l t t y t = 7 u u r r r r 7 3 7 r 3 3 3 3 3 3 3 3 3 O m.t * o + $ z $ # q 2 @ @ w I I I I H I I ( w e @ p 2.Q.Q.8.2.<.I O H <.7.7.7.~.~.q.N.N.M.M.9.V.1XeXMXbXg.$X#X$X9XkXzXxX0Xg.g.s.s.t.t.t.j j D v.l x o.x c n t t o.;.-.*.*.Z 0.y S N.N.b.b.N.M.J.CX% * l - t t v t t o.o.b Q Q n o.*.*.%.g v.m.b.C.-XbXF.- D &.d c =.l.x.x.x.m.m.a.B B a.m.a.h m.m.h.C.K.K.j.K.J.K.=Xs.k l f.A.m.c.c.x.x.n.l.a.- O ;X-X+ B a.t.t.t.c.:X:X:X:X-X-X-X-X-X-X-X-X<X,X-X<X<X<XS.d M j.K.L.S.S.S.L.J.L.A.B.=.h b.b.t.a.d CXSXj.P.m.OX|.=.&.&.l.n , n b b b b n b - x $.$.A - 8 - 8 8 - - - - 8 $ =.dXP.m.C.s.Q :.:.o.b % = b o.a + O.O.@.O.O.O.O.O.<.O.@.p @ O.) ) _ _ _ _ _ _ T _ Y _ _ Y T T T I 3 U p P U s o b 6XK.v.z .   r =.b n c S -.4.#.-.-.a @ ~.3.O.X.#.X.X.i 7 a u r u # 7 3 @ + # + o   M uX=XJ.T ' U I T p 3 3 3 # 3 # O                                 3 3 + + O   + O O # = = o X # = = - y Q = y ;.;.z.v.b.b.N.B.m.a..Xz.S D m.L.m.J.K.K.P.P.:X>Xm.a.,X=X<X,X>X<X<XI.>X:XpXg   , I.C.J.C.C.",
"@ 2 6 2 2 2 2 2 2 2 2 2 4 4 4 2 4 2 3 3 5 4 2 I ' ' ' | { { } { 2.| ^.E.{.{.[.{ ~ P.`.XXiXZX:X5 :.o.o.$.:.$.$.-.-.w.a r ;.-.-.-.-.-.>.>.H.0.x >.b.b.N.N.N.b.B.|.L.G.C.ZX6XZ.XXJ.2 d.vXZXZ.< :.n V t 9 d 7 < l N , x n n n n n x x t i b b b = = r - % # <.!.u % # + 9.o.%.c c k l l l l l g g g g , = l N M M N m M Z.o.! l v x t t t t = = u u r r r 7 7 3 7 7 3 3 3 3 3 3 3 3 @ 2 B.p 9 a P = . O 5 5 2 1 2 ( ' | | | ' ' ' ' } I 4 ] !.Q. .6.Y.Q.!.4 | '.'.!.~.~.7.8.0.0.M.N.9.B.1XeXMXbXu.$X$X0XlXlXlXlXhXg.g.g.s.t.t.t.B j S =.x x o.x c c m x n $.o.-.>.0.0.- n M.v.v.b.N.G.H.jX% l g , 8 t x 8 t o.o.b Q n n o.$.o.o.g z.x.=.C.$XbX>X8 B &.g c =.a.x.x.l.&.=.l.b.l.l.n.x.h m.m.m.c.c.d.m.m.x.m.C.a.; g d.L.m.c.x.x.x.x.x.=.V . h.f % B M j j j s.P.Z.Z.h.C.C.C.C.C.C.C.C.C.C.C.h.h.C.c.. j :XI.m.S.h.s.c.m.s.a.a.M d D B l.h h 7XAX,XyXC.G.b.*.=.z.z.c t W n n b v x v - t o.o.X.- - - 8 k - & - * 8 $ c F , . ; % O O   . - = x 9.9.o.t O.O.O.O.O.O.O.O.) ) @.p O U T _ _ _ _ _ _ _ _ _ Y _ _ Y T _ T I @ _ I I U s . x 6XP.b.c     = x.m.n.=.-.-.-.-.*.9.U @ ~.3.,.+.! $.o.a r u u 7 7 # 7 3 + + + + # O g pX=XC./ ' p U T P 5 3 3 3 3 # O                                 + # @ + + o # + O + = t =   b b b n *.0.v o.M.z.l.l.z.x.b.b..XF d c &.b.B.A.m.L.P.K.P.K.K.<XC.m.,X=X>X<XI.<X<XP.>X=XpXx   t I.C.C.C.C.",
"@ 2 6 2 1 2 2 2 2 2 2 2 4 4 4 4 2 2 4 3 5 5 2 H ' ' ' ' | { { { Q.R.^.[.(.[.[.W.~ P.G.XXP.CXK.W -.o.Q $.*.$.$.-.-.N.a t ;.;.;.9.-.0.;.*.N.;.- v.z.b.B.b.b.B.B.B.L.H.s.cX;Xp.P.I.o r.vX;X; < N f h , i.8Xh < g ~ l x n n n n n x n t y b n b = = y = - * O.3.3 = # @ q.o.=.z c 8 l l l l l l l g g t = l N M N N ~ D Z.W v g k l l t t t = = u i r r r 7 7 3 3 3 3 3 3 3 3 3 3 3 O O B.y 6 0 H r @ 4 4 1 5 6 2 ( ' ' ' ' | | | | } ] w 2.!.Y.} 6.T.{ !.L } '.Q.!.Q.!.~.~.).M.M.N.;.m.1XeXFXnXu.&XzXxXlXlXxXlXwX$Xk.u.y.s.t.t.t.B M %.c n o.n n n x o.*.-.*.*.*.o.0.- Z N.v.v.b.N.M.L.VXo * - l 8 8 x 8 t o.o.b Q n o.o.$.o.o.g z.M.*.C.$XbXI.* D &.g c =.l.x.l.l.n.l.=.n.b.z.b.l.h x.a.m.b.b.b.m.c.b.b.d.j ; g a.c.a.a.a.a.a.a.a.&.s.- ; d b a.c c c c a.J.h.d.d.m.m.m.m.m.m.m.m.m.C.C.m.f.m.b.# h :Xd.G x.n.i.F a.a.a.a.D h x.D &.Z d 7XvXK.oXL.b.v.=.v.=.&.l x X.n n b b b x - t o.o.W - k 8 8 k ; & - - l . % y.L.yXyXJ.d & z x *.-.-.#.o.-.9.O.O.O.O.O.O.O.O.) ) 1.U O _ _ ) _ _ _ _ _ ( ( _ Y _ _ Y T _ T I O U P I p r . x eX:Xb.S     l L.yXI.G.w.4.-.*.%.#.y 3 }.~.#.#.O.o.W a i a a u u @ 7 7 + O . + # @ . I.=Xs.a ' ( I U P 5 0 3 3 3 + O                                 # 3 3 r r r r r # 7 b o.b o o.o.n n %.-.t b z.;.&.&.l.l.l.z.L.l.$ &.&.b.m.A.B.L.I.I.P.P.P.>XC.a.=X:X>X=XI.=X<XP.>X=XpXx   t I.J.C.C.C.",
"@ 2 3 2 1 6 6 6 2 2 2 2 4 4 4 4 2 2 4 4 5 4 2 H ' ' ' ' | } } | { T.^.[.[.[.[.Y.n I.yX2X,XZXK.o -.$.o.$.$.$.*.-.-.N.y t ;.;.-.>.>.0.-.*.G.v.g v.v.v.v.v.b.B.B.B.L.H.g.cX%Xs.P.yXB f 6XG Q F z i.y = 8XbXa.t G v l x n n n n n x b t y b n b - - a = t * a W + 7 # + w.o.=.g m l l l l l l l l l g t = l N M N N Q S Z.b i g v l l l t t = = r i r u r r 7 3 3 3 7 7 7 7 3 7 7 3 = # B.b 9 u w 8 X 4 4 1 u r @ J ' ' ' ' ] ' | | ' ] q 2.Q.Y.T.Q.!.' 6.q ] '.{ Q. .!.7.#.-.N.N.N.v.m.-XeXFXcX#XzXxXxXlXxXxXlXwXtX#Xu.p.g.s.t.t.B g z g x x x x l x o.*.*.-.-.-.-.>.l S v.v.v.v.v.N.H.;X7 i 8 $ k t x 8 t o.o.n o.o.o.o.$.o.o.g z.N.=.L.-XbXI.$ D l.d l &.D D B M l.n.l.x.D a.b.x.h n.f.s.x.m.c.c.d.m.m.C.a.g l c.x.a.a.l.l.x.x.a.&.c.N & =.;.a.N M z M a.Z.g.C.C.h.C.C.C.C.C.C.C.C.h.g.h.d.h.s.$ M =Xf.l.m.L.m.b.F a.x.x.S d D a.j f.d *XGX,XA.L.b.v.=.=.&.z.x y X.n n n m Q c - b o.X.n - k k i 8 * - t 8 v $ g 2X,XK.j.h.j n l.N.-.$.-.$.o.4.#.O.O.O.O.O.O.O.O.O.O.@.p @ ) ) ) _ _ _ _ _ _ _ _ ( _ _ Y T _ T I O _ I I p r . x eX>Xm.F . O l P.,XJ.N.w.#.*.*.*.-.y + ~.#.3 3 7 # # # # # r u u @ 7 7 + O + + # # . L.sXK.Q w U I U p 5 0 3 3 3 +                                   r u r y s r r s r r x %.b + n n n c n %.- x ;.;.*.=.;.z.z.z.G.G.& v.D x.m.J.c.m.C.C.J.P.P.P.J.j =X=XK.=XI.:X=XP.:X=XyXx   , I.J.J.C.C.",
"@ 2 6 2 2 3 6 6 2 2 2 2 4 4 4 4 2 2 4 2 5 4 2 w ' ' ' ' | | | ] J J ^ e J w ) @ * x.B.S.S.fX.X! $.$.o.o.o.*.*.:.-.N.y x ;.;.*.-.-.0.>.;.G.z.g b.M.v.v.N.v.D n.G.B.b.C.cX=Xc.K.XXt.$ :Xx B j x c l $ *XmXs.+ G x l x n n n n b x x t b v b n t t y 7 t * = t # r r # 9.*.&.g z v l l l l l l l l g l = l N B N M n S Z.A ! c m l x l l t % = t i u u u r 7 3 3 3 7 7 7 3 7 7 3 3 .   c.x 9 r 5 = O 3 3 3 7 = @ I ] ] ] ( ] ] ] ] { 2.4 2.Q.R.T.{ } | !.q } '.T.T.R.!.) @ t N.|.M.z.C.3XeXFXcX&XmXlXxXxXxXxXzXhXkX$Xk.u.g.s.y.t.B h h h l l l g g & - % % - l x n l $ g h g h g g k G k.  R v * Q t x 8 t Q o.n o.o.o.o.$.o.o.g z.;.>.J.-XAX>X* M &.& l &.D D D N M l.x.n.x.x.b.a.h n.d.a.a.c.c.c.h.s.m.Z.m.& & x.l.a.=.S M D x.a.&.a.&.=.S l.j z B B B x.S.C.C.S.m.m.m.m.m.m.m.m.d.d.c.m.f.s.a.% M Z.a.x.x.x.s.x.a.x.x.l.N d D a.M G ; 8XSXC.N Z =.=.>.;.;.M.x y o.n b b x m m * l b t 8 * m Q +.= 8 l t = 8 ; S -XK.K.K.J.b / 9.;.x t o.-.-.9.X.O.O.O.O.O.O.O.O.) / O.u O / _ _ T T _ _ _ _ _ _ ( _ _ Y T _ T I @ ) I P p r . l 6X>XC.f.% O - P.<Xm.M.q.-.*.-.$.-.o.  : O O q q P u u r 3 3 7 # @ 7 # O O + + + + . b.dXJ.*.P p U _ I 0 0 3 3 3 O                                   r u u u r r r r r r v Q y + n Z n n o.-.t Z ;.;.%.*.=.=.=.;.m.G.$ S &.b.L.C.c.d.d.d.C.Z.K.K.m.j VXuXh.=XJ.=X=XP.:X=XyXx O , P.C.A.C.C.",
"@ 2 3 2 2 2 6 6 2 2 2 2 2 2 4 4 2 2 2 2 5 4 2 w ] ' ' ' { { ] ] '.'.( I O r a y ! - e l + &   5 y A $.o.o.*.*.$.*.M.t b -.;.o.-.*.>.0.>.N.*.g b.v.v.N.v.D D x.B..XG.g.nX=Xx.K.yXA.: y.F f r.$.h j.p.0XxXh.9 Z h , x n n x x x x t y n y t b t t t 8 7 - & = 7 p a # #.-.&.z l v l l l l l l k - g l = l N B N M N F Z.b v g l g l l l t = = t i u u u r 7 3 3 3 7 7 3 3 3 3 3 3 + O A.A 9 r 5 = = 3 4 @ 3 @ 1 T ] ] ( ( ] ] ] ] ' [ 2 2.Q.!.Q.} Q. .6.2 ' '.^.!.R.!.7.O.0.|.B.z.:.Z.6XrXMXcX*XmXmXxXMXmXmXbXqXtX$Xk.k.g.p.y.t.j a.B D S N S N M n S N S =.n , , %.%.=.=.=.l.D =.a.VXDX, 7 t - = t x - 8 n o.n o.n Q o.o.o.n - z.l.*.d.%XbXF.+ N D & x &.N &.&.=.z.z.&.&.D l.x.B d n.s.a.a.x.c.m.C.x.m.C.C.& & x.x.l.D z g D x.x.a.a.&.a.j z.a.M z z z a.C.C.m.B.C.C.h.h.C.C.C.C.c.S.S.x.a.c.D.- c Z.G *.&.F a.l.l.D M D S g =.B ~ o.* pXjXd 0.>.b.v.v.*.N &.- y W n b y t l t * * 8 * * * Q +.#.8 8 t t 7 = $ &.2X:XP.K.P.%.+.:.;.M.x x $.+.$.#.#.O.O.O.,.) ) ) O.O.@.p @ / ) ) _ _ T _ T _ _ T ( _ _ Y Y _ T I @ _ P p p r . , 6X,XC.m.< O % P.>XG.N.~.-.=.-.O.o.o.  O I 2.'.!.!.3.<.@.U p u # + 7 # O + + + + .   $ a.d i ) W u p r 3 3 3 # 3 O                                   r u r u r r r r r r x Q v # b b n b Z -.- x v.;.=.=.=.;.z.n.m.OXg S &.x.A.C.L.J.J.J.P.P.P.P.m.t.VXpXZ.=XJ.<X=XK.P.=XyXx O r L.m.C.C.C.",
"@ 2 6 2 2 2 2 2 2 2 2 2 2 2 2 2 4 2 2 2 4 4 2 w | | ] | | | ] ] ^.[.| ~.E  X). XXXP.P.=XiX,Xa.; % b o.o.o.$.*.n o.0.r b -.;.o.*.-.$.$.-.H.v.g v.z.N.b.l.b..XL.m.B.J.g.nX,Xx.F.K.K.o r.h t.V Q s.bXzXlXxXp.i R h , x b x x x x x t b o.t = y t , , 8 = 8 - = y _ X.# O.-.=.M l v l l l l l l - - g l = l N B N M N D Z.n k g v c x l l t = = t t u u u r 7 3 3 3 7 7 3 3 3 3 3 3 @ @ m.y 7 r 5 % = @ 2 4 e 3 2 Y ] ' ' ] ' | ' ' ' [ 2 6.Q.Y. .6.R.} 6.H Y.'.^.R.R.T.!.}.}.N.b.B.;.P.eXwXMXeXeXmXxXBXHXHXBXxXqXwX#X#Xj.g.p.s.c.j t.B D S c N M M &.&.S &.v.=.Z %.=.b.b.n.b.B.b.b.a.VXcX. 8 - , , t x - - b Q n o.n n o.o.Z n - ;.l.=.J.6XFXU.  S &.g c &.N B &.;.;.;.&.l.=.l.z.D z b.a.a.l.z.x.n.m.z.V.c.m., - x.x.x.l.z d B x.x.a.F N a.s.z.D B M M j t.C.d.m.c.c.c.c.c.c.c.m.m.s.C.s.i.f.A.n.% g K.G =.x.a.t.D D S D &.n - &.B M c d j.*XuXL.m.v.=.;.=.&.z.- y n n n t = = - * ; 8 = 8 - Q W / 8 8 = t i k $ D ,X>X>XK.C.h *.n.o.|.0.o.N.0.b +.#.O.O.O.O.T T T T U @.p O U T _ _ _ _ _ T _ T T ( _ _ Y T T T I @ _ P P p s . , 6X,XZ.m.g O % I.I.H.w.q.*.=.-.,.5.W O ,. X!.^.^./.' Y _ U a i + + 7 # O + + + + . @   h g @ 2   X # @ O O @ @ @ O                                   s u r r r r s r # t m Q v # n b b n *.>.t x &.&.&.l.l.l.l.l.b..Xg c l.x.A.m.J.K.K.K.P.P.J.K.L.t.K.K.K.K.P.=XK.K.P.K.yXx   = I.A.C.C.J.",
"O 2 2 2 1 2 2 2 2 2 2 2 2 O O O O O O O O 2 3 0 ' ' | ' ] | { ' Y 5 W.[.6 ).).).B.A.L.:XuXZXL.> A A -.o.$.o.o.y *.9.% o.*.;.*.$.#.-.*.*.N.;.g v.b.b.b.b.B.OXB.x.L.J.c.nX1Xa.K.K.:Xg k t.h &.y.*XxXvXkXlXp.k A +.l x n Z c n x t t b b t t x t 8 8 - - - = i / _ +.O o $.l z ; - - - & & & & & & - - $ & l d d g g c S & - t x 8 - - l - = = o = = = # # # # + # + #   O 3 @ @ @   O A.a 6 t 9 # = @ 2 3 3 3 1 Y [ ] ( ] ] ] ] ' | 2.2 { Q.T.}  .T.} Q.L ^ [.E.W.R.T.!.).N.N.b.b.5.=XeXzXbX7XnXmXmXNXHXHXMXmXkXtX$X#X#X#Xy.s.j.G M D D B c c N %.&.;.%.S =.S c b.l.v.c.b.>.B.S.=.=.sXsX  c v k t l l - - & t o.Q o.x *.Z Z c , z.e.S A.cXAXV < S &.; c %.n N N %.*.*.=.=.S =.=.S g =.F a.a.a.l.l.l.x.l.c.b.d $ ;.;.&.=.%.x x =.b.D l.l.&.&.l.D M z N N B B.c.c.D.a.a.c.c.c.c.c.c.c.c.s.i.Z.A.z % j m.F a.F D a.D D D M S h g D M z B & F k.N.m.B.v.;.=.*.*.;., x X.b n t 8 8 = 8 8 * t i 7 i o.n - 8 t t v - $ n ,X=X=XU.L.g Z >.o.M.}.}.0.X.X.#.O.O.O.) O.) ) T O.U U U O p / / ) ) ) ( ( ( ( Y ( ( ( ( ( ( Y Y O p a u p r X   7X5Xh.n.G   % F.,Xv.}.9.x t b c *.r 7  X,.E.^.2.O.U U p a p i 7 3 u r + +     . m.m.L.A.A.b p I u 3 3 3 u @ @                                       r s r u r r r r # > x o.x o Z x o.b o.-.t t v.S &.&.=.v.z.=.l.|.g c S n.B.m.U.J.J.J.K.K.K.K.S.h K.>XJ.:X:XP.=X-X<XI.P.c O o L.A.m.a.F ",
"O 2 2 2 1 2 2 2 2 2 2 2 2 2 2 2 @ @ @ 2 2 2 3 0 | ' ' ] ] | { ' ) 5 W.[.6 ).).).B.B.A.P.uXZXA.# o.A $.A o.o.-.-.>.>.# o.*.;.*.#.#.$.*.=.N.;.g v.=.v.b.b.l.b.x.m.B.m.c.nX1Xc.:XJ.C.x.d j a.5.t.0XkXwXzX*XV o.G %.x x Z o.Z o.o.x t n b y y x t t t 8 - - = i X.O.! + r >.S N l x l l l l g g l l - - % l N B B N M M D z z g l l l g x l - 8 * = 7 7 7 7 7 7 7 3 # 3 O # 7 # 3 3   @ A.s 6 t 9 : = @ 3 3 3 3 1 Y ( ( ( [ | ' ' ' ( 2.2 ( } }  .!.} 2.!.Y ] '.'.^.!.!.~.}.|.G.G.G.=.3XeXvXGXfX0XBXmXNXMXNXNXmXkXhX#X#X#Xj.g.g.j.h a.N N t.F S S D D &.D S l.l.D l.V.G z.V.H.x.V.H.=.VXsX  - 8 g - l l - - - l o.n Z b o.o.*.S c =.D z.x.d.L.* g B =.& l N N S n c N N &.l.l.l.l.M g x.x.a.a.a.x.a.a.f.a.s.a.d $ F a.a.s.s.B B a.c.a.a.a.a.a.a.t.j B M M B d.s.s.c.a.a.s.m.s.F a.s.c.B.m.a.s.a.& . B B.&.&.&.%.:.%.F S S D c g S S S ; . >XCX; B m.>.;.;.=.=.;.- x a a x 8 - 8 - 8 8 = b W t a +.Q - t t r t = $ N I.K.=XK.P.j B z.*.*.-.-.o.X.U U O.X.X.O.O.O.) ) ) O.#.X.O 0 U ) U U U U U / / / I I I I I I I I @ p p u u 0 X   aXaXJ.L.D O q L.,XB.}.t $ N.N.n.*.3 U }.T ^.^.2.O.U a p a p i 7 # r r + +     o L.G.B.C.c.b / ,.U 3 u u u 3 # O                                     r s 7 r r r r r r > x n y o o.x Z x o.-.t t z.=.;.;.%.&.=.z.b.L.h M M n.m.C.A.C.Z.P.P.P.P.P.P.a.g.K.P.:X:XC.B.d.a.x B   O w s > r > > ",
"O 2 2 2 1 2 2 2 2 2 2 2 2 2 4 4 3 3 3 3 3 2 3 5 { ' ' ' | | | ' ) w R.[.5 ).}.N.B.B.A.P.uXZXA.# A n $.o.$.o.-.-.0.-.> o.%.;.*.-.-.*.-.;.N.=.g v.N.v.N.B.b.b.b.L.L.L.A.nX1Xx.:XP.J.h.r.B r.a.j -XwXzX%Xf ~ o.h D c x c n n n n x t x x y y t t x t - - - = i X.O.i + a M.=.S m c l l l l z z z l d l - c &.&.&.&.x.l.x.x.x.M z N n l c x x x = = t t 8 r r r 9 7 7 r @ 3 r 7 7 7 X @ C.s 7 t 5 : = @ 3 3 3 # 1 Y ( ( ( | [ [ ] ] ( [ e ( !.!.Q.| _ _ I 2 2 ) 2.Q.} ] <.3.9.;.z.b.s.$X-X3XcX7XnXmXBXbX&XxXmXxXzXhX#X#Xk.j.g.g.k.D a.N Z a.t.N %.G D D a.a.x.l.F D D.H.;.V.G f._.v.v.VX6X  g i l t 8 8 - k - l o.n Z n n o.o.n n =.v.M.h h k Q S D.n - l n %.;.*.=.:.&.&.&.&.&.N d g &.l.t.a.x.m.x.l.v.z.x.l.k ; %.l.F G a.n.v.l.F D l.l.D D D F h j h c M s.c.m.b.s.C.c.s.t.B j t.t.t.B z d d d z r.m.a.a.a.a.x.a.c S S N l - x c . m - U.AXL.oXf.>.=.=.=.=.-.= x A b n t - 8 = 8 - 8 b Q t t Q b - t v 8 8 = ; n j.=X<XZ.m.g b #.;.*.o.o.o.o.X.X.O.O.O.O.O.O.O.O.U X.O.r   O O 2 # # # # # # # # 0 0 0 0 0 : # # O 0 r 3 3 3 @   j.sXK.g.p.  3 L.K.G.0.$ m.N.0.=.*.@ q.}.5 [.^.[ X.U p p a p i 3 3 r r + + O   o L.G.m.m.B.b ( ] U 3 p u P 3 3 O                                     r s r s r r r r > t x n y # o.b n x *.;.x t ;.-.;.;.;.v.v.v.v.N.c c z D D a.S N l.D D S h c g : . % % & > : . & d > m.> O # h h a.m.A.",
"O 2 2 2 2 2 2 2 2 2 2 2 2 2 2 4 2 2 2 3 3 2 3 5 | ' ' ' { | ' } ) w E.[.5 ).}.N.N.B.G.P.uXZXA.# n b b a X.y a b *.X.> *.;.;.*.*.-.;.>.v.H.=.g v.N.z.v.b.B.B.m.L.A.A.c.nX1Xa.Z.K.J.p.x.&.i.i.y.9XrX&Xf ; ! z F z x l x x x x x , - x y t y t t t 8 = - = = t a U 7 . A M.=.N m x l l l l l l g g l l - c l.&.N S x.a.x.c.x.h z n c z c m x x = = t t t t t r 9 9 7 r + 3 r 3 r r X + m.s 7 t 5 : = @ 3 3 3 # 1 J J J H J I J H H H H @ 2 Y ] Y q q p I P w w 4 1 L 4 4 4 # o & k 4 # - p.jXjXnXmXMX$X$XxXxXxXkX$X$X#Xk.j.p.p.j.l.r.&.*.G r.&.*.i.a.D x.x.x.D S v.b.l.a.d.l.N.V.b.v.sX;X  t 8 - > - - & - - l o.n n o.o.$.n x S =.S #.I.DXp.9 x x $ $ $ - - , l c y y > % % % % .   % , x Z c c c h c c z c & $ g m B l.B %.%.&.B N N &.N %.N m z B N &.N B t.t.t.l.x.B B N n m m c & o : s > >   $ x , , , , y t n S c & $ $ $ . 3 $ . p.AX>XI.H.>.;.=.=.=.-.= y X.b n t - 8 = 8 - 8 v v = 8 t 8 - t v 9 8 - * l :X>XJ.G o     s % % % = = # # # # # # # # 3 3 3 # + +   O s # 3 @ @ @ @ @ O O O                   O O O O @     j sXyXC.s.. . P.I.G.Z a.VXD o.=.*.O ~.w.2 [.^.) W a p p i p i 7 3 r 7 + + O   # B.H.B.A.B.X.( Y I 3 u w p 3 3 O                                     r s r s r r 7 > > t b n t + o.Z o.n *.-.t % -.*.n o.%.n c l = =   O O +   . .   >   . & $ % m A z - , - O u B.J.P.n.yXG   . H.l.m.L.J.",
"O 2 2 2 2 2 2 2 2 2 2 2 2 2 2 2 @ @ 2 2 6 2 6 5 ' | ' ] } | ' } Y w E.[.5 ~.}.).N.N.B.P.uXZXA.# $.b r o t r t a o.y r *.-.%.*.*.;.;.v.v.H.z.g M.n.l.b.b.N.m.m.L.P.C.s.nX7Xc.=XK.Z.C.d.i.l.D.&XzX*Xf ~ G c m M b n c n n l l l l l l - , x x t 8 t = - - = = r 7 7 o $.M.=.N m x z z z z l l z z l g & c &.N B B D a.a.x.x.h z x c g m z m x = = 8 8 8 8 t r r 7 7 r + 3 u 3 r u @ @ C.s # r 5 : = # 4 3 3 # 1 Y ( K J J J J J J K ( I O 1 E ( ] 6.Q.!.!.~.7.) w ~.~.~.~.8.4.N.|.i y.cXFXFXeX*XBXxX#X$XbXxXlXqX$X$X$X#X#Xp.p.#XM a.x.S G a.:.$.a.D D z.x.z.l.D l.&.k.;Xr.N.N.x.m.z.5X;X  - 8 - > 8 8 & - & t Q n x Z n $.o.x S =.>.o.C.bXCX~ . X , l x x g & % $   % % = , y x b Z x , .   . . $           O   O       . o # # , % % % % % % % . X X X X       #     . t t o . $ ; $ & = % . c h g c h g g & , , $ . $ - c %.%.%.+.n l d.ZX>Xm.B.v.;.=.=.%.*.= x a y v - - 8 - 8 8 8 8 8 = 8 8 = - 8 t 8 8 8 $ $ g & . % y b t d = - t t , = = = # # # # # # # # 3 # +   X.9.U O.<.<.,.O.O.) ) ) U U U U U U U U a U U p u p r + . d l X.t O O K.>Xb.t OXoXD -.v.;.O '.9.2 [.^._ W a a a i a u 3 3 r 7 # +     # L.H.B.m.B.A ( ] U 0 P P P 3 3 @                                     7 r 7 s r r r r # t x x =   t t t , t - .   . =   . . . $ & g l x n b o.b o.d $ = ; x.A.P.oXP.K.P.J.>XP.$ D K.=XP.F >Xh . , |.;.v.G.H.",
"O 2 2 2 2 2 2 2 4 4 4 4 2 2 2 2 4 2 2 4 4 2 2 4 ' { ' K | | ] } I 5 E.[.5 w.}.).B.N.B.P.uXZXA.# -.#.a = o.o.o.o.-.y t *.;.&.*.>.;.>.v.v.B.=.g N.n.b.B.b.B.m.B.A.J.C.c.nX1Xt.Z.K.:XA.F.h.D.#XzX0Xj ~ F h z.~ g :.S S %.%.c l l x x l - t n x t t t = - t = = = = t = *.M.=.M z x z z z z l l l l g g - N l.N B B &.l.a.n.x.h n x c z z m m c - = t t 8 t t t 8 7 r r @ 3 u 3 5 u #   C.A + = 5 # 7 # 3 3 3 3 2 Y } | | | [ [ [ 2.Q.6.8.I J /.Q.!.!.} } | } Q.( I !.!./.7.9.0._..X~ S.eXbXGX6Xu.nXNX0X$XxXlXlXwX#X#X#Xu.=Xg.y.j.F a.g.i.A x.;.Z s.D l.n.l.n.b.D F s.eX3Xm 0.a.B.m.x.sXsXo - v l y m x - - & - Q n n n b o.-.b , n ;.F &.%XGXV % #.%.%.*.;.;.*.Z % d N &.z.v.b.x.b.b.v.l.d d b..X.XK.K.Z.K.P.P.K.K.L.L.P.L.a.$ d m.P.P.P.P.P.P.P.P.C.a.d x.L.L.A.A.G.L.m.M d a.L.XXP.XXXXA.t.d C.XXP.A.A.C.C.m.C.C.;.% g ;.M.;.%.&.S ~ R d.ZXs.x.l.v.=.=.=.%.*.= b b b b 8 - 8 - 8 k 8 * = t v l 8 - * 8 8 - - % $ & m.P.P.A.V.v.l.M.>.;.>.>.-.$.$.#.o.O.X.X.O.X.X.X.X.a + #.9.u ) _ _ _ _ _ T T T U U U U T U U U U U U p u p r O pXJ.M & $ O o =X>Xz.*.l.M ;.-.;.*.O ~.9.5 [.^.! W a a p u u u 3 3 r 7 # +     # L.H.B.m.B.A / ] U 0 P P P 3 3 O                                     r s r s r r i r # > t t =   + = = = = = r t t x . - %.&.b.N.m.m.B.L.L.L.L.L.G.Z o % B.C.c.S.K.J.K.K.yXyX  h J.K.P.>.oXy O 0 A.x.m.L.A.",
"O 2 2 2 2 2 2 2 2 2 2 2 2 2 2 2 4 4 4 4 4 2 4 5 ' { K L ( | ] ] Y w (.[.5 q.}.).B.B.B.:XuXZXA.: -.-.X.r #.-.-.#.-.r r $.;.=.=.>.;.v.v.n.N.&.g M.b.l.b.x.m.m.m.m.C.J.A.vX5Xx.=XK.Z.h.F.S.Z.0XzXD.m a.G M &.N D n &.S %.%.n z z l m l - x n b t y t = - t - = - = 7 # -.0.=.M c l l z z z l l l l z g g N l.t.D &.&.l.a.c.x.d n m c z M m m c - - t t t 8 t t t 8 r r # 3 u 3 5 5 #   S.Z + = P # 7 @ 4 3 3 3 2 Y { | ' | { | | } | ( [ Y J !.{ } Y.| !.T.Q.!.Y I !.Q.2.7.w.N.|..XM A.rXvXFX8X  j h.g.y.k.j.S.g.k.&X&Xu.k.C.y.k.l.F $Xk.G l.a.G C.a.n.n.l.b.c.r.s.eXvXy.:.G.s.B.m.x.6XCXo & 8 - t m m - - & t Q n n n A b *.l . S B.F V.>XSXf b v c x c %.%.%.=.& M l.x.x.x.x.a.a.a.x.b.M M B.B.a.b.n.b.n.b.b.n.n.B.n.m.H.n.& g m.n.s.s.s.n.n.c.m.P.A.d x.XXP.S.A.m.A.P.a.d a.S.s.n.x.c.x.D & D x.z.&.z.&.l.&.&.&.>.$ l ;.&.N n N M :.P f.AXC.L.b.;.;.=.%.%.*.= b o.o.o.l 8 8 * - 8 8 = = v W v 8 8 * 8 8 - - = & :XuX:XS.A.B.H.>.-.*.o.o.o.o.Z Z o.X.X.W X.X.X.W a X.X.  #.3.3 O.U T T T T ) ) ) U U U U U U U I a p U U U U y O -XfXaX,XK.S $ K.>Xz.}.x c 0.-.;.S O ~.0.u ^.Q.! W a a p u u u # 3 r 7 # +     # A.B.m.m.B.A / T I 5 w w P 3 3 O                                     r s r r 7 r 7 + o # - - , > r b n n o.o.-.9.-.-.= x b.N.B.b.c.c.c.m.m.m.C.m.L.v.o % L.C.J.L.A.S.S.L.yXiX% m L.K.L.>.oXy O w H.a.f.J.U.",
"O 2 2 2 1 2 2 2 2 2 2 2 2 2 2 2 4 2 2 4 4 2 4 5 ' } L 2 K [ ] ' Y w {.[.5 q.}.).B.B.B.:XuXZXB.# $.#.y   i W X.o.o.. # o.;.=.*.*.>.v.v.z.b.S & ;.b.x.B.b.B.m.J.J.J.s.f &Xj.t.:XK.K.=Xj.k.0XvXu.z x.j x.:.G D m M &.S S S n z l g l g - x x t - t t = = , - - - - = o >.0.=.M M x z z z z l l l l z g g S l.t.a.l.x.x.a.m.c.d m N c z M z m m - - t t t 8 t t t 7 r r # 3 u 3 7 7 7   S.*.. = R # = @ 2 2 3 # 2 Y { | ' | | ' ' ] { |  .] L !.| Q.Q.] ^.} } !.I I ^.Q.2.7.~.N.B.G.p C.rXvXGX7Xd c.D.i.x.i.x.V.s.j.eXZX%Xu.h.c.g.M j tX3XF &.f.f.S.s.s.n.m.J.s.p.,XlX&XB G h.A.N.U.m.7XCXo g 8 ; t l l - - & t o.Q b n $.n o., $ N.n.H.z.>XFXG 6 A n c c S l c =.- S l.D S D =.D a.a.D =.x < D l.a.l.l.l.l.l.&.l.l.;.&.&.z.;.v l &.&.&.&.&.=.=.=.;.M N., o.v.D &.z.n.B l.M.x x =.&.S D a.a.=.% %.=.l.D l.D =.S =.D =.& n &.l n S n B h % f.ZXh.h.B.;.;.*.%.%.o.= n o.X.Q t 8 8 * 8 = - = = b b t 8 k * 8 8 - - - l ,X=Xh.C.H.S b.OXZ o.*.*.o.Z o.*.+.X.W W X.X.W W U O.X.  1.9.3 ,.U U U U U U U U I U I I I I I I U p U U u U u   ;X6X1X2X=X, 4 .X,XF 1.}.b #.4.;.n @ ~.N.u Q.2.Q U a a p u u u # 7 r 7 # +     # A.H.m.m.b.b / ! I 5 w w P 3 3 O                                     # r # 3 # +       . % t b X.y o.o.o.o.n X.X.Z *.- n N.x.x.x.v.M.b.N.B.B.G.B.Z.XXn & P.Z.P.L.J.P.K.I.:XP.< & P.P.P.n.I.h   % G.=.b.G.m.",
"@ @ @ 2 2 2 2 2 2 2 2 2 2 2 2 2 2 2 2 6 3 2 4 4 ( ( ^ K ^ | [ ) Y L (.JX1 w.}.~.N._.A.I.,XDXv.$ o         +             # #   . % , = % = t - . t % c F S S D M 8 j.*X=XS.S.Z.:XK.F.Z.3XwX$Xr.G G g.c.c %.x.t.A S S S %.n m l l l l , t x v 8 t t t 8 8 - - - - & = *.M.=.N z m z z z z z z z m z - g S x.a.x.D l.r.l.c.s.h j ! M z z z z m l - y - , t r r r 7 7 r # # r u u 3 3   $ # r 7 u * 7 + O 6 6 5 1 I | [ ] ] [ ] | [ | ] 8./ w !.} Y.[  .6.2.2./.I U !.!.2.7.).|.N. XO.C.eXvXGX7X; D.x.c.c.s.s.d.h.g.&XZX1Xr.Z.u.c.a.j C.rXn S B m.c.v.s.A.f.d.S.&XlXtX#XF m.m.B.A.m.m.7XcX. k < k 8 i t - g - - n n A o.c *.A . *.b.F N.M.>XSXh = Q n n x n n S S g B D l.l.&.l.&.D a.D b.g h v.D =.D l.l.l.l.l.l.l.v.l.l.=.v.< c =.&.=.&.S =.v.&.g c n.h S z.n.l.l.l.l.x.x.N m z.a.&.l.&.&.D ; N l.&.&.&.D D &.&.&.=.& l %.n N %.n D.y s f.ZXP.D h.v.=.*.*.%.%.= b X.b b y 7 = 8 - 7 t a a t 8 8 - 8 - 8 8 8 - ; m :XK.C.J.B.h H.=.b o.o.+.o.$.o.b o.o.X.W X.X.U U X.U X.O 1.#.u O.U U _ _ U U U U U I I I U U U U p I U I p U s   ,X1X;X,XZ.A X Z.yXF M.H.$.*.;.;.o.  9.}.U U 3.O.U U p i a p r # r 3 r # + O   # L.G.B.m.m.U ] U I p 5 5 I 3 0 @                                     + + +   # = t 7 t t t t o.l t o.b b o.o.o.$.-.o.- =.l.n.n.b.l.b.b.B.B.B.m.B.m.L.b.. I.J.J.P.P.J.J.K.K.XXo f s.L.L.m.XXc   = G.l.b.G.B.",
"@ O O O @ 2 2 2 # 2 2 2 2 2 2 2 4 2 2 3 6 2 2 4 | | | | Y.Y.| E 0 K {.[.5 0.}.}.n.B.S.,X6XSXH.. t % y a a X.X.+.X.X.t   # y y Z x x x x x Z n x # . d h M B a.t.i.4XAXGXcX%X<X=X<X,X9XtX&X~ 5.D.r.j.g.F Z t.B A S S S n n x l l g - - t x x 8 8 8 8 - 8 - = = - * = *.M.=.N z l z z z m m m z z l g g D x.x.l.l.l.a.l.c.c.z j Q M M z M M m k - x - t y t t i r r s # # r 3 7 3 # O k r r 7 e * = # @ 3 @ 3 O P { | ' ] | ' | { T.} 2.( 4 Q.Y.Y.Q. .} Y.Q.!.Y P ^.T.Q.7.).|.N.G.c J.eXbXFX8X& r.a.a.s.a.a.s.d.h.&XZX;Xr.h.S.m.B F s.wXx S a.s.c.v.s.C.d.m.=X0XzX9X#Xa.m.C.B.S.C.m.6XcX% l , - - W v & - - l n n A n c *.A % >.N.n.;.;.I.SX< , Q x n c n n n N g S D S S S D &.=.D S l.g g =.S =.=.=.=.=.=.=.=.l.=.&.l.=.v., c =.D =.=.&.=.z.=.N S v.h D l.z.l.l.&.l.a.l.n x z.a.=.=.&.=.&.d S =.D D D D D D D D S & l %.n n n n k Z 7 i.vXP.G.J.v.=.*.*.%.%.= a A b b y 7 = 8 - = v o.W t = 8 k - - 8 8 8 - $ m :XZ.C.L.L.M N.>.> y n :.$.n o.#.o.o.o.X.W U X.O.U X.X.O 1.#.3 O.I I I U U U U U I U ) T I p p U p p I u u U u   ,X7X;X;X:Xx   P.yXj =.|.M.;.%.-.Z . 9.}.O.O.#.U U U p i a i 7 # r 3 r # + O   # L.|.h s.m.W T U I p 0 0 P 3 3 @                                     r = r # t t t 7 t t t t o.l t o.b b o.o.o.$.:.o.- =.l.z.z.z.l.n.b.b.m.m.m.B.m.L.b.% L.J.m.P.K.J.P.J.=XL.= C.s.L.L.J.XX<   t H.l.n.B.B.",
"O O O O O O O O O O O O O O O O 2 @ 2 3 6 2 2 3 ( ' | | { } Y H a _ ^.'.w :.N.).B.V.B.L.:XsXN.; b y o.-.-.-.-.0.-.0.-.r t -.-.-.0.0.0.M.M.N.N.N.;.N x.c.m.A.J.Z.:XC.U.<X%X=XaX,X&X9XtXhX#Xg.y.D.g.#Xg.F S a.N Z =.=.%.S n l l l l k - t x b t t 8 8 8 8 - = - - & % o.v.=.N z l z l l l z l z z g c & D x.x.B x.x.s.l.c.m.n B N M M M M M m , & t = - t t r r r 7 r + 3 r 3 7 3 # @ ;.b r 9 3 8 = + @ 3 @ 3 O P { | ` | | | | | | | { ' L !.Y.R.Y.Y.Y.T.T.Q.Y ( ^.R.Q.3.M.B.B.G.! C.eXvXFX4X* t.a.a.a.a.a.a.s.s.&XZX;Xr.g.g.c.f.M s.tXg M c.c.c.b.d.h.C.S.&XkXwXhX$Xm.m.C.m.A.C.m.6XCX= k , - c :.m & & - l o.n b x c o.y % v.n.v.l.>.>XAXh t ! x n n Z n n S l S S D D D &.&.D D D l.c x =.S =.%.%.*.*.*.*.=.=.l.=.l.&.=., N l.S S &.&.&.&.D D D l.d D &.l.D x.&.l.a.l.n x l.D S S S &.D d S &.=.=.D D S S S S %.& x %.N n n N N $.9 i.vXF.B.I.v.=.*.*.%.%.= a A b b y = = - - * v Q b 8 * - k - - 8 8 8 - ; m >XK.K.J.A.l.N.v.$.o.b t b $.X.a b b a W U X.X./ p X.X.O 8.@.3 O._ T U T T ) ) U U I P p U U U p U U I P u U s   <X7X%X-X,XS O .XpXM %.|.N.;.;.0.n   @.~.3.1.1.X.W U a p a p u 3 r 3 r # + +   # L..Xg a.m.X.I U p p p 0 p @ 3 @                                     r s t = t t t 7 t t t t o.t r o.b x o.Q o.$.*.o.- l.l.z.l.z.l.n.n.b.m.m.m.B.m.A.N.& L.C.m.P.K.J.P.J.:XA., pXL.L.J.C.XX<   7 G.l.n.m.m.",
"@ @ @ @ @ @ @ @ O O O O O O O O O O O O O O O O X @ @ @ 2 2 @ O   O 4 1 O O 3 O   1 1 X . & 1 Y n y o.-.$.$.o.-.-.0.0.b b >.;.;.-.*.*.;.;.;.v.N.;.M x.s.c.C.C.Z.=XP.oXZ.=X:X#X&XwX9XhX#X9XqX9Xk.j.Z.s.M S l.l.S D S S S c l l l l l - t x b t t t t 8 8 8 8 - - - % n ;.&.N z c x c z z l z z z g z d &.c.x.t.x.x.c.l.h.C.n B N N M M M M m g - - = = - = = 7 7 = 7 + 3 u 3 3 3 # + N.Z = i 3 8 = + @ 3 6 3 O P { | ' ' ' ' | | | } { | 4 2.{ { Y.T.} !.6.2.I _ '.Q.!.8.N.|..XOX/ C.rXzXFX*X. t.B t.t.a.a.x.c.c.&XZX;Xf C.g.s.i.a.C.eXM G m.m.n.m.h.h.A.j.0XkXwXhX&XZ.C.J.m.C.C.m.6XCX* 8 , k n -.Q - & & t Q n A n n *.y , N.z.=.N.v.>XAXh , Q x n x b c n %.c S D D S S D D S D S =.g g =.S S =.=.=.=.=.=.=.=.=.D D D *.g n &.&.&.=.=.=.&.=.=.=.=.g l.l.x.l.x.&.&.D l.c l =.D S D D &.D d S &.&.&.D D S S S S o.% , Z n c c n m < v t.vX%Xj x.=.*.*.*.%.%.= a b a a y = = - - = 8 8 8 8 8 8 8 8 - 8 8 8 - & x :XK.K.C.m.B.N.>.>.0.-.x t y t a a i s a O.O.U 3 u W X.  8.#.3 O.T T U T T T U I ) I 0 3 u p p u U I I P P U r   ,X1X1X2X#XF @ N j $ g ;.%.S Z b Z   # p 6 3 3 # + + @ @ @ @ O O r 3 r # + +   # m.G.b.m.G.b U W u u u u u @ 3 @                                     r r r # r r t 8 t t t t o.t r o.b x Q o.o.o.$.o.- =.l.l.l.z.l.n.b.b.B.m.b.m.m.B.B., A.C.m.P.>XJ.P.J.:XA.< 4XP.G.m.C..X<   # G.l.n.B.m.",
"# # # # # # 3 3 @ @ # # # # # # O O O @ 1 1 @ 2 X 2 e 4 q e w w p Y { { Y.Q.6.Y F N.B.oXdX,X8 v n t n $.$.-.$.-.-.-.-.b b -.;.;.0.;.;.v.v.v.b.H.>.c c.s.m.C.Z.Z.#XS.K.%X-X>X1XwXwXtXhXtXqXqXzX9Xg.g.t.M M N B B c c z z z z l l g - & - x x 8 t t t 8 8 8 8 - - 8 % n >.=.N z n c c c c c c z z z g g l.A.c.t.x.x.s.t.#Xj.N B B B M M M M z l l - = = 8 = = 7 7 = =   = u 3 3 7 + O B.n # i 2 9 = + O 3 3 5 O w [ ) ) ] ] ] [ [ | [ ] ) 4 <.8.!.3.2.Y [ 2.<.p 3 / / _ p $.+.:.-.> t.1XCXGX6X- t.a.t.B N D B B B 3XgX-Xt.s.p.s.s.a.C.%XF F c.C.f.d.h.Z.S.%XqXqXqX9X&X$XZ.C.C.J.C.m.6XcX+ 8 b k - m x & - & - Q W b n n o.y , N.=.=.b.=.I.ZX< = n x x x x x n Z , N N N M M N D &.D l.l.g g =.&.D D D D D D D D D S &.l.z.%.t N &.=.&.%.&.&.S S &.=.S d &.&.l.D &.&.D D =.l , ;.D B D D D N d N &.N N N D D D D &.%.= - x n n c m n x ! B ZX5XC.V.z.=.*.*.%.*.= a b a b y 7 = - * = = * * - 8 8 8 8 8 8 8 8 - = x P.C.K.C.L.B.v.S >.*.;.;.;.t + $.#.X.U X.#.O.p 3 u U X.O #.O.# U T T T T U I u 3 _ / I 3 @ # u U u p p P u U r   ,X1X%X;X;Xn.  & m.D z.N.=.l.;.$.M.= p / u U a p p u r r r r r r r 7 r # + +   # m.B.N.yXOXr / b u p p u u O # O                                     r r r # t t t t t t t t o.t r o.b x Q Q o.o.$.o.- z.=.l.l.l.n.b.b.b.m.m.b.m.m.m.B.g m.L.m.L.>XJ.P.J.K.m.% F.c.m.J.L.L.<   # G.l.n.B.b.",
"@ @ @ @ @ 2 2 2 @ @ # 3 3 3 3 3 + # 3 5 w w 0 u J ] 2.Y.Y.T././.K } !.R.^.^.!.' l.OXOXI.sX5X% , o.x Z $.$.-.$.-.-.$.-.o.Z -.;.;.>.;.;.>.>.v.v.N.>.h c.d.m.C.C.K.K.Z.=X,X=X#X0XqXwX9X9XqXqXkXwX#Xi.s.s.a.B t.t.B N N M c c c m g , l - - l 8 8 t t 8 - - - - - - - % o.M.z.D z m z z z z z z z z z g g B A.c.c.s.c.s.y.&X#XB N B B B M M z z z m l - - t 8 8 t r t r # r a 7 3 7 6   B.Z % k 3 9 r + O @ 3 3 O 3 q 2 2 4 5 4 4 4 2 4 q 2 O 3 p 0 2 w 2 w w w @ O   O X   = * * 8 V ; $ j f.y.9 ; & ; ; ; & ; ; d ; f ; X., < r y j r.r.F x.c.C.d.h.h.K.h.&XkXqXkXwX9X&Xj.m.C.J.C.s.eXcX- k l k l l l - - - t o.Q b n m n y , N.z.v.v.>.>XSX, = x x x x n b b x % c N &.&.=.=.&.&.=.=.=.g l &.;.&.D D D D D D D D *.;.;.%., . c &.&.%.%.&.&.&.%.%.%.n l S &.&.N D &.D D =.x t ;.&.D &.D D N d &.&.&.&.&.&.&.%.%.%.x % % - t l - t t < + g eX,XP.B.v.=.*.*.%.%.= a b a b v 7 = - * = = = * - 8 t v 8 8 8 7 8 - = t P.J.J.J.A.x.%.;.0.%.*.>.M.Z # #.#.#.O.O.O.X./ U U W O.O O.X.# u U U T U U p 3 # U I u 3 # r p p U p U U u u 3   -X3X;X<X,Xf.  S dXXXb.z.=.&.;.-.%.o a 1.O.1.#.O.W U a i u u u i r 7 r # + +   # m.N.S dXoX7 O.a s p y u u @ # O                                     r r t = i i t t t t t t o.t r X.b x Q Q o.o.$.o.- =.=.=.=.l.b.b.b.n.b.b.b.B.B.m.H.g c.L.n.m.J.d.P.L.K.c.> h.m.m.m.m.B.<   + |.v.v.B.B.",
"O O @ @ @ 2 2 2 O O @ @ 2 2 2 2   O O 2 4 4 4 5 L K | | | Y.Y.Y.K Y.Y.Y.Y.Y.T.K x.`.B.L.dXsX= k A b o.o.o.$.o.o.$.o.9.-.o.;.;.%.;.;.;.;.v.v.N.N.v.h m.s.m.C.C.K.F.%X%X:X$X&XqXwXtXwXkXkXqXzX#XD.p.s.s.s.s.a.a.t.l.&.D N S S n l g l l k l 8 8 i t 8 - & - - - - & o o.N.v.D z m h h h g z z z z z c g M c.c.c.s.x.s.k.tX&XB a.t.t.B B M M M z z x t t y t t i t y t = i b 7 3 7 6 O b.S = 8 e 9 = + O @ # 3 O q ( Y Y Y Y Y Y Y ' ( ] ) I P P O 3 <.<.7.[ <.<.1.<.,.@.p }.|..XOXP.oX>X,X8Xh.O . % - x n %.=.x.m.oX#Xy.t.s.y.x.t.l.a.a.n.b.c.C.h.h.Z.F.g.&XqXqXkXkXwXwXj.C.Z.J.K.h.eXcX- k - l m k k - , - - b b b o.n n b , M.b.v.v.>.yXCX= % % , t , t t t t . - l n o.%.Z n x g , = o o t t t n n n Z %.%.S Z A x l g . . t x S S &.=.=.=.=.=.Z x S %.=.&.&.&.%.D D =.x - S z n S c n n - o.o.Z n n x x x x x % . % o % = % % 7 % . W 6X:XA.b.v.=.*.%.%.%.= a b b b b 7 = - = = 7 8 - - 8 t t = = 8 7 8 8 % , C.J.J.C.m.l.;.0.-.;.M.=.%.x = q.O.O.O.O.X.X.O.#.O.U O.@ X.X.# 3 p I U U p u u u I u 3 3 u X.U 7 p u u u 3 3 +   <X1XaXI.i.d + S uXJ.a.=.=.=.&.%.;.= X.8.,.,.O.p W a a i u u r u r 7 r # + O O # H.N.N XXG.i ) a s u y u u O # O     . . .   . .     .   . . . .     r r t = t t y t y t i t o.t r X.b b o.Q o.o.o.o.& =.D =.=.=.b.b.n.l.n.n.b.B.m.m.G.g x.L.n.c.m.m.L.J.K.x.y J.P.L.m.s.B.,   + %., x D l.",
"2 2 2 2 2 2 4 4 @ @ @ 2 4 4 2 2 @ @ 1 4 L 4 4 q p ( ( ] ' | { | L } } Y.R.R.} q 9.)..XI.uX,X  w b b $.$.o.#.$.+.$.X.#.o.b ;.0.=.;.;.;.;.v.v.N.b.v.j c.s.C.C.C.K.S.:X:Xj.&XwXwXwXwXkXkXqXlX0Xy.k.g.g.g.g.p.s.a.r.D B M N D &.N l g l l k k - 8 v x t - & - - - - - . o.M.z.N z m h h z z z M M m z S g j j c.C.s.x.s.j.wX&Xt.a.t.t.B B B N M z z x - t x t t t 8 t = + r a 3 # 7 6   b.&.- - e 7 % @ O 3 # 3 @ I !.Q.Q.Q.Q.Q.2.Q.} { 6.{ Q.2.7.w H !.6.!.Q.Q.!.2./.Q.6.p |..Xm.A.G.:XtXrXGXDXO & x n *.-.*.S l.m.d -X,Xf j.k.C.i.D c.N.m.a.C.h.h.Z.S.F.k.3XqXkXwXkXkXwXk.C.:XF.>X,XcX0X$ m , l - k g & - % % t 7 % x - - = . Z S S v.%.oX#X  o % . o . . . . = . . . .     . o o .     X # X           + # # o + o % % b A A n - & g z c c c c c % $ c x n z N S S N M S - . g ; . .   . o   # .       . . . . + t t n x x x t x 9 & = O k.S.S.B.v.=.*.%.Z o.% a b b b b 8 = 8 = 7 = = * = 8 = # = = 7 = 7 8 % - d m.J.C.c.v.M.9.M.%.=.=.0.n . 1.1.@.O.O.O.O.X.U O.p O.@ U X.3 3 @ 3 0 u r u p U u p u u p U u # @ @ @ @ O O O   =XsXp.; f.b.O b ,XK.a.D =.=.z.:.;.o p <.T #.O.p a i i a a u r u r 3 r # @ @ O # G.M.N.F a.X.P b s u u u u O #       . . . . . . . . . . . . . . + + t t t = t t y t y t i t o.t r X.b b o.Q o.o.o.o.% =.S D D =.z.z.l.l.n.n.n.m.m.m.G.g a.L.n.c.m.L.A.m.I.a.r J.A.G.m.m.L.<   + 0.x S l.v.",
"2 2 2 @ 2 2 @ @ @ 2 3 2 2 2 2 2 @ O 2 q 4 w q q L Y ' ' | | ] | K | Y.Y.Y.{ Q.L ;.B.G.P.dXyX  . y b $.-.$.o.o.-.o.o.-.o.Z ;.;.;.;.;.v.=.=.n.b.B.v.h x.c.m.C.C.Z.F.=X:X#XqXqXwXqXkXkXkXlXzX%XS.k.k.k.g.s.s.s.s.a.t.B B M M M z l l l l l l l t t l 8 - - 8 8 8 8 * = *.M.;.D z M M M M M M M B B g l.f j ~ B i.C.b.u.wXwX$Xy.s.t.a.a.B B B M z z z - , y t 8 t r t 7 7 7 7 7 3 7 + O m.F 6 9 > 9 8   @ 2 3 6 2 p T.} ' | } ] ] | ] | } { } } 2.w I Q.} 6.6.6.2.6.2.6.<.O.)._.B.B.L.P.2XeXAXCXd + x x n o.o.*.;.&.f AXsXf k.g.m.t.j d.a.a.s.c.S.h.J.h.k.$XwXkXkXkXzXkXkX#Xg.:X-X;X:Xk.r.d i k - i l - & = - = & - = = - - = = - - = 5 < o O 9 < 5 = t x x x c n c l x c x c =   t & & g z B l.x.l.a.a.x.t.g   t x.l.l.x.b.b.b.b.B.Z     = & $ $ . & & & , g g , & % - O 0 & %   $ d j M D M S &.S &.l.l.v.n $ ;.z.&.%.%.%.%.%.%.%.) h 8 : O 9 . . . % t = = 7   = = % o = = = = * = = = * * - - - 7 8 8 * k - $ c I.C.K.m.H.>.>.=.>.*.*.>.>.a 0 8.O.O.O.O.X.O.O.O.U / / @ U p @ 3 # O   3 u p p u I I I U U U u # % 4 r & 0 5 -   n.i.i.I.uXA.. U uXm.b.;.=.b.=.+.S t p 1.X.X.y a = a C 0 a r s r # s r + O     # m.B.x.v.&.v +.R r u p p u + O         . . . . . +     . . . . . . . = i t 7 t y t y t v t i $.y t Z b b n x n o.b o.% ;.=.S D l.;.l.l.l.n.n.b.b.m.c.A.x S L.m.n.m.m.J.C.L.B d G.m.m.J.J.G.%   o B.b.z.z.x.",
"2 2 2 2 2 2 2 @ O 2 6 2 2 2 2 2 @ O 2 q 4 w q q L Y ' ' | | | { K | Y.Y.Y.{ !.L ;.|.|.P.uXP.o 8 y o.*.*.$.-.-.*.-.-.;.*.Z ;.;.;.;.;.>.;.z.v.N.N.;.M c.m.m.C.Z.K.K.=X=X&XqXqXwXqXkXlXkXkXlX&Xu.Z.Z.g.h.g.p.s.s.s.t.B B M M M z l l l l k g g t l l 8 8 8 8 - 8 8 t . x v.v.c h B M M M M M M M M M M j B D.j i.c.u.9XwXwXk.y.s.a.a.a.t.B B M c z z g t v i i i t t 7 7 7 7 7 7 7 + O m.F 6 9 > 9 7 O @ 2 3 6 2 p T.} ' ] ] ] ] { ] | } { } } 2.w I Q.} 6.6.6.2.6.2.6.<.O.N.B.V.B.A.P.2XeXAXCXd + - x b n o.;.%.g -XAX%Xj j.g.s.i.s.m.s.s.s.s.h.j.g.%X0XwXqXkXkXkXkXkXkX&XS.=Xk.y.y.k.Z.M = k d 8 g - - t b x m n o.Q o.*.Z o.%.*.0.5.=.S d $ h # b o.*.-.;.M.M.M.N.N.M.v.;.x % b N.N.N.b.N.B.B.b.b.b.B.B.=.> A V.&.&.l.l.l.&.l.l.;.- t v.b.z.z.;.B.B.B.B.B.B.B.B.v.v.>   ; c >.|..XG.B.b.z.n.b.v.z.z.z.v.Z & z.;.%.%.%.n n n n c O.z 8 X = 8 % a t t x t b b = b b v t t t 8 - - = = = = = - - - = 8 8 * 8 - $ c ,XZ.Z.C.A.b.b.l.;.*.=.%.;.t + 1.O.O.X./ X.O.O.X./ a u O a U 0 u a r r u a p u p I p p u u u u r % K U < P T t   K.aX,X>XP.x.  C >XL.=.;.*.c ;.-.=.= 3 <.O.X.p I Q W 3 u a i * 7 # r : X @ X X X G.H.D b.N.o./ p p u u u 3 + + # O O . o + + + + + . . . . . . . . . = b t = t y t y t v t v o.v o b x n $.o.o.$.*.o.. Z =.&.=.&.x.x.x.b.b.b.b.b.n.c.B.g Z B.m.b.B.b.B.L.G.D ; v.L.A.C.L.G.- . * v.v.v.v.v.",
"2 2 @ 2 2 2 2 @ O 2 6 2 2 2 2 2 @ O 6 q 4 w q q L Y ' ' | | | ] K | Y.Y.Y.{ !.L ;.|.|.P.iXB.A m n $.o.t x -.0.-.*.-.0.*.x %.;.;.;.;.=.;.v.v.b.b.=.M c.c.m.C.h.j.j.Z.#XwXqXqXqXlXlXlXkXkXlXzX%Xj.S.s.h.k.u.d.a.s.t.t.B M M V g g m m l k k - - l l 8 - 8 8 - * * = . Z N.M.S g z M M M M M M B B M h t.&.a.i.y.y.$XwXqX9Xu.g.p.a.a.a.a.B B B z z m - t y t t t t t 7 7 7 7 7 7 7 + O m.F 3 9 > 7 8 O X 2 3 6 2 w  .{ ' ] ] ] ] | ] | } } } { 6.w J 6.} 6.} 6.2.6.2.2.<./ ).B.V.B.A.P.2XeXAXCXd O , b Z o.-.-.n l vXAXg.l d.S.s.j C.h.s.m.s.s.j.#X$XtXkXkXkXkXkXzXkXkXkXwX$X#Xj.j.Z.<XK.h v m k - k g t x n n n Q n n o.o.n o.-.-.S v.D A.aXi.; 8 t b $.o.o.Z %.*.-.o.Z %.;.x o n S S S S %.&.&.S S *.l.x.;.> x D S S S S S N N D &.& l v.b.x.l.&.S S S S S S S S F x.l . x.L.G.G.l.N N S S S %.S S S n %.l % ;.%.x m n n x m x x p M - d VXDXsX,XM.-.;.$.$.n = n o.W n b i 8 = - = = = = = 8 = = = - 8 * 8 - * n K.h.h.m.B.;.>.*.%.*.;.*.N.x = -.#.O.U y y a y r X.a r   u p 3 7 a u u u u u u y u u u r 3 r u u w L 2 0 4 4 O X F.aX-X=XK.d.$ , >XI.a.D x.a.a.M n 8 u ,.U $.X.u e e w W * U I e 9 9 5 6 @ 6 O O F H.n.f.n.G x y w w P P 5 O O O O O O O O O O O . . o . . . o o . . t b t = - t t y t y t x Q v % b x b n b b b o.n % x %.=.>.=.z.z.z.x.x.b.b.b.n.b.N., x x.m.b.N.N.b.D c S $ % c F h h x O O O x c Z *.=.",
"2 @ @ 2 2 2 @ @ O 2 6 2 2 2 2 2 @ O 6 q 4 w q q L Y ' ' | | ' | Y | Y.Y.Y.{ !.L M.B.G.XXiXm.e.b o.$.b = t :.;.:.o.o.-.o.x %.-.;.;.;.;.>.v.v.b.B.=.M c.s.d.h.h.j.j.Z.&XqXqXqXkXxXxXxXkXkXlXxXzX&X$Xj.h.p.g.g.r.s.a.t.B B M M z l n c x l 8 - - , t - = = = = 7 7 * % Z v.=.N g z M M M M M B B B M j B x.i.s.y.u.tXqXqX#XS.h.p.s.a.a.a.t.B B M z z g t y t 8 t r t 7 7 7 7 7 7 7 + O m.F 3 9 > 7 8 O X 2 3 6 2 w } { ' ] ] ] ] ] ] | } { } } 6.p J Q.} 6.} 6.2.6.2.6.6.) N.N.V.B.B.P.2XeXAXCXd O , x y b b - = c ZXvXp.t.j.j.p.s.m.s.g.m.s.g.$X&XwXqXqXqXqXkXlXlXzXkXlXqX0X#XF.,X=X-XF.j %.k d l l k t x x x x m n x n n x n %.%.*.>.c A.SXj.. l = b o.Z y , x n x = = x *.x % o.%.n n n %.%.o.o.n Z n D =.> x N S Z n N S S S %.&.& g =.D B B D *.%.S S S S S S M l.l   B.L.=.M %.N &.%.S %.o.n n n n Z x = ;.%.x n Z n n x b b $.m * G GX4Xd.B.;.o.*.o.$.n = X.b b b b t = * - = = * = = = = * = = 8 * 8 8 = v oXP.P.P.B.M.M.M.M.;.0.-.>.= . t s s = + o o . .   o     @ 3 O #     O O O O     O O O O O         . $ o + * $   h J.m.c.a.c $ m L.b.N.*.M.M.*.%.;.b P ,.T O.O.I R R ! i 8 9 P H 7 7 # o o o o . O ;.B.B.N.%.U P t t y a t = . . $ o % o o % % $ . o o o . % * o o . , y , = , t t t t t t x x x % t = % o . = % . o . . & - l l > % % & < , , , c c l   . $ ; $ $ $ g $ $ c g & % g h g y   O @ =.=.*.n x ",
"2 @ @ @ 2 2 @ @ O 2 6 2 2 2 2 2 @ O 2 4 4 w q q H Y ' ' ] | ' | Y | Y.Y.Y.Y.!.L M.B.G.XXiXx.9.! A X.n n o.-.:.Q o.o.-.*.o.-.-.-.;.;.;.;.v.v.N.B.*.M c.s.C.Z.Z.=X=X=X&XqXqXqXkXxXxXxXlXlXxXlXlXzX9X&X$Xk.s.g.s.s.a.t.B B B M z m o.n x t y x y t v 8 = = = = 7 8 t . x N.N.S g B M M M M B B B B B t.t.i.i.c.u.&XqXqXwXu.S.g.y.c.a.a.a.a.D B M z c g t b v i y t i t 9 9 r 9 7 7 + O m.F 6 9 > 7 8 @ @ 2 3 3 2 w } | ' ] ] ] ] ] ] | } | } } 6.p J 6.}  .} 6.2.6.2.6.2./ ).B.V.B.B.P.2XeXAXCXd + $ $ . o = . . l h.p.k M h.c.G &.d.s.h.h.g.#X9XtXqXqXqXqXkXlXlXlXlXlXlXwXkX*Xj.=Xj.%X=Xj %.M h l k - 8 x b n x x n n Q n n %.;.%.9.>.-.c.AXF.O 8 x x Z o.Z n o.*.o.x t Z ;.x % n o.n Z Z o.o.o.o.%.$.o.%.z., y B %.%.o.Z %.%.%.%.=., t *.&.&.n.v.&.&.D N D &.&.&.S l.x   b.b.Z N %.%.;.c - m n n o.o.o.o.y = ;.%.n o.o.o.o.o.Z o.A x O F GXd.x ).*.c o.o.*.n % o.a b W b i 7 7 8 - * * = = * = = = = = * 9 8 + = =.D j B c l c g b , r = =   O O             .     O + 3 r u u R p p u U U u # O 0 u u u u s r 3 2 . .     .   O     O O @ 2 1 6 . . = . + . . g h $   % % . . o $ % X X : X O   O O O           . $ d l.D g & 8 3 3 2 @ O O O       O @ @ @ . . . o o o % % % % % . % , , - - = t y x x x x x m b A b b x x o.o.-.;.;.n x , . . x , , x x x x x $   , n v.=.=.x.x $ D x.B.m.H.H.A.B.L..X|.* . x |.G.b.%.m ",
"@ @ @ @ 2 2 @ @ O 2 2 2 2 2 2 2 @ O 2 4 4 w q q H Y ' ' ] | ' | Y | { Y.Y.Y.Q.L M.B.G.XXiXB e.O.X.A A o.$.o.o.o.$.o.-.#.$.-.-.$.*.-.;.=.=.z.v.v.%.F m.s.C.K.K.=X-X-X&XqXkXkXlXxXmXxXxXlXzXlXlXxXlXwXhX&Xg.s.C.g.t.t.B B B V z n $.Z x x x A b a x t 8 = = = 7 7 t . - =.v.&.z z M M M M B B B B x.t.a.i.p.u.$XkXkXkX&Xu.S.g.g.c.s.a.a.a.F B M z z - t y t t y t t 7 7 7 7 7 7 7 + O m.F 6 9 > 7 8 @ @ 3 3 3 @ w } | ' ] ] ] ] ] { [ } | } } Q.H H 6.}  .} 6.} 7.2.Q.6.) ).N.V.B.B.P.2XeXZXCXd + % , = % t x x z = l ! j g.c.S :.d.d.m.s.k.&XtXwXkXkXqXkXlXlXlXxXxXxXkXqXkXkX$X#X=X-XF.j B B z 8 k g t x x x x x b x n x x o.%.%.o.#.#.c.AXK.O y n x x b +.$.$.o.#.n b Z -.b o b n n Z o.$.*.*.-.N o.A %.z., , N Z %.Z Z Z Z S S *.- > $.S N *.%.S S N N S S %.S n Q i   B.B.o.:.n %.M.c - o.*.-.Q o.n o.t . -.n n n o.o.o.o.Q o.b o.  a.FXZ.a.V.;.n *.*.-.n = A a a W a i 7 - 8 8 * * 7 * * 7 t t = 8 9 9 8 * *   % & h <         . + r 0 r a r u y u s r = +   U 1.#.3.O.O.O.,.X.) T O.O.U r O U U p p p p p r 2 j j h h j m a s.r.a.a.F F > 2 Q.Q.!.Q.T.| !.2 O | Y.W.W.Y.R.W.W.Y.{ ( 1 ^.W.W.W.W.W.` K K K H 2 O   O     O   3 # 3 3 6 3 # # o + # # # + $ $ = o o % % & % $ & $ % , , , , - t x x x c n x o.t x b b x b $.o.b n %.%.%.;.x b B.b.b.B.B.B.B.B.l.% S B.B.N.b.B.v.M G.m.L.m.m.m.m.C.m.m.=.    % B.B.b.l.l.",
"@ @ @ @ @ @ @ @ O @ 6 2 2 2 2 2 @ O 2 4 4 w 5 q L Y ' ' ' | ' { Y ' { { Y.{ Q.4 M.B.G.XXiXh s W X.X.b X.X.X.o.#.$.X.#.#.o.-.o.o.o.-.-.*.=.>.=.S c F m.s.C.Z.j.=X-X%X&XwXkXkXlXxXmXxXmXxXxXxXxXlXxXkXwXtX&Xk.s.s.t.t.B B B M z z Z n x x x x x b x 8 - - = = = = - % , , g z z z M M M M B B B B a.B i.t.g.#X0XkXkXwX#Xu.k.k.S.t.s.a.a.a.B B M z z - = t 8 8 7 = 7 = + 3 3 3 # 7 * O m.F 3 9 > 7 8 O @ 3 3 3 @ e } | ' ] ] ] ] ] | [ } | } } Q.P H 6.{  . .6.2.7.2.6.6.) ).N.V.B.B.P.2X3XZXCXd + x b n A o.-.;.S n.s.Z.6XeXp.r.u.g.d.m.s.#X9XtXqXzXkXkXkXlXxXxXxXxXxXlXkXqXkX&X#Xj.%XF.a.M j k v l g t x b b x x x x n x b %.*.%.;.5.C i.AXZ.O x b t t i b W W W X.W b Z -.x = o.o.Z Z Z n x x n N o.A N z.t t %.n Z o.Z n n n n =.- , Z n x m b Z A A A A Z Z A -.n r   b.b.x Q %.%.M.n t o.n n o.Q n $.b % ;.%.b b b b b b b x c x   b.GXV.] 6.n x n n o.n = X.a a a a i 7 * = 8 * = 7 = = t W U p W i 9 8 - & A.P.:XP.B.l m . g M.:.4.1.8.O.O.3.1.#.@.O.U 3   ~.~.3.7.) U U U U U U T ! T r O U U p u u p u r d eXcX6XeXZX5XK.SXeXsX6XfXsXf.s IXPXLXLXLXLXLX[.].PXPXPXPXPXPXPXPXPXPXJXW.JXPXPXPXJXJXJXJXJXJXJXW.(.].].(.].W.` ].].].].].].].].(.].].].].(.E.E.b = . % < & & & - % & , g g l g t x c x n n x %.x x n o.x x *.n %.S %.&.&.M., , b.x.l.b.b.b.b.m.B.. S b.c.n.b.A.a.B L.c.c.m.m.c.a.L.m.F o 0 : s b.b.n.b.b.",
"@ @ @ @ 2 @ @ @ O @ 2 2 2 6 2 2 @ O 2 4 4 w 5 q L Y ' ' ' | ' { K ' { { Y.{ Q.4 M.B.G.L.dXh : u a X.O.O.O.O.O.O.$.X.#.#.$.#.$.$.-.;.;.;.v.M.=.l & M m.s.C.Z.Z.-X-X&X&XrXqXlXzXlXxXmXmXBXmXxXlXxXlXxXwXwXrX#Xr.M.t.t.B B M V z z m x l g - - - t - = * = 8 = 7 7 . = ;.N.;.z d M h h h j j j j B B r.r.D.D.*XlXqXkX9X#Xj.u.u.y.i.s.a.a.a.t.B z h c g t y 8 7 = # = * + # 3 7 7 7 * O m.F 3 9 > 9 8 O @ 3 3 3 @ e } ' ' ' ] ] ] ] | [ } { } } /.P H 6.{ }  .6.2.7.2.6.6._ ).N.V.B.B.P.,X3XZXcXd # x , x A x x Z S %.x.r.%X=Xd a.=Xg.C.m.g.$X9XtXkXqXkXlXlXxXxXxXxXmXxXlXkXkXqXkX-X=X-X=Xa.g M z 8 k - 8 t b b x x x x x x x %.%.Z S :.C d.ZXS.@ $ = 7 8 t 7 7 i +.U X.n n o.x % b b x x x b x x x N $.A n &.= > o.b Z %.S n n Z Z &.& - Z n m o.Q n n n n n n n n b m y . a.l.y %.S c *.x t $.n o.:.Q b o.x . o.x b b v v b b b v v A   d.AXS.b.i.;.&.;.*.$.n % b a a y p i 7 = 8 8 * = 7 = = i $.X.U X.a = = & - >X<X=XJ.B.x U O N OX0.+.#.3.U 1.O.) / O.1.@.u O ~.~.T ,.I U ) T U T T T T T 7   P I U U u u u 7 & CXeXCXeXeXp.J.ZX1X5X5XfXuXz ' LX6.@.@.<.7.q.% % H.@.] <.) ( | ! ) O.C s U 4 | ' L L ^ ^ ) U @ L Y.Y.` Y.Y.5 6 Y K L L L L 4 L 4 4 H H u 7 $ $ #.t o % , & & g - & d g g g z x t l c x c n x %.x x x n x x %.n Z n S &.S M., b b.z.l.n.v.n.n.b.B.. =.m.s.n.n.m.D B B.A.A.m.m.m.a.oXm.l.. a @ # B.b.z.b.b.",
"1 1 1 1 @ 2 2 2 O 1 2 2 2 2 3 3 O O 2 4 L L 4 L L ' ' ` | | ` ` K K Y.R.W.R.} L )._.A.:XpXg $ r.f r < h p Y A A a W W b a b b A X.-.b o.x o.$.> $ F m.d.C.K.j.=X-X%X3XwXkXlXzXlXlXxXmXMXNXNXxXxXxXxXkXwXqX0Xu.F a.t.t.B B M M z d g k g - - - k 8 8 7 = - = = = 7 . S G.b.D B B B B B B t.t.a.a.D.r.i.i.j.kXqXkXlXqXqXwXhXhX9X#Xt.c.y.y.a.a.B l c c l l x x t t t 8 7 7 7 7 3 # 7 O m.F 3 i > 8 7 @ @ 2 3 5 2 w { | | | | ' ' ' ' | { Y.{ } Q.Y H Q.} Q.} } } { ] !.8.O._.N.V.H._.S.<X1XZXCX& @ o . . % . . % $ $ O   .     j g.C.m.s.u.&X9XwXqXlXlXlXzXmXmXBXNXNXBXxXkXkXkXqX$Xj.S.F.G ~ h h g g - - x m m m m l c x c x n %.n Z -.8 s.ZXj.. r > = - t t t y t X.b a a i = # a l n b t Q b b b n m m %.o.t 7 W m n n n Q Q %.%.D % x n x S x +.b b b b x n n n Q Q - * m :.Q Q Q b i a +.b a a b b b b y t y Q b b b v v v v v z < 1 c.AXA.f.C.=.;.Z o.*.Q + W y a a i 8 = = 7 * * * = * + i #.U u W i 8 8 + v >X:XK.J.b.- X.# M oX:./ #.3.@.+.O.O.O.O.O.O.p O '.<.I O.T u T T O.T I T T U r + p I u p r u p 3 g eXeXeXeXeX0 F.vXsXm.L.sX,Xl _ UX@.9.#.w.9.0.r r ~.#.4.O.1.O.#.#.#.O.X.X.U O R P I ) I P U u @ 2 ] P 0 u r   . = + 3 @ @ 7 # = = = = = % & & & & & & & - d d d d , u % g c $ h u.% s ~ N y Z n x x n x x n o.%.n S S *.S ;.x y n.l.l.z.z.l.n.b.A.. z.c.b.n.c.B.F F m.m.m.C.m.s.s.I.G.S   p + = B.b.n.b.n.",
"@ 1 @ @ @ @ @ @ @ @ 2 2 2 2 3 3 X X @ 3 5 4 4 q q J Y Y ' ] ' { ) Y ' Y.Y.!.] 3 0.H.H.OXpXB F.GXVXo O 8 O 4 .                 . #     = $ t .   = F a.a.d.K.K.<X-X;X3XwXkXlXxXxXxXbXmXNXNXHXFXlXlXxXlXwXqXwX#Xa.s.t.t.B B B M z l l l x l - - k 8 8 8 8 = = 8 8 = . c N.n.B B B B B B B t.a.a.a.a.s.s.y.#XkXzXkXzXkXkXkXqXwXqXwX#Xc.c.p.t.a.B M c c l l l l t t t = = 7 7 7 7 7 7 O m.F 3 i , 8 = @ @ 2 3 6 2 q | ] ] ] ] ] ] ] [ [ { } } 2.2.q H 2.[ 6.2.Q.6.7.!.7._ U )._.N.H.|.P.<X3XvXCXh   o . . % % % = o $ + - d ; o < f r.t.s.u.&X9XwXkXlXlXxX0XmXBXNXHXHXNXxXlXkXqXkXnX*Xp.r.j k B z l l k k x x x l x x x x x x x o.x :.+.r i.CXp.O ! t > t t t t y t = = + = = . . = = r r r v v x Q x x x x x = = y x x x x x x x l , . 7 n o.%.n b ! ! ! ! b v v v b n t = Q :.o.*.b o.o.b b b n o.x v b b y 8 t b i y y y v v v x ! s O r.FXC.m.c.S v.%.x x b = b b A b a t = = * = * = 8 * * 9 W O.U +.i 8 8 . i >XK.K.P.B., b + c oX#.@.4.T / +.O.X.O.U O.O.p O 2.<.) T P p U u u p U T O.X.r   0 I p U u u p # h cXeXeXeXeX0 F.ZXs.d h uXaXk _ +XO.9.-.>.-.0.t a w.1.4.1.@.@.#.#.O.O.X.X.U O R _ _ _ T U U p # w 2.I p u u + + 7 7 3 u u 7 # = = = = = - - - - - - g g g g d d k & d V h + f &X-Xo C ~ l A S &.x n n x x c n Q %.%.%.=.D z.c t n.l.&.l.l.l.l.n.A.. =.c.b.n.n.B.D D m.m.m.m.m.x.a.I.m.S + p + % B.b.n.b.b.",
"O O O O O O O O O @ @ @ @ @ @ @     O X @ O O @ 3 3 3 p P p P Y p w w K ( Y u + & l z S V.k t.4XVXC I b U O.= R #.#.#.#.$.$.#.#.o.. b M.;.M.= .   & j f t.C.Z.=X-X;X3XwXkXlXxXmXmXxXnXHXHXHXHXxXlXxXlXwXwXqX&Xt.s.a.t.B B B M z l l c n c l 8 - t t 8 8 8 = = = - % l H.b.j B B B B B t.t.a.a.a.i.s.S.u.&XkXrXkXkXkXkXzXkXwXwXqXhXy.b.g.i.x.M F c c l l l l t 8 t = # 7 7 7 7 7 * O m.F 3 9 > 8 = O @ 2 3 6 O 4 H H H P I I I I T Y I _ Y T T 2 2 I w I I ( I I H 4 4 0 4.5.M.;.N.x.~ V j.J.. 7 % = = % , y t o = g k V V c A D r.r.s.j.&XtXqXkXlXxXNXwXMXNXHXGXHXNXxXlXzXqXkXxXxX&Xt.&.g %.k d g - - t x v l l t x t x x x *.n , o.5 # h % P & % % = % . % % . . o o o = = % =   O X o o . .           X                       . # r p t = t =       O X X O O   X     X X X X t y t = . . . . % % . % . . . . . . . . . $ . . O X   ; %XK.c.A.n n c x x n % % r r t 8 = * * * = * * 7 7 * 7 t i r b 8 = = % b >X>XK.J.b.- o.= & OXW / 4.,.e.1.#.O.O.O.O.X.u   / 7.1.O.) ! O.O./ ) T T U u #   3 u u u u r r   M cXeXeXeXfX3 F.CXd h & I.pX. 8.+X@.9.-.>.0.w.r X.q.1.#.8.X.#.O.O.O.O.O.O.X.O U _ I U U U U u # H 2.I p u u + # 9 u 3 3 3 7 7 = 7 7 = - - - - g g g g g h h h h l f f V d f &XzX:X. a N z A Z &.x x n n b n o.%.N Z Z S D l.x > n.l.&.&.l.l.l.n.A.  *.c.n.f.n.b.D D B.m.m.m.m.n.i.oXn.S > u + % B.b.n.b.n.",
"O O O O O O O O O O O O O O O @     O O O O O O O O O O O O 2 4 O 2 2 2 2 O O = : 6 i < h r.N   $ L / h $.O.> A 1.1.#.#.#.#.-.-.0.= b ;.-.0., = 7 x a.s.C.P.=X=X-X;X3XwXkXxXmXmXBXlX&XHXHXHXHXzXlXlXlXwXwXqX9Xt.c.a.t.B B B M z l l c n c l 8 - t t 8 8 8 = = = - % , H.H.j j B B B B t.t.a.a.a.f.p.c.u.&XqXqXlXkXkXkXzXzXwXwXwXhXy.x.g.s.x.B M c c c l l l t 8 x = # 7 7 7 7 9 * O m.a.3 i > 8 7 O @ 4 3 6 1 e J w w w w w w w 4 5 w q O O w 3 3 I w w q w 2 O ( Y ) _ T 9 8 = l g W v.I.F   & - , , = x n , . o d & V t.a.B x.s.s.h.$X&XtXqXkXxXmXNX0XbXHXFX$XHXBXxXlXlXqXqXvXwXzXs.~ c m d k l l t t x b m m x x t x t - t % & & . l d   @ h y y y t t t t = % t y t x b x x b y o   $ c S S N S N N &.l.l.l.&.D D D l.l.D B = # #   . $ & % j j j B B F F F B &.B B B N M N .     = x %.%.%.%.n n Z n c x x b y t x x m x l y < t 9 j pXA.n.;.x x x x , . . # # = = = = = 7 7 * * * 7 7 * = # # = * * = = x I.K.K.J.m.- o.t $ OX9.C +.,./ W U U X.O.O.X.r   O u 3 3 r 3 r u r 0 3 3 3 3 0 # O @ @ @ O O @   G cXeXeXeXeX3 K.DXZ.j i.yXI.v e.+X@.w.9.-.0.w.# X.q.3.#.4.O.1.@.<.O.X.O.O.X.O U _ I U U U p r # w ,.u u u r + + 9 3 7 # 3 9 7 8 7 = = - - - g g g g h h h h j j h r.r.& V &XkX3Xf & y n D x S N t x n b x n o.o.%.S S D D z.c , v.l.&.&.l.l.l.n.A.o *.B.n.n.m.b.S F m.m.m.m.m.x.s.oXa.S t r O = B.b.n.b.n.",
"@ @ + + + @ O O @ @ @ @ @ @ @ # 3 2 3 3 5 5 5 w H H P w 4 Y 2.] ) } } { ( 1 ! w.>.V.`.`.:X6XZXCXt.5 _ c o.X.x s #.#.#.#.#.#.$.$.0.t , 0.;.%.x c x z a.s.h.Z.j.#X-X-X3XwXzXxXmXBXBXzXu.NXHXHXHXzXlXlXkXqXwXqX9XD.a.a.a.D B B M V l x c n x t 8 - t t 8 8 = = = = = = $ =.n.h j B B B B t.t.t.s.s.p.k.k.k.&XlXkXkXkXkXlXlXkXqXqXwXg.C.p.p.a.a.a.S c c c l l l t 8 x 8 # 7 7 7 7 7 + O m.a.3 9 > 8 8 @ @ 2 3 3 2 P  .} } } 2.2.} } ] } 2.} H H 6.!.Q.!.!.!.Q.!.( I !.!.~.~.!.7.).|.M.b.P.fXSX;X% t - - t , b b % . B k.& l t.D r.D.a.a.g.$X&XtXqXkXxXmXHXeXbXNXMX#XjXBXxXlXkXqXqXvXhXxX%Xd M h h m l l - - t t 8 - t , - y t - - . 3 M a.K.DXn.O v o.o.:.*.*.-.*.b % b Z x n o.o.o.*.o.r . l b.B.N.b.B.b.x.B.B.c.c.B.B.b.b.B.B.B.B.b     . =.G.G.B.B.B.A.L.A.A.B.B.B.B.B.B.B.b.b.x.*.t % *.*.;.%.N o.o.o.%.%.o.n n n b x x n n x x , & t - B d.b.F %.x c x = , b -.v v v i t t t t t 8 * * = 7 = $ r 7 = * = = * 8 pXP.h.J.B.& b b . G.}.@.+.3.C :.O.O.O.O.X.U #   O # O @ 3 # @ O @ 3 0 u u p p y p p u u r s y + a.cXeX7XeXeX# <XcX5XaXaXsX>X* @X+X#.w.0.-.9.9.# O.w.1.1.O.O.1.O.,.) U X.O.X.O p ) T ) ) p u r # 0 O.u u u u # + a O r i i i + a - - - - - g g g h h h j j j j j j r.r.; #XzXwXf ; z Z c D c %.N x n n b x c n n %.Z Z S B =.l = l.=.&.&.&.l.l.l.m.o S c.a.a.m.b.F F m.m.m.m.m.s.s.oXa.F t O   > B.b.b.b.v.",
"# # # # # # @ @ 3 @ @ 3 @ @ @ 3 5 5 5 q w H H J K K ( J q ' Q.| } } } { ' 2 4.).N._.).M.B.S.3XbX8X. ' ! R X.= P #.#.#.#.#.#.#.#.-.t . >.>.t l n n M a.s.g.Z.#X-X-X-X&XwXwXxXBXNXMXxXu.mXNXHXNX0XlXkXqXqXwXqX9XD.a.a.a.B B B M M m x c x x t 8 8 t 8 8 8 = = = = = t $ & M M B B B B B t.t.t.s.s.p.k.g.g.j.kXkXkXzXzXxXxXkXqXtX$Xy.C.k.p.x.a.t.S c c c x x l t t n t # 7 7 7 7 7 + O m.a.3 9 > 8 8 O @ 2 2 3 2 I | ` | | | | | | } } } } K K } T.} T.Y.T.Y.Q.K H '.6.6.6.6.<.0.N._.V.A.3XZX=X@ 9 - = t t A x $ - S.tXG = j S a.x.a.a.p.%X&XtXwXkXlXmXMXu.bXNXNX&X8XmXxXlXkXqXqXnXhXxXnXf m h g m - l t t y v x l t t x o.*.-.-.b b B.m.k.CXK.  y Q Q Q m Q :.$.y o x Z x x n n Z x n x . S l.D d y A y y x Z x x x x x x x A A Z >.% = $ z.b.M N b b b n b b a a A x x x A A x y Z % . *.Z Z x n n n n n n n x x n x x x x x x t R A . U.>Xd & l l - x - y *.0.0.o.Q Q Q b b b v b v t = = 7 7 * i i 7 * = * . % m.P.K.C.c.; Q W   g U s W ,.s +.O.W U p r 3 +   r O.W p U X.p O U / O.X.U U p u u p u u u u s O a.eXeX6XeX6X+ ;XcX6X1X;X>XJ.8 9.+X$.9.0.0.w.e.  #.w.1.#.p u / / <.) U X.$.X.O p ) ) / U r 7 7 3 3 U r a u i 3 O u 3 t + * t = 8 8 8 - - - g g g h h j j j j r.r.j r.r.y.0XzX#X; B d D S M S Z N x b n n b n %.%.%.Z Z S S =.l > =.=.=.l.l.l.l.l.m.% n c.x.x.c.m.F B m.c.s.c.m.a.x.L.n.S t     y B.n.n.n.z.",
"@ @ @ @ @ @ O O 3 @ O 2 @ O O 3 4 2 2 4 q q w H K K ] ( q K Y.| } | ` ' ] 6 w.)._._.V.b.|.`.:XZX*X& ,.T ] #.t T 1.#.$.$.#.#.#.#.0.$.  , t = x *.Z g a.s.s.C.Z.=X-X-X3XrX9XxXBXNXMXxXy.nXNXHXMX&XlXkXwXqXqXqX9Xx.a.a.a.D B B M V z m c c x l - - t 8 8 8 8 8 8 = = t = & D a.B B B B t.t.a.s.s.s.g.g.k.j.u.9XkXlXlXxXmXmXxXqXtXhX#Xs.s.g.s.x.B M N n c x x x t t Z t # 7 9 7 7 7 + O m.a.3 9 > 8 8 O @ 2 3 1 2 I { { { | } } } { | | | [ K L { } } Y.T.T.} !.Y I ^.Q.Q.!.!.2.5.V.n.b.|.<XAXI.  h t = t a o.x . z k.rXi.8 a.D i.M s.c.s.=X3XtXwXzXxXmX*Xd nXBXMX&Xj.mXlXkXlXkXwX0X$XzXnXf V j z v c n *.*.*.-.-.:.*.-.-.-.;.0.0.n F b.B.P.6X=X  , Q b t 8 v :.o.t * y n b b n n n Z o.y   -.%.%.n n n c n %.%.S N n N %.%.%.%.%.&.n . o = v.D c S Q Q Q Q Q Q Q Q N n n N n N %.n o.- % -.n o.n o.n n n n n n b b n b y v x x v y 9 > . CXSX=Xm.c.Z x n , o.-.+.i b b b b b b ! ! ! ! i 7 = 7 8 * 9 8 7 * 7 * * * d m.P.C.c.g o.i + . O X 8 5 X + # + # # # 3 r > U O.W a p W p O U U I u u u U R u U u p u i i @ j eX7X7XeX6X+ 1X6X#XsX;XK.L.7 H.+X#.-.9.0.9.U   8.9.1.#.p @ ) <.6.) U W $.X.O p ) U p 3 @ # 7 # 3 u 3 i r u 3   3 s # = = = t = t , - - g g g g h j j j j r.r.r.r.i.y.u.wXqX#Xj D j a.S N N x M , l x l l c Z %.%.o.Z *.S =.x > S =.l.z.l.l.l.l.b.> x x.n.b.x.b.=.=.B.m.m.m.B.b.z n.l.=.t     n B.x.l.n.=.",
"@ @ @ @ @ @ O O 4 2 1 2 2 O 2 3 q 4 2 0 4 4 q w L H ( ( q L | | | ' | { ) 6 N.N.w.w.).B.B.A.1XrXgXd 0 y / U A : 1.#.$.$.#.#.#.#.$.-..   . t x c o.l D c.c.c.h.j.#X-X3X0X&XxXBXMXxXlXf nXNXNXMXk.lXkXwXqXqXwX9XB a.a.a.D B B M V m m c c x t - - t t 8 8 8 8 8 8 = - - %.B.b.j B B B a.a.a.s.s.g.p.g.&XkX9XqXlXzXlXmXNXNXmXkXqXqXtXg.x.p.p.x.B B N n c x x x l t Z t # 7 9 7 7 9 + O m.a.3 9 > 9 7 O @ 3 3 1 O P | ' ] ] ] ] ] ] ' [ [ <.H q { 6.} } } } 2.7.I I !.Q.Q.Q.!.] 4.B.B.V.`.-XAXI.O n x o r b $., . M k.zXj 8 s.B y.x.c.s.i.j.&XtXtXqXxXxX&X9 %XmXbX9Xk.xXzXzXlXkX9X3XhXbXbXf ~ h v - n %.-.-.*.:.:.o.o.*.o.Z o.-.-.t a.M.).m.6X>X. ! o.v 8 $ - Q o.t = i b a b W b b b A y   0.b b n Q Q x x n n l x x x Q Q Q Q o.*.Z +   7 N.c c o.Z A A A Z Z Z Z o.n n o.x m n n o.= . $.b $.n b n W Q n n n n n b a i i b b v t v o 8 vXeXg.h.Z.*.c Z x *.o.W Q b b b b b b v v v b a 7 # 7 8 * 7 i 7 7 7 * = = I.I.K.C.m.& b W p c U C v 9 C ! a a U U p a X.a #.U u U p a U # U U U U U U U P u a u u r u u O B cXeXeXrXeX= 5X4Xp.aX>XJ.B.9 e.}.#.w.0.O.s X   q.1.9.1.O.O @.~.6.) U W $.X.O I ) U 0 O   # r 3 r p 3 i u u 3   0 #   0.M.. t t t , , - g g d g j j j j r.r.r.r.y.u.y.k.wXqX9XV G C.B c l.- , M , t , - % & - , t t l x g c o   z N S &.S S D D M     k N S z N . . l d d h h d . c =.=.t O   o.B.n.n.b.z.",
"@ @ @ @ # @ O # 3 2 2 6 2 O 1 3 5 5 5 5 q q q q H J K ' L Y ' ' ( | ' | I 3 M.).~.5.M.b.B.S.-XvXZX. Y p r m 1.: @.#.A o.-.#.#.o.$.0.    o > x Z n N a.a.C.S.S.S.h.j.-XzX9X0XBXwXlXnXy.nXMXMXnXy.zXrXwXwXwXwX%Xy.s.G G B D.~ z V x x c m l l 8 8 - - = = - 8 8 = = - - z.B.B j t.F B a.i.i.s.s.g.u.&XzXqXkXkXzXxXNXHXHXHXNXmXqXqXqXwX#XS s.a.F M M c x l t x x t 7 # # = 7 7 7 7 * L s.a.5 l 8 * > @ 4 2 2 3 O I | | { { | ] ] ] | | { Q.I 0 } Y.Q.2.<.] T.Q.I U !.6./.!.!.<.o.B.M.N.B.<XZX=X  U b . x a / 7 ; t.#XvXi.% c.D F F y.m.F h.2X9X9XwXlXbXF.g %XlXxX*Xu.bXqXkXqXkX9X$XhXvXnXd m k g & *.>.n b n x x o.o.+.o.X.$.>.*., z.x g %.5X5X. x b b t - l $.o.= = t i t a W W W b n y . -.Z n Z b b b n n n x x b n n Z Z n Z o.x . o . ;.S x Z n n x x n o.Z b n n n n n n n Q n , . *.n n b o.A A b b b b b b b a i i a a a i h - 2 cXeXV.A.i.%.%.o.o.o.+.n m W b b b b b v v b n b 8 = = 7 = 7 = = * 8 - . =.aXK.K.S.m.- v ! i :.! ! #.O.#.O.W O.X.U X.a a X.U W U u p U u @ U U U U U U u u u p a u u u r + a.vXeX7X,X=.O 6X6Xh.P.B.G.N.o O = , b a #   O 3 3.X.#.#.#.@ ) 6.2.<.q O.X.X.O r y # O   @ # 3 r r u 0 u u u 3 O u r . ;..X$ - r , - - l d d h D a.j B B r.i.y.p.p.u.g.u.wXqXqX&Xr.s.C.y.p., ~ a.D c c n n c g g , , . % g g x x y =   o & $ $ % % & & $ %   . c h h h h h h h h $ % l.o.@   X y %.n n n x ",
"@ @ @ @ # @ O # 6 1 2 6 2 O O 3 5 5 4 4 q q q q H J K ' L Y ' ' ' { | } ) 3 N.).V.V.V.V.B.`.-XvXvX& U / O.m U   U #.$.#.-.#.#.#.*.-.  O o . % $ v m c F j d.h.h.:Xj =XrXtX$XbX9XzXnXy.nXxXmXjXd kXqXwXwXqXwXk.%.D.&.S B t.j j B x x x l l - 8 - - - = = - 8 8 = = 8 & z.B.B B B a.B r.i.i.s.p.g.#XzXqXwXzXlXxXmXHXHXHXHXHXNXlXkXqXwX0Xp.c.a.x.B c g g g - - , = # # # = 7 = # # . O m.l.q # e w = @ 4 2 3 3 O I | ' ' ' ] ' ] ] } Y.` } p 2 Q.R.Y.} 6.{ T.T.J w '.Y.} Q.!.<.-.V.b.B.|.K.CXF.  Q y . n o./ = ; r.#XvXi.% a.D F F c.F m.s.#XeX9XwXzXzX#Xt.$XzXlX&Xy.kXqXqXqXzX$X3X$XzXjXd M m h ; -.0.x x o.n x n o.+.$.o.Z *.$.x x.*.s y ,XaX  y n Q x t b *.n = 7 a a t a b b b n o.y . $.n x x x x x x x b x x b n n n n n n Z b o X   *.n x Z b n n n n Z n x n n n n n n n n b = . *.n o.b b n n b b n n n n ! b i i v v t t u u O CX*XV V.v.%.Z n b b W n m b b b b v v v v b b i 7 * = = * 7 = = * * = . =.uXK.J.C.b.% s W a #.+.! X.W U W U X.W W U p p X.u U U p p U u + U T U u u R U p r u u u u r r # 7 f.>   $   O fXCXK.C.b.m.m.=.t -.A A #.#.O.O.O.U u O.X.X.@ [ !.[ <.I O.O.p O 3 @ O O O # # @ + u u u r 3 3 # @ @ s # . g $ - = - - & g g d h F r.j r.t.r.p.g.y.k.u.u.p.&XrXkXkX0Xk.c.S.s.h S a.D h c Z S &.S S S %.t n v.z.b.v.;.%., ;.b.x.N.N.b.b.B.b.H.S D L.G.G.L.L.L.G.G.G.=.x D o.0 +   . l , , l , ",
"@ @ @ @ # @ O + 2 1 1 2 2 O O 2 4 4 4 4 q q q q H H L ( L Y ' ' ( ' ` ' I 3 N.).z.B.B.V._.`.,XZXvXg a _ ] ! ,.C 0 p > y W W X.O.o.b   O     o = % % & x c z M a.=XG k.9XzX#X&XtXzX*XV zXzXzX*XO wXqXtX9XqX9Xi.l.s.a.&.B j D ~ k l l l l 8 8 - - 8 - = = 8 8 8 = = - - v.B.B B B a.a.a.i.i.s.p.g.&XxXwXwXzXxXMXNXHXHXHXGXHXNXxXkXqXwXzX&XD.a.a.N S M n n x x x - # = 7 8 7 7 = = 0 X d.i.d d 9 6 # O 4 2 2 @ O P } ' ' ' { { { { | | K } I 4 } { Y.T. .{ T.T.( I Q.Y././.!.O.5.B.b.x.G.K.ZXK.  l y % x a @.r ; t.#XvXi.% t.t.D F a.B a.s.p.&X9XtXzXnXk.m.%XqXqX&XG qXqXtXwXrXp.#X&XxXF.; j k h 9 -.0.o.b n x x x X.o.o.Z n $.o.x z.4.A >.yXZ.  y n o.Q x Q :.b + = i a t a b a b a n t . $.o.o.n x x x x n n n n n n n n n n o.*.y + @   o.%.n Z x b n b x x b x c c c c c c m m o.= . o.b n n a x x b x v v t t x t 8 t x v x t 8 g . 4XDXc.c.=.*.%.o.n Q Q n m W ! b b b b v v b b i 7 7 8 8 7 = = = * * * . *.=XJ.J.C.c.% y W r a X.W X.X.U O.U U W W p i U W X.U p p U U r @ u U U p u U U u 0 r u u u r r r . d i.=XfXx.  2Xj j N.|.N.v.H.).9.A a #.9.9.4.1.O.O.#.X.u O _ 7.<.<.) O.X.u @ u @ @ 3 r u r 3 3 # 3 u u r 7 3 # 3 r r . & l = t = , - - g g h j j j t.y.p.g.g.g.k.u.u.u.&XqXqXkXlX$Xg.h.h.a.G D D h c Z %.S S S S S - n z.x.z.=.l.D g n.b.b.m.B.B.m.m.B.G.F F L.m.c.m.m.m.m.m.m.N.Z x.*.7 .   = b.v.v.v.;.",
"@ @ @ @ # @ O @ 2 2 2 2 2 O 1 2 4 4 4 4 4 q q q w H L Y L Y ' ' ] | | ' I 5 w.~.0.N.M.M._.A.-XrXvX& y / | O.<.@.8./   + u r 7 + r = # a a t r   % .   6 :.d j C.Z.O.p.9XzX*Xk.9XkX8Xd wXqXqXqXg &XqX9X9XwXu.~ D.f j ~ ~ j h n h l x x x l 8 8 8 8 - = = 8 8 8 8 = = - M.B.B B B a.a.a.a.a.s.s.g.0XlX9XqXlXxXNXHXHXHXHXrXvXNXmXzXqXqXqXtX&.s.t.&.N M N n m x x - = 8 t t 8 8 7 7 O u M M 7 9 R 9 # @ q 4 3 3 O I ' ' ' ' ' ' ' ' | | { 6.( w ]  .Y.} } {  .} ( u !.!.^.!./.U 0.B.H.b.A.-XZX=X. Z t , - r 9.t $ a.%XvXt.% t.t.F B D x.a.m.s.k.&X9XzX0Xr.F %XqXqX$Xk wXtXtXwX&Xf u.&XnXr.k h k z 9 o.0.-.o.x x x n o.X.Q Z o.-.o.= A N.b..Xl.; X m b b n b b Q t . r a a a a b a a y A t   b n x t x x x x b x x x x x x x x n n o.# O @   b Q c x x x x x x x n n b b n n n n n n b o o o.x b b t y y b b b n n b n b y y v v t = % g 7 h OXV.r.l.c x x n W W b m b b b v b b v v 7 8 7 = * * = * = 7 * 7 * = $ %.:XZ.C.C.c.& x m y s W a W X.i W X.U X.X.a a X.X.X.r + 3 p p 3 O u p p p p p u 3 + # r u s r = = O J.AXZXvXd o sXh . 0.}.N.b.*.M.e.A A #.#.$.$.#.O.O.#.X.r O _ 7.<.,.O.p U 3 u O.R U U W U U U U @ @ # 3 7 7 + + r @ # t x Q . = - x x l z z j j B j s.y.p.g.y.j.p.#X#Xu.$XwXkXqXkX3Xu.k.h.c.D.D D z c Z N N c A S S = c l.a.D S l.S d l.x.x.x.x.b.c.m.m.B.M B m.m.c.m.m.m.m.m.m.z.n c.%.+     n b.z.z.z.=.",
"@ @ @ @ # @ O @ 2 2 1 2 2 2 2 2 4 4 4 4 4 4 q w w q L ^ L Y ' ' ^ ` { } Y 3 #.1.0.5.V.z.B.S.-XrXZX& x ) | 1.) ) 8.p   O X.1.#.#.#.O.1.q.~.~.#.  % % % = - V f r.D.l r.$X&X%Xt.&XqXk.$ 9XtXhXtXc.f hXhX9X9Xy.~ p.F.U.j ~ &.c m j l m m m m l 8 - 8 - = = = 8 8 7 = = - M.N.B B B t.a.a.a.s.s.p.p.0XxX9XqXkXxXNXHXHXHXbXtXtXNXBXzXqXqXqXtXx.a.a.B B c c n x x l - = 8 t 8 7 8 7 7 k ; . O O O   . + O 4 2 2 @ O w ' ' ' ' ' ] ] ] ' ] [ ( 2 2 H 6.} } <.6.6.2.U + [ ( H q p = b c X.N B.iXgXyX@ y t = t X.1.= d t.%XvXj < t.D B B F B x.M S F p.$X9X$Xf f #XwXwX#Xk &X9X3XeX5XdXCX*Xh.k c h z k & t o.*.n x x o.o.$.o.n n n o.x % o W M c h j # - > r r - t t %   i b b a b a a a a X.t   y n n x b n b b b n b x n n Z Z Z n b x r # 0 + y m x b b b b b b n n n b b b b b b x x , o t -.o.o.b y a a b b b a a i r > = r t a t r P 3 6 X   * .   ; % = 8 t t t t t t t 8 t t 8 8 = t t 7 = * * * = = * 7 * = . x yXL.L.A.x., a Q b > a a W $.U W X.a U U u u U U 3 O O # u i 7 # 3 O O O @ @ @ # @ @ + # + + + + 1 k >XfXh.. f.SXB.& =.b.B.B.l.v.-.#.-.4.#.#.1.#.#.O.O.X.r O p <._ I U 3 3 O u O.U U U U u u u U W u # O # 7 7 7 3 3 + # = n = = - x c l z M M j B i.i.p.p.g.k.k.s.&X$X#X$X0XlXkXlX0Xu.Z.h.c.V.a.D h c Z S S n Z S Z % o.=.=.=.*.z.=.g b.b.b.x.n.z.b.b.x.N.N N m.m.n.n.b.b.b.m.m.z.c c.n + * X x n.l.l.z.=.",
"@ @ @ # # @ O @ 2 2 2 2 2 2 2 2 4 4 4 4 4 4 q w H H L ( L Y ' ' ' K | ' I 0 1.4.Q ~ D.x.c.S.3XgXsX> A ) ' #.[ <.!._ O 0 O.O.O.O.1.1.9.#.#.1.#.r 6 9 + g ; VXDXDXCXjXc # 9 d f 9XvX1Xl.k.%XsXeXi.m.7XZXvXbXDXGXFXDXDXI.9 v Q ~ c l m m m x 8 8 - 8 - = = 7 8 8 7 7 * 8 N.N.M B B B a.a.a.i.s.g.u.0XxXtXqXlXlXMXHXNXHXkXqXtXMXmXzXqXqXqX9Xt.a.x.B N M N n c c x 8 7 t t 8 7 8 7 = 4 . ;.F a.:.N ; + O 2 O @ @ O q ] ] ] ' ' ' ] [ | Y H q L L q q K I q w L K I @ O p e p W v x y U v 7 d i.Z O x b . b o.= . t.y.&XzXf , t.D B B F a.B.% X.4.m D.m.J.XX.XXX:XaXiX|.I.iX X X+XpXVXDXf k h k g l - = - - t t t x = t t t - = - t = g + , % :XaX    + o + o + # +   r y y y a a a W a b r   = t v b b b b b n n n b b b b b y t = # = + #   = v x n b a b n n b a y b b b b a y t y % . = y t t = r > > = = # o +         . # > > # @   f =X,XC.>.o.c x t t 8 8 8 t 8 8 8 8 8 8 7 = i b b b t 7 7 7 * * + 7 * = . & a.G c M g   0 7 = . . o + # # 3 3 + + + O O O O r u p U U U U U U r r U X.U U O.u 7 # O   # 3 # ; o   2   X < j .   O 7 8 7 U p x y b b b O.O.U #.X./ X.u O u / U p U r r # u U U U U U u u u u U 3 O O # 7 3 #   # O + . - = % % t l k z M j B t.a.r.g.y.g.;Xu.$X9X#Xk.u.0XlXqXlXwX#XS.Z.g.c.i.a.z c S %.S Z Z c Z o o.*.D S *.=.*., M.z.v.l.n.M.N.b.b.B.&.D B.b.b.b.m.m.b.B.m.l.c b.n + 7 X x n.=.=.=.&.",
"@ @ @ # # @ O O 2 2 2 2 2 2 2 O 4 4 4 4 4 4 w w w H L K 4 E ( ' | ' | ' H q 1.q.#.:.V.m.b.`.yXaXt.4 A O.' A / ] ) q   3 O.O.O.1.O.1.~.3.4.1.9.O.. % . g . I.pXI.pXI.j G F =.>.B.S..X+XL.J.OXB.m ;.s.f.G F f.n.p.. 7X4X9 o.h M d l l m l l 8 8 - 8 = = * 7 8 8 7 7 * t N.N.M B B B t.a.a.s.s.s.u.0XmX9XwXzXkXmXNXNXMXqXzX9XbXxXlXqXqXqX%Xr.n.a.t.N c c c l x t = 7 t t 8 8 8 7 + & 7XCXeXrXfXfX2Xr # w 4 e u 2 P H H J H H H w w } ] 2 H Q.Q.] O ] ] Y ' ' } !.[ O ~.~.'.).).w.'.w.}.}.M.F   O N a o t t . ; s.u.&XzXf , a.F j a.j x.l.$ i R t & K : t N 5.,.C t :.:.~.e.8.>.V.! DXI.8 g k d g t & = % - - = - o = = = = = - l , l.-.}.N.fXfX. 0     O + + o o O # = # # r r r y s p #     .   . # # # # = % % % + + + + o       .       . = = > r r r t t r r t % % % % % o . . % . % . % .   . $ % % = - , t t x t t - = = o . $ . j.&XZXk.F a.=.*.o.x i t t l t t t t t t 8 8 t t t t 7 * * * * * + 7 * * * = a.F F a.D A $.o.;.Z x b +   r p X.X.W W X.a r 7 O.#.#.O.X.W W W u u R ! O.T U U T U r @ # s u # p.5X;X:XXXh.s.N z h & . $   @ O . .                   O O O O O O O O O O O O O O O O O O O O O O O O O @ O O       O 3 + . . % % - - g z z M B t.i.r.g.g.k.3X$XwXwX#Xk.#XwXkXkXkXzX9Xk.j.j.s.a.a.z c S Z S n Z S %.= *.=.D S *.=.*.& M.l.n.l.v.z.l.x.x.N.c M b.n.n.n.b.b.b.b.b.=.x b.Z . * O n v.=.=.=.S ",
"@ @ @ # # @ O O 1 1 2 2 2 2 2 O 4 4 4 4 4 4 w w w q H K 4 J Y K L L ' K 4 O 2 6 : @ 8 % o r = $ ; ` C U 2.A _ ] 2.p   3 O.O.O.@.1.U U u O.1.1.X.% % o = i +   @ . 4 d 6   6 R C ( J P 9 a E J Q # L   L E . 9 L 6 jX8X$ $.g ~ ~ l l l l 8 8 8 8 8 = = * 7 8 8 7 7 * t N.N.M B B B a.a.a.s.s.g.u.0XmX9X0XvXqXmXmXBX0XkXkXtXzXlXkXqXwXzXs.s.=.D r.S N n c x x x = = 7 8 7 8 8 = . r.DXj $ $ O o h t # q 4 0 u 2 H H H I Y Y P 4 O K <.O P Q.} !.# ' } Q.!.R.R.^.] 5  X7.7.3.~.q.~.).V.|.iXiXc 2 ; + t = . n &.s.y.*XzXd , a.F M a.z =.v.x = 8 * > k y p d d p s 9 : 8.3.*.$.g :.4 4XDX. g ~ h h R - - - x x x Z n n x y x x Q n t >.>.V.V.7XeX.   o o o # # # # # + + O   O     +   + # r t t t y # + +   . . + + + + o # > r r r t = r t = = o o + + + +   . = y %.%.%.%.&.:.%.%.o.%.-.%.;.b   o =.=.;.;.=.;.%.%.%.%.%.%.%.%.%.n - O P.-X6Xc._ S S Z n b i t t t i t t t t t t 8 t 7 = = = = * = * 7 * 8 * * = 8 yXI.L.P.A.n.v.x.%.%.n o.= . #.~.O.$.X.O.#.W 7 3 #.O.p r r a p u p U U U P P U U T U u + # p r O m.AXrXeXaXCXZXfXfXsXVXsXsXyXI.oXOX|.|.}.N.-.9.4.$.#.X.O.X.X.O.u p 0 r u r u u p r 3 3 r u r 0 3 3 3 3 3 # @ # 3 u @ 0 r 7 v t y x x l z B B B a.y.y.s.p.g.k.#XrXqXtX9X9XrXzXzXlXkXqXkX&Xg.g.p.x.D h c Z S S Z Z S S $ %.=.l.D =.l.=., N.l.m.n.b.N.b.b.m.G.N B m.b.b.b.b.m.b.m.B.z., x.n @ +   n v.;.=.=.%.",
"O O       O O O     O O           O O O @ O O   O O O @ O       O O O @ @ @ @ @ @ . 0 o = O d ; U p / U U O.) ] O.e O # U $.$.O.q $ h h 3 X.&.X.Y   . $ g l v ,.z l x # O @ 7 O.,.O.O.O.O.O.O.+.i # u 0 u u U p X jXI.E v F g R x m m l 8 8 8 8 8 8 7 8 8 8 8 8 7 * t M.N.N M B B B B a.B D.c.r.%XMX0X9XzXwXvXxXxX9XqXkX9XkXlXkXqXzX-Xj x.c.s.~ N n n c x x x = r r 9 8 8 9 9   g.CX= O J r @ 5 3 3 q 0 q w w w J H H K ^ | 4   ' } X ( Y.2.Y.0 ( 2.{ } } } !.] 4 ~.q.7.q.q.q.w.~.}.|..XpX,   8 P t c m t.u.k.y.&XF.& k m c B c m &.n.g * 7 t = r > t t t y y = r $.4.#.X.O.O.# I.FXd - < d m ; - = t x b n v b v v 8 t y x x - M x.).V.6X;X  5 i b b n n b n n Z A o.o.Q Q =   t x o.o.o.Q o.o.O.a   c l.z.v.v.M.M.v.b.b.b.b.b.n.b.b.b.n.x.z.l.*.n , x b % , -.-.n n o.Q n o.o.b x b m n b = = v.S b n n x x b v v x v b b x x p . =XrXj.V.G &.%.o.b i ! Q v 8 v i i t t t t 8 7 8 8 8 7 7 7 7 * 7 8 7 * * $ x J.C.C.c.z.;.%.=.*.o.n o.= + q.O.X.X.W W O.U 7 # ,.W a u 5 P ) U U U U U U U p a I I p @ 7 r r + F.AXeX3Xp.s.4X=X1XuXm.F yXdXyXiX X X X X X'.'.'.'.~.~.~.~.!.!./.!.!./.Q.Q.Q.Q.Q.2.} 2.2.[ ] ] T T T Y E P P P E r r r t t 8 l l l l z z z M B a.D.i.s.k.g.#XwXwXqXqXqXkXkXkXzXlXkXqXkXwX9Xu.c.F B M Z % % = = % = . = t , t x , t = % = x x c x n %.*.$.>.x - -.x.x.b.x.c.B.m.B.=.N &.%.#     W b.=.v.;.n ",
"O O O @ @ @ @ @ O   @ @ O @ @       O O 2 3 2 e 0 u 0 u @ @ / @.,.] ) ] <.<.<.2.Y , ~.M._._.yXuX# @ # @ # 3 @ 2 @ O O 3 u r 3 # O 1XZXZXa.0 O._ Z 6 L 5 O R ! < T T P O O 3 r b U U U X.O.X.X.O.A t t o % = x t . VXi.- F d *.k l x l l 8 8 8 8 8 8 7 7 8 8 8 8 = * - -.;.c h j j B B j a.D.f f d *X0X#XvX9X9XxXkXhXqXwXhXqXkXwXwX-Xd f c.n $.G N n n c x x x = + 7 7 9 7 9 u O h.CX- + u = # 3 3 3 q 0 q w w w J w H K ^ | 4   ' } X K Y.2.Y.: ( 6.{ } } } !.] 4 ~.7.7.q.9.q.w.1.~.|..XoXg o 7 % % , p / y 7 3 y.; $ M j h j m l z S % + # # # r r i i i b a t # b #.1.4.9.9.a .XU.k 8 r m ; t & % - , t v t a t t = = = - t - i h #.X.M $ 2 o v b b n n n n n Z b X.Z o.Q 7 + y b o.n b b b b X.b . n &.S N n c c n n n n n n n n n n n n c x o.n t Z o.- - o.n t y b x b b b b x b v n b = = z.Z b b b x x b b v v v b v x x o   a.P.; A < m n b y r 8 8 7 t 7 7 8 8 8 8 8 8 i i 8 8 7 7 9 r 7 7 9 7 7 = % x J.C.C.B.N.*.%.=.*.o.n o.= + q.O.W O.! O.,.O.r # O.U p 3 P 3.,.U U I I U U U U u I T u O # r =   =XGX7Xh.p.g.%X%X=XJ.. % G.J.L.N.+ # p O.O.<.<.<.) ) ) ) ] [ [ 2.] ] ] ] } } ] ( ) ) ) T T I I I I I P P u u u u r r 7 7 8 8 l l l l m z z M B t.D.i.p.g.g.&XqXqXqXqXqXqXlXxXxXxXlXkXkXqXwX$Xg.a.B M S - x n %.Z x , % , % $ - & t , - - - - - & ; %     & $ $ %     o o o > < , & g z.c o #   + %.c %.S l ",
"@ @ @ @ @ @ @ @ @ O @ 3 # # # O @ 3 3 w Y ) ) [ ] [ ] [ ( O.}. XQ.} } } } Y.T.Q.' # ~.).V.V.<X2X# @ 3 3 7 u 3 e 3 O O @ u u 0 6 + eXzXbXs.4 ,.p ^ > . ; $ k v 8 P u P 3     # X.W X.X.X.X.W U U % . = % % % = . 9 i.&.v h / 2 k l l l l 8 8 8 8 8 7 * = 7 8 7 * 7 + . t l & h z j B B B x.t.y.;XcX&X&X$XvX9XhXwX0X&XtX9XhX9XvXvXk.r.j i.s.p.B G N c c c x x x = t i 8 = 7 t 7 O U.CX$ = 3 8 r 0 3 3 5 0 q w w w J w H K ^ | 4   ' } X K Y.2.Y.# ( 6.{ Y.} T.!.] 2 ~.7.7.q.9.4.q.N.w.N.XXoXh   O o # = % + O $ g.=Xh b l.F j r.M - % <   O O O O O O + + + = # +   # # r r r 7   . h k # 5 8 h = & % - = * = * = = = = * * = = * 5 %     .   2 = t i v b b b b b b i b b Q n =   b b n b y y y b a a % n %.n x x b b b b b n n n Q n b n o.o.o.n n n x o.o.- - o.y 8 t b b b b b b b x x b b = > ;.b y b x m x b x b b v y y x x % :   O + X o * $ . o = t 8 8 t 7 7 7 8 8 8 t t 7 7 7 7 7 7 9 i 7 + + * = * $ x J.C.d.B.z.n ;.=.*.o.n Z = + 4.O.U W U a W X.r   ! U p # O.~.U / U I U U U U I I P T p O = t r   5XAX%Xj.<X,X-X%X=Xd.; M P.A.XXB.% % y X.O.O.O.) ,.7.!.7.6.] ( [ ] ] ] [ <.[ P 2 ( _ _ U U U U p p u u u r 3 3 u 3 3 7 7 7 8 8 8 l l c z M M B t.t.i.p.u.j.wXqXqXqXqXqXzXmXmXmXmXxXkXkXqXkX9Xu.a.t.B S , n &.;.%.*.n l ;.%.;.;.M.;.v.M.M.M.M.v.M.v.v.Z & l.b.b.v.v.>.;.S c c g g c g &.m +     t n l n x . ",
"2 2 2 2 2 2 2 2 @ O @ 3 3 3 3 O 6 5 4 H ' | ' | ' ' ( ] ] 2.'.}.} } } } } } Y.Y.{ + ~.).M.V.;X6X7 7 I I U U u U p 3 O 2 I ) ) T % *XvXZXs.X o./ R %.%   2 @ & d t & - $ .     O + # + @ @ @ @ O O O @ O O O L L 9 & - i x ! a V t t t t 8 8 8 8 8 7 * * 7 7 * * * + t -.;.c M M j B B B a.f j.AX8X=X4X8XjXcXcX%X8XjX7X*X*X*XjXjX*XeXeXvXvX1Xr.:.N c n c x x x = . - 8 - = 8 t   I.fXo u 5 8 # 3 3 3 5 5 q q w w J w H K ^ | 4   Y } X K Y.2.Y.# ' Q.{ Y.Y.T.!.] 2 ~.q.7.q.9.4.q.0.9.H..XoX&   3 5 5 7 d d d y.eXFXi.c D.z.&.a.F - % &   O O O o + + O @ # 7 = = O +   # > + r y f.GXG.  x = $ 7 - = - % o = = 7 t t v b b x t t # $ h d.VX4X$ 4 t t i v i i i i v i i i m o.=   y b b y t y a b a a o n Z b b A X.X.A A A A W X.X.W b X.X.o.o.$.Z n t n n = - o.b t v n b b b b b b b l x b = r =.x t a b m x b v b b y y y v v a * $ f Z.P.9 t =.x , A *.Q y = v i i 8 8 8 t i 7 8 i i t 9 i u i 9 9 7 7 * . t C.C.m.m.S %.0.%.o.Z n n = + 1.O.$.$.U u U O.i + O.U p 3 ,.<.O ) _ T I I I I I I U U u   7 i r   VXAXrX3X1X-X-X=XK.j a.B.L.L.B.G.Z b A o.$.#.1.<.O.1.O.,.!.7.,.2.2.<.[ [ [ _ 0 O _ _ _ _ U U U p p u r u r + # s 7 7 7 7 7 8 8 8 l x c n M B B t.r.a.p.u.$XkXqXqXqXqXkXxXBXBXHXHXmXlXkXqXkXtXu.a.a.D N - N &.%.n %.n - M.;.=.&.z.=.=.v.v.n.n.v.v.n.N.>.g b.B.b.b.m.c.B.m.B.A.A.`.N.g %.n =     0.M.;.M.-., ",
"2 2 2 2 @ @ @ @ @ O 2 6 6 3 3 O 1 2 4 L ' ' ^ ^ ` ' K ' ' ' 2.]  .} }  .Q.} Y.Q.(   9.).q.w.,XfX= # p w 5 3 @ 3 0 w p P P I I Y . *XvXZXs.O v r x 9 # o y O 1 q # 7 i #   + O O     O O O 2 3 2 K ' { Y.E.].JXJX!.oXb.v m ; h d 8 8 8 8 8 8 8 8 8 7 * * = * * * * . x N.N.S N B h D B M B f %XcX6 6 O 3 2 X : 1 ~ M.3.9 6 ! + ! O.@ # *X&XM z.k n n c x x b y = x M.N.;.t = r   K.7X  0 H u r 5 3 3 5 q q e w w J w w K K | 4   Y { X ^ Y.2.Y.# ( } { Y.} T.!.] 1 ~.~.q.~.q.q.q.5.~.}.B.iXz O 5 % o o & > 0 d %XAXj m t.x.B a.:.t l c . O O # = r s r 7 i i i a U X.a #.#.X.e.}.U.FXn.o $ t ~ - = = 8 = 7 b b W b t b n $.*.x x d V..Xf.;XSXh.1 t i v b i v i b W a a i m o., o i a b a a a b b X.b . x n b a a b b b b b b b b b b b b x y b n n n t x x = - o.n b n n b x b b b b b x b b = = &.x t a v v x b i v v i t v v v 6 d jX4XZXsX* Z OX=.x n o.Q b % W ! v t 8 7 8 t 8 8 8 8 7 7 7 # + + 7 7 * * % x C.m.m.m.=.N.*.l o.n n x = + #.1.$.#.U u U X.s + O.U a 3 O.,.O U ( I I P I I I U / u #   = 7 # O h %X3X3X5X2X;XuXZ.j L.L.L.L.c.m.;.%.o.#.$.#.1.1.1.U O O O.7.,.,.] ] ] ( T U u 3 T T T U U U U a U u u u 3 @ # r r r 9 7 8 8 t t t l c c M M B B r.c.s.u.9XqXqXqXqXkXmXmXFXHXHXHXNXxXzXkXkXwX#Xa.a.F M - %.&.N S %.%.- M.z.&.S &.=.=.=.=.z.z.z.z.=.v.*.g b.x.x.b.b.b.m.x.x.b.x.b.v.g z.m =   + 9.0.-.0.o.= ",
"2 2 2 2 @ @ 2 2 @ O 2 6 2 3 3 @ @ 2 w J ' ' ' ` ' | ' | ' ' } | [ [ [ 2.2.} 2.6.<.$ w.N.~.~.:XsX= # w w 5 5 2 w I I I I I I I I + eXrXvXi.2 O.w C 2.@ f CX6Xr.O 2 O O 1 1 O   = 3 0 3 6 H ] 2.] R.^.{.].].JXJXJX].@X-.* k ! > ! t 8 8 8 8 8 9 7 7 7 * * * * * * 7 . t M.;.g M B S N B D D d ;XnX. < < 7 R , + 6 X.*.<.C C ] $./ Q l.9 &X&X9 G A n n c x x b y = * t v x 8 t t   :X6X% o @ = i u 3 3 3 q q e w w J w w K K ' 2   Y Y.X ^ Y.] Y.# ( } { } } T.!.] 1 ~.7.q.~.q.q.w.).~.}.B.iXd   @ $ % o   O O . i.vXr.&.r.G F a.%.k m S $   @ 3 + r u 3 3 a a u U O.1.1.9.9.a O.}.B.AX%.O B = 9 - = = t = 8 Q +.X.b = t t b o.l x V ).@X@.x.fXj.  t t i v i i i i v a a t x n ,   t a b a a a a i a a . x o.x a a b b b b W W b ! b x b b x , t x b n t x n = = n n b n n v x b y b v b l b b = = %.x t a b v b y t v v t t v v 8 . jXSXf sX=Xg G b.c , x b x b r v v v i 8 7 = = = * * $ + + 7 7 # 7 r 7 = * * m L.d.d.m.z.N.b t n x n x t + O.1.X.O.W a W U 7   O.X.a # ) 7.p p I I I I I U U T p 3 +   r 7 7 3 1 o   7 F a.p.d.C.s.A.A.A.A.A.B.0.-.-.-.-.#.1.1.q.1.p u O.,.O.O.O.,.,.] T ) ! U ) ) T T U U U U a u r 7 7 # 3 9 7 7 7 = = = - - , g l z h j j B j s.t.k.wXqXqXqXkXlXNXHXHXIXIXIXMXxXxXlXkXqX#Xt.a.D M - &.&.N S n N $ =.z.S &.=.=.=.=.=.=.z.z.z.n.v.*.g B.x.x.x.x.l.n.l.l.N.b.N.=.g M.x =     +.5.-.0.o.= ",
"@ @ @ @ @ @ @ @ @ O 2 2 2 2 3 @ O @ 5 H Y ' ( ' Y ' ( ] ( ] 6.} [ { [ } } } } Q.' . 0.0.q.~.:XfXl # 0 H Y T Y ] ] ( Y Y Y ) _ I 1 7XCXcXM 2 U O.i _ ] + k.cXbXeXJ.j ; . @ @     3 5 2 4 E } } ' E.E.E.E.].].JXJXJX4 . i.c.9 e 5 8 8 8 8 8 8 7 7 7 7 7 7 * * * * * . x N.v.c M z S z j F S d -XvXX o U 9 < < % . X.9.O.X.X.P 9.U  .*.@ ;X;Xm f A n c c x x v y = t t = 7 t i r   P.CXb.j g d 7 O 3 3 5 q q q w w w w w K K ] 2   Y } X K Y.] { # Y } | } } } !.] 1 ~.7.7.q.9.q.w.5.q.}..XA.j     7 i W 5 i B g.S.zXr.N j M D i.D - l n . O O # + r u 3 3 p a r U U O.O.8.1.u / }.OXZXW @ k O m - - - t = 8 Q W i b = x y n *.x m k |.@X/ ! sX-XX 8 t t i i t i i i i a t v m =   t i a a a a a a y y . n o.n b W a a b b b b x x x x b x y - , x b b t b b = = b y y x n v b b b b v b x b v = = %.y t a b v b y i v i t y v t = , AXF.k sXK.. S z.c b o.b b v # i v v i 8 * * * = = * * = 8 a W $.$.+.a 7 * . = m.m.d.m.S *.x x b x Z x =   u U a W U U W a = o U a y 3 p <.) p I I I U U I u u # O +   y a a u 2 X   @ X . . X .       % . > X r = 7 t s i p y s p U U p u I U U U U I I U U p p u u u u u u u 7 7 = # # # = = + + + o % % % = - - g g k h j B t.p.t.k.wXqXqXqXlXbXFXHXHXIXIXGXbXxXxXkXkXwX#Xt.a.a.M & &.&.n Z =.;.- &.v.S =.&.=.=.=.=.z.v.n.n.z.v.=.d B.b.b.n.c.x.b.x.x.m.b.b.v.g M.x =     -.0.-.0.o.- ",
"@ @ @ @ @ @ # # O O 2 2 2 2 3 @ O 2 3 w Y ( ' ] ) ( Y ( ] | 6.] } } } } } { } Q.` . w.0.q.q.=XfXg o X 2 J Y K K K ' ' ( P w 0 w 1 ; =   1 2 $     O O   X $ i.6XvXvXsXs..   + @ 5 5 4 4 ' Q.Q.| E.^.^.^.^.E.E.` 6 d F.vXrXf : M t 8 7 7 9 9 7 7 * 7 7 7 * * * * = + b 0.%.c D M n B a.j S h =XvX  > % = 7 E 5 X U /.4.v ! +., #.n ).@ &X%X3 5.h n c c x x v y = r r t t 7 7 i 3 r.eXyXS.C.a.Z X 3 3 3 5 q q w w w w w K K ' 2   Y } X K Y.] { @ Y } | } } } !.] O ~.7.7.q.9.9.w.M.w.w.G.P.dXG.  % g x u c p.g.r.0X~ ! S :.%.j N - , x o @ O @ + r u 3 3 U a r U O.1.1.9.8.p X.}.I.1X  X k p d 8 * 8 8 = t +.W a i = v x b o.t x s *.n.F M 5X<XO 8 t y i i i i i i i a t m Q t + t i i t i a b a a a o x n v v W a a a a b b b b b a a b b i i b b b 8 y y o = b * = t b y v x x b v b x b v # # %.t t a b v y t v v i t y v t * G AXs.~ <XJ.@ -.z.x t b v b b = b b v t 7 * * = * * * * * 7 7 9 7 r i # = = o = h L.J.G.c x b n b x o.b =   O 3 # # 3 3 7 +     u 7 r 0 @ 5 P u u u u u u 3 @ O     .   t a a 3 D.5X<Xs.f.z * 4 @       # O O         O               O O O O O       O O O O                     .     . + o . + o o % % % = % - - , g d h j B D.p.y.u.wXqXqXqXxXAXqXmXNXHXHXbXzXxXlXkXqXwXk.s.a.D c & &.&.c S Z %.& N v.N =.S =.=.=.=.=.=.=.l.&.v.v.g b.x.b.n.n.x.n.x.l.b.b.b.;.& M.l =   O 4.0.-.0.o.- ",
"2 @ @ @ @ 2 2 2 1 O 2 2 2 3 1 3 + O 2 J ' ^ ^ ] ( ( ' ' ' ' | } Q.{ ' } Q.{ { !.T @ q.5.w.4.A.gXn   o @ + # # @ @ @ @ O @ 2 2 @ a $.:.f.p.L.I.pXpXVXpXm.. .     ; M n.D & .   O     O O O # # # L 4 5 u 1 O O . D.0XkXvX;X+ a % t 8 7 7 7 7 7 * * 8 - * - - * - * + i 0.*.N B B B j G h *.k =XbX. = u + t , # @ p 1.9.W p U X.W ~ ..C &Xi.d %.! c x b x x y 8 = = r 7 r = = r + 2     X 6 O X $ @ @ # # 3 r 3 r p w H I ) p O   e [ 4 ( | } Y @ J | !.Y./.!.Q.' @ O.<.q.<.8.w.9.w.0.w.).N VXVX  o T g u ! p.d F &X< Q r.D c x D # + O O O @ @ @ r r 3 r a p u u W O.3.7.,.U u i + G F.t 2 d 8 g ; 8 = 7 a X.W a t = y b b n x x h a 2.#.j >XL.  t t t x x l k k > , y y x b t   < y a r $.> y x y , * ~ c x +.! n b b b b x x x x x x , x c g l n - t # r 7 = , r   _ h s m R G x > b < < b o : - v 8 v t > b - i t y t t x x = d CXi.U iXc.@ a.-.x t A t b t = v v v i = = * % * * * * * * * * o = * o * * o * o - z k - x m m X.s a +     #                           O   O   O # O   # @ @ 3 3 7 + O # 7 r O m.CXeXsXsXeX$ d.<Xl.a.x.z.D O h x x g x   # O 3 X X O   #     O O O X   # O   +     +     +   # + + . . + # o . . X 2 $ d = r - - d d k i t h j j y.s.p.9XqXqXlXkXNX0XtXBXMXNX0XkXxXxXlXkX0Xs.x.a.a.h , Z S c S G A > b 0.;.;.:.D n.D =.n.=.D l.D b.&.; N.b.x.x.x.n.b.D v.l.D b.=.z &.n o   # -.0.5.0.n t ",
"2 2 @ @ @ @ 2 2 1 O 2 2 2 2 O 2 # @ 2 H ( ' ' ( ( ( ( ( ' ] ] { ^ } Q.{ } Q.Q.Q.P @ ~.w.w.q.A.CXn     O     O   @ @ @ @ @ 2 2 2 i e. XIXIXIXpXOX|.L.VXDXVXH.  4   . . . . + O     O O O O O O O O   O X # D I.aX3XcX6Xd.c @ r v t 8 7 7 7 7 7 * * 8 * * 7 7 * * 7 + t M.-.m d M h m N F N V j.AX,   r r = = r O p #.#.U U X.O.$.$.1.7 D.>XI.a h x b b x b y t 8 7 r 7 r 7 7 t +   d &   +   X . O O O O @ @ O @ O O O O O O O   O 2 O @ q w 3     0 p 4 w 0 0 X O 3 O 2 @ 3 3 7 + % o   d r.i.> # W x 0 k j $ ,XfX$ 7 ~ N D B V + o O @ + @ @ @ @ @ O @ 3 3 # 3 X : # o . . & c C.k.bXjX+ v # . 8 t 7 * t W b i i = r r t b b n b i Q B r.P.x.. 9 9 9 t t y y x T U R i u u 7 + 3 7 + #   o + . O O   X u a + @ = = = = = = - , 9 7 7 9 7 + 7 9 @ O     X         1 O o e 6 u     3 O +   O O X 2     X   .   X + O : s = = # # O Z.s.a s.n.e < N g l c l c - ; 8 8 8 = = = = = * * * * * * * * o = * o * * . * X X         X + .   X   # +               O O O         0 # r 3 3 r # @ W a U X.p U r # = 7 7 O d.eX*X5X6X6X; K.aXb.c.l.z.=.0 =.;.>.>.*.7 O.O.O./ / / p X.3 3 p U p a   u 7 3 # 3 # 7 + + +   # = # + + + = # + o o 7 k $ # 0 % + - g z l l h j t.r.j r.$XqXqXlXqXmXzXhXxXmXmX9XxXlXxXkXqX&Xt.p.F F g , %.&.B t.~ :.8 * g h G j N c ;.;.S M.N.v.l.N.%.& v.n.n.b.c.x.b.B b.m.b.m.;.g %.n =   + w.9.4.5.Q t ",
"2 2 2 2 @ @ @ @ @ O 3 3 2 2 O 2 # @ 2 q J ( ( ( Y ( ( ( ' ] ' { } } | } Q.2.Y q 1   w.5.9.1.A.fXS .     O O     @ 2 2 2 2 4 4 2 @ O   L.pX:.>.>.'.w.OXpXVXdXA   @ O       @ O   @ 3 0 w u P P P Q W R T 1.N.m.h.B ; + 6 , z ; R 8 8 7 7 7 7 = * 7 7 * * 7 = * * 8 $ t 0.o.l g z - ! 8 & & k f h.l   3 # . o = O # r u 3 3 7 r i e 8 d ;XFXU.1 a t t t t t r = = 7 7 7 7 = # 7   D yXP.c 9 r e 7 3 # # O @ @ O @ 3 3 3 0 0 3 q w L 2       O O O         O       @ 2 O O O O O + 7 x =.M.pXCXd   + k x : h x O 3XAXcXi.  l , ; m @ + + # 7 7 3 3 3 7 3 3 u u u u p s r y Z l.G.yXS.%XxX7X* @ @ v * 8 8 # = = t x 7 # r t r i t r n m N z m ! O 1 . . .   O O O 1 O O O           . . . o   3 g a.C.h > u % d d G - - - - , - , g g g & g - % l % f d.d.F.K.K.<X>X=XI.m.+ B i.i.d.s.m.i.c.m.C.B.; + J.U.G.G.l.. 4 .           O   6 ; $ X & & O A A , t a > t o o - - = = = * * * * * * * * * * * o * o o = % . o $ c c =.S A , $ .   X         # # # r u u u u r     # 3 U p U p u p r @ O.X.U U U a r 3 r r r O C.eX*X5X5X3X; >XsXn.m.n.b.l.0 z.;.>.>.*.. 1.q.@.<.<.3.,.3.u u ,.O.1./   U O.U u 7 3 3 # # # . 7 7 7 = # = = = o 9 $ $ d & % + d t - d d d z j d r.i.i.i.u.rXqXkXqXlXxXhXlXmXxX9XxXlXlXlXwX#Xl.y.s.t.V d %.:.n c h c g t t o # r t . = - % = x & n n l $ *.=.v.b.B.b.b.D x.x.x.x.*.l %.c >   O #.4.-.-.n y ",
"2 2 2 2 @ @ @ 2 @ O 3 3 @ @ O 2 # 2 2 4 H ( ' K Y Y ( ( ' ] ' { { 6.} [ Y q 4 H 3 X w.w.q.1.A.gXD     O O @ O O O 2 2 2 2 4 2 2 @ e O n.oX3 @.O.U _ 8.w # *.% . 1 1 # + O O O O @ 3 u u P U T U E R R 9 2 1 1 O 1 G Q - ; m x 9 8 8 7 7 7 7 = = * * * * 7 * + * + * 8 Q t x m z n l g x x % . + . . #   o o O 3 O @ @ @ # @ # 7 < u ~ d . D.h.. = = = = 7 = # + = 7 # = # # #   t.uX:Xd $ 7 : @ r 3 3 3 3 3 @ r ) U _ ) ) ] ' K ` 4 @ . + 0 w P P u P Y T 2 5 ,.<.<.3.<.1.U # 4.~.>.v.b.A.GXs.O * 8 c # g b.r y.*XbX7X# m s +.m O @ + 7 r u u u u u u u U U p U T ) T 3.w.4.n %.  <XCXd = , 5 $ 7 t = + o % . . . . = = o = % . O       O . i.F.K.K.J.J.m.a.B M j.%X;X1X7X6XcXCXcXcXDXk.h.aXAXbXbXFXI.; 8XFXSXbXAXAXAXAXAXAXAXAXAXFXAXFXAXAXFXcXjXFXFXFXMXFXFXFXFXNXcX$ CXHXGXGXGXFXHXFXGXFXGXF.: SXFXFXSXAXvXcXsXaX4X=X=X<X=Xg.A f.c 5 w . $                   . . o % = * = 7 * * * * * * * * o * o o = * . o c.oXXXXXc.m.B.A.x     O   7 U @.X.X.O.O.O.O.X.X.r O r u O.I p I p p 3 O W U u u u u 3 3 r r r O K.eX3X5X6X3X$ <XaXl.m.b.b.l.3 l.;.=.>.*.  ,.~.,.,.O.,.,.<.5 u 3.T <./ O T ,.) ( u 3 3 3 r 3 + r r r r 7 = 7 = = 9 i X X 3 t % 9 @ # , x g x c g j G j r.r.%XqXkXkXkXxX#XzXxXzX9XxXlXkXqX&Xy.y.t.G M h < Z *.%.%.%.&.D D =.=.F h n -.n %.;.c %.n g - - $ , % $ $ $ % g , c Z =.>.l c %., %     # % o = = = ",
"2 2 @ @ @ @ 2 2 @ O 3 3 2 O O 2 2 3 2 2 q I ( Y ( ( ' ' ' ' ' { ' 6.] q q _ <.2.I X q.4.9.O.m.fXa..   O O @ @ O O 2 4 2 2 2 2 2 2 0 O M OXT 2.,.0.@.<.H 0 *.%   1 1 @ O O O O   O @ # # # 3 3 # 0 X     o O . $ -XSXU.+ 3 E i u 8 7 7 7 7 7 = = * = * * = * + 7 * * = v = l x c x h x ~ ~ f.n.9 & . @ O r +   3 p p p U O.O.O.4.V.~.T ( 6 sXAXk t t t t t r 7 = 7 r 7 7 = = 7   i.2XK.& 7 t # 3 3 # 3 # 3 3 @ u ] ( ) ] K K ` ` ` L 2 O u ] } } 2.[ 2.2./.H J ~.O.O.3.<.<.u # 0.q.-.v.B.C.DXP.O % u h 7 ~ yXG.$   p.CX9 k A m j O   O O # 3 7 7 7 r r r a a u a ! R 5 5 T T U ! L f.  4 k & = = 7 = o 8 -.N.M.%.g - g & & l c S F f.a.n.G j <X7X6X6XfXfXCXCXZXCX1XsXCXeXcXCXcXeXeXCXcXr.:X=X%XbXbXnXh k 8XvXCXnXcXcXcXcXcXcXcXcXcXcXcXcXjXcXcX8X%XCXcXcXeXcXcXcXeXnX%Xd jX8X7X8X,X%X4XF.k.F.aXs.1 j.rXfXsX1X3X2X;X,X,X,X5XsXaXK.V 4XCX6X4Xj.S.V.z.l.&.&.%.&.n &.>.;.-.:.b = + + * * = * * * * * * * o * = o . * B.B.F h g M =.l.H.t   X y #.4.#.X.X.X.W W U U U p @ u U T P p I u p 0 @ W U a U U p 3 7 r r 3   =XeX3X5X6X1X. ,XaXl.m.n.B.D r b.v.=.v.>.  1.~.2.<./ O.O.1.0 u 1.] <./ O ) ] ( [ O.I U u u 7 + r r i r 7 7 7 = = > O X X 6 $ % H c g g k d d d d h &.y.y.B p.9XqXkXqXkXk.9XxX0XtXzXzXwXhXu.y.y.G F F M g z M M M u > - ; . O * k g c v.=.v.l.z.l.N.z.N.z.l.n g z g x c g g % % . . c ;.- o     + = % - , l ",
"2 2 @ @ 2 2 2 2 @ O 3 3 # @ O # 2 2 2 O 4 H Y Y ( ( ' ' ' ' ' { 6.] H L ] !./.2.U   1.1.8.T c.eXl..   O 1 1 @ O O @ 2 2 2 2 2 2 @ X O M OX) ] ,.) ] 1.Z g =.p 1 P 5 # @ O O O             O         O O O . r.<XrXFX% 2 ! 8 - % 8 8 7 7 7 7 = = = 7 * = 7 * = i W 7 7 :.x l g c ! Z l k i.bXHXFXB.% @ 3 #   + 3 r u u u U U U O.C b e.@.y.bX4X* i y t i i r 7 7 r r 7 9 7 7 7 O f.2XK.% 7 9 . # 3 # 3 # 3 # O r ' ' ] ( L L ` W.W.` 4 O Y | ' ' ] ( ( ] <.2 e 8.7.,.<.<.3.p p w.q.*.>.N.A.CXJ.  % 5 h a k Z.J.# 6 f.vX. z n , F + O       O @ + + # # # 3 3 # 3 . o > r 3 # X O * y.=.: k ; % 9 8 8 = = b o.Q Q ;.;.M.;.&.v.N.N.m.C.Z.P.N 8 w.Q p a b Z *.v.b.b.. c S c M D M z %.z.G.  U 1.=.a.A.M O T %.z M d 8 i i 8 8 8 8 8 m m k Q v i ! R 7 *.x h M z h h a.~ + Z f.. 9 7 + % l = i v +.3.. y.sXC.g , r P m t i b Q Q v 7 ! & h ~ M.a.x.>.;.;.%.&.%.Q & 8 b b W Q v = + * * * * * * * * * * * o * = o . = L.F h S v.>.S x G.N.. # 9.4.a W U U U U a U U U p O u I U I I I u p r # W U p U p y 3 7 u 7 #   ,XeX5X5X6X;X  5X4Xl.m.b.H.S p b.v.S >.>.  O.~.<.1.@.O.O.1.u u @.,.@./ O T ] ( { <.) ) U p u + 7 9 r 9 7 7 7 = =   f.DXGXSXCXF.  ; ; + + * * * 8 % + V r.d $ u.9X9X9XwXu.#XwX$XhXkXwXhXD.k k ; ; ; ; *     + + O 5 & j f.J.pXVXDXB.$ l.&.D l.D x.z.l.B.b.b.z.D b.B.B.B.B.B.B.b.M . n &.n o   . o.v.;.;.*.*.",
"2 @ @ @ 2 2 2 2 @ O # 3 # O O 3 2 2 @ @ 2 q J ( Y ( ( ( ' ' ' { | ( ] 2.Q.] ' Q.T @ q.q.q.,.c.fXx.. O O 2 2 @ O O O @ 2 @ 2 2 2 @ e O F oXP / O.<.' ] o.d a.;.2 O O       O O .           O O O + @ 2 4 4 . d f fXDX. u ; d h = 8 7 7 7 7 = = = * 7 7 = = * 7 ! O.r r 4.o.x l n g l v ~ k s.F.K.B.- # # O   # # u p p U W U U W ..1.-.0.k.h.T 4 t t t t 9 9 7 # 7 9 3 7 7 7 7 O a.2XZ.% 3 8 o 3 3 # 3 7 r 3 @ u ' Y ) I 2 L { W.` ' 2 1 [ ' | [ ) ] ] ( 2.e w 8.2.,.] ) <.u O.0.4.*.M.M.V.DXC.  > 9 g 0 8 d % d j.f.cXo g g Z > > # X         O         O O               . = . r.CXd.  ; * x 9 * = = = 8 v v Q 8 8 b x 8 v x x Y T ! Q . i ,.Y A A y , y Q Q Q = +.o.x Q Q v W 5.Q ;.t n $.+.:.T p   C <.! U ,.! Q Q Q Q Q W ! b b b Z Z x Z *.X.b , y o.b b Z n 9 # G h :.3.b $.#.i > -.5.Q -.@ o S < t A t / Q U U ! ! ! +.#.,.v o.( J = % b y y r a W X.# 0 ! v v b v 7 + . * * = * * * * * o = * * = . o 8 A.B N.v.z.&.=.=.a.G.% s w.+.b $.X.X.W W W W X.X.y O p u I U I I u U r @ U p u u s s 3 7 r 7 #   ,XeX5X1X6X-X  5X>Xv.B.N.G.c U l.v.=.v.>.@ ,.!.7.<.@.@.O.<.u u O.] ) / O T ,.] ] ] ) T p u u # 7 9 9 9 7 = 7 7 = * CXFX*X7XCXsXK. XLXLXLXLXLXLXLXLXLXLX .: LXIXIXIXIXIXUXUXDXVXVXCX&XpXLXLXPXPXJXJX[.[.{.{.E.R.` ; ;XSXDXjXVXCX7X.X$ D =.l.l.D l.=.D n.x.l.l.M v.x.x.x.x.c.b.b.j - %.%.%.=   . 0.v.=.>.;.>.",
"2 2 @ @ 2 2 2 2 @ O @ 3 # O O 3 2 2 @ @ @ 4 H ( Y Y ( ( ' ' ' ] ] [ | ] } } } Y.P X ~.q.q.,.c.6Xa..   O 2 2 @ O O @ 3 @ @ 2 2 2 O 0 O j oXU / O.A 2.Y.Y % B.L.$ O         O     # @ O O # 3 3 @ O .     # @ O O 4XVX$ 9 u P 3 9 8 7 7 = 7 = 7 = * 7 = = * $ 8 Q X.u 9 +.n m c c B l y y A + 1 O $ . 3 O 3 # O @ 3 u u a U U U W ! < = O k 6 9 < t t t i i 8 7 7 7 7 # 7 7 7 7 O s.2X=X- 3 8 + @ # # 3 3 3 # O u ' I / U e H { | ` { 2 2 6.Y ) <.] 2.[ ' 2.H H 3.<.<.<.<.<.r #.0.-.-.-.w.B.VXL.  7 8 , X m 3 1 j.3Xs 6XL k t.h ~ r > o             O O O O O   O 6 O @ # . m N ; r.bXj 1 l e # d 8 - . * W Q v i i a ! a u W ! +.S Z O./   Z Z $.Q Q n x b o.*.Z o y A x $.o.W $.G >.5.. A *.$.$.Z . . Q Z Z W o.X.X.X.X.A A A A ! +.+.b n *.Q Q n l Z b O.W Q o.O.& X ~ E N U A A ,.U   o.! 5.A . 0 _ #.k ; :./ ! X.O.U a ! +.a ^ Z h y :.m : ] o.n 8 v b ! + 7 ! W i v v 8 * . * * * * * * * * o = * = * . o t A.B H.Z %.z.v.x x.G.. b 4.! +.W U U a U U U U U y O U p p I p u P a 3 @ W U a R s u 3 u u 3 #   -X7X,X1X6X-X  6X>XM.b.v.b.g T b.>.;.v.*.  ,.!.7.<.<.<.,.<.u P <.<.@.X.O U ,.] I ] ) _ u u u # # 7 9 9 7 = 7 7 7 9 cX&Xd @ O d DX XKXJX].JXKXJX[.KX[.LX[.4 LXKX X X[.@X X+X X+XKX[.O | JX'.{.JX[.JXJXJX].[.[.[.].1 & a.j . O O . . % %.%.z.%.b.&.=.=.l.D l.n.c v.l.l.l.l.l.D b.c x ;.n %.%     o.v.=.;.;.;.",
"@ @ @ 2 2 @ @ @   O 1 3 @     @ 2 2 2 2 2 2 w I ( ^ K ( ' Y ' } | | | { { { { { H 6 w.0.8.2.c.sXs.    O 2 @ X +   O @ 2 2 2 2 2 O 2 @ h OXU ) O.) ,.<.O.= v.|.. O p 3           2 2 @ O 0 w p @ O 4 1 5 u s X   n.F g % % - & $ * = * * 7 = 8 8 * * * * * + = b a o % -.v m Q m ! b x < :.! i r 9 7     .           O   O         O $ % 1 l R v t i i i t 9 7 7 7 # 7 7 3 7 #   h.,XK.= 7 = # O 3 # # # 0 3 @ 0 ( Y Y ( ) ) ] ] ` } 4 4 ,.O.O.) [ ] | [ [ w P 8.<.,.,.<.O./ #.w.-.$.;.N.N.sXG.  8 , , t W x r.-X&XM eXd d z ! c y > :     +   . # @ # # 3 3 # r P # y T 8 $ m.h p.nXX = d o o 8 * 8 $ = v m ! ! i v ~ m 8 a +.! W ! o.X.  a #.O.P ! ! a W +.:.+.  b X.O.o.b Z x *.*.$.o Q -.m %.%.8 O ! ,.W Q ~ c c -.! x x Q c x o.n x o.Z x Z n t *.x ! +.! X.Z % % b b b +.Q a A A X p 3.o.A . # O.X.l - U ' W ! W 1.9 # +.O.b b n b n x % o.x c = c x v . 8 v ! i i Q * - $ 6 9 7 + * * * * + 7 * . = . . > m.B x.&.;.%.N.c x.G.. y 4.W X.b a W W a / U p W r # r u u U u u u U 3 O U p r p u r @ 7 9 q O $ &XfX7X7XeXP.  sX5Xs.v.n.b.$ o.M.>.v.>.;.+ O.'.!.6.7.8.O.1.w 5 3.) <.O.O U ) ) ] ) ) U u u i # 7 t 7 7 7 # = 7 # 8 *X&Xd k X @ ZXl.*.3.T T U I U I U I O O JX| 1 4 1 4 1 1 4 1 L |     L + O 1   O O O @ O O @ @ O   @ O   O O     $ c l.&.%.&.x.D x.a.a.x.D B n.l.a.a.x.x.l.=.h A S S =.      A z.=.=.=.=.",
"O @ @ @ @ @ @ @   O 1 3 @     @ 2 2 2 2 2 2 4 w ( ( ( ( ( ' ' ] { { ] ' ' ' { } p 1 4.w.~.2.x.6Xs.  O O O @ 2 #   O @ 2 2 2 2 2 3 2 @ d OXu ) O.O._ ] 1.8 c v.. r 1.U O     O   2 2 @ O p u p @ + I J P T ( 0 7 = * 6 9 9 R R k 7 7 8 7 7 = 7 - * = * = = * = b T 5 7 -.x l x g %.g g m z 8 Q x i i +   O O   X   O O O @ + # = g l -X5XO < t g y i i t r 9 7 7 7 3 7 7 7 7 #   d.,XZ.% 7 = : # 3 # 3 3 3 3 @ 0 ] ' ' ( ' Y ' ' ( [ 2 4 ] ( ] | ] ( [ [ <.w w ,.) ) O.<.@.O.O.#.4.-.;.M.N.sXH.  + = , t X.Q a.K.XXr d.p x b x l > o +     @ O # @ O @ @ # # @ 7 P r > R U g z.; h.=X1 7 k 7 = 9 # > + # p i p u u r t v r a p a b b x x . x o.y m n n x x %.%.n $ x l l x x %.o.b o.$.  a #.X.o.A >   s A A X.r 9 y R T X.+.3.W y A b y A A b A X.y >.A r i b y O.# 3 T T R T T ! ! W * ! +.! :.= 7 O.Q k ; b +.n x t n t - o.x W W X.U O.p 3 O.U O.7 a i U @ 3 r y p p W # + . % % . o # # + # : +   + 9 + + 9 L.B b.%.;.M.S =.a.B.. a ! X.+.b a W U a / U a U # : p u u U u u u U 3 O a p r u u 7 X # * 2   d 7XfX7X1XeXK.  fX5Xc.v.b.m.l -.v.>.v.>.-.+ @.'.!.~.<.,.@.1.0 6 <.) ,.O.O U ) ) ) ) ) T u u i # 7 t 7 7 7 # = 7 # O 7X*X$ ; X X DXl.*.~.2.7.8.1.8.1.1.<.0 # LX!.K ) Y ] Y T ] ( [ T.+ 3 ( R u J i # 3 3 3 7 3 7 7 @ O # @ O + @ @   . c =.;.;.;.=.z.v.z.=.z.S c =.z.l.l.x.D l.=.g c &.&.n   + + b ;.=.*.*.*.",
"@ @ @ @ @ @ @ @ X O 1 3 @   O @ 2 2 2 4 2 2 2 2 J ( ( ( ( ' ' ' ] | | ] ' { } Q.p 2 7.7.2.] c.fXs.  X O O 2 4 O   O @ 2 2 2 2 2 3 1 @ g OXp ] U O._ ) ,.#   %   # #.a       O   5 3 @ @ I P p O r ) J T ,.] O $ % = = 7 = = % $ 7 7 7 7 6 6 = * * * * * 9 6 6 9 9 7 + ! x l x x l h %.~ z z :., i i #   + + @ 0 + # # # u a n o.h k 3XeX  s l t t t t r 7 7 7 7 7 3 7 7 7 7 #   C.,XZ.% 7 = : 3 3 3 3 3 3 # O r ^ ^ ^ ' ' ' | ' / @.2 w <.} } Y.[ ] [ ) [ w P 7.<.<.<.<.O.X.p u #.-.;.z.|.sXv.  7 t x , 7 8 & h + . $ 1 - t h ~ , % #     O   + @ O + @ # # @ r 6 % # w 4   & d =Xf 1 * m = = * = % . # y y p y r t b t # O.a b W U U U # p O.U i b a i a X.+.W . b W +.+.! ! U X.#.-.  W #.+.Q X.#   t b a b U O $.y b Z > i t W W W v W ! ! ! ! i b i v W Q b A . # A X.a a W a a s X a X.a A     / $.x & x x U ! U W r 7 O.X.U U W a W r # W i W 7 i i W 3 r X.s r 7 W r + .   + = = % $ $ ; . & - $ . = *   a.B.N.&.;.;.%.c B.z.. X.i $.X.b b U a a U U U a   3 U u u a u r u u # O p y r u r 7 # # * 3   z eXeX6X1X6XC.  fXaXL.N.n.n.- *.=.>.>.>.-.+ 1.'.!.!.J I O.1.0 3 <.) <.O.O I O.) ) ) ) U u u i # = t 7 r 7 = = = + v 7XeXZ.K.j   ZXF Z w.2.2.1.<.<.<.<.<.e   LX!.K ) Y ] ( Y ] ( [ Y.  2 K P p K P 3 3 7 7 7 7 7 r @ O 3 + O # @ @ O o , x x b n x c Z n o.%.n n ;.%.=.n.l.l.v.=., n &.%.m   + . t N.v.;.;.;.",
"@ @ @ @ @ @ @ @ O O 1 6 @   O @ 2 2 2 2 2 2 2 2 J ( ' Y Y ' ] ' ] ] | { | { { } # 2 !.~./.,.m.6Xs.    # @ 2 2 O   O @ 2 2 2 2 2 @ 1 2 , |.U ] U / O.,.,.u 7 y 3 O U 3           5 3 @ @ U I p O p ) H I ] ( % i.  + + # o o $ % = = = = = = % % % = % % % % o > % o   o o   + + X       .   O 2 - = # O # # # 3 3 3 3 u W Q Q %.:.q 1XeX1 i k H t t 7 7 7 7 7 7 7 3 7 7 7 = #   C.,XC.% 6 # # + # @ 3 # 3 # O 0 ( ( ( Y ( ' ' Y ( ) 2 2 ) [ ' K <.] ] ( [ q P 3.) [ O.O.@.1.1.O.+.-.;.z.|.sXS   O   . . . . .   d 8X4Xg M < x v x y t # O     + # # 3 # 3 # O i U X.X.1.P   d P.DXk = % 8 o < & - * $ * i v v v 8 l Q v + ! v Q U U X.p @ 3 U W a a W a W O.$.O.@ u W W X.! ! ! Z o.o.. x Z o.c $.o . i :.:.Q x R *.x x %.l ! W x m m c m m Q b Q m & & %.l l z t + = ! Q ! ! ! U X.y + X.#.O.U + 3 <.O.u 7 ! W U #.O.U 3 # X.O.x x n x x , = n n x = x x t . o i 9 Q W v 9 . 7 a a a i i W i + 9 + + 7 = . o o ; b.v.;.%.*.;.M |.x . O.a +.W W W U U a s r r 7 X 3 U u u u r r u u 3 @ a y u s 7 7 r 9 9 3   B eX6X7X7XeXh.. fXJ.m.B.m.l.- >.n.>.>.;.-.+ 8.'.!.!.H P ) <.u w 3.,.<./ O p ) ] _ ) ) T u u i # # t 7 r 7 = = = + d eXtX1X#Xf + rXF x ~.2.2.<.<.,.<.<.2.0   LX!.K ( J ( Y Y ( Y ' R.O 2 ` P w K u # # 3 3 # # # 3 @ O 3 # @ # @ O O   % $ .   % & $ $ $ $ $ . . $ x l S N N S S - x S N l   # + t S c x n o.",
"@ @ @ @ @ @ 2 2 X O 1 6 @   O 2 2 2 2 2 2 2 2 2 q I ( Y K ' ] ' ] ] ' ' ' ' ] ] t q /.7.3.,.b.sXm.    # 3 @ 2 1   O @ 2 2 2 2 2 # 4 O . Z p ] W U O.] ) O.O.#._ r U #   @       5 3 @ @ U I u   P ] ( / U P F CXcXcXcXcXcXcXcXcXvXbXbXbXbXbXbXbXbXbXbXbXbXbXnXbXbXvXnXnXcXcXcX7X7X7X7X*X7X7X8X5Xc % # O # # # 5 3 7 3 7 a ! m m :.H 6XeX6 8 k L y t 8 7 7 7 7 7 7 7 7 7 7 7 #   Z.,Xh.. 6 + X + + @ # # 3 3 O 3 I I I _ _ ) ) ] ` | K 4 I <.8.,.) ) ] ] <.H p ,.) ,.,.O.O.3.4.1.+.-.0.v.N.,X%   =     > t b W a f 0XAXr.k h n m x x t r 3 O O # 3 3 7 3 r 3 O p U U a O.y $ f 5XbX* o o 7 o # % 8 * * 7 8 i 9 i u 7 8 R 7 a 9 b x x n x % = x x y x x x x x x b o y A c c c x c A A b o A A Z A U # o % i ! X.A $.y A x b r A y y x A A y x A b a b y > b y b x # + # r s y y s b v t % x x b i . $ m v 9 6 i W x b t = % % , - s i y a t # r a a r # y t 7 + 3 U u U i 9 7 + b =.S Z A y p U p 3 O O @ 3 3 3 6 M & c z.%.;.N v.z.. > X.X.W b b X.U W p + @ # @ # # 7 3 3 3 @ # U a r + t r r 3 # = # 7 9 #   a.eX3X7X7XeXd.> fXr.a.B.m.l.r 0.n.v.;.v.*.+ 8.'.!.'.| <.,.<.u u ,.[ ,._ O w ) ) ( ) ] ) u u i + # r 7 r 7 = = = + h cX0X%Xk.j 2 6Xa.g ~.7.2.2.7.2.6.[ 2.e   KX!.K ( Y ( ( ( ' Y ] R.X 0 ' P p K P 3 3 7 7 3 3 3 3 @ O 3 # @ # @ @ O + S =.%.- %.v.b.b.n.n.z.=.D =.= . & ; ; ; & % % t x =   O   o c x g x A ",
"O O O O O 1 2 2 X O 1 6 @ O O 2 2 2 1 1 2 4 4 2 2 H Y Y Y ' ' ' ' ' ] ] ] [ 2.2.> 4 /.~.q.O.B.sXB.. O @ # X O 6   O @ 2 2 2 2 2 @ q 1   o w Y i p p H I U U U U O.O.#   @     O 5 3 @ @ I P u   I | ] @.[ P f.AXbXbXbXbXbXbXbXbXbXbXbXMXMXMXMXMXMXMXMXMXMXMXMXMXMXMXMXMXMXMXMXbXbXbXMXMXMXFXbXFXl.$ 3 O + o 7 5 r u 7 7 a W Q %.x.m 3XeXO < l i b i i 9 7 7 7 7 r 7 7 9 7 7 =   Z.<Xh.. 3 # # 6 # @ # # 3 3 O @ O O O 2 2 O 2 0 {.[.!.J 2 @ 0 3 w w w w Y q P 1.[ <.<.<.O.O.O.O.$.-.0.v.N.,X% O +.t = n $.o.#.O.~ %XAXJ.6 j a d x y r u 3 O   @ @ # + # r 3 O U / O.! O.t d y.0XbXO o = u 9 3 6 #   O O O O         O O O X #   @ O @ O O O O O 2 2 2 2 @ @ @ # O O O     @ O @ 1 1 O O O O O O 6 O X X @ 1 1 5   O o   w 6     O O O O O O O O O O # O O 1 5 O   O O     X O       O       @ 1 O       o                   O   O O O O O   O O O O O O O @ O O @             s Z l S b.m.C.K.K.K.>XC.d . o r 6 G.h $ =.=.=.S =.%   A A W W X.a a p W a # # u u r # 3 3 3 # O # 3 3 +   + O @ O # # # # * #   c.eX3X7X7XeXs.b fXC.L.L.m.a.7 9.a.v.;.M.*.+ 8.~.!.'.Q.6.,.,.u 0 O.,.[ / q P ) ) ) ( ] ) u u a + + r 7 r 7 = = = o d cX0Xj.j.j O 5Xn.& w.<.<.,.<.[ 2.[ <.e   JX!.L ( K Y Y Y Y K Y Y.  @ E u w L 9 3 3 7 7 3 3 3 3 @ O # # @ # @ O O . S z.;.- N N.x.x.x.b.b.b.b.b.n - ;.l.n.=.=.=.A , l x %     , v.=.%.%.o.",
"O O O O O 1 2 2 @ O 1 6 @ O O 2 O 2 2 1 2 2 2 2 2 w Y Y Y ' ' ' ' ' ' ] ] [ ) _ O q 2.+.i O . f M   X O + X O 6   O @ 2 2 2 2 2 @ 4 4 O # w Y r s 0 H I X.X.O.@.O.#.3   O     O 5 3 @ @ I P u   I | ) / <.E G bXvXvXvXvXbXbXbXbXbXbXbXbXbXbXbXbXbXbXbXbXbXbXbXMXMXbXMXMXbXbXMXbXAXbXcXsX4Xj.#XbXH.. 3 O     7 5 r u r u a W Z *.b.n Z.J.1 , t , i i t 7 7 7 7 # 9 7 7 7 7 7 +   C.<Xd.o 7 # # 9 # + 3 # 3 # O # I w p I w O 1 w ^ ' Y 4 1 2 4 w 5 4 2 2 q O 5 O.) ) ] O.,.1.1.1.O.#.0.>.|.aXx # l r O u o.n o.X.! g.vX=X1 j a c x y 7 u 3 O O   O @ @ + u 3 O U C +.+.#.0 $ p.*XAX  ; *   * $ 9 %   = , & - & - % % & $ o   g d - = 7 + 7 + = o + . . % & & & & h d & . . + O O h B B j f f j j i.j h . O 7 $ $ d d & % 6 ! F j a.a.G G f.f.i.f.d.f.f.a.a.g $ h h M M M M M M h j h c M j h Z . 1 b M d j h h h F F F F F F M D B j d j B j B h c c c h d d & ; $ & % c g , & h :.m B A.P.uXaX1X2XaXaXyXm.&   X m.L.M D l.S ;.l . = X.a b n b b a i U a 3 r W W W p p u u p u u @ @ @   O   O O 3 + 3 @ * #   C.eX6X7X7XeXi.*.6XP.P.C.m.D u w.b.v.;.M.*.. 8.~.Q.!.Q.6.) <.u 5 <.[ [ ,._ _ [ ) ] ( ) ) u u a + # r 7 7 7 # = 7 # = 6XZXg.u.r.O aXm.; w.8.7.,.<.[ 2.<.7.w   JX~.H ] Y Y Y Y ' Y Y Y.  # ' P w K P # 3 3 3 3 # 3 3 @ O # @ O # @ O @ . S &.%.& N n.l.x.x.n.l.l.x.l.x - N.B.B.b.b.b.B.=.&.&.%.c c n.v.=.*.%.*.",
"O O O O @ 2 2 6 @ O 1 2 @ O O 2 O 1 2 2 2 2 2 1 1 4 I Y Y Y ] ' | | ' ] ] J 4 O   O 1 . g 4.:.z $   @ O # # O +   O @ 2 2 2 2 2 # 2 4   # 4 ( a a U ,.) U o.X.U X.1.u   O       5 3 # @ I P u   w { ) / { E i.AXbXbXbXbXbXbXbXbXbXbXbXbXbXbXbXbXbXbXbXbXbXMXMXMXMXbXbXnXnXnXvXcXF.bX%XV n.&.A.bXU.. 3 @     7 3 # 7 3 3 r = % = * @ X   L k 9 u 7 7 7 7 = 7 7 7 7 3 7 7 # # +   S.-Xs.. 3 # # 7 # + # # 3 # @ r J w H ] Y q H [ ( H I _ ,.2.| ' ,.,.<.,.<.p 5 U <.[ ) ,.O.O.1.3.1.#.>.=.}.sXx @ l p 3 U :.%.%.n d F.vX%XL f r ! b y = u 7 O @ + # # # # a r @ U $.! ! 1.I 6 s.*XAX. x.V.n.m.f.B.l.B m.A.A.A.A.A.L.c.c.A.m.d C.pX>X<X>X:X:XK.>X>X,X,X,X5XsXfXfXfXeXeXfXsXaXP.f $ cXAXAXAXcXAXAXAXbXGXDXd.; I.CXbXAXDXFXDXh F.GXFXAXFXAXbXFXFXFXFXFXFXFXAXGXjX8XGXAXFXFXFXFXFXFXFXAXAXAXAXAXAXAX%X; aXSXAXAXAXAXAXDXCXeXeXfXfX6X6XaX,X=X,XaXaXaX,X=XK.>XuXuX>X>X>XpXL.f s.P.iXP.C.s.m.A.M . = #.O.U p a -.0.y . m j .XOXn.l.=.n n i X.a a b o.i X.X.y a a # 3 p a a p U 3 3 u r r a u i # # O # @ @ + 3 # * #   C.eX6X7X7XeXp.-.1XZ.P.C.C.D 7 w.n.z.=.M.%.. 9.~.Q.!.Q.2.) 1.p 6 3.] ) ,.,.) ] Y ] ( ) ) u u a + + r 7 7 = # = 7 # L f %Xm c.G O =Xm.$ 9.7.7.<.8.<.2.<.7.w   ].~.H ] Y Y Y Y ( J Y Y.  @ Y u w J 9 3 3 3 3 3 3 3 0 @ O 3 # @ # @ @     A S =.l %.=.z.l.z.x.z.z.x.z.n l B.l.x.a.x.x.x.b.x.h M B.G.b.v.z.=.*.%.",
"1 @ O O O 2 2 1 @ @ @ @ O O O O O O O @ @ @ @ O + O @ 0 0 0 p p 3 p O 0     @ w ^ /.} O.|.pXdXfXS.            O   O O O       O O O O O O O O O o   @ # # t r p r a +   O   O O 4 3 # @ I I p   r [ ' ) 6.q i.ZXeXeXeXeXeXeXcXvXnXnXnXzXzXzXzXbXxXMXbXnXFXbXnXjXyXL.l.Z n N A.s.< bXJ.b.H.b.J.AXf.. @ # @ O   O     O     O     $ & I.j 1 0 x 9 9 9 7 7 7 = 7 # 8 o = = 7 O 3 O h.:Xs.o : * % : # # 3 # 3 @ O p 0 3 Y ^ ^ 1 ( { [ [ [ [ [ [ ] ] | [ | ] 2.) _ O I ,.) ] <.O.#.#.Q o.v.$.|.dX8 # i r 7 a +.X.$.+.l p.CX%X@ x l l b t r r 7 O   # 3 # 0 r u u 3 p $._ O.#.p ; u.eXbX; z.m._.B.N.N.*.l &..XG.l.%.n n x G.P.x.  a :.f.m.P.P.>XuXuXaXaX,Xh.>X>XP.K.>X>X>XaXsXZXSX4X. F.GXcXk.CXFXFXFXFXFXFXJ.j HXHXGXGXFXMXGXf.d GXNXFXFXGXjXbXFXFXMXMXMXbXFXFXAXF.SXAXAXcXcXcXcXcXcXcX7X7X7X7X7X7X%X. h.AXvX7X4X>X=XJ.m.i.a.c.L.B.x.;.;.;.%.%.n %.m n v b W +.+.Q Q N %.b # y l.m.P.*.n o.x x - v v a i a a i i . y b.& ;.%.& &.%.N y b b a a b W U W W b b # # W U X./ U P U U p I u u u u u a a 3   3 = 3 # 7 O j.eX6X7X8XeXN F ,XZ.J.C.L.x t b.*.=.N.>.o.+ 1.7.6.Q.Q.<.,.<.p 0 <.) <.T ,.] ) I ) ) ) U u r u 7 O i u = + # = = = & X   $ 1   O X     + = r p r u 0 p U r O # u 0 I P I I Y Y I # p O 4 ( L w u   $ . # 3 = = # 4 O         O @ @ +   , S %.l S =.n.l.l.l.l.l.x.x.x g b.l.l.l.z.l.&.l.l.&.g v.|.n.>.=.*.%.%.",
"1 @ O O O 2 2 1 2 2 @ @ @ @ O O O O O O O O O O O O O 1 O O 1 1 O 4 O q @ @ _ !.!.!.T._ 1.,.$.h.A.o   . O         O O O       O O O O O O O O O   O O O   % . + # r         O O 4 3 # # I I p   p [ ' Y 2.P a.CX7X7XeXeXeXCXcXvXeXrXgXgXfXsX2X,XnXCXF.i.J.x.m 3.a.a.=.M.N.B..Xa.h bXC.V.H.m.C.AXf.. # o @ O + # + + r u i a r r O - eXp.2 h 6 > r r r r 9 9 9 9 7 + 7 + i 8 +   h.:Xs.o 4 9 9 6 3 # 3 3 3 @ O u 0 3 Y ^ ( 1 Y { [ [ [ [ [ [ ] ] | [ | ] 2.] [ 4 0 _ ) ) O.O.9.q.7.I :.;._.uXy @ a r 7 b +.X.$.+.l p.CX;X@ x l , b t 7 r 7 O   # 3 # 0 r u u 3 p $.) O.#.p ; k.eXcX. c M b m x m o.$ $ c l , x b t , D m.B   p :.U i c N &.&.M M S n o a u U i b g n l h i.I..Xo * U.F * B i.i.r.r.i.f.~ * U.d.m.d.F.F.I.:.. L.4X8X8X4Xk.k.%X%X8X>XI.I.I.U.G.d h g g g g g l l m l m n m v ! ! i 4 O b.h 8 R i < l x t Z v ! Q ! o.o.o.n n = b b a i b b b i i v l i U p r $ d m.o.x , % x x v 8 i t i a i y   t n.z - . % %.c x y b n W W W W W a a a b # # W W W U u P U U u I u u u u r u u 3   0 = 6 % > O j.eX2X*X8XeXN F ,XP.J.C.L.Z x b.>.=.=.=.o.# ~.7.6.Q.Q.<.<.<.p 5 ,.) [ Y ) T U I _ ) ) T u r u 7 O u s = + # = = = 6 1 I.F.~ F.j d c , , - .   O O @ O O # O O O O O O O O 1 6 @   O O O 2 P 5 O @ 2 4 1 1     O @ O O       O @ # #   , S S - =.l.l.l.l.l.l.x.x.x.x g n.l.x.l.l.=.z.l.z.z.z n =.c $ - x %.o.",
"1 @ O O O 2 2 1 2 2 2 2 2 2 2 @ O @ O O O O @ 2 5 5 I ( Y Y ( ) ] } ] ] P 1 [ !.{ |  . .Q.{ [ L.P.o   . O   . O   O @ @ O   O O 3 3 3 3 3 3 3 3 @ w J 2 i ;.;.5.#.#.r   O       4 3 # @ I I p   w ] ] ) 2.I g K.I.>X<X>X>X>X<XF.pXpXI.m.;.-.1.8.5.).R 9 0.>.0.9.b.M.0.M.N.N.|.x G bXc.V.m.B.d.vXf.. O X @ 1 # 3 r r u a W a = t H * eXh.2 d 9 s 9 9 9 9 7 9 9 9 R O 3 3 * * = = J.:Xa.X X 6 9 4 # # 3 # 3 @ O u 0 3 Y ^ ( 1 T | [ [ [ [ [ [ ] ] [ [ [ ] [ ] <.P O / ,.,.O.) O.O.<.p ;.b..XaXD   i r 7 a +.! $.$.l p.fX1X@ m x l b t 7 r 7 O   # 3 3 3 r u u 3 p #.) O.#.p - k.eXCX  x h u y y x X.# o t t i W U a i - x.B   r ! ( Y U U ! ! a 1.W X.u O.) <.O.O.5.,.Y <.X.t :.P 1 a P T T R ! R ~ R ! R 9 i R i y - k ! ! + 8 m 9 9 R 9 O 6 9 ! 7 + + 7 i X.O.u a U U U W X.X.X.U X.U U T O.T T s   o.! ,.<.A Z U u 3 1.,.O.O.O.X.a W X.a O r a W b a a b b W W W u U O.O.+ . Q W i = . b b v 9 i i a a a a . y b.z.S g %.;.b x A n n W b a i a W a a a = # U U p u 3 u R u 3 u u u u u r u u 3   3 = 6 # # O F.eX5X7X7XeXV a.,XZ.J.C.L.x y M.>.N.M.M.a   '.8.) 6.Q.<.<.,.u 3 ,.[ <.) ,.U U I O.) ] T u r u 7 + r s = + # = = = 5 ; AX&Xp.ZX:XV m.a.l.l.x s _ [ _ 3 O O @ 3 0 2 @ @     @ @   . O O     # O O ( W.W.W.L O     + @ O O   O O @ 3 #   % %.n & =.S S =.=.l.z.l.&.x.n g v.l.l.l.l.=.l.D l.n.S - g % Z Z *.*.Z ",
"2 @ @ O @ 2 2 1 3 3 2 2 2 3 2 2 2 3 3 # @ O 6 0 4 w Y ' ' ' | } ' { Y.{ ) 1 ] T.3././.2./.T.3.A.P.o     O   . O   @ 4 2 @     2 3 3 3 3 3 3 3 3 X w J O r o.%.Q #.#.7   O O O O 4 3 # @ I I p   q ) ) ,.<.Y   g L K L L E ` K 1 > -.$.#.4.9.0.9.=.H.A A v.v.N.5.).).N.M.N.N.}.r i.cXx.V.B.B.d.vXf.. O   @ @ o # 0 r u 5 R i * ! M.t M N 4 4 y E 9 9 7 7 7 7 7 7 . 7 P 6 # 9 9 O j.=Xs.o : : + X # # # # 3 @ O p 0 3 Y ^ ( 1 T | [ ] ] ] ] ] ] ] [ [ [ ] [ ] <.I O ) ,.) ) O.8.4.+.u o.C *.F.m O i r = a +.! $.$.l p.6X1X+ l x x b t 7 r 7 O   # 3 3 7 r p u 3 p +.) O.+.p ; k.eXcXO y , I b a b u 3 r b W W W a ! U = &.l.+ r ! p b a t x v * i c c g S n n n n n W ) ,.U b :.W o b t , A i R n C ) a > y y / C C O :.Q t > X.! X.A A $.> y $.-.5.W Z Z x , S Z W W Q +.n b t = o.o.n b o.Q b Q t . ~ :.-.o.Q :.o.=   n $.o.n b O.W X.X.X.# i X.W r + # a X.X.W / U P U O.R # u U W t + a a R U a a W W a b . t n.a.D v.*.x x t b y y b b a b W W a y a = + p U a u 0 u U u 0 u U u u u r u u #   3 * 2 o o O =X7X4X7X1X5X% n.K.Z.J.J.B., o.N.>.& c 0.o.  q.8.<. .6.<.<.O.u 3 O.( ] ) O.U U 3 U ) ) T u r u 7 O r r = + # = = 7   G AX;Xi.cXn e s.t.a.l.l # / ( ,._ 0 @ 2 I U P U u O 0 I w O s { e # . O 4 R.E.E.E.W.` 4 O     @ O O O O O @ 6 #   . S n & ;.g h S S S =.S M l.n g v.l.l.l.l.=.l.D =.=.S % , % x x o.$.Z ",
"2 @ @ O @ 3 6 2 2 2 2 2 2 2 2 2 2 3 3 @ O O 2 w H J ' | ' ' | | K K { ' [ 1 ' Y.] ,.} ) 3./.9.Z.P.o               O 2 2 O   O @ 2 2 2 2 2 2 2 2 3 I Y O s b A U b X.o       O O 4 3 # @ I I p   L ) U ) ,.O.O @ X.O.X.X.O.1.1.7 O.N.4.:.z.l.b.x.x.|.x x N.v.*.>.5.0.M.v.N.B.}.r f.eXz.B.B.B.m.vXi.+ @   @ O   O 3 u u u U R a 5.N.%.F $ 6 0 % P r r 9 9 9 7 7 7 % i O 3 u # @ 2 iXiXc.& + = . % 3 # # # 3 @ O p 0 6 Y ^ ( @ T | ] ] [ ] ] ] ] ] ) ] [ ] [ ] <.I O / @.) ) O.O./ 7 O + O 6 h 1 K i r = a +.! $.$.i p.7X7X+ t l t v t 7 r r O   # 3 3 0 r p p 3 p o.) O.o.s d k.eXcXO i < U v t i r 9 i a i v W a ! U # n z.  p ! b n x l *.;.= . a W a X.U W W W A t o.Q m n t > , +.! % x 9 i x s s U ! +.O.y $.2 @ $.b b 7 U #.#.W A Z n Q w.5.Q 7 +.b   = o.i U U U X.X.y #   s / / a W a i O.W O ! O.C C ! /.n = . o.o.n n o.! ! ! ! ! r W ! W r # r a X.W a s p W a v i # p a W i + a a a ! a a a a i a   r m.x.B &.N g c n o.b a b W b a W U y t a # # p U p u 3 u U u 3 p p u u u 3 r r #   3 * 6 + o O -XeXsX6X6X1X. n.I.Z.m.J.L.> b l % M d & t # 7.~.<.[ 2.[ O.O.u 3 O.) [ @.O.U U 3 a ) ] T u u u 7 O r r = + = = = =   8XbX%XF.vX& c s.r.i.x.g # ( ^ I ) ) I I I P H I 4 O I [ J O U [.] 3   O Y.[.W.` K K H 2 O O   @ O O O O O @ 3 3   . Z %.- z.c c D S S D S M l.x g v.l.=.=.=.=.l.l.l.=.S l %.Z t , x x t ",
"2 2 @ O @ 2 6 2 2 2 1 1 2 2 2 2 2 2 @ @ O O 2 q 4 H Y ' K K ' ' { { { | <.2 ] } T.T.T. .2.' $.J.P.o   .           O 2 2 O   O @ 3 3 3 3 3 3 3 3 @ P Y O p a U / O.O.#   O       4 3 # @ I I p   L O.U ] <.4.+ 4 ] ) J I Y ] ] O X.9.4.5.0.4.-.5.:.).t o.N.M.M.-.N.M.v.l.x.N.N., f.5X>.B.m.b.B.cXG + 6   # @   O # 3 u a R a a :.p l gXp.O j 8 - t r 9 9 9 7 7 7 - + 6 U   . % . % % + @ w P 7 u 3 3 3 # 3 @ O p e 6 Y ^ ( @ T | ] ] ] ] ] ] ] ] I ( ] ] [ ] 2.I   0 w q q 3 @ O & F L.OXdX4X% @ i 9 = a X.W $.$.i p.1X6X+ - l t y = # r r O   + 3 # 3 r p p 3 u X.) O.+.r d k.eXcX1 ! g T ! i v i b ! W W W ! Q ! U 0 t %.  u W u p a r X.1.a 7 r X.U U p X.O.p X   a Q ~ ! # s U E ,.s U 9 O.a U y ! ! R ! > ! u u y y ! 7 a y C s C y A U w.4.U U O.U 3 O.R ! y y y a a y : o a a a a X.b a U <   a $.X.A $.#.r # # O.O.U U O.! Q Q ! +.v Q W X.W W X.X.W a a i a n W ! 7 + W U a 7 + b a a R a a U a a a   = N B.b.D &.m l %.A b a a b a i i p i t y # # U U y r 3 u u u 0 u p u u u r u s #   3 * 5 # o . ;X3XK.-XaX,X$ S.:XI.m.B.B.  t D G.pXOXl.$   / 7.[ } 2.) O.O.u 3 O.<./ ) U u U 3 p ) ] T u u u 7 O r r = + = = = = + =XGXcX=XeXf t.s.a.a.a.l # ) ' I ) ] <.<.I H ( Y 2 O ( ] J O w E.' O O w ^.{.W.L 2 @ 1 4 2 O O O O O   O O @ @ O O o b %.- &.n.=.l.=.=.z.l.l.b.n g z.l.l.l.=.l.=.l.l.&.S =.G.N.N.v.=.Z x ",
"2 2 @ O @ 3 6 2 2 2 2 2 2 2 2 2 2 2 2 @ O O 4 5 q H ( ' ' ' } { ' ' ' ] ) O ) } [ ' {  .2.' @.J.P.o   .           O 2 4 @ O O @ 2 2 2 2 2 2 2 2 6 I ( O p y p U y a +       O O 4 3 # @ I I p   L O.U | 2.;.. 2 T _ p _ T ,.1.@ %.;.;.:.5.5.:.5.w.w.: A %.&.b.F z.;.;.M.N.N.N.- s.<X9.N.b.b.B.7Xh + 6   @ +   #   + u u u i 9 t O ; fXJ.O d R = 9 9 7 7 7 7 7 7 = 3 u   & pXVXaXf.G & .     O @ # # # + 3 @ O p p 5 Y ^ ( O T | ] ] ] ] ] ] ] ] I ( [ ] } ] 2.I   @ O O O 3 I U G..XI.J.iXfXj o i r # a X.W $.$.i i.%XeX+ = l , t = # 3 7 O   + 3 # 3 r p p 3 u X.) +.X.r d j.eXjXO W , U v r t t i i a a a i b ! p s t m . 3 a U U U 0 0 U P R o b b i v b o.x w U $.i u O.U s C 5 ) C I p C r u y U a i O.A U A > s C t , o.x n m %.v ~ v Q m y a p u / / # X.! ! ! ! ! ! ! i ! R R R ! ! ! 9 b + a ,.! ! W A r 0 3 O.O.O.! U W W ! W X.a ! a u a a W a i 9 9 a r 7 r a 7 + i U 7 = = a a a a a a a a a a   = . Z %.g g - . - % # o # r W X.W a y y s + # U u y u 0 r u u u p u r u r 3 r r #   3 + 5 + . + 1Xd.X . G G @ z y.f d n.B.. Z l.G.yXpXpXc   @ _ <.6.7.) O.O.u 3 ) _ p u 3 3 p O 0 ) ) T u u u 7 O r r # + = % = = 4 j i.G   ; @ ~ z.n.a.l.x # Y ' ( I H Y ) I H ( ) q O ) Y I O O K ' 2 O I Q.E.{.K O   O 4 1 O   O O         O @ O O   , ;.k m b.=.=.=.=.=.&.&.l.%., =.=.=.z.l.l.=.=.=.=.c z.|.B.v.n.b.M.=.",
"2 2 @ O @ 3 6 2 2 2 2 2 2 2 2 2 2 2 2 @ @ 2 4 4 q H Y ( K ' ] ( ' ' ' | _ O Y 2.<.,.2.,./.T.1.A.S.o               O 2 2 O O O O 2 2 2 2 3 2 2 2 @ I ( O p b W U a X.#         O 4 3 # @ I I p   H $.u ' 2.*.. 3 | ] H ) Y ] <.O X.-.0.o.;.M.&.=.l.H.% Z M.5.w.1.M.;.>.0.0.0.N.- f.Z.e.N.b.v._.1Xh + 6   @ +   @     r u u a u r x o.h n 4 2 % 5 7 7 7 7 7 7 7 7 @ u 1 . 4XGX7X7X6X;X;X:XS.a..   O O     # @ O u J w ( ^ ( O Y | ] ] ] ] ] ] ] ] _ ) [ ] } ] 2.J   u U ,.8.1.8.1./.} q.[ ).pX8 1 i r # i X.W $.+.u r.%XeX+ $ - > t # + 3 3 O   + 3 # 3 3 u p 3 u X.) $.A r d j.eXjXO W , U i # = > r 3 3 r r r s 9 3 0 y k = # i a 7 a a y b y t r u a W O.a U a ! b x A X.a l k % 9 a i T ! x R ! y P s s P a T b R T T u 7 R R a u U P ! U a U Q i ! W i i n b a a a y t t a b y y U a s a X.b U   > o.+.+.W a % % = x t t x l s u u y a # s r 7 3 # 7 r i i i u u r 3 r r + i i + = = t = 8 i 9 u i 9 u a   = 0       . , x t t = .   + t a a p U a r O # p 3 # 3 @ @ 3 3 3 0 3 3 3 # + # 3 O   3 + 5 + . + 2XsXx.c.t.; 2 v x.b.v.m.x.. M.b.n.:XC.B.& t # 2 ] Q.6.) O.O.u 3 ) ) u u u u X.@ 0 ) ) T u u u 7 O r r # + = % = * d cXi.; @ 1 2 . . g & g = O I Y ( ( H w ) ] Y ( U 0 O U I ) #   | ] @   2 L L Y.` 2 O @ w 2 O .             O O 2 @   , N.n - l.=.S D =.D D &.D %.- n S =.=.=.&.z.=.=.l.d D B.l.l.l.z.l.S ",
"1 2 2 2 2 2 2 2 6 6 6 6 6 6 6 6 3 3 2 2 1 O 1 w q H ( ' ' ' ' ' ( | | ' I O ) Y.{ ] <.} Y.} -.L.A.$   O   . .     O 2 4 @   O @ 2 2 2 2 2 2 2 3 4 H _ O p U p p a U # O O O   O 4 4 @ 2 w _ w O J ] I U 4.9.  o T ) I _ ) ) ) 2 $.-.-.:.;.:.&.;.=.M.l x M.-.-.;.M.0.Q 0.;.0.}.o =.G.v.N.0.N.f.P.t %   O @ O O O O # 5 u u a U a J O.X.b + 3 # o w O 8 8 7 9 7 * @ 0 $ 1 pXeX6 . 7 = - M c.P.P.d   # # # 3 @ O 3 K L ( ^ ] 1 Y ] ( ( ( ( ] T ) } ) ] | ] [ ] <.5 P 7.6.6.6.7.7.,.3.[ 3.7.).aXl O a = # b o.n n -.9 s.#XcXB o x ~ x = # r r +   O 3 # 3 7 a a 3 u ,./ A o.3 m y.4X4X  u @ 6 9 X 8 # # 3 # 3 3 @ r i o % y 9 + + o q 1 @ 3 5 3 O 2 9 7 r 0 4 2 3 3 # # o o . . X e : 1 4 6   % - + : 4 r b E u > 1 L O X X 9 1 W o y O r y o # r : 6 r : H ) X : r y # 0 5 7 x , y > + 9 6 5 @ @ 3 O O O 3 #.Q v k   X.5 2       6 O         O O @ m x t # o # # X O O + + O @ 2 w   + # # # # + # . > O 2 O 3   > 4   $ C.uXuX,X=X:XK.m.g #   o y r r # # 7 7 3 3 # # 3 3 # @ O O     O O O O O   2 + o o 7 4 $ ,X1X2XgXgX-Xs.=X:XB.m.m.M.  b.B.%.;.% x r p 3.3   p p U O.O.u # U U U U U p U 3 3 ) Y T u u r r O 7 r # = = = = O F.xXvXfXeX-Xd.i.N g = # 3 0 P I ) I q 2 O 2 3 5 4 O O O Y P 3   K ' 0     + @ O 2 O O 0 0 @ O   O O @ O O O O @ @ X   + t = t o.=.D D l.N l.;.&.*.- n =.N D D D Z *.*.S < *.=.D l.l.l.l.&.",
"O O O O O O O O @ @ @ @ @ @ @ 3 @ 2 2 2 2 O 1 5 4 w Y ' ' ' ' ' ^ | ` { I 2 ( | { ] 1.[ { } -.G.L.$       +       O 2 4 @   O @ 2 2 2 2 2 2 2 3 2 H _ O u p p U p u @ O   O   @ @ @ @ @ u / p @ w 1.O.U q.X.  . ! O.I I ( [ O.O $.-.-.:.-.;.;.;.;.M.t x N.0.;.:.-.A y 9.*.-.N.% t.B.x.M.;.M.x.P.o       . . . . + O @ r p a u t ! 8 k ~ = 9 9 9 7 * l $ = r # < i : * O K.eX+ l t t t - $ d N $ O # # # 3 @ O # I J ( I _ 1 I ) | | [ [ 2.,.) ( ) ] | ] [ [ <.5 I 7.2.2.6.6.7.[ <. .3.7.).aXl X s # # a +.Q o.-.a B S.,XD.- c g v = + r r + O O 3 # 3 7 u u 3 u ! / o.4.# h k.7X4XO 7 , ! - X v t t l = = = . =   r =   + 6 # r % - - % $ $ - t O     $ h d d d h c c h g k *   d i.s.B h < $ & * - 3 5 o . - d & h h h h g O H . = * $ $ * + . . . +     + 6       + . .   O 4 = G i.d.f.f.f.a.f.i.a.n   O e : 1 i & d j M h z h j j d ; $ $ o & S N.|.B.b.b.c.b.n.b.b.b.=.g . k %.&.N N N N N %.n N %.m * 3 3 & m.aXCXfX,X:XC.Z.pXb.l #.@     3 7 3 7 7 3 3 3 # 3 r u 7 7 3 + # r r 3 r u r + X + o   6 2 & 2X5X-Xg.-X6Xm.P.P.m.s.c.;.  N.B.%.-.l o.r i 9.u O U p U O.O.u 3 X.U U U U p U # 3 ) Y T u u r r O # 3 + + = # #   eXbXp.B j.p.B l.M.;.-.-.3.1.<.<.[ [ ) ( I I I I J w 0 5 Y I e   4 J 3 O 2 ) ' L J H w w 5 O O O O @ @ @ O O @ @ # #     = . . . - & - z g c l x x - Z =.%.=.=.=.&.&.S N d l.x.x.%.S S S Z ",
"O O O O O O O O             O O O O 2 2 6 O 1 5 q w Y ] ' ' ] ] ' Y.` ' 4 2 Y K [ ) @.[ { <.-.B.B.%         O X   O 2 4 @   O @ 6 6 2 2 2 2 3 3 2 I / O 3 3 3 3 @ @     O     O @ @ @ @ 3 r 3 O @ p 6 O O O O @ u _ _ I I ,.,.O W :.-.*.:.-.;.;.;.M.t t 0.0.;.;.0., y 0.;.:.;.* x.B.l.N.0.4.g h ~ v 7 O     X X       # r r r t s . , S %   # # 1 O q 4 J 4 # = = o $ O s.cX8 n z l - t 8 7 u O + 3 # # # O O O 2 2 q 2 q O w u 4 q q H Y ,.[ ] ] ] [ ] [ ] ,.4 ( <.[ [ 6.6.7.[ ,.6.7.2.).pXl X a s r i b b n o.U < . . # > a & v = + 0 r +   O 3 # 3 3 u u 3 r ! _ X.4.O j j.eX8X7 S F V.M y 5.b.B.N.z.v.v.%.&.G.G.n.B.N.d j pXaXsXsXsX6XsXsX;X$ d.sXZXZXZXSXDXZXAXAXAXAXAXcX8Xu $ j.CXAXCXCXcXcXjXN + 8XAXDXAXAXSXAXAXAXSXJ.$ 8XAXAXAXAXAXDXDXDXCXDXnX4Xf dXnXCXDXcXjXCXVXL.. h.GXbXAXAXAXAXAXAXbXbXAXcXi.$ E ; 4XAXAXAXAXSXAXAXAXZXZXSXDX7X%XM g g N b.`..X.XB.L.B.B.L.B.D ; &.N.B.z.l.v.V.z.0.:.z.B &.v 3 1 d.K.aXsX5XuXI.L.yXL.g t o.7 =   + # 7 9 7 3 3 r 3 r r u u u 3 + 3 u p u u U s X X 9 0 + 7 @ & 2X,X;Xd r.6Xm.b.m.H.d.m.&.. H.b.%.%.Z >.r u q.p # @.O.O.O.O.u # U p p a p p U # # ) Y T u u r r O + # + + = + =   vXbX&Xk.p.; : x x x b X.O.O.) ) ( ( ( ] ] ] ) Y ( I I w Y J e O 1 w 0 O 2 ` Y.` K L L w 2 O O # @ @ @ @ @ @ @ @ O +   + n n n n x x x x l -   o .   . . $ , l x %.n N N z l.l.N l.l.&.&.&.",
"@ @ @ @ @ @ @ @ @ @ @ @ @ @ @ @ O @ 2 6 3 1 1 5 2 q w J K K L H K | ' ] 4 P <.| w I 1.8.6.) 7 g ; .   O O O       O 2 4 @   O @ 6 2 2 2 2 2 3 3 2 I I O 2 @ @ @ @ O     +       O O O O O O O O O O 4 H ~.LXLXH O 0 ) ) I ) ) O o.:.:.-.-.:.*.;.*.5.t = n $.;.0.;.= x 0.V.V.5.= y $.y > O   . Z Q ! Q ! ! 8 * +         O         $ B x.V d k d g % .   O H P 7 * : * O h 5X8 - - 8 y a a 7 3 2 3 3 # # # @ O 2 O 2 4 1 4 2 w q L K L H 5 ] [ ] [ ] | ] [ ] ,.2 _ 7.[ [ 6.7.7.[ ,.6.3.[ ).uXl O # +       + . . 8 ; r.CXA.$ ! I v = @ 0 r +   O 3 # 3 3 u u 3 r +._ U 1.@ B k.eX8X9 H.f.V.h y Q z.v.v.=.;.v.%.S m.m.n.B.L.B f c.>X>XP.yXyXyXoXi.k L.pX,XaXaX>X>X4X<X4X7XeXAXAXvXAXK.% l >XZXAXbXbXAXl.$ jXFXSXFXFXAXFXFXbXFXDXd jXFXFXFXFXFXFXFXFXGXMXMXSXr.K.nXCXjXcXcXnXAXDXf.h DXjX7X6X7X8X5X4X4X4X8X;XpXoXm   J.jX7X7X5X5X8X8X8X8X%X%X<X4XpXN.&.l , > > y y i v l t v ! i 7 = b b t t y y y a y t r a t   . c $ & g h a.p.j.B.d n $.= = t = O + 3 r 7 3 3 r 3 r r r u u 3 # 3 u u u u r #     + X O + O d 6X2X1XQ d 3XZ.l.A.B.d.A.%.. B.l.%.%.%.>.= i q.u = 3.@.#.O.O.u # U a p u p p U # # ) I T u u r r O # # + # = + = + f.*XZXvXZXm.  X.y i a U U I I ( Y Y K Y Y Y Y Y Y P u 2 Y H 4 O O 0 I 2 O 4 K ` K L q 4 O O   + O O O O O O O O   O   = :.-.%.%.*.*.*.*.-.Z . b 0.;.;.*.o.t     X       . x n n B B D N B ",
"2 2 2 2 2 2 2 2 3 3 2 2 2 3 3 3 @ 2 2 2 6 O 1 5 2 q H L K J J w L ) _ _ @ u p 4 1 O O O 1 2 # b D l.%             O 2 4 @   O @ 6 6 4 4 4 4 3 3 1 I H O w p u 0 p @         O 3 q w H I I Y ( ( 7.J 2.'.'. XLXKX@ O P ) Y ) U O :.+.+.+.o.i 8 ! Q -.i = v n o.*.~ = b X.v ! i O       . x >.n.m.C.C.C.A.m.x.D.D.o.b v v v v v v N x.C.Z.P.P.:XuXeXfXsXP.; % r + 9 : 7 O * J.~ U ! b t = - 8 + # 3 # # # 3 u P I Y ( ] Y ] ] [ ] ] 6.[ Y 2 T [ [ [ ] [ ] [ ] O.2 _ 7.<.[ 2.<.7.<.,. .<.[ ).>Xx O r r 7 7 7 t i t g.2XeXGXH.  8 ~ x = @ 3 7 +   O 3 3 3 3 r u # 3 ! / O.1.0 G u.eX4X+ $.h ~ , > 9 = t y > y b r = u a r 3 P T U r 9 R u T P u ) 1 ,.5 7 r + 3 p e E 4 3 = d a.C.d.A.>XK.h   2 N y.c.G : # G i.l.G h G a.j i.j =.b & S h h h h F h d 9 R Q v R 9 9 9 ! 9 * k k m ! X y = - %   o @ 7 3 5 5 O 8 =.G E 1 7 . 9 6   . 6 1 O @ 6 6 6 6 t t b W U 0 0 s I U U U U P P T u a u u a a u a % r I I # . m.DXsX>XL.v.W p 1 3 , x Q r t o.t b # o + # r 3 # 3 3 r 3 3 r u u r 3 3 5 u u # @ O o + O O + + M sX2X%X7 M 3Xh.l.m.S i.m.n . N.l.:.*.%.*.% a 9.7 > #.X.X.X.O.u # U a a i p p U # # ) I T u u 9 r O # 7 # = = + = + O $ x.-X9Xj.h ! o.+.O.O.) U I _ ] ] ( ( ( Y Y Y I p 0 2 I H q @ O 2 P 0 O O 4 0 w q 2 @ O       O O O O O O     O     7 o.c c %.Z %.%.%.:.%.* %.z.:.;.M.M.%.t o.#   y t = , % .       o # ",
"2 2 2 2 2 2 2 2 1 1 1 1 1 1 1 1 3 3 2 2 6 O O 6 w J Y ( ' ] ( Y P ) p X O 2 2 @ P P T ) ,.<.O.3..XOX-     O       O 2 4 @   O @ 6 6 4 4 2 2 3 3 2 Y w 2 p I I P I @         O @ 2 2 4 q H H L K 4 K K L L 4 L 4 X.O 3 Y Y ,.U O +.o.W +.W 8 7 i +.:.! i W n - %   O : @     o o k N c.A.XXyXyXuXdXuXP.B.z.;.;.;.N.V.N._.N.V.N..X,X5X7XeXfXeXeXCXZXZXCXdXj . + 6 6 X @ @ 1 d k u a r r = l x % . 3 # # # + 3 P P H H K L H K L H J ] ] ( 1 Y ] [ [ ) [ ] [ ) O.O _ 2.[ [ 2.[ <.<.<. .<.[ ).>Xx O u i i i i W W b F.#XeXAX~ @ C y x # @ 3 7 +   O 3 3 3 # 3 u # 3 W _ #.! # j k.sX5Xd # - v p i U # r y s p / u u u 3 U ,.R P U p t v v Q x t +.W b o.A y A i 8 ~ ~ i U U u u w e p 5 ,.5.h d R 4 R 3 4 I R R R q ] 5 E R R R 9 p T T P R P 9 ! P , W U u : $./ Y C : p _ u a ,.H A 8 ! ! ! u ! O.- b y s / a k k g $ 9 R U a i Q T P R ! ! ! Q ~ U u 5 i ! ! 8 8 W a a a a i i a a i 9 i W v 9 ! v v W   d oXSXCXL.B.L.P.P.L.F & t $.= i 4.5.b y r # O # 0 3 # # 3 3 # + 3 p U I 3 # 3 U u # O # > 7 4 : $ + , K.:Xj.. x.2Xs.m.a.g a.m.n o v.&.+.;.%.o.# W 4.# r #.O.O.O.O.u # W a a i a y a + # T I U u i 7 r   # 7 + o = o =   c.4Xg . h k + m i i a W / / / ) Y T T _ ) _ Y I I u r @ I H w 3 O O 5 u #     . @ O O                 O O O           r $.n n :.%.%.%.N %.%.$ m z.N N %.&.n m M.x - N._._.|.N.N.>.*.A t % ",
"2 2 2 2 2 2 2 2 3 2 2 2 2 2 3 3 2 2 2 2 6 O O 2 H K ( K ^ ] ( Y Y ( e O 5 ( ] [ 2.2.} ' ] ) Y | =.H..   @ @       O 2 2 @   O O 3 4 4 4 2 3 3 3 4 ) q @ q q w w 0 O         O   @ O O 2 4 4 4 q 5 H w I <.Y 1 I #.X 3 Y Y ,.U O +.+.+.+.+.! W ! +.Q b a W b = %   + # , c F m.G.S.iXuXdXdXdX>X=Xf.n.b.B.B..X.XXXA.A.A.B.B.B.B.B.aXfXZXZXZXfX6X3XL.a.h M i O 9 9 6 X +   1 . ;       r , = =   # 3 # # # O @ 5 L w w P w w I w w J [ [ ] 1 I ] ( [ ) [ ) [ ] ) O _ <.[ [ 2.[ <.] ,.} 3.<.).K.l # a a a a a b a i k.=X=Xp.6 i g f t o O 3 7 +     # 3 3 # 3 u 3 3 a _ O.! o h Z.=XsXF.6 b g Y x i 7 r y i p p r u o.x , - = v x , t i y v v i a u r r s y u ! :.v A C C / U U U ) < X.) P W t r a & A i 9 ! n b t i i a a v :.l Z a W ! +.W b b W ! 8 i +.! 9 #.7 a u ) p # A A > 9 W Q 9 ,.3 r i ! R O.,.u 0 A < , x t a s a a r s s s t y t t y u R U U R v 8 8 b i t t t i v v i v i i v v i i 6 Q . h pXyX=X=XL.L.C.h.s.C.L.B.. > -. X5.b v v b = + # 3 3 # # # # # O @ u I I + O + r u 3 @ # o 3 4 > $ O   ; a.m.% m.=Xx.B.h c c.A.n = =.&.+.%.*.o.# W 3.@ s 1.O.O.O.O.u # U i a i a i a + # T P U 5 r 7 7   3 3 + o % + #   =XFX%X. X 1 O         O @ @ @ @ @ 3 3 0 u u 0 3 0 3 # O w w 0 3 O @ @ 6 3 3 O                   O     O O O O   O O   = o.x c %.Z n %.n %.;.= n S c N &.&.n l %.c $ %.m N &.%.v.N.M.z.&.:.",
"@ @ @ @ @ @ @ @ @ @ @ @ @ @ @ 2 @ 2 1 2 3 O O 2 K ' ' ' ' ] ] Y E ( e O | Y.| | Y K K K ] [ ' Y.v.|..   O O   +   O 2 2 O   O O 4 4 4 4 6 3 3 3 2 ) 4 O @ 2 q w u O         @ O       # 7 0 0 u u u P p 3 3   t X.O p Y J ) U @ i +.+.b W ! W a i i i r t a b *.;.N.z.B.yX:XuXaXdXsXaX,XK.K.yXaXsXsXdXuXuXiX:X:XXXXXA.A.oXdXpXL.-.B.XXb.&.+.,.5 . N z.n :.+ : o 9 o . . H D c.A Z .       @ 1 4 3 @ # # O 1 H H u 3 p p w I q P H K ^ ] O Y ] | [ ) [ ) [ [ ) O ) ,.( ] 2.<.,.) ,.{ 3.<.).j.- 3 a a a a i i t r d h     1 i 3 s t o @ 3 7 +     # 3 3 @ 3 r 3 3 s _ X.:.# & d.d %X8X1 v % K m t 8 8 i i v i 7 a u r y U U u u y r i y 7 r a u u u i i R R P u C k a i i ! m x y T R Q Q t t b v ! y > 0 s w R - = s s C C u ! E U p p s / / w I > ,.E P p O.P ] ! ! ! 3 9 b i ! | > < p T # G k a X.8 8 ! R P P H P + W i P I w i a i i u p I P i a a u p p w @ u U T P P U R u r p p r s u r r K 3 & yX>XK.I.L.J.L.m.G.|.N.z.g     }. Xv b v Q Q t + # 3 # # # 7 r : O O 0 p P     O # r 0 3 @ + 5 3 o $ p e . $ g   i.i.~ M . *.L.B.c % D ;.1.n *.*.+ U 3.@ s O.U U W O.u # U i i i a i a + = T P U 7 r 7 7   3 # + + = = =   d.AX,X; F.r.8 O.X.y r 7 + O O O O   O O O O O O O       @ O 2 #   # @ 1 5 w 2 4   O O   O O O O       O X X O   O @   # n o.o.o.o.n %.c n -.% y =.S S %.S n n ;.b o *.o.o.Z y A b n n n n ",
"2 2 2 2 @ 2 2 2 2 2 @ @ @ 2 2 2 2 2 @ 2 3 O O 2 J Y ' K K ' ( Y ' ] 1 L { ' J U p P I ( ' ] ] ] n.m.  @   . 6 .   O O O       O 3 6 3 6 6 6 5 5 u 0 @ O     O O                     O @ 2 e e e 3 3 U r O O # p X.@ u P ] ] Y 2 # r : # 0 0 r U p O.4.w.~._.B.G. XN.r.fXSXZXDX,Xr.B l @ 1 c c.Z.=X5XCXCXCXZXgXeX6X6XsXfX,XVXDXC.! U U U O.U O.X.6 Z $.C =Xj @ o 4 t 6 9 4X1XsXCXDXh.. 3 9 . . @ + # + # @ O 3 w q q q w w w w w I H ] ( O I ] ( ( ] [ ] ] 2.U O / @.O O <.1.I e <.3./.7.b.b.. 9 . 7 O @ + o   + . O f #X8X+ a s = +     @ O O           O O @ O O @ X   +     . cX4X  T R > r a 3 7 r p a u p r p p p u u y y t t - k 8 i I s > 3 p p u p U t g R R U w U p i b s y n x 7 @ @ O 7 p e 9 R p A k o b U r y U R A b a p U T U I C W 0 u ) u p p / R T R 3 > C X.P U u r y s r p s y y p 3 p X.r p p % 3 ] I s r T u u u a a a a a t R R x x u 9 - U a R U u u t t u r i 7 u U 3 b Y $ aXfXK.I..XG.G.L.C.J.m.&.. # Y O @ n o.m ! ! i i 7 . O 7 r @ # # @ 3 u u u u 3 3 3 r u r 3 # X # % 7 $ eXrX=Xs.o : . ;   X O . v :.# + m &.&.o.4.t   #.#.O r $.#.W X.#.u @ U y a s u p r 3 u U U u r u r 3 O r # # o . o #   g.GX5X&XrXj o ;.X.W :.%.o.s O H I I u         3 @ @ O @ O O #   O @ O O 2 3 3 5 @ O O @ O O O O O O O O + @ O O O @   % n n Z c n o.o.c %.o.t t *.Z Z %.%.c n S n . o.*.o.n o.n o.o.Q Q Q ",
"2 2 2 2 @ 2 2 2 2 2 @ @ @ 2 2 2 2 2 @ 2 3 O O 2 H Y ' K ' ' ( Y ( ] 2 J { ' H u I Y ] ] ' K ( ] v.B.  O # # O     O O O       O O O O O O O @ @ 2 @ O O @ @ @ 2         O   O O @ O @ 2 4 q w q H q 4 2 U O.U ) p @ u u P u 3   + 8 a ! :.5.M.).B.M.)._.B.P.yXXX%     g C.aX3X3XaXsXCXZXeX6X:Xm.o.%.$ j C.K.j.aXgXfXaXuXt.* ( ` U T U U O.p O.W 6 n $.s :Xa.O # 0 $ 0 > sXp.  h g.h + 5 7 = % X # # + # @ O 3 q q q w w w w H H I J ( I O I [ ] ] [ [ ] ] 2._ X _ ) 4 4 O.<.) I ^  .( ,.}.%.d f.&   + o . g n n =.W j <XSXG.  , t = + # 3 # O O @ @ + # # 3 3 3 r + 0 u t S m.p.cXJ.@ u , y u a 7 r a b i r = 7 * $ 9 ! R 9 R U q 4 I _ w 3 8 ; V + 4 E R 9 T ] y A Z y b i v i I T E 1 O >.oXL.S o   t b 0 O @ 4 > 9 R ! W > 3 3 3 6 9 9 R R ! u O.! R R U P u t s u u r r p / i W y b * ! Q k ! 9 W Q i 7 u ! 8 y s u 7 c x i p u P U T U U P R ! t # H | L @ i R a a a p a a U i i u T 2 u a X h VXfX-XZ.:XK.L.d.C.J.N.7 H  X XT @ 7 x Q Q W t i 8 + + # # # p p u r 0 u u 3 7 7 r u u u r # = # e O ; 3XrXvX2Xy.t.A.V.f y.g.%               o = .   = r O # # r 7 7 r # O u r r 7 7 u 3 # u u 5 3 3 3 7 # O 3 # + o . # #   F.;Xr.cX0X; H S o.o.Q Q -.s O P I I p @ @ O O 0 w w 3 3 4 4 3   O 2 3 @ 2 6 2 5 2 @ @ @ @ @ @ O O O O O + @ O O O @   # b x n n n n Q n %.n - t %.n c n n c n %.n . n *.o.n n n o.o.Q Q n ",
"2 2 2 2 @ @ 2 2 2 @ @ @ @ 2 2 2 2 2 @ 2 3 O O 2 H K Y ' ' ' Y Y J ( @ H ] ( J _ K L K | } | ] ] |.B.O 1 3 @ 2 0   O 2 @       O O O O           1 @ @ @ # # 2 2 O O O @ @ @ @ @ 2 2 2 4 5 H H H L L q I '. X) p I @ O O + t b Z 1.9.w.).N.N.B.B.B.oX<X3XgXgXgXZX5X-XuXyXg     % M s.2XZXSXAXAXZXZXZXZXsXr.oXpXD ;.%.- m o.t s / U ! O.U U a O.U 6 b o.> iXb.O 8 e ; :   fXK.O T d v U w # = # X # 3 # # @ O 3 5 q w w w w w H H Y Y ( J O T <.] ] ) ( ( ] 2.I O Y ,._ _ <.<.) P 4...9.5.3.h jXHX.X$ . l &.n.B.z.D B.f.f CXVX$ > = # + 3 3 # @ + # # 3 3 r 7 r r t 7 U O.W c.<X7X8Xd 6 , & t 6 u = 7 i 8 t t 8 :.x.S x # @ w P 1 9 7   3 r = c.iXaXdXa.$ -.,.Y 4 4 1 O O O   0 0 Q ; d h.DXSXAXSXGXVXi.. @ ! n & O O 3 p #   r $.S ;.l.=.l o O 1 O O O 1 O O # O         2 P 0   1 O 5 4 Y T X.            7 7 O # O   # 5 H O   . . . . * 7 = = L 6 9 P 4 > . t # u r # 0 0 @ 0 + + = 3 I P a = $ ; h d n..XiXS.C.J.J.n.  H +X[.7._ 3 + 8 Q W 7 t i i 7 + O + 3 O.U U r 3 3 3 3 3 3 3 7 r r 3 # ; 2 e @ * #XvXrXj =X=Xf j =XaX,X:Xt.a.h.i.n O.N t 8 t = . +     . + @ O O O O O       O O O O O @ @ @ @ @ @ O O # + + o + # #   8XF.$ eX*X= Y *.b +.! W -.t O I ( I I u 0 2 O p J P u p w H u O O 3 0 2 2 2 2 3 0 2 2 6 3 @ O @ O O   O + @ O O O O   # b n o.%.o.m n n %.n 8 x %.S Z %.S c c n o.. n *.n n n n n n n n n ",
"@ @ @ @ @ @ 2 2 @ @ @ @ 2 2 2 2 2 2 @ 2 3 O O 2 H K Y K ' ' ( Y ' ] 2 H ( K J I ] K K ' } ] Y T u %   4 + O q $ O O 2 1 O     O + + @ @ @ O O O 2 2 2 2 2 @ @ O O O O @ @ # @ @ 2 2 2 4 5 w w H H H w q <.9.p r p 3 u u 4.).}.}.G.G..XOXXXoXpXuXfXfXgXZXZXZXZXrXcXCXeX5X2X2X5XsXiXa.. & d.aXZXvXZXCXaXpXa.b.%.x 2 ] _ ) O.u u O.U O.O.p U p O.U 6 A o.t :Xz.O 8 1 8 2   :X:X8 l t a u 3 = = # 5 3 3 # # @ O 2 3 5 5 w w w 5 w H J J ( w O ) [ ( ] ( ( ] { 2.I X ( [ [ ,.] ] ,.I ~ #.C U 3.$ F.DXF $ % n N.B.b.n x V.=.~ k.DXg # # + @ # # @ @ + @ # 3 7 7 7 7 r * s u U ! g r.F.C.. R S F m 9 x Q m Q l m x * ;.aXpXyXL.B a.B.A.A.A.L.m.$ F pXJ.Z d.sXj O 4 = m.m.>XaXsXaX4XsXI.1 H.DXSXZXeXeXnX0XAXF.1 4 U.GXSXVXi..     G VXGXAXAXSXGXSXVXH.< M F F b.B.a.; n.m.d.d.n.9 + & G.I.h %   # w X., i.pXpXJ.d.s.d.m.*.a.r.r.o 1 9 s.z.D c l t - - - d d   @ n.fXh.  ; l g % - t 8 v x l x 8 O u . z dXdXI.G o g c.>XJ.J.B.x 5 +X'.!._ <.O.#   r b a b i i i #   O # u u u 3 @ # # # # # # # # # # + = 2 + % O h fXrX% :X6X1X1X3X3X<X,Xj B.sX=XN.w.B 0.0.M.0.:.:.-.:.#.W W X.U U U u a a a a U p p U u u u u r r 7 3 3 # # = # = #   7X5X+ ;X6X% a %.x o.#.! W b O I ( I Y Y U 5 O p J H 0 w J J P O O 3 3 2 2 2 2 2 2 2 3 3 3 @ O O O O   O + @ O O O O   O r y x x o.n o.n n x = = %.n n %.%.n n o.o.. n o.n n Q n n n n n n ",
"@ @ @ @ 2 2 2 2 1 1 1 2 2 2 2 2 2 2 2 2 2 O O 2 H K Y K K ' ' Y ' ' 2 Y ] ' ' Y I ( [ [ ( 4 O O O % . 1 +   @ . O O 1 @ O     O @ @ @ @ @ @ @ @ O O O @ 2 @ @ @ O O O O O O O O O O O X @ 2 3 3 w q u 3 3 r # +     # 3 <.7.!.~.N.N.).|.B.B..X.XA.L.I.yX,X=Xx.o L ; -XZXSXSXSXSXSXSXSXoX% o =.A.O.T H ' ' 2.O.U b A b X.1.T Y | O.O.U u U p O.a 6 C W Q S.x + * 9 7 6 6 . h d j t r % = t 8 3 5 3 3 # # # O 2 3 2 3 5 5 5 3 5 0 H K J q O T ] ( ( _ ( ( ] [ P   ( ) _ _ I ) 3.] ] P 2 X   + 6 9 & , . %.G.;.l n $.&.>.~.r.AXa.O = # + @ @   @ @ @ # 3 3 3 3 7 r @ r r y #.i . < k   s n V.V.M.x.0.:.0.:.;.:.8 :.C.c.A.L.m.c.P.pXyXyXdXpXt.D |.h /.; p.K.P.s.1XZXSXSXSXSXSXSXDXu.; dXAXcXeXZXZXAXZXSXK.1 E f.ZXeXZXSXVXd.yXSXAXAXZXCXeXcXAXGXHXHXGXGXGXGXSXGXDXGXGXGXGXGXCX5XCXGXGXSXVXpXG l ; =.GXGXGXGXGXGXSXSXSXDXDXSXI.  d sXDXDXCXsXsXaXaXaX5XaXb.  h aXm.1 A.XX.XB.B.B.B.`.G.N.v.;.t . g pXsX>XiXdX`.c   A b.n.$ O Q. X2.T p / X.u + + r X.a t r r 7 +   @ 3 3 3 # # # # + # # # # # # # # 3 1 - $ @ O f :X. m.g.#XaX,Xg.m.XX* k K.g.;.4.a.n %.Q Q *.o.Q o.#.W $.4.X.W #.#.W a U W W U W W U W X.U U p a a r 7 9 r 7 7 =   cX7X+ 1X7XX 8 &.b.x +.O.a o.O p ) Y Y ) ) q O p K H w H Y Y I @ O @ 2 2 4 3 2 3 3 4 3 5 3 @ O O @ O   O @ @ O O O O     + = % = r t n n n A t % %.%.c c x x c n o.. n o.n n o.n n n n n n ",
"@ @ @ @ @ 2 2 2 1 1 2 2 2 2 2 2 2 2 2 2 6 O O 2 H K Y K K ' ( Y K Y 1 Y ] | ' Y _ p 2 O O 2 p @.).:Xp.O +     @ O O 2 @ O     O @ @ @ @ @ @ O O @ O O O @ @ @ O O O O O O O O O O O O O O O O O @ O 3 3 O O .   o   @ O w J ' 2.{ {  .{ ' ( ) Y ` ,.:.v @ b C.-XfXgXfX5XfXZXZXZXCXsXpX|.:.9 6 w c l Q 4.3.U U +.R R ! W a - x Z O.U U u W p X.a + C b :.s.  7 + $   7 9 X X t   > > = % = 7 7 + 2 3 @ # + O # 3 6 3 5 3 3 3 0 0 I I I 4 O U ) [ ) ) ) ) ] ] p   I ) ) ,.) ,.<.I ..5 O.|.J.I.G   % t   +.|.M.l +.O.:.N./.; cXK.O r = + @ O O O   O @ + # # + # # w 0 : +         * o y k ! v m d t 8 t t b v = b W r r a b = % g A S j l.:.* 7 #.T H ! i :.;.N z F a.a.i.B D ;.. t i m l % l z.V.p.d.F + ! $ t.t.t.m.I.J.K.K.K.h.J.K.K.I.K.J.I.I.oXI.pXoXd d.I.oX4X4X4X>XpXdXpXI.=X4XdXdXl.n . A L.m.x.m.c.a.a.B t.t.B l.:.R 6 i a.F B B S D S S S c.c.n     . 6 b.b.=.n n c l m m N z l l . L.dXH.=.|.5.5.).U O x - 0.3 ~.~.u W 1.U u W W +   i i 7 7 7 7 # @ O 3 3 3 7 7 r # + # # # # # # # # + 2 : o @ k d O P     . $       g 6 = j t.:.Q a.*.;.n n -.o.b Q t r W $.t 3 a #.W b W ! W W X.W a p p u u u u u r 7 r u 9 7 #   cX6XO 1X*X. m H.oXM b O.! +.O p ) Y Y ( ) q O p Y I w P K Y I @   @ 2 2 4 0 3 # e 3 q q 3 @ O O @ @   O @ @ O @ O O     # > = , > . o o o > % # o.Z Z o.Z x x x o.. n o.o.n o.n n n n n n ",
"@ @ @ @ @ @ @ 2 1 2 2 2 2 2 2 2 2 2 2 2 6 O O 2 4 L Y K ' ' Y I ' ( O p H 4 4 2 O O 4 P ) <.<.O.5.2XK.  # .   X   O O O       O @ @ @ @ @ @ @ O @ @ @ @ @ O O O O O @ @ O O O @ O O O O         O O O O O 2 3 O.s   O O @ O O O 4 L H Y | 2././. X+X2.Q aXZXvXZXZXZXDXVXXXN N.5.) P w ] ] @ $ x.+.i b b n x o.x W ! :.W X.a U / / U p U X.r U p + C v :.a.  3 # t o O     O 3 O         O O #   O @   O O   @ @ @ @ @ @ 2 3 3 3 u w e 2 O u p ) ) ) ) ) ] ] I X 0 ) ) O.O.U P 1 # 6 ).+XI.GXGXVX< . , n z.B.n i X.%.V.@X9 7X-XO = # + @ @ @             O O O O         o c J.pXd.% = 8 t u b m b i t t t t i v 7 ! ! i v 8 7 b I r b W u u W W j % r X.= + 2.L R 9 R W v t A s & l ! 3.O.r 7 ~ R U U . x @ 7 +.C P R v v 9 P s I P w 9 9 9 R R r 3 + 5 5 5 O 3 = # # r = O # r R 9 9 7 a X.X : s o r r + r s r - y : 0 u y X 2 t 8 8 i R i i i E P a a i 9 . o a y r r s p y y 8 m l 8 v - pXL.F . x =.=.a.h x.|. XN.@ ~.I ~.+X}.4.a U U +   t r r t r 7 + + + # 3 r r 7 3 3 # # # # # # # + + 7 3 X @ O s.aXl   , b.V k ! - ;   X @     @ 0 s b A t y +.b n Q i a X.X.i i W O.W a W X.W ! $.! p U p a u u u u 3 3 7 9 7 7 +   eXeX  %X3Xo N H.P.n.l X.o.Q O I _ I Y ( ( w O u Y P 0 P K K I @   # 3 4 w q 3 # e 3 e q 3 @ @   O @ O O @ @ O @ O O O   > b y b n o . % . .     % = t b n n n n n . b o.o.o.Q x n n n n n ",
"@ @ @ @ @ @ @ @ 1 2 2 2 2 2 2 2 2 2 2 2 6 O O 2 2 H Y ' ' ' Y H L e   O O O 2 2 1 I ,.2.] 2.2.2.e =X<XX O . * O   O O O       O @ @ @ @ @ @ O O O O @ @ 2 @ O O O O O O O O O O O O O O O O O   O 3 w P [ <.] '. Xp @       .       O O 2 w q I | K | Y./.pXSXSXsXA.N.I T ,.P ( ! #.X.X.$.u 5 2.) I U O.O.T ) Y _ p / p @.u u O.U p p U X.7 a p + C v :.x.  3 0 1 2 X . t.B - i 3 O @ 3 O O       O           O     O O O O O O O O @ O O # O q 4 4 4 4 4 5 @   O 0 3 2 3 @ @ O . : K Y./ a.5XGXIX. . %.B.b.l Q -.&.D.n.1 1X7XO = # + @ # 3 #                   . o O 3 M.C.;XAXGXn.6 m , s q r 9 u u a i r a 9 y a t v o.r X p ! v x y r y , g i i v 8 m m - n n m :.v ! :.Q . U , l N x b A y ~ #.s * a : s :.n Z Z o.$.S o.:.Z Z *.*.*.Z A A c ;.%.n %.. , S +.+.+.! o.*.#.+./ A A Z n :.O u O.! ! ! Q +.i ! R ! ! ! ! g ; k ! W W W ! v v b t ! ! x x 3 @ . Q m k v v m ~ m T 3 a a @ x +Xf.9 R 1.0.S M.y a  XN.;.+ U 7.+XO.= i a a a 7 + = r a W i = + + #   + r r 3 3 3 3 + + # # # # + + :   7 L O p.eXP.  s.sX#Xh.L.A.S.&.. k Q i + $ .       .     o + = = = # 7 r r # i r i a i a ! a U U a a a u u 5 7 3 9 9 9 9 =   fX*X: -X6X  D *.h.L.c X.o.v O I _ I I Y ( e X p I P 0 P Y Y I #   3 w w w q 3 3 3 4 q q 4 1 @   O @ O O @ @ O @ O   O   # b t y m % x M.N.;.m n = % . . . . = , b   b o.o.n n x n n n n n ",
"O O O O       O @ @ @ @ @ @ O O # @ @ @ 3 @ @ @ O 2 3 0 3 @ O O 2 2 q J Y ' ] ] # _ } { ] ,.,.<./ m.1X  @ O X O         O O           O O O O O                 O O O O           O O O     2 H Y Y I H 0 3 @ O   # #   O O O O             O @ O   1 O L Y.UX_.4 1 ( T T ,.O.O.O.O.O.O.O.r u O.U u X.U #.U U U U p p X.#.r u y p U p X.u 3 X.3 # X.t >.o.  s 3 # #   $ :.t 7 r 3 3 3 # O # 3 @ 3 2 2 2 @ @ @ @ O O X #   O O O                   O                             +   a 8.( ) O.N.SXF.  v N.).h W Z 4.B v.R d.eXO +   + 3 # @ # # O + + # 3 # + # . y o.-.+.X.W i VXAXo 5 g 8 m r W i 7 9 i i t t b s s y x k * U m ~ v t r u a i v v v k i i v Q t ,.~ < / ! k 0 u % x m m b o.x n n n . b = t n c C n a X.N p :.b Q n a A B n C n n n n b = = W y x Q ~ ~ ~ a X.n t X.O.U X.# , A y b v m Q k Q Q i i a u U p @ v a i ! v i v i R R U a ! v + + b - m i i t t 8 8 8 8 8 . ;.OXg :.-.0.0.-.0.+ +.}.M.S o 3./.,.u i i p U u # O # + r i 7 + # 7 7 + # r r # + # 3 @ # # # @ @ @ # # : @ 2 O C.-X2Xh - :Xs.n.m.m.m.;.. ;.M.&.%.n a o =   # +   @                         + +     @ O O     # o   o + + + + + # +   1XeX  %X7XO t.>.;.;.%.o.o.r # p ( J ( Y _ P O q Y H 0 u I ( H q O O w w 4 q 3 2 q 4 4 q q @ O . @ O O O     O @ O       r b 8 x b . x ;.:.:.;.0.M.z.&.%.c , % . .   . . , b $.b n n n n n ",
"@ @ @ @ @ O O @ O O O O O O     O O O O O O O @ 1 O O O O 2 0 P Y ( ( ( ] ] ] ' # ( } { ] ,.,.<.I m.;X  O O X # O O     @ O         O O @ 2 3 e w 5 5 5 4 H E J P I P w 0 3 O   O @ O @ O O w J 4 2 O O O @ r p t b a s 7 #     O   O O O     @ 2   3 2 1 E ~.+ ] Y T ,.,.O.U X.) U O.X.O.r u O.U u W U O.U a u X.U U p U r a u X.p u O.U 3 U r @ W y ;.o.  r 3 0 #   % o.= O # # # 3 + O @ 3 2 2 2 @ @ @ @ @ @ 3 2 2 0 O # 3 4 # # O O e p w p p p 0 3 e e # O 2 3 w p p w e @ 7 O 3 8.6.2.O.W VXK.o n M.N.D i *.4.&.>.! s.cX  + O @ # @ O @ # O + # 3 3 # + # # a o.X.W W +.+.i.SXH.O t 9 * 3 * 7 t r 7 r t 7 > t i v t > = ! t t a C : s X.a > r y s > > > r t h g b c m 1.$ v t s / P U v z W W a O r @ r X.! / c A A c e.x :.b x o.~ 8 o.x b x b n b = = A x x > y C , A n A y A y y y o o U u ! W i W a r - x l l x , % & i i i W i 7 v ! v r s r y b o X i 9 8 8 i a a i 8 a i v - x 0.l -.M.;.%.%.;.o -.w.n & . 7.2.O.t i t r i r # + + # = = * = = = +     + # 3 3 # # # # # # # # # # + X o 1   s.=XK.a.$ Z.s.B.d.c.B.%.. ;.;.&.&.:.o.v b t a X.a X.a r r t = 7 + # # 3 # + + +   O O   O     +       + + + + o # +   ;XcX. K.&XO m M.;.*.Z Z b # @ 0 ( J Y I Y w O p Y P u u I ( J e O O 0 q 4 q 3 2 q 4 q w 3 O   + @ O O O       @ O O     r b t b y . , Z c x m c n n %.%.:.-.-.-.x t x , o   . = t t y v b ",
"3 @ @ 3 # @ @ # # # # # # # # # @ 3 3 3 @ @ 3 p I P H H I Y ] [ ( ( ] ] ] ] ' ] @ ( { | ] ,.,.<.J x.;XO O @ X @ @ + O O 3 3 O     O O @ 3 3 3 0 E H H H H H E E L J Y K J w 2 O O @ 2 @ O + P J           # a #.X.#.#.9.0.#.t   O O @ # @ O O O 2 O # 6 1 K /.w Y I P ,.3.) ) O.U U ) / O.u p O.p u X.U X.U u u O.u U / X.p O.p u U U U r r U @ 3 X.b -.n   7 3 0 #   = o.= O 3 @ # 3 + O @ 3 2 2 @ @ @ 2 2 3 2 3 4 2 0 O 3 p H P w 4 5 Y ] ] ] [ [ | | [ ] ) ( ] | | | } } } ] [ u O O.7.6.<.U >XI.. %.M.0.a.t -.-.&.D ! j CX- + O O + O O @ # O # # 3 3 # + # r a W b i b +.4.; DX4XO W e + U a t 7 t t r r i v i b U #.+ 7 n U r b b * 8 b 8 t y b x t 8 t t U h b U c , U $ d & , < y b n N n n b # t % y Z ~ R :.b Q ! u a v : C & 8 U r $ A U a U C : : s ~ Q +.a A A x c ! ! Q ! Q Q i 7 +.b ! v x x < % a a i 8 t t % . # b i r i i a 9 Q 8 t t v v =   i ! ~ m 8 9 9 k 3 a 7 7 = # n o.>.>.%.*.-.n   }.0.l $ . 1.,.X.y i b b t # . . % # o . o = = o   + @ O + 3 7 3 # 9 7 7 7 8 8 8 7 9 > - 7   s.h.a.m.$ h.s.B.d.s.m.c   -.*.%.%.:.X.v i r s X.X.X.W a a W i i 7 s u u 7 7 7 9 9 9 9 r r 7 # 7 # + # # # + + o # +   h.vX$ P.1X= - M.-.*.*.$.o.= # u ) J Y I T w O p Y H 0 u P K J p O O 0 q 4 0 3 2 q q q q 2 O O + @ O O O   O   @ O       r b t x b . t Z c m x c x x x x n n n b Z x 0.}.0.o . t = = = = = ",
"2 2 2 3 @ @ @ # 6 6 6 6 3 3 3 3 2 3 3 3 2 2 0 I Y ) ) Y ( ' ' Y ( ( ( ' ' ' ' ] @ Y { | ] ] ,.,.K x.;XO O @ X 6 @ @ O O 6 6 O     O O 6 6 1 O O X O X @ X X X O O 1 2 4 5 5 2 O   @ 2 O   # I H     + O X 0 / 8.3 O O O 7 a a # O O @ e 2 O O O 2 6   O 5 O ^.` P T P ,.<.I I T / U O.U O.p U O.r u / U U U u U 1.3 3 U W 3 U u @ U O.U 0 p O.3 3 p r b t O 3 3 # O   = W + O @ O # 3 # O @ 3 3 2 3 2 2 2 2 2 2 2 2 2 e O 3 p H J H w J ] } ' ' ' ' | ] ' ' | { | ' ' ' ' { } { 6.) O O.2.2.!.[ I.I.  *.N.0.D a %.Q %.Z ~ & CXM + O @ # @ O # + @ # 3 3 3 # # r 3 a ! b i b $.-.R 5XjXO 9 X o 9 7 + + = = 3 r u 9 y . % H 4 + < 0 # 9 8 = 8 5 6 7 7 9 7 7 = = 9 u e # u K . g 1 9 = . & $ % + 5 + # r @ r + # = b y < < %.k = 3 o 1 4 % < 2 4 R t , - , , % . % 6 @ 7 9 9 i R I r y > = x - % + 7 i 7 = b >   0 1 O 3 u # 3 p 2 + t - = 7 7 u 5 P 7 9 i 9 9 6 O O 9 7 t r r i i i ! t = = . = % % % , Z Z >   #.o.x = . U T U p r i t #   . o o + # # = = # + + + O   O 7 a W ! W v i a a i i 8 9 > , 8   m.C.F m.t h.s.n.d.m.c.c % 9.-.0.%.;.o.Q b r # X.X.X.b a t b i a 7 u u u u u i a i i r u u 7 7 r 3 + # # # # # # # + . a.eXd B.;Xz   M.o.b Z o.n + @ 0 ( I Y I I p O 0 K w 0 0 w L H P @ O 3 q 4 0 3 @ q 3 3 3 @ O O @ @ O O O O O @ O O       r y = y y . , n x x x x b x x x x x x x x . t -.*.o = x y y y y t ",
"2 2 2 2 @ O @ @ 2 2 2 2 2 2 2 2 2 O 2 2 2 2 2 3 Y Y K L L K ' ' ] ] ] ' ' ' ' ' # I ' ' ] ) ) ] ^ N ;XO O @ O 6 @ @ O O 5 5 O   O O O 2 2 O O O                 O O O O @ # @ O   @ 4 @   3 _ H   . O O O 3 U 7.<.7.7.) 4 3 p I O O O q e O O @ @ 4 X @ 3   Y.Y.p ) P T ,.) O.) / / ) U O.p U O.r u X.U u U U O.,.@ @ u U r O.W r u u u 3 O @ @   O O + + O # 3 3 O   = W + O @ @ # 3 + O O 3 2 2 2 2 2 2 2 2 2 2 2 4 e O 5 H H w w w I ] ] Y ( ( ( ) Y H J ] ] ( ] ] ] [ [ ] ( | [ O O.3.[ 6.( >XL.  %.N.M.F b S n %.A ~ . sXs.# O + + + + # + @ # 3 3 3 # # r @ u W W a b o.*.H I.DX  .   o $ O 3 r = . .       . $ . #     & . . . . $ %   X X X     X       . . g   O d f s #   % % t   O       .   +         X @   . +     o d D.d % v d .         O             .     + O   .               . . . .   O O Z g $ . . . @ O . $ . $ $ .   . O     .                 X       - $ . ; ; $ $ . # . o .   = + + . o o   # 3 3 3 r 3 # O + 7 7 + # # # # # # # # o + .   . * 7 7 7 7 7 7 7 = # = 6 X % *   m.S.=.s.y C.c.z.m.m.x.g % o.o.-.%.;.$.-.o.i # O.o.X.W b t i i W 9 u u # r u u r 7 r t u u 7 3 r # @ # = 7 = # + + + + k eXr.z j.M   V.+.v o.$.X.+ # 3 Y Y T w p p O 3 K w 0 0 w J J P # O 3 3 3 5 @ @ 3 2 @ @ @ O O @ @ @ O     O   O O       r y = y y . , n x x x x x x x b x x n n *.% * x b o - n b b b b b ",
"2 2 2 2 @ O O @ 2 2 2 2 2 2 2 2 3 2 2 3 5 3 2 2 H Y Y K K ' ] ] ' ' ' ' ' ] ] ' 3 I ' ' ] ) ) ] ( B ;XO O @ O 6 @ @ O O 5 5 O   O O O 2 2 @ 3 p u @ O O O O O O O @ O O   @ @   O @ 4 @   # _ q O O + @ O O 3 P 7.7.~. X X X'.<.O O O q q O O @ 2 1 3 3 O r L '.w P H T <.3.O.p U U / p X.p U U 0 I U p 3 I I T U 7 0 r a u W 7 # .     + + + + # # # r r r > # # .   = i   + @ @ # 3 +   @ 3 2 2 2 2 2 2 2 2 2 2 2 4 w O 5 H H w w w J ) ( ( [ ] ] <._ w Y 2.[ ,.<.<.<.<.<.<.,.{ [ O T 3.2.2.Y I.J.@ %.b.N.D U S N N A :.  4XC.+   O + + + # @ @ 3 3 3 3 # # r 3 a W b i b o.*.P J.DX  B -.F x.X.x x S S c c N G *.U % s.J.M @ =X,XaXaXsXyXp.i.<X<X<X,X,X,X<X-XJ.<Xs.j =X5X;XaX;X<XI.s.t.s.F.k.=XF.F.j.F.F.F.F.P.j   f.h.J.4XI.F cXcXDXj pXjX%X=X<X=X=X-X=X=X=X8X%XI.f d P.F.k.k.h.h.C.s.C.h.h.F.F.=X;X<X,XP.d p.>X>Xh.h.C.d.d.m.m.m.m.m.m.a.$ m.C.s.g.h.d.h.h.m.C.d.d.f.; h N h d a.L.XXA.x.j - $ g g $ - - $ & * = r 7 + # 3 @ # # + . + # + O + + + + 7 # O t x x - = * * $ = = t r = = r r P : , 8   m.P.x.s.7 d.m.M.c.b.l.x , = t b x o.b *.n i   X.X.W W W i i a W 9 r u p _ _ I w u u y u u r r u 7 + # 7 7 = # + + + + . 4XS.g h.t.X :.4.b -.-.#.+ 3 3 _ I P 2 0 u O 3 Y w 0 0 w J H p # O @ 3 3 3 @ O 3 2 @ @ @ @ O O @ @ O     O @ O @       t y = y y . t n x x x m b x x x x x t t x % - b b . % t y y t t i ",
"@ @ @ @ @ O O @ 1 1 1 1 1 1 1 1 2 2 2 2 2 2 2 2 2 H Y Y Y Y Y Y ' ' ' ' ' ' ' ' 3 I ' ' ] ] ) ] ' M ;XO O @   + @ O O O 4 2 O       O @ @ O 3 U T 5 1 1 O 1 O O O O @ O @ # @ O O O 2 2 O @ _ q O @ # # @ O O O O 3 O.1./ O.7.8.# O O 4 e O   + 3 @ 4 O   5 O ^.) I ) ] T U 3 # u u U u X.p u u p U I u 6 U 0 u r u u # # O @   + + + 7 W +.o.$.%.Z %.%.*.*.n x 7 = + + =   O O @ @ + O   O 3 @ @ @ @ @ @ @ @ 3 2 @ 0 0 O 3 w H H w w I ] ] ( [ ( _ ) I 5 ] 6.] Y ) ] ) ) ] [ <.} <.O I <.2.2.) L.m.# S b.N.x.a n N Q Z z.  I.K.+   O + + # # @ O # 3 3 3 # # r 3 i W a y b o.$.X.S CX> C.OXI.oX&.D x.J.P.P.I.yXyXa.& yXsXaXf N.CXgXgXsXsXaX-X;X6X6XsXsXsXsXfXfXCXsXd =XZXCXDXeXvXcX7XsXj.6XCXAXZXvXZXvXvXvXvXvXvXeX; VXGXDXGX8XG FXAXSX4Xi.GXFXFXFXAXAXAXbXbXbXcXeXfXu.u.CXvXvXbXbXZXCX6XAXAXZXZXvXvXvXrXvXcX&Xf j.sXCX6X6X6XsXaXaX5X5X,XaX>Xr.Z.aXsX2XaXaX6X2X2X2X2X2XuXy.h.iXI.C.C.K.K.P.P.P.x.B b..X.Xm.a.a.M - % = ; ; $ . % = - - - - - & % l n m c N c , n %.;.;.%.%.-.-.%.%.*.*.%.o.o.o.:.A o.W   m.P.n.s.+ j D %.c.x.S =.Z % i ! m x b Q b a   o.o.b W b i v a ! 9 u u !.!./.} ' E P 5 r r 7 7 7 # O + = 7 7 # + + # + O s.Z.F c.c.X x +.t o.o.+.  # @ T q 5 3 u u O 0 Y w 3 0 w w w p # O @ 3 3 3 @ O 2 @ @ @ O O @ O O @ O     @ @   @     O t y = y =   = x t x x x x x v v m x x x x = = y y + t X.b v v v i ",
"@ @ @ @ @ O O @ 2 2 2 2 2 2 2 2 6 2 2 2 2 1 2 2 2 w I I J Y ' ' ' ' ' ] ] ' ' ' 3 I ] ' ] ] ) <.' z ;XO O O   + @ O   O 2 2 O       @ 3 O O O 0 w O O O X @ O   O O @ 2 2 2 O O O O 2 4 O 3 ) L O O O O O   O O +   r O.#.~.~.@.r O O 4 e O   o O @ 4 O s 1 @ T.| L ] Y 2 2 3 X.3 u U u X.p u 7 I U u 0 2 U 3 2 O @ O O @   p #.$.x o.0.5.y = n z.l.b.l.l.M.l.z.0.-.W y i + 3 O             O O @ @ @ @ @ 3 3 3 3 2 0 e O 3 H H H w w Y [ ] ( ] ( ( ( H 4 ] Q.L 4 J ] } } } [ ] ' ) 3 I <.2.<.,.I.m.O %.B.0.b.u n N m S z.O J.=X+   + + + # # + @ # 3 3 3 # # r # r a a i b n Q A 7 sXy g.oXP.Z.d L.dXuX<X>X,X>Xr r.sX6XdXr.r.uX,X=X<X=X=X,X,XaX2X5X5X6X6X6XfXCXZXG U.DXgXjX7XCXsX%XeXSXCXk.%X5XcXvXvXAXvXvXvXvXbXZX$ d p.d.F.;.g pXuX8XK.6 U.7X7X7X7X1X1X1X;X;X1X7X*XcXnXnXAXZXvXcX7XF.y.5X7X7XeXZXZXvXvXeXeXCXVXr.p.VXCXeXfX6XfX7X6XeX1X1XsX,Xj pXsXsXsXsXsXsXsX5X5XaXsXp.C.P.P.:X:XZ.Z.:XK.Z.oXs.j s.P.P.C.C.L.B.=.N x.A.B.=.=.c z &.B.G.b.D M n.G.B.b.B.B.b.N =.z.=.%.%.=.*.;.&.&.&.%.%.n c %.x o.!   s.Z.f.m.@ d g 8 a.x.x &.S . b Q m x x b v b   o.X.a W a t b b ! 9 i U ' Y.T.Q.T./.] P u u r r r # + # 7 7 7 # + # 3 # # $ g.f.l.V.  x #.9 +.+.o.+ 3 @ Y 2 2 p O.u O r Y 0 3 0 w w w w # O @ 3 3 3 @ O @ 3 # +     @ 1 O @ O     + @   O       r t = t t . , x x x x x l l x x x x x x n o * t t . = a t t i i i ",
"2 2 @ @ 2 O O @ @ @ 2 2 2 2 2 2 2 2 2 2 2 2 2 2 2 4 J Y I Y ' ' ' ' ' ' ' ' ' ] 0 w [ ] ] ] ] ] ( n <Xo X O @ O O O O O 2 2 O O     @ 2 1 O O u Q.O O   # @ O O @ @ @ O @ @ @ O O 2 2 O O @ P L     @ O O @ O   O + O     + # r s O O 3 3 O O @ 2 @ @ O 3 2 1 T Y.H O O u P Y ) w 3 u U I H u 7 p U P 4 1 O   % O y D a.L.m.N  XOX! O # = g A.iXXXL.B.B.m.B.B.v.l.S >.;.:.;.:.Q n b x v t 9 7 + O @ O O 3 3 @ 2 6 2 3 3 O O 3 u w 5 5 I ] [ ( ' ( ( ] q w <.( K 2 Y ] [ ] [ <.| } <.O U <.[ <.[ L.f.4 +.B.N.b.p b S F S U o j >Xg .   @ O 3 3 O @ 3 3 3 # + 3 r # = t b t b o.Q x . .Xt.A.iX.Xd g.B.%.V i.Z.iX7 G sX6XsXa.h pX;X;X;X<X=X<X,X2X2XsX2X6XsXeXeXaX3Xb.r.CXvXeXCXCXcXv.j sXyXj k.%X%XF.%Xm.h.k.F.<XZXfXf m.1XI.L.p.o 4 o . $ ; S % . ;   < %X6XeX0XcXcX7X7X1X1X;XK.F.d.F.<X3X3X%Xl.x.sXvXcX6XrXeXsXeXfXfXh & 7XcX6XeXeX6XfX5XdXaX5X5Xf.f %.B s.a.B r.B a.B M t.f P.pX<X<X:X:X:XK.P.:XK.P.J.i.d h m - h.>XP.I.I.C.m.oXXXXXb.M D N.z.k $ M =.v.B.b.z.b.;.;.=.n n ;.z.&.;.;.;.;.%.%.S N % %     . M P.p.b.; M n.a.F c A D c   X.W ! b b x o.a   a X.W i a i a i i # p W r @ # p U P P P r r 7 7 9 =   # 7 # # # 3 3 # # 6 . a.J.a.B.* 7 4.W X.X.X.s   # 5 0 I p u p @ 3 I w 3 0 w 0 w w + @ 3 2 3 3 O   1 1 2 O O O O @ @ O O O O @ O   O     # = % o o >   > b t x x t x x y x x x x y b o = b = o = t a i t t y ",
"2 2 @ @ @ O O @ @ @ 2 2 2 2 2 2 2 2 2 2 2 2 2 2 2 4 H I I Y ' ' ' ' ' ' ' ' ' ] q q ] ( ] ) ] ) ( m -Xo O O @ O 1 @ O O 2 2 O O     @ 2 2 1 O u 2.O O   O @ O O O O O O O @ @ O O 2 2 @ O # I L   O @ O O @ @ O @ # 3 3 3 3 r 0 u O O 2 @ O   O O @ X O 3 2 1 T Y.Y w u I Y P w U 7 7 a O.U r o 6 6 + > Z ;.N._.A.S.:XuXuXdXyXj o F C.,XaXuXI.B.L.A.L.P.C.C.B.N._.M.5.-.:.4.-.9.o.+.Q +.+.$.$.O.P u @ O @ @ @ 4 2 2 3 0 O O 2 5 4 4 2 5 I ( ( | ( ( [ q w <.] ( Y ] <.] ] [ [ ] ( <.O p <.6.6._ B.m.  $ V.).a.0 y g $ . O   h K.N..   O @ + @ O O O + + + + # r 3 3 u U 0 0 w 0 O . oXr.Z.L.g < e & d.K.,XdXd F 5XsXaXa.f sX3X=X<X,X2XaXaX2XaXaX7X5XsX7X6X&.6 h $ 4XCXCXeXfXfX;Xr.cXZX-Xk.cXvXZXvXvXN k.cXCXbXvX. I.GXFXFXFXGXM f DXGXAXcXAXAXcXCXF.F.FXvXcXcXnX0X0X0XeXcXcX7X7XF.AXbXbXvXbX%Xj <XF.%Xh.Z.%XC.j.k.U.h.j 4 .XfX5XdXaX1XfX3X2XaX,XI.m.d.j ; OXC.P.Z.h.h.g.Z.h.<X,XyX>X>X>X>X>XP.P.K.:X>XP.P.L.m.B d z x.B.z.B.g l t.s.m.a.B a.x.a.z.z g g ; $ & ; $ $ $ & c z.M.v.;.;.;.;.;.=.=.&.S Z n +.= ; n.B.v.$ h n.a.a.M c D n . +.! v t t y n t + X.X.b W i i t t t . u U u # 3 u u u w 0 r 7 7 3 9 =   # 7 # # # # # 3 3 # . M L.j l.- O #.W W W W s O # w p I p u u @ @ I w 0 0 0 q w H @ @ 3 2 3 3 O   2 2 2 O O O O O @ O O O O @ O   O     = y t t > o   o % = t t x y y x x x x x x n % * y t = - y r r t t t ",
"2 2 @ @ 2 O O @ @ 2 2 2 2 2 2 2 2 2 2 2 2 2 2 2 2 4 J I J Y ' ' ( ] ' ' ' ' ' ' q q ] ( ] ) ] ) ( m -X= X O 3 X 1 O O O 2 1 O       O 2 2 O O 3 /.1 O O # @ @ O @ @ @ @ @ 3 @ O O 2 2 O O @ I L     O O O O @ O 1 5 p I I I I p p @ O 0 3 O O # 2 2 @ @ 2 2 1 P Q.| P 5 P Y ( Y L 4 6 5 w 4 O O + N m.C.S.P.XXB.G.I.P.=X:XdXyXh C.dXsXiXP.J.L.G.P.P.yXiXiXXXL.b.5.:.4.4.5.4.b a #.:.4.4.4.O.U P p 0 @ O O @ @ 4 2 2 0 0 O O 2 3 3 3 2 1 2 4 w I ( ( [ q w <.[ | <.[ ] ] ] [ [ [ ( 2.# u <.6.[ H H z f.d . 1 % = O . . = U X.v.oXG.%                           @ 3 O O O O O     % m.sXy.d.< g x.S.aX3XaXdXj a.fXCXaXp.c.sX5XsXfX2X2X2X5X2X3X6X6X6XgXCXK.# d.ZXOXz >X%X<X:Xh.h.iXCXZXvX*XCXvXvXvXAXeXz AXAXAXAXd.f.FXMXAXAXMXbXt 4XGXFXFXGXFXFXGXFXSXI.MXbXAXAXbXAXAXAXAXbXbXbXbX>XeXzXZXcXvXeXm.AXvXrXZXCXrXZXCXcXCXCXZX,Xd aXgXfXfXaX2XfX6X1XsXaX6XeXsXt.K.CXaXaX5XaXaXaXuX,X<X2X,X;X<X,X,X<XK.<X=X=X:X:X:X>X:XA.XXA.g.P.c.A.s.C.C.L.L.A.A.A.L.G.L..Xb.M &.b.&.z.z.n.N.B.N.b.x.z.z.z.z.z.z.z.z.b.z.;.N.%.. , x %.. x v.x.x.m k M z . n ! Q n Q x b r + $.a t o.p i i t t + i U i r u u u u u 0 r 7 7 3 9 =   # 3 # # # # # # # X   & L.r.B l   X.a W b W s O + P p I u p u @ # w 0 0 0 0 0 q p X O 3 2 3 3 O   3 2 @ O O O O O @ O O O O @ O O O   + 8 v x t t b t , = % % . = = - y b b x t t y = + t t + # t a i i t t ",
"1 2 @ @ 3 @ O @ @ @ @ @ 2 2 2 2 2 2 2 2 2 2 2 2 2 2 w J J P ' ' ' ' ' ' ' ' ' ' 0 q ] ] ] ) ] ] ( l -Xt O @ # X O O   O @ 1 O O O O O O 2 O O # ] O O   @ @ O O O O O O @ 2 O O O 2 2 1 O @ H L   O @ O O @ @ O O O 2 3 3 3 0 0 p O O 3 @ O   + 4 2 2 @ 2 2 1 H | ' J w H E J q H 3   O O O 7 t $ n V.V.x.B.oXoXS.iXyXdXyXa.j m.>XS.a.c.oXiXuXuX6X,XP.n.v 6 6 P g x o.b v m ~ ).q.4.O.U p w 5 4 2 3 O O @ @ @ 2 3 @ @ @ O O 3 0 3 0 3 2 2 O O 2 ( ( [ q q ] ] | ] ) ] [ [ [ ] [ [ 2.3 0 <.2.] I ` ! I.DXOX    . 3 s b #.q.q.>.b.*.% # # + # +                 O X X o % $ d B c.=X2X:XA.g , c.uXaX1X3XsXl m dX,XS.: g j.j.I.m.:X6X2X2X2X5X5X6X6XfX1Xa.s.fXZXZXf 7XAXbXvXvXAXAXAXZXvXvXAXvXvXvXvXbXF.F.AX0XFX1X: GXFXFXFXGXGXVX  nXHXbXMXFXAXAXAXFXDXp.bXFXFXFXbXAXAXAXAXbXAXAXFXpX%XbXeXZXvXZXF.I.ZXeXCXCXeXCXfXeXrXfXeXvXaX  P.rXeXeX6X1XsX7XsX6X6X7XfXP.; sX3X5X2XaX,X>X>X:X<X=X<XaXaX,X<X<X,X>X:X>X>X>X>XyXuX:X:X,X2X<X,X<X,XI.P.J.L.L.L.L.A.B.A.B.B.B.D l.OXB.B.B.B.B.b.x.x.b.n.v.x.n.n.n.z.z.z.l.b.b.n 8 . =   . x N N m i N x # b b v m b b n r + X.r # a a i t t t + a U i u i u 7 r u u u r r 7 9 #   # 3 7 3 # # # # # @   . A.c.t.g   p a b a b s + @ I p u 0 u u @ # 5 3 3 3 3 0 q w O O 3 2 2 3 O   3 3 @ @ O O @ @ O O O O O @ O O     + t y t , t y v x t t =   r 8 = . . . = t v = = r t t o # b r s t t t ",
"1 2 @ @ 3 O O @ @ @ 2 2 2 2 2 2 2 2 2 2 2 2 2 2 2 2 q J J J Y ' ( ] ' ' ] ' ' | 0 q ] ( ] ) ] ) ( k =Xt   O @   O @ O O @ 2 O O O O O O @ @ O @ 5 O O   @ O @ @ O @ @ @ 2 2 @ O O 2 2 2 O @ P H O @ @ @ O @ @ O         O   # # y @ O 3 @ O   @ 2 O 2 @ 2 2 1 w Y.' J q 5 4 2 @ . ; d h l.B.B.m._.:.p q 2 3 k d N n X.: % N.iXdXiXiXuXsXsXaXpXyX5.b o < F J.:X<XpXoX.XG.|._.~ ! ! U u 5 5 5 w w 3 3 @ O @ @ O O 3 O O O O @ 3 5 3 0 0 w w 5 @ @ I ( [ w q ) ( ] ] ] ] [ [ ] ] [ | ,.@ 3 7.2.2.<././ . j IXC.* _ O.O.X.X./ p r - t r U p 9 a i r r 7 7 7 r r u u t t y b n S l.m.S.x.v.$ f iXsX2X6X5X,X:XS x j d . d n.J.aXG o K.,X,X,X2XaX5X2X2XeXc.i.cXcXZXyXf gXCX7XcXCXfXeX7XcXvXnXcXCXvXvXvXvX& 8XAX<XbXZ.G 8X8X4X7X7XVXf.d k.,X5X1X1X1X1X&X8X;Xt.r.d.F.%XK.j.j.h.k.k.h.j.j.f t.vXvXvXvXvXCXB eXZXeXZXCXrXcXgXfXfXCXeXZX>XX J.CXcXeX6XaXsX3XfX6X5X2XfXx B.gX1X2X2X2X,X,X,X<XH.F j a.P.yXZ.S.J.Z.A.P.S.Z.Z.C.s.j P.P.iXS.P.C.A.A.A.m.m.B.B.m.A.B.m.B.G.l.M z.A.A.B.m.B.B.B.B.m.m.b.b.b.b.b.b.=.b.n.x.m.B.V.&.c $ . . . .   @ , > > X.X.n a y y n r + W s = t i s r r r O u p r r u r 3 7 u 7 u u u 7 9 #   3 7 r 7 3 # # # + #   . t.A.c.g   r W b a a s # O p u p 7 u u # 3 3 3 3 3 r 0 0 q O O 3 2 2 @ O   @ @ O O O @ @ @ O O O O O O O O   O = t y t t t = t t 8 a r + t x x b b b t .   # + + # #   + t t i i t t ",
"O 2 @ @ 2 O O @ 2 2 2 2 2 2 2 2 2 2 2 2 2 2 2 2 6 2 q J J J Y ' Y ( ( ( ' ' ' { q q ) ( ] ( ] ) ' 8 =Xb   O +   O @     O O     O O O O O O O O O O O O O O O O O O @ O @ @ O O O O O 1 O   0 4   O O O O O O O +     .       + 3 O O 2 @ O @ # 3 O 3 2 @ @ O 2 Y q X O # 3 s b 4.).).}. X}.N.B.B.L.L.J.m.c.x.;.X   % $ . - o   X < n.I.P.P.P.s.Z.yXdXsXsXaXaXdXuXiXpXOX|.4.w e 5 5 w P P w w 4 3 0 @ O O @ @ 1 @ O O @ @ 3 5 6 3 w w w P u # @ I Y ,.H w ) ( ' ] ] ] ] ] [ [ <.| ,.3 @ 7.} [ !./. ./ = d.sX* e p u 0 3 3 r r s a 7 u a i a u p a a i i a i i a ! ! R P U p # o .   < f.P.iX:XuXXXS.s.d.sX2XuXsXdXsXgXdXd g.fXsX6XfXfXfXeXeXfXfXsXCXeXDXZXZX, K.ZXZXAXvXZXgXfXSXAXAXAXZXAXAXbXAXSX< 8XMXGXMXGXCX7XVX4XaX7X7X$ K.GXFXFXFXFXFXFXFXGXFXGXI.h bXbXZXAXAXCXcXcXcXeX7XaXk 1XvXvXvXrXvX,Xa.ZXrXCXvXrXeXeXeXrX7XsXeXvX<Xd.a.m.Z.fXsXfXfXfXeXsXfXfXD g fXsXsX6X6XaX2X5X,XyXC.s.s.C.C.C.J.Z.L.L.A.A.A.L.A.m.L.h l.B.B.m.m.B.L.L.A.A.L.L.B.m.m.A.B.m.B.x.d x.B.A.B.m.m.b.b.m.m.b.b.b.b.b.b.b.b.b.n.b.B.B.B.B.z.S x - .     .     o % t r s t a s # U a a a p i t t t + u p u r u r 3 7 r 7 u u u 7 9 #   3 7 u r 3 + # # + # + # ; A.S.D + # W a i a u 3   0 u u 3 r 7 @ 3 3 3 # # 3 r 0 3   O 3 2 2 @ O   @ O O O O @ @ @ O O O O O O O O   O = t t t t t t y t = t =   r t - = t b o.-.-.b o   . o . . + t t t r r ",
"O 2 @ @ 2 O O O @ @ @ 2 2 2 2 2 2 2 2 2 2 2 2 2 2 @ 4 J J J Y ' q J ( ( ' ' ' | q q ) ( ' ( ] ) ` - =Xb   O +   O O     O O     O O O   O O   O O O O O O O O   O O O O O O O O O O O O     # O     O O O O O O O O   O O O O O     O O O O O O 3 O 3 @ @ @ O O O # t b :.0.v.n.w.M.M.M.M.&.N.oXdXsXCXDXCXdXm.& h L.uXuXuX:XS.m.j ; . . O   o y a.C.:X2XfXfXdXpXiX.XN.$.u P w J I P w 5 5 q w q 2 3 O O O @ @ 2 O O @ 0 3 3 3 6 e H H H H w @ O J Y ] w w ) ( ] ( ] ] ) ] [ ] Y ( <.u O 2.} [ 7.8.Y.9 Q j aXo.. 7 3 3 7 7 r a P ! u u u i a r p i u i i i t l m k :.:.W i x S n.L.uXaXaXyXF *.c h C.yXaX3XsX4XpXfX6Xs.& iXgXgXaXfXfXfXeXeXgXCXgXfX-X6X-X=Xp.F.CX>XF.K.h.I.B.f s.G a.i.f.i.j.h.f.s.o 5XbXAXbXAXGXGXFXFXFXFXFXG j bXcXcXnXcXCXCXcXcXcXbXI.a.HXMXFXFXFXFXFXFXFXAXAXAXj ;XvXvXvXvXzXAXG 1XZXeXeXrXeXeXfX6XfXfXsXfXeX7XuX=.. i.sX1X-X:X>XP.P.r.$ $ B >XK.K.h.j.h.Z.K.gXfXfXsXaX,X=XF.K.K.P.P.L.L.L.L.P.L.m.d m.XXC.P.A.B.A.A.A.L.A.m.L.m.B.L.m.m.B.B.j a.b.B.B.B.B.B.m.m.b.b.b.b.z.z.b.l.=.=.=.l.l.x.c.B.b.v.V.&.%.n 8 = o   .       % % # + s r t r u r r r t @ r u u 3 r r 3 7 r 3 r r r 7 7 #   7 3 r r # # # 7 + . 3 2   a.s.S # O b a i i u r   3 3 u 3 3 3 O 3 3 3 # # # 3 3 2   O 3 2 1 @ O     O O O O @ O O O O O O O O O O   O > t t 8 t t 7 8 t 7 t r + i t t 8 8 8 8 8 8 $.= = t y t = o + = = = 7 ",
"O 2 @ @ 2 O O O O O O O 1 1 O O 2 2 2 2 2 2 2 2 2 O 4 H H J Y ' 2 J Y ( ] ^ ' | 0 q ] ] ] ) ] ) K $ #Xv         O       @ @ O X @ @ @ O O @   # 3 3 # O 0 3 0 # 3 0 0 0 3 3 0 0 3 3 2 @     @ O   O @ @ @ @ 3 # O O O 2 3 3 5 0 # # @ @ O O @ O O O O @ @ # # + 5.N.|.|..XOXpXyXpXuXaXsXVXaX2XCXfXaXP.b.g . z OXfXgXsXaXsXsXsXsXsXsXP.d.m.b.N - O O   < H.OXB.c P 2 q L H T P P w w w w H w 5 3 2 e @ O O @ @ O @ @ 3 0 3 2 5 5 2 H I J Y w # @ J I ) w q ) ( ] ( ] ] ( ] ] I 2 H [ p O 2.Q.} 7.o.E._ s B uXF = W a U X.W W W U W U O.X.b n a a W b X.*.-.;.v.b.G.H.S h x.P.iXuXuX,XuX:XS.yX:X=X2X,X2X2X5X2X6XfXJ.& v l.U.d.s.C.m.C.h.h.K.>XK.h.h j a.J.P.:X-Xl   d.j.c.& X f.I.<X;X5X4X4X1X7X5XfXf.I.FXcXnXzX0XjXcXrXcXcXZX; U.AXZXZXvXvXvXvXvXvXcXMXI.k 7XfXeXeXeXeXcXcXcXvXZXAXa.=XvXCXcXgXcXzX4XM fXeX6XeX6X6XfX6X3XeX6X2X5XeXeXCX,Xd M pXj.h.p.k.g.B.h.K.$.$ . &.M x.a.B l.F.<X5X2X2X2X2X2XaX:Xj.S.Z.P.A.C.S.L.B.l.$ b.yXC.L.A.A.A.A.C.A.L.B.L.B.m.A.B.m.B.G.z.B l.B.B.B.m.b.m.b.b.b.z.=.&.N n Q b t x S l.x.m.n.x.B.V.V.V.z.;.;.%.n x = # .       O   O   @   O + #   # 3 3 @ # 3 3 # # # 3 7 7 # 7 #   r 3 r 7 # + # 7 * % 2 O @ g d g     a i t i i s   3 3 u 3 3 # O # 3 3 # @ O @ @ @   O 3 2 1 @     O O     O @ O O O O O O O O O O   o r t r 7 r t r 7 t t t 7 . = t t t t 8 = 7 8 =   o b b y t o t t r # O ",
"O O O O O O O O       O O O             O O O       + r 0 w Y K w 4 ^ ' Y ] } ' @ # s r T P w #       & o.t     O 2 4 4 4 q L L w H J L L E ` { Y.` ` W.Y.` ` W.E.(.E.W.W.E.(.(.E.R.R.Y.Y.W.Y.Y.{ { R.E.E.E.E.W.1.L E.[.[.` R.^.^.E.R.E.^.E.Y.^.' K /.!.~.~.3.3.).)._.N.N.B.XXyXaXsXfXfXuXZ.m.j 0 X   s Z ; t.uXfXfXfXfXsX,XaXaXaXaXaXfXfXgXgXfXdXL.l @ O 4 4 L p P P P I P H w w H w w q 5 5 4 3 3 @ O O @ @ 2 @ @ 3 q 4 2 6 5 3 0 I L Y P 2 @ I I ) 5 w ) K ] ( ) _ 4 q _ u   H / 0 @ ) /.2.6.<.!.<.9 N >Xs.E p u U O.O.O.O.,.,.! +.+.Q o.=.%.;.l.m.c.m.L.H.OX`.- h J.yX>X>XK.>XyXf.C.oXZ.>XaX,X-X<XuX,XaXaXB f >XaXsX,X2X2X2X5X,X5X6X6X6X%X  F.CXZXAXAXK.o >XAXSXAXAXf.; SXFXAXSXAXbXAXAXjXAXFXDXp.DXFXFXFXFXbXAXAXAXvXAXC.; vXZXZXcXvXcXZXvXnXcXZX1Xh *XnXCXjXjX7X*XeXeXeXeXrXx.I.zXvXZX0XvXvXZXr.yXCXeXfXeX6X1X7XfXeX6X7XeXsX6X6XrX5X$ uXZXfXfXgXfXfXfXfXfX,Xj.sXaXaXaXaX,XC.s.s.s.t.a.a.B b.a.S.S.P.P.P.P.J.P.J.yXc.d A.oX:Xm.G.J.B.m.C.A.C.L.G.B.B.A.A.S.L.P.P.m.a.x.b.c.b.m.m.A.A.A.L.L.S.L.B.B.L.P.L.L.A.A.c.V.B.B.c.c.b.S & t o.-.;.%.%.n , = 8 t 7 + + O                                     O       O   O O + + + + O =   o N $ O 1   7 v a 9 i u @ O u 3 @ 5 3 @ # 3 3 # @   @ O   @ @ @ @ @ @ @ @ O O O O O O O O @ O O O O           O # r s s s t 8 t 7 t r + = t t 7 = = 8 8 8 r o o t t t y . t b x t = ",
"O O O @ @ @ @ @   O O O O O @ @ #     + @ 1 2 @ 3 O O O O 2 Y ' 0 q ( ( I I w 2 O   O O 2 O O O   # v 0.|.M.y   5 0 0 4 2 2 4 4 4 q 4 1 4 ' ' L 4 L L L L ` W.R.| K E ' /.Q.Y.Y.Y.Y.} } Y.Y.R.^.E.R.W.W.W.E.{.{.I ` [.].E.` R.R.W.R.E.{.{.W.` R.Q.^.'.'.'.'.'.'.'.'.'.'.).N.>.S N G.|.$   % > >.P.<XfXCXCXVXoX8 < >.F a.C.S.iXdXfXaXsXsXdXyX.XH.B.;.U Y 2 w I Y p p P P P P H w w H w q 5 q q 4 0 3 @   O @ @ 2 + @ O 2 4 3 6 5 @ q Y Y Y P @ # I I ) w q ) Y ] ] ) ] J Y ] p # Y ,.0 O 5 P Y <.2.{ ] u , >XC.1 U W U 3 + 7 a i X.O.#.;.M.V.B.`.B.B.A..X.XoXoXb.= B.iXyXP.I.Z.uXoXf s.iXc.s.:X,XuXuX2X1XaXL.d j aXaX2X2XaXaX2X5X5X5XfXgXZXfXG K.P.C.x.a.d * h j.J.p.j.m.7 t.k.k.s.F.8X&XeXh.O d f m.d j K.4X8XjXjXZXAXMXFX4Xd h.jXcXCXnXbXAXAXbXAXFXFXFXU.FXNXMXNXFXFXFXvXcXcXZXZXj p.eX0XCXZXCXeXvXfXp.ZXzXvXZXAXcXeXZXZXZXZXcXZXvXCXCXZXp.. 6XCX6X1X2XaX5X,X,XaX,X<X,XuXaX<XaX2X5X,X<X,X,X<XuXI.uX<X<X=XI.K.K.J.I.J.C.I.A.j j H.iXS.L.L.L.OXL.XXA.L.XXA.B.G.H.XXA.A.B.%.+   < g M l.x.a.F D a.c.&.N &.z.N M n , , x x *.*.Z Z D l.B.S c z.D &.&.;.:.%.:.:.+.+.+.X.W b i i t t r r 7 7 3 # # # # + @ @ @ + + +         O O     + . + O Q t p +   + i W U a 7 O O r 3 3 u 3 @ # 3 3 # @ @ @ + @ O O O O O O O O O O O O O O O O O O O O O O     O           + + = = r r t r + # 7 r r = = 8 8 8 > o o y x t t . - y x t = ",
"@ @ 2 2 2 2 2 2 O @ @ 2 2 2 @ # 3 O O 3 5 5 q e P 5 2 @ O O 4 4 O O 2 @ 1 @ O O O O O q Y P ) /   = o.0.}.}.-.  1 6 2 O O 1 2 4 q q 2 2 H K K 4 2 q q L K Y.E.E.{ L L Y.^.E.E.E.(.W.W.W.(.].].(.E.E.E.W.(.(.{.(.1 Y.[.(.E.E.[.(.].E.E.].{.[.[.[.{ '.'.^.^.'.'.'. X X X X X X+X+XIXpXm.L.VXVXVXVXVXsXVXsXdXdXoXa.B.B t.dXfXgXfXeXpXP.m.&.v 5 w H w Y ' ' 3 u p P P P P P I P H w w P w 2 2 q q 4 0 3 O   O @ O O # O O @ 3 5 6 6 2 q J H H w @ 3 I I _ I 2 ] Y ( ) I ) ] | } ( _ ' ] e O 6 5 2 P 2. .[ a % K.P.2 W +.+.i 8 Q ;.:.=.N.N.N.B._.B.V.G.b.N.OX|.M.n . A B.S.P.L.P.dXA.f c.yXyXS.K.=X,X,X,X5X5XC.% D dX2X2X;X,X,XaX,XaX<XfXfXfXeXg.J.DXZXfXfXsXsXsXaX4X4X5XVXr .XZXCXCXCXcXvXAX3Xk.VXsXsX7XjX7X5X7X7XjXjXcXk.h.V - 4XMXjX7X4X8XF.F.F.F.j.j.F.d.$ v.nXnXnXnXbXAXZXeX6XeXrX6XB.V * - d p.=Xg.J.i.f 9 ! d.h.i.h f r.i.s.i.s.j.>XH.J.f 1 > F.4XaX2X;X;X,X,X,XsX,X,X<XuX>X:X:X=X:X:X>X:X>XP.K.:X=XdXyXJ.P.yXP.P.P.P.XXXXC.m.& j P.s.a.a.B c c M h B A.A.s.a.M M B B &.5.V.B.n.b.b.x.l.l.x.B.z.&.N &.x.z.l.;.z.n.=.D =.l.l.n.c.b..XB.l.x.N x.%.&.%.%.o.Q ! ! ! ! ! ! W ! Q Q X.W U W W a a W a a a p p p p a a a p p p p i i , = 0 O 7 # y n     @ u a a r # O 3 3 3 3 3 O O 2 3 @ O O @ @ @ O O O O O O O O O O O O O O O O O O O O O O     # # # # # + O   + + # # 7 = O # r t t r = 7 = = > o o y t t t . = t t t = ",
"2 2 2 6 6 2 2 2 O @ @ 2 2 2 2 3 6 O O 3 w H H e J P I I w 4 O O O @ 4 2 5 u O p Y 2 e ] ] ' 2.[ @ @ a X.+.w.0.o O O O O O 2 2 3 q 4 2 w w 2 2 4 2 2 1 2 H ' | ` E.E.E.E.(.].].].[.E.W.E.].[.].(.^.^.{.^.(.[.[.E.1 Q.[.{.{.[.[.[.[.[.[.[.[.JX[.Y.Y.[.[.[. X[. X X'. X X X X X+X+X0.O  X+X[. X+X).}.'.[.[.[.X.F IXGXSXsXaXyX.XF A q 2 w I T T T T ' ' ' ( r r P J P P H P P H w w w P 0 @ 2 0 w 2 5 @ O   O @ @ 2 # O O O 3 0 3 5 4 q H w H P @ @ I I Y T O ) ) ( Y I ) ) | | ' [ } ( @ O u u @ @ I Q.[ p , C.K.u Q ! :.5.0.M.M.z.B.x.B M M N c g g & Z , o , - %.A A h < d a.=.C J.pXyX>XuXuXaXaXuXaX:X%.. a.aX2X2X2X,X5X2XsX,X5XsXfX7X6XpXp.rXZXcXDXAXvXAXAXAXSXAXAX5X& DXbXAXAXAXAXAXVXa.SXMXbXAXbXbXAXAXbXAXAXFXVX*   oXSXbXbXFXAXAXAXAXSXDXDXCXeXDXCXsX+ 7XAXvXcXcXcXcXZXZXZXZXAXZXZXZX6Xn.: 4XDXcXCX7X5X5X;X,X>X>X>X:XP.P.K.G.N.; < J.2XsXf.* M C.aXsXsXaXaX,X,X2XaX2X,XaXuX,X,X,X,X<Xj.aXaX>X:XK.K.>X>XyXZ.I.P.P.I.P.P.yXXXS.h h XXc.a.s.n.a.G.H.h $ a.XX`.G.L.A.A.A.A.C.c.B.B.B.B.A..XB.B.L.L.L.L.A.A.G.G.B.A.A.B.A.B.c.c.l.l.D l.x.l.b.z.M.M.;.-.5.5.-.4.4.4.1.1.#.#.#.#.O.X.X.O.O.X.X.X.W W ! W W W W W W a a a a a a i y m 3 O ; . o o.X     @ # 3 7 7   # # 3 3 # O O 2 2 @ O O O @ O O O O O O O O O O O O O O O O O O O     O       r s t t t r # # +       O O   o # r r r = = 7 7 r # o t t 8 t + = 8 t t = ",
"2 2 2 2 2 2 2 2 O O @ 2 2 2 2 2 6 O O 2 q H w 4 E Y Y Y Y P w w O w | ' } ] 2 _ ] 4 e ] ' Y ' ( + O U X.X.-.0.= O O @ @ @ @ @ @ 2 1 1 5 2 O O 3 O O 1 1 1 1 2 4 4 L L 4 4 L K K P 0 3 0 5 L L H L L K K K Y L 1 O Y } ` Y.| ` { Y.Y.R.Y.Y./.] 1 Y /.[ 2.~./././.!.!.!.!.!.!.2.)   o <.4 4 L 1 w q 1 K 4 1 w e / I.pXG.b O Y K K ] ' ( Y J _ _ p ,.Y Y U u r I K I P H P H w q w u u 3 O @ 0 0 2 6 @ O   O @ @ 2 O O O O @ 3 3 5 2 q I I I p O O Y I I _ O I _ ] ] ) [ ( ' | ( ) } H   O 5 p 6 3 @ 2.@.s & Z.>Xs 5.:.:.-.;.V.B.B.B.l.B..Xm.x.G..XXXXXOXD ; B.oXXXiXiXXXXXdXA.$ ;.P.S.Z.uXuXuXuX:XC.j $ 1 5.dXaX2XuX,X,XaXaX2X2XsXfXsX6X;X<XfXZXCXZXCXZXZXDXvXvXCXZXDXx M 5X8X;X,X4X*XfX; f.SXAXAXAXAXbXFXFXMXFXAXFXH.O jXFXAXbXAXAXAXbXbXAXAXbXbXAXbXAXAXAXc d.cXfXCXCXeXeXeXeX*XaX7X6X5X*XCXgX#XO f.CXAXAXvXZXZXrXvXZXZXZXZXZXfXZX7Xj 5XeX5X<XL.~ *   g a.C.P.uXaXsXaX2X5XsX,X=X:X:XP.K.uXZ.K.P.S.S.yXP.yXiXiXuXK.P.P.P.P.J.P.A.XXXX< % dXdX>XaXdX>XyXoXl.$ l |.P.oXP.L.L.L.L.L..XB.B.x.l.&.M g M F m.L.A.B.m.B.;.v.;.%.Z x - - l x l l x l x = - 8 = = t t r t u u u u u u u u i i i i i 7 7 = a a U U a a i i i i i i i i i r 2 i . d C.f . 3 o   O O O O # #   + # # 3 3 @ O @ 3 @ @ @ @ 2 @ O O O O O O O O O O O O O O O O         O O O O r r = # # # 7 r r # # O + O       O + + + # 7 r > o o t t 8 t + = 8 8 = = ",
"2 2 2 2 2 2 2 2 O @ @ 2 2 2 2 2 6 O O 3 q H w 4 H Y Y K Y ( Y ) O q { ` | ' 1 ( Y 2 2 ) ] ] ] { 3 O U O.O.$.0.t O @ @ @ @ @ O   O @ @ O O # #   1 O 1 6 2 O O # O     O + @ @ O 3 # + + @ 1 1 2 @ @ 2 O O @ @   O O @ 1 4 1 O 2 O O O O   O . . 1 1 O O 6 1 O 1 2 1 O O O O O O 6 6 4 E L O 2 X 4 2 5 7 9 9 1 4 4 L ` /.E E R R U T T H w I J 4 U u T U a 3 w K I P P P w 4 4 0 p 5 2 O @ 3 5 3 2 O O   O O O 2 O @ O O O @ 3 6 O e P 3 2 2 2 w Y I I _ 2 w I ) ] ) ) Y Y [ ] _ w 2   O 3 u 3 3 + Y <.p * P.pX# #.4.0.M.M.M.z.%.a . , l.b.L.yXS.L.OXM h L.OXL.XXL.L..XiXG.X   &   o &     r : > o q O h P.pX:X:X>X<XaXuXpXK.aXsX5X2X<X-XgXCX4X1XK.p.p.m.b.d.C.t.1Xd.O >X%XU.F.h.f.F.f.O D <XK.J.K.F.F.F.K.F.F.F.I.  G AXvXZXcXvXcXvXvXCXcXZXvXvXCXDXCXcXAXG.  h.d.d.h.J.J.J.I.I.:X-X,XyX;X%X,X6X%Xx 6 i.CXZXeX6XeXeX6X7X7X6X7X5XsX;X  oXZXfX6XeX<XJ.Z e 1 + & & f C.aXsX2X6X6XfXm.f t.t.B.b.d d t t o . % $ . |.yXP.P.P.J.P.J.P.L.oXP.h & I.<X#XF.=X:X:XyXB.&   M M.%.N N h z x , & % % % % , x   % k - . = = . . % % = t n $.;.;.Z >.;.*.o.% > x n n x b t , y b b b n X.X.o.o.n n W Q W b i i 7 7 # # # # # # 7 7 7 7 9 9 7 7 0 9 . d aXZ.d * . . + # @ @ # O O O O @ @ @ O O @ # @ O O @ @ O O O O O O O O O O O O O O O O O         O O O O r r r r 7 r r r r r r r r =   +   O + O   + # # # . o x y t t   = = = = = ",
"2 2 2 2 2 2 2 @   @ @ 2 2 @ @ # 3 O O 3 0 w w 4 2 I Y Y ' Y Y T 6 4 | ^ ' ( 2 ) ' w 2 / ( ' Y | 3 O I T ) X.0.l   O O O @ @ O   + # # O O 3 3 O # O O O # @ @ O 4 1 1 4 5 2 2 4 4 2 O 1 4 4 4 1 # @ @ @ @ # 3 @ 6 2 @ 2 6 2 1 0 # @ O @ 0 X   X u 6 6 2 6 6 1 3 6 7 9 9 6 6 9 9 H 1 R 1 6 u 2 u E H L 4 4 E P 6 O / [ | L L K { / / _ I w P T T U I ] ] T 5 P I P H P P q 2 4 w p 3 O @ 3 3 3 3 1 @ @ O   O O 1 1 @ O     @ @ @ @ 3 3 O O 4 q T Y Y I T 0 2 q _ Y Y ( ( ' ,.I u O O   @ 3 5 6 @ 7 w _ p O x.C.O + i w.}.0.b = . t o.>.&.M x..XiXOXx & H.G.G..XG..X.XpXl.. A |..XoXL.XXoXOX_.Q i 0 / x J.>XJ.P.>X>X<X:XP.J.G K.j.>X-X5XDXfXh z d.o K.;X5X5X7X6XfXDXd i.ZXAXDXDXZXvXAX4X. VXAXcXZXCXVXVX7X6XsX5XsXaX9 d.SXAXAXAXDXAXAXAXCXh.SXSXSXGXGXGXAXGXVXA GXAXAXAXAXAXAXAXAXAXbXAXAXAXAXSXbXAXSX4Xo e f.7X6X5X5XsXVXsXfXCXVXsXZXc.o sXgXgXcXZX6XI.L.|.z.b s i . f dXfXaX2XsXsX<XaX,X<X<X>XuX:XuX:XK.:XyXi.d dXyXP.P.P.XXP.L.A.L.XXL.x ; :XpXI.K.:X:X:XiXyXm.< o   -..Xc.x.N.N.B.|.|.|.|.|..XX.n *.b # s ;.V.b.B.G..XOXOX.XOX|.v.G..XOX|.v.G..X|.G.B.|.G.N.N.N.N.M.M.M.M.;.;.0.0.0.M.M.M.M.M.-.o.W b W o.+.+.! X.X.+.+.+.X.X.X.W r $ <XaXi.B & .   # 3 3 3 # O   O O O O O   O O O O O O O O O O O O O O O O             O O         O O O O r t t a a i t r r r t t t t # 7 = r = # # + + . o   . r 8 = r   = = = = = ",
"@ 2 2 2 @ @ @ @   O @ 2 @ O @ @ 3 O O 3 0 5 q 3 O P Y K ' ' Y ' 3 2 [ ' ' ] 1 w ] I 2 I ( ] Y } 3 O I _ O.O.;.- O @ @ @ @ @ O   + + # 2 X O O @   # 3 @ O @ 6 2 1 2 2 1 1 1 2 2 2 @ @ + # @ # # O O 1 6 1 1 1 O 1 2 2 2 1 6 @ X 1 4 4 1 4 2 O 1 2 O q 4 1 4 1 4 3 1 O O 2 4 4 2 @ @ X # 0 O H 4 6 5 5 4 2 2 4 4 5 5 ] 2.5 5 ! 3 4 J ' ( H w w u T Y | L E w U u H H P P q 2 4 w p 2 O @ 3 3 6 3 O @ @ O   O O O 2 O O     O @ O # @ @ @ 0 T P Y Y Y I U p O 2 I ] Y ( ( ] T 2   3 @     @ 5 0 4 6 2 e e O $ ; O     7 a = + +.}.L.G.B..X|.;.%.}.g z .X.XL.XXL.XXoXoXd . B.iXiXOXP.pXP.pXpXS t : :.yXsXiXoXdXuXpX4XsX2XdXB.% m.uXuXsXrXCXx . M.i B.ZXZXZXZXZXZXAXH.O sXSXAXZXAXAXSXGXL.* AXFXSXAXFX1X5XGXbXbXAXAXFXv n.GXGXAXGXFXGXFXGXDXj GXGXAXSXAXSXGXGXVX* AXAXAXAXAXZXZXAXAXAXZXAXvXZXZXAXvXvXZXAXcX$ + :XDXZXCXCXCXgXgXfXfXgXfXCX+ B CXeXsXfXfXeXeXeXaXG./ ' U . r.sXsXsX2X2XsX<X,XaX,XuX,X2X<X,XuX,XiXiX& f dXyXP.oXA.P.XXK.P.G.XXiXB   |.dXaXuXyXyX>XP.yXoXB.; M L.I.L.H.`.`.A.A.B.A.A.L..Xl.n.G.A . D iXXX.XL.L.L.L.B.A.B.L.A.B.B.B.G.G.B.l.M D B.|.B.B.b.b.b.z.z.z.z.z.;.;.;.;.;.;.;.0.0.#.n b n o.$.#.+.+.o.+.+.+.+.X.c :._   f aXr.g.&.%   . # # # # # O   O O O O         O O @ @ O     O O                                 O O O O r r r r r r t t i t t = 7 = + # r t t t t r 7 = o     o . o r + = = r = = ",
"2 2 @ 2 2 2 2 2 O O @ 2 2 2 @ @ # @ @ 2 3 w q q O H ) J Y Y ( Y 2 I ( ' ] ( 2 P ( ) O P ] ' ( ] 0 O u O.! O.0.= O @ @ O O O O   O O @ @ @ @ @ @ O O @ 3 2 1 1 2 @ @ @ @ 2 2 @ @ @ @ @ @ @ 2 2 @ O O @ @ 2 2 O O @ @ @ 2 @ 2 2 2 @ 2 2 2 3 2 O @ 2 2 2 2 2 2 2 2 1 2 2 2 1 2 2 1 2 2 4 4 4 4 4 3 5 5 5 5 5 5 5 5 1 J } ' I O T E q I I Y I 2 I P K ] _ q I H w p H q P P 2 4 H 4 t O O 4 4 2 + . + O @     . O 6     # @ O O + + O # # @ w I Y Y H Y I I Y w O @ I Y | ] u O   # 6 O O     + + O 3 0 @ 1 4 Y.KXKXLXq.. . 7 3.).N.m.N.w.B.L..X~ 9 & H.I.L..XOXL.I.|.% ; L.oXXXL.L.P.yXpXG.1.I % c.pX>XI.oXyXI.>X>X,X,XaXdX+X< >XfXeXeXCXK.$ a O g g.sXCXgXrXZXZXCX& p.DXCXCXCXCXCXcXZXk.f VX;X>X=X-Xz.j SXAXAXAXAXSXj g pXpXdXdXVXVXVXVXpXj VXDXcXZXDXDXZXZXDXV DXGXAXAXAXAXAXAXAXAXbXAXAXAXAXbXbXbXbXvXAX>X  8 P.ZXCXCXCXfXfXfXfXfXsXfXdXf d.CXrXgXeXfXfX6XsXsX=Xx b y . i.sXCXZXfXsX5X2XaX2X,X2X,X2X,X,X,XaXuX<X. z pXdXiXiXXXOXXXoXL.L.XX.Xg   x.L..XH.N.0.;.M.-.}.9.  x .X.XA.A.B.B.G.G.G.B.B.L.B.B.B .Xz . -..XL.L.L.L.B.B.B.B.B.B.B.B.B.B.B.b..XG.N g ;.B.B.B.N.N.M.M.M.z.;.0.;.;.;.;.;.;.;.;.0.;.o.b t a b o.$.+.$.X.W W +.Z Y +.g X G Z.=Xl..   #.O.O #   @ O O @ @ O O O O O O O O O O O     O @ @ @ O O O O O O O O O O   O @ O O O O O t t t t r r t t t t t r 7 7 t t t t r r t t t t r 7 3 # @ O     + + # # # ",
"2 @ @ @ 2 2 2 @ O O @ 2 2 2 2 @ # @ @ 2 3 w q q O w ( K ' K ( ( O I Y ' ' ( 1 I ( ) O w ' ' ( ( 5 O r O.! ! 0.= O @ @ @ @ @ @ O O @ @ @ @ @ @ @ O O @ 2 @ O O 2 @ O O @ @ @ @ O @ 2 @ 2 @ @ 2 @ O O O @ 2 @ O O @ @ @ 2 @ 2 2 2 O 1 1 2 5 1 O O 2 2 2 2 2 2 2 2 2 2 2 1 2 2 2 1 2 2 2 2 4 4 4 4 4 4 4 4 4 4 4 4 O H | ' Y O Y Y I ( Y Y I 2 P H K ) I 4 P J P P P w P p 1 4 H q 3 @ @ O + O   O X   X 5 P H e X 2 O O O O 3 O O   # # @ 3 w P I I I I I ) I 3 3 0 w H 2 @ # @ O     X     O O   @ @ @ Y 2.'.KXLXLXIXLX<.. $ & a %.;.z.a.Z 3.4   1 @ Z n.I.L.OX).  n .XoXL.L.OXXXXXyXI.&.3 @ =.pX:XyXyXXXoXoXuXuXdXaXdXyX|.& C.aXdXsXsXL.. 9 + %.=.H.L.P.>X>XyXyXO x I.m.L.L.I.I.L.yXQ 1 =.g W x.=.O., oXaXpXpXsXVXA w 8.O.$.#.e.5.! ~.~.u 5.N.B.m..XU.B.I.H.O VXDXDXCXCXCXCXCXCXCXZXCXCXCXcXCXcXCXCXCXAXDXj . n.uXdXoXL.oXiXoXpXiXuXyXiXdXt.Z.fXaX,X,X,X,X:X>XP.w.p U 3 . x.pXdXuX:XP.Z.P.P.P.J.XXP.P.A.A.A.A.A.U   c l.l.l.g % $.*.m Q Q +.a u . i a W 1.3.,.O.-.9.w.X.* c .XyXG.B.N.v.N.B.B.N.v.G.B.G.v.OXZ   B.G.|.B.N.B.G.N.N.B.N.M.M.N.N.M.N.M.v.M.;.n :.N.M.M.M.M.M.M.M.M.-.0.0.0.0.5.5.0.0.0.0.5.-.#.#.#.X.W X.X.+.X.W X.c ) X.,   . f A.D . + #.X.O 3 p 3 @ O @ # @ O O O O O   O O O O     O O @ @ O O O O O O O O O O   O O O O O O O r r r r r r r r r r t t t t i i t t r t t i i t r r r 7 3 # # #           ",
"2 @ @ @ 2 2 2 @ O O 2 1 2 2 2 @ # @ @ 2 3 q q q @ 4 Y Y ] K Y Y O Y Y ^ | ( 1 I ^ ) O w ] ' ' ( 0 O 0 O.) O.9.= O @ @ 2 1 @ O O O O O O @ @ @ O O O @ @ @ O O @ @ @ @ @ @ 2 @ @ O O O O O O O O O O O O @ @ O O @ @ @ @ @ @ O O 1 2 1 1 2 1 O O 2 2 2 1 2 2 2 1 2 2 2 2 2 2 2 O 2 2 4 4 4 4 4 4 2 2 4 q 4 4 q q O J | ' ) 1 H ] ( ) Y Y I 2 P p Y Y w O P P P P H w P 0 O 2 w 5 E L O . . O 1 L L Y.| Y.E.W.E.{ ' 1 2 O   3 O O   @ @ @ @ 2 3 P / I H J _ I e 3 0 e 4 @     O P ^.^.^./.( 1     @ @ 2 q 1 1 4 K !.KXPXLX[.Y O . @ 9 . o   . h U.I.S O O g a.Z 5 + n N.B.N.B.B.z.|.G.h , p p >.B.z.b.N.v.M.N.G.H.B.L.H.n i # % j Q c M x O q @ o.#.$.n %.N c &.=.O @.H.N.}.~.}.w.H. X( 4 $.>.#.c /.9.: X 3 % , < x o 4 L I t y H p 0 / p I 0 7 9 9 # s E w : @ < %.N m m m m l l 9 W 9 i ! v i ! k +.=.p.K.a.O H M.;.-.+.+.:.:.W :.Z A D z.z.%.A O.b W U O.U P ,.x b ) ,.3   & & 7 u U ! U u p U r r p a p r 0 3 p 3 y r o > # + p p w I 0 u U T 3 u P P P R I P y a a O.+ . S B.x x b b a b b b $.= t Q = +.r + - b b y t v b i b y t b x v y y b t r a a 7 7 i t r r i i a b b W W W W X.+.$.$.+.X.X.X.O.O.X.X.O.W a W O.$.O.O.c ) / > # N ;   - o r / U   3 r u 3 @ # r u 3 3 O @ @ @ @ O O @ O   O @ @ @ @ O               O     O O @ @ O O r r r r r r s s r t i i i t r r i t r r r r r r r t r r r r r r # # +   O ",
"2 2 @ @ 2 2 2 @ O O 2 1 2 2 2 @ @ @ @ 2 3 q q 5 O 2 I Y ' K Y H O ( ( K | ( O P ^ ( @ 4 ( ' ' ] p O 0 / O.O.4.= O O @ O @ O O O O @ @ @ @ @ @ @ @ @ @ # # @ @ @ @ @ @ @ @ @ @ @ O O O O O O O O O @ @ @ 2 @ @ O @ @ @ @ @ @ @ @ @ @ 1 2 3 2 O @ 2 2 2 2 2 1 2 2 2 1 1 2 2 2 2 O 2 2 2 2 5 5 5 5 2 4 4 4 q 4 q q O I ' Y ] 2 4 ] ' ( I Y ( 2 P p ( I 0 O P P H w H w w e @ 3 0 3 2 2 O   # O O T ^.[.[.JXJXJX[.W.E.'.L 2 3   O 2 O @ @ @ @ O @ q P I I I I w 4 2 3 @ X X O @ ] ^.[.[.[.[.[.| X   O @ 3 0 P P I Y @ 4 { JXPXPX[.@   r w 1 % >XDXSXGXGXdXl   X   + u 3 # 7 i t t i s a . 0 P 2 r % s : : s p r r r # 0 s @ P I p s I s < , r r o y D D =.=.S =.v.S . x h x n b o.S S x + + n l Q M.*.D < > r b , t m < > u b & , 9 > y , , g b i 9 t < , t u O.o - y y y y y s s s C : , < , A : s t p e r < A     z - x Z 8 - m b u s s > + W s : > t y , x b t X.c n r r i 7 > X.x y t t t t t , t r 7 7 = 7 r t 9 i u r # u W 9 > y r s 0 3 r 7 r r i t = = t t r u # u p +   o 7 3 3 u u r 7 u 3 # U @ u @ 3 u 3 # 3 r 3 3 3 u # # 3 r r 3 3 3 3 0 3 # 3 u u 3 @ @ @ @ # # # # # # O O # # 3 3 r 3 # # 3 r u u y r # # r u y p x p / = . iXJ.X         O + r r 0 @ O @ 3 7 3 # O O @ @ @ O O O   O O O @ @ @ O                     O O + # O   + + + # # # 7 7 r r t t t t r r i t r t i i t r i i i i i u r r u u r 3 3 ",
"2 2 2 2 3 2 2 @ O @ 2 2 2 2 2 @ # @ @ 2 3 q q 4 O 2 Y K Y Y ( q 2 ( ^ K ] ( O 0 ^ ( 2 @ Y ' ( ' p O 3 U O.O.4.> O O O O @ O O   @ @ @ @ @ @ @ @ O O O @ @ O O O O O O O O O O O O O O O O O O O O O O @ @ @ O O O O O @ @ @ @ @ O O O O @ O O O @ @ @ @ O O O O @ O O O 2 2 @ O O O O O @ @ @ @ @ @ @ 2 2 2 2 2 O I ' K ] 4 1 T ( ( J ( _ 2 p 0 I p # O P P H w H w 3 2 # 3 3 O   X X @ 4 X   o ( E.E.` 6.!.[.PXW.W.^.( O O 7   O @ @ @ # O O 2 e w I Y w 4 2 3 6 2 O O 2 ] /.] e ^ | ^.[.'.Y O @ @ @ 2 U T u w '.2.X.U R.KXPXLXw.  r L ~ J.i.+ a.>XGXVXn.O ] # 4 P P q q q q I 4 w p w w 4 u p a t u U W U i b +.u a U ! * u C W Q x t % . . = h c Z *.-.>.*.% % < o % t t & g & > % % *.-.$.#.F t + , , a P W R o : u a % x R p p % x % t y p 0 r , < < 9 + p t t t i i u u a > = t , - t x , > x h > a % - % t a y y *.n > y b W ! u T u y N y y y y t b y y b t a r > %   r = t y r r y y > r t t r t t t 7 ! 9 # u p 3 7 7 * x s # r s s t s # 7 t t i t r 0 u 0 @ u r     U u 3 3 u u r 3 @ u u @ r r @ + 3 @ @ 3 3 2 2 2 @ e 3 @ O 3 3 3 0 3 @ 3 3 2 2 3 0 0 3 3 3 3 # # O # 3 7 3 # @ @ @ @ @ @ @ # 3 3 + O O @ @ + + # 7 @ : O . uX>XA A y 0 O #   O O O O O O O @ O O   O @ @ O O O O     O O O O O   O O O O     O O O O O O + + O           O O O O + + + # 7 r s u r r r r i i t r i i i r 9 9 r 7 r r r r r ",
"2 2 2 2 3 2 @ O O @ 2 2 2 2 2 @ # @ @ 2 3 q q 4 O @ I K K Y _ 2 q ( ^ ^ ( ( @ 3 ^ ( e O I ( K ' p O @ U O.O.#.> O @ O O O @ @       O O O O O O         O O O O O O O O O O O   O O O O O O O O O O O O O O O   O O O O O O O O         O         O             O O O O O O O O O O O O O O O O O O O O O O O O @ I ' K ] w O P ( ( Y ) _ O 0 3 H 0 # O I P w q 5 3 @ O @ @ O O 1 Q.[.[.[.[.' 1 O L ` ` Y.` W.LXIX[.W.R.E 1   + O @ O O 2 2 O O O 3 P I q 2 3 3 5 1 O O P ] H O O ( } { ^.[.] O O O @ 5 P w 5 O.Y.^.Q.3.~.~.[.LXPX[.  P ).4.P W.E i h 4XDXy.+ L @ 2 1 2 0 3 @ @ 3 O O O @ 0 @ 3 + 3 # 3 + 3 # 7 # + # # 8 = r : @ # 3 @ O # 3 0 O O O 2 2 @ @   O O O O + o       @       > o @ / 2 O       O O 1 O X O O O O 1 1 O O +         2 1 . X +   #                     X @ e 4 O 0 X 1 + $ = 4 O 1 1 e w e 2 # 3 0 s t * 9 5 2 e s . 2 5 O 3 3 3 3 u 5 r a r t o   @.p 2 1 w H 4 4 w 2 e e 0 0 e e 0 # 7 0 0 # O + #   # a 3 3 3 2 e 3 # # 3 3 2 2 q u O r #   # o   O 3 r = + 7 9 3 i + + 7 # # # r 3 r 3 # # 7 3 O @ O O 3 3 O O 7 # @ + # # O + # O O O O O O O   + O O O @ # @ O O @ @ @ O O O O O O + # # @ O O O O     $ ,Xj.. + r X.y W a u u 3 3 3 3 # 3 3 # @ @ @ @ @ @ O O O O O O O O O O O O O O O O O O O O O @ + @ O   O O O O O       O O O O @ # 3 3 r 7 7 3 3 3 # # # # + # # # # # 3 3 3 7 r ",
"@ @ 2 2 2 @ O O O @ 3 2 2 2 2 @ # @ @ 2 3 q q 4 O O P K K K I O J ( ' ' K ) 4 @ K Y 0 O I ( ' ' p O O p O.! #.>   O O O O O O                               O O @ O O O O O O O O   O O O O O O O O O O O O O   O O O O O O     O O O O O O O O O O O O O O O O O O O O O O O O O O O O O O O O O O O O O O O O   H ' ' ' P O 0 ( ( Y ) T O 3 # H q @ O p 5 3 3 O @ O O O 1 2 q ^.[.[.].].].].E.p O Y.JXJXJXE.X [.LXE.E.'.1 O   O @ O O @ 6 1 O @ O 3 p 5 6 5 3 @     u T 5 O X E /.^.Y.^./.P O   @ 0 w P 4 4 8.4.] ` K P O @ ,.JXPX[.O P E | E L E E $ C.dXd 6 %.c m o.o.c c S n m -.*.Z S n W X.U > y y A a X.C $.o.b $.e.X # *.b X.s y Z Z x M D B F a.a.n.m.B.m.G.m.c.m.G.G. XP $ m.B.A.J.H.O F J.J.I.K.I.P.J.J.C.d.d.G.b.H.c.m.m.m.m.A.A.m.f.B.d.o #.J.d.f.m.m.n.n.n.f.a.f.a.a.N . m z j f G G d , v.d.G G . % =.G.m.a.d.f.a.d.F m.F F x : j L.c.C.C.m.C.A.B..XL.B.L.b.l o.dXL.F x.B.N.n.b.B.V.z.l.&.%.;._.M.N.M.;.M.H.N.0.$.= N.N.;.;.%.o.Q %.%.%.%.b p @.$.x o.%.x n Q t % t %.:.%.%.%.-.%.%.M.0.5.-.N.;.;.0.0.-.-.0.5.:.o.t = n o.! v Q b +.o.Q Q o.:.o.:.:.:.-.-.-.-.+.#.b r = 7 t a b 9 9 9 9 7 7 3 # # 7 r i s 7 + @ O 7 = @   >X-Xv . = / @ + 9 u u u u u u r u 3 3 3 3 3 3 3 3 2 @ @ @ @ @ @ @ @ X @ @ @ @ @ @ @ @   O O O @       @ @ O O O O O O @ O O O O O O   # # # # # # # + # # # # 3 3 3 3 r r 0 0 0 ",
"@ @ @ @ 2 @ O O @ @ 3 2 1 2 2 @ # @ @ 2 3 q q 4 + O w Y K L P O ( K ^ ` K ) q @ K Y w O I ' K ' u O O u ) U #.>     O O O         O O O O O O O O     O + + # # # @ @ @ @ @ @ @ @ @ @ @ @ @ @ @ @ @ @ @ 2 2 @ @ @ @ @ @ @ O O O 2 2 1 1 5 2 1 6 2 2 2 2 2 2 2 1 O O @ # @ O O 3 2 2 2 2 2 2 2 2 # # # # 2 2 2 2   0 ' ' ( I O 3 ( ( Y ( Y O 3 3 H q @ O 3 O O O O + @ O @ q I ] E.W.R.E.R.E.E.{.(.) . X W.].{.w 4 L W.E.E.' O X O 2 O O O 2 2 2 + O @ 3 2 3 5 # @     3 5 1   % 3 3 O H Q.] 1 O O @ @ O w H 1 w K 3 . . @ 4 2   $ [.LXR.e ` L p L w O o   e.OXa.L.B.B.B.B.L.L.L..X.X|..XL..X.X|.OXN.S B.|..X|..X|..X.X.XOX.Xd .XuXP.oXL.C.:XuXaXaXsX6X6XfXfXfXsXeXfXfXfXfXfXfX4Xp.f.5XZXDXCXAX6X& eXvXZXCXvXvXCXvXZXZXvXAXDX7X7XAXAXvXAXAXAXvXAXAXZXAXd.B SXSXDXDXCXCXCXCXCXCXCXCXsXsXd K.DXCXCXeXDXdX$ VXSXZXZXVX=Xp.%XCXCXeXeXfXsX6X6XeXfXdXd i.dXpXuXdXuXuXuXuX>X<X,XuXuXoXj I.pXpXoXXXXXoXXXXXL.XXoXL.a.D b..X.X.X.X.X.XA..XG.d L.XXS.P.P.A.A.P.P.P.XXb.h g ;.|.N.V.B.V.B.N.M.N N B..XB.N.G.B.B.M.N.N.N.M.N.N.N.N.N.N.M.M.N.N.M.o.= m N._.5.M.M.M.M.M.M.M.M.V.V.V.0.0.0.5.-.4.w.N.+.= o t $.0.5.:.:.-.-.#.#.#.+.+.#.#.+.W W p . ; P   K.>X9 7 + i r 7 7 # 3 # 3 3 # # 3 @ O 0 3 3 3 3 3 2 1 @ @ @ @ @ @ O O @ @ @ @ O O O O     O O     O             O O O O O O O     O   O O @ # r u a p u u u u u u p p u u u u u ",
"2 O @ @ @ O O # @ 3 2 @ 2 1 O 2 # # # 3 3 2 4 I Y 4 2 @ w / O 0 ' K ' ' ^ ( I O L ( w O q ) K ' e X   . , t = O + O 2 L L q O     @ 2 1 .   @ O @ O O @ O O @ 2 @ @ O O O O O O @ @ @ 1 1 1 O O @ @ @ @ 2 2 2 @ @ @ 1 2 2 O O O 2 2 2 2 2 2 1 1 @ @ 2 2 2 2 2 2 @ 1 2 2 @ O O 2 2 2 2 2 2 2 2 2 2 @ @ @ @ 2 2 2 O q Y K ] Y u O Y Y I _ P O 3 p : @ O 1 2 5 3 3 2 4 K ' ' 4   Z W.Q.!.E.].].E.w ^.(.E.2 O Y.{.(.7   2 ].].W.2 1 O       O @ @ O O     O # # # @   O O @ # # # # 3 # @ 3 u u # O O O O @ 3 # @   @ 3 3 3 3 3 3 # 7 O !.[.L L H P w H 4 O O . m M.B.B.B.B.B.B.G..XH.B.L.B.|.|.|.OXN.& a.P.Z.P.oXoXiX>X>X,XaX_.i >XK.K.:X:X,XaX5X5XaX2X6X2XaXaXaXaXaX6XeX6X2XsXK.= 2XCXCXgXeXZXDXC.p.SXZXvXZXZXZXZXvXZXZXCXZXAXC.4XAXZXZXZXZXvXZXZXvXvXAXCX  >.DXZXfXfXfXfXsXsXfX6XsX6XgX< l.SXcXZXCXvXSXd.j SXcXcXZXZXCXf.G 6XcXsXeX6X2XaX5X,XsX<X2 yX1X,XiXuXyX:X>X>X:XyXyX:X:X<Xi.d.L.I.P.P.P.I.G.G.L.A.A.L.z.x l.B..XG.G.G.B.z.G.N.n z.OXL.C.S.L.A.L.A.B..XL.t.o x ;.N.N.M.v.N.z.|.&.d =.|.N.N.N.N.N.N.M.M.N.M.M.M.M.M.N.M.M.M.v.M.N.0.x o a w.M.0.0.M.0.-.;.M.0.0.0.0.0.5.0.0.0.0.0.0.0.#.t   r +.9.-.$.+.+.+.#.#.#.#.#.#.#.#.! U + + . z.OXd % % > # # 3 u 9 3 3 # # 3 3 # # q 3 2 2 4 4 2 @ 1 1 1 O O @ @ @ @ @ @ @ O O O O                 O O O O       O   O O O O O @ # @ @ O O @ # 7 r # 3 3 3 @ @ # 3 + + # # 3 ",
"2 O @ + @ O @ # @ 3 2 @ 2 1 O 2 # # @ 2 4 4 4 I Y H w e e p O w ( K ' ' ' ] P O H ( H O 2 _ I ( w O       O O H Y.^.E.E.{.[.[.{.5 O ; ; O 1   @ @ O O 3 @ @ O O @ @ O O O O O O @ @ @ 1 1 1 O O @ @ @ @ @ @ 2 @ @ @ 1 2 2 O O O 2 2 2 2 2 2 1 1 @ @ 2 2 2 2 2 2 @ 1 2 2 @   O 2 @ 2 2 2 2 2 2 2 2 @ @ @ @ 2 2 2 O q Y H Y I p O I ( Y _ H 1 6 3 O 2 5 u p 3 @   X e ..R.{.{.` 1 ` ` R.^.^.Y 2 # q ' [.(.` 1 E [.^.L L [.JX'.p = O         O O   O     O O O O O O O     @ @ # # # @ @ # 3 3 @     @ 3 3 @ @ # # @ # 3 3 3 3 3 3 = O O '.| 1 P 2 1 H 4 2 r   . M..X|.G.G.G.B.B.B.L.OXN.G..XOXOXv.; .XyXyXuXyXP.pXdXuXpXsXdXn %.<XuXaXaXaXaXaXaXaX4X5X5X5X6X5X6XeX7XeXsX4XfXyX; sXZXeXCXCXsXP.j h %XCXvXAXZXCXZXAXZXCXvXAXZXAXh.8XbXvXvXAXAXvXZXvXvXcXAXAX;X  m.DXCXcX6X6XsX4X4X4X>X;XaXC   ,X4XdXpX,XsX.X$ %XvXeXeXeXeXZX%X& 5XZXeXeX6X6X5X5X5X5Xr n.sX>XoXyXI.pXoXoXyXyXXXP.I.yXiXyXP.S.iXiXiXXX:XP.P.P.XXXXA.A.b.B.G.G.G..X.X.XN.B.z.d b.iXL.P.L.L.A.P.XXL.L.oX.XB ; %.B._.B.V.B.l.b.n.g n N._._.N.M.N.N.M.M.M.M.M.M.M.M.M.M.M.N.M.M.M.M.o.y = 5.0.5.0.M.N.M.;.M.M.0.0.0.5.0.5.-.-.;.5.0.M.0.-.= = t -.0.4.+.-.$.$.#.#.#.#.#.#.1.$.p i   $ v.z % # > r 3 3 3 3 r r 3 # 3 # O O 5 2 2 2 3 2 2 O @ O O O O O O O O @ @ @ @ @ @ @                 O O O O         O O O O O O O O @ @ @ O @ @ # # 3 r u u u 3 3 3 3 0 0 0 r ",
"2 @ @ # @ @ @ @ @ 3 @ O 2 2 O 2 # # @ 2 4 4 w Y Y Y Y P 3 2 O P ( K ^ ' ( ( I 2 L ( I O O 0 2 4 O       O 4 ' T.E.E.E.E.W.(.].JXPX'.  2 #   2 O O   O @ @ 2 @ O @ @ O O O O O O O O O 1 1 1 O O @ @ @ @ @ @ @ @ @ @ 1 2 2 O O O 2 2 @ @ 2 2 2 1 @ @ 2 2 2 2 2 2 @ 2 2 2 @   O 2 2 1 O 2 2 1 2 2 2 @ @ @ @ 2 2 2 O q ) J ( T p O 4 H P w 2 O 2 2 5 5 5 3 @ @ @ # E Y.^.{.(.{.E.L O K Y.K O . = u q @ ^ {.].Y.L ^ R.[.[.W.L Y.] + O @ +   O O @ O O O O O O O   O           O + # @ + # # @       O @ # @ # # # O # # # # 3 3 3 3 # # O e I O O   4 2 @ X     %.OX.X.X|.|.|.|.|..XXXB.OXG..XoXG.o S.dXyX:XuXuXuXuXaXyX,XaXXX  L.aX4X4X4X,X4XuXaXuX2X2X2X2X6XsX6X1X*XaX5X7XfXD G CXeXZXDXs.k _.>XcXZXZXvXvXvXZXZXvXCXcXnXcXvXAXh.2XbXvXvXZXZXvXZXZXZXZXCXvXAXV.O i.h.j.j.=X=XZ.=X=X<XF.Z.% O & h . , d f %.d j.CXCXCXCXcX0XZXyX; sXCXeXfX6X5XaXaXsXZ.$ iXdXuXuX:X>XyXuXiX:X:XyXyXP.P.I.I.I.oXP.P.XXP.P.L.L.L.L.L.A.XXXX.X.XA.A.A.A.OXB.|.b.; D pXiXyXyXyXXXP.XXXXXXoXXXz.. . ;.|.B.v.b.N.B.b.N l n N.B.N.M.N.B.N.N.M.N.N.M.N.N.N.N.N.M.M.V.N.M.%.t . o.M.0.-.;.M.;.;.;.0.0.0.0.0.0.N.N.M.0.5.5.5.;.w.W + + X.0.4.W #.#.#.#.#.+.O.O.X.W W #.r   . $ o   + r # # # 3 # 3 # + # # O O 5 5 6 5 5 5 2 1 @ @ @ @ @ @ @ @ O O O O O                       O O O O O   O O O O O O @ @ @ @ O @ @ @ @ O O O @ 3 r u u u u u p p p u u ",
"2 2 @ @ @ @ @ @ @ @ @ O 2 2 1 2 # # @ 2 w w H Y J I ( I w O O U Y Y K ^ ( ( K w q H p O   @ O O O O O O O q ' | Y.Y.R.'.'.E.(.(.E.PXPXe   2 o O O O O O O @ 3 O @ @ O O O O O O O O O 1 1 1 O O @ @ @ @ @ @ @ @ @ @ 1 2 2 O O O 2 2 2 O 2 2 2 1 @ @ 2 2 2 2 2 2 @ 1 2 2 @   O 2 @ O O O 2 1 1 2 2 @ @ @ @ 2 2 2 O 3 _ I ( P 0 O O 2 @ 2 O O 3 3 w 5 3 @ O O O O O Y Y.^.(.[.[.^.$ . O O # r w L b L 4   . X O O @ 1 1 2 ` JX[.W.O O   + # 6 3 @ 6 3 3 3 3 # # 3 7 # +     O + # # # # # + O     O O @ @ # 3 # O # @ @ @ # # # @   @ 0 O       X O O O     x N.|.B.N.N.B.B.B.B.G.A.OX|.OXoX.Xd b.yXI.I.>XK.K.>X:X=XyX2XaXZ g >XaX<X,X,X,X,X,X2X2X4XaX,X4X,X5X6X6X7XVXsXeX<X  XXCXeXfXa.X 4XGXbXZXvXAXAXZXAXAXAXAXZXAXbXAXSXAXs.,XAXAXAXAXAXvXvXbXcXAXAXCXbXDXG   ;XCXCXZXZXZXZXvXvXAXAXF.d <XZXAXZXZXZXZXSXZXvXrXeXCXeXrXeXeXF.P.CX6X6X6X5X5X5XaX5X$ S dXpX>X>X>XI.I.:X<X<X=XI.I.>XI.J.J.I.P.J.P.P.XXP.P.S.P.XXL.=.S x & . . $ % d N.N.|.N.$ g |.XXJ.L.L.L.A.A.A.B.n.v.H.A . , N.B.B.N.z.b.N.;.*.y -.M.0.0.M.M.M.M.M.M.M.M.M.M.M.M.M.M.M.z.M.M.M.Q = - -.N.;.;.M.M.M.0.0.;.;.;.;.-.;.0.0.0.M.N.N.w.}.w.a   # $.w.4.4.4.4.4.4.4.4.#.1.1.3.1.u                 o # @ @ @ O + @   O 2 2 2 3 3 3 @ O @ @ @ @ @ O @ @ O O O                   O O     O O O           O O O @ @ # @ @ O @ @ # # @ @ O O @ # 3 3 u p U u u u u u ",
"2 2 @ @ @ @ @ @ @ @ O O 2 2 @ 2 # 2 2 5 P H H Y Y J I I I @ O u ' ( K K ( ( Y Y q 2 @       O O P p P P 2 O O u ' } } | Y.^.[.JXJXW.JXPXY.  @ o X O @ 2 O O 2 O @ @ O O O O O O O O O 1 1 1 O O 2 2 @ @ @ @ @ @ @ @ O 2 2 O O O 2 2 O O 2 2 1 1 @ @ 2 2 2 2 2 2 @ 1 2 2 @   O 2 2 2 2 2 1 1 1 2 2 2 2 2 1 2 2 2 @ O 4 2 q 1 2 3 e 3 O 3 5 6 0 0 3 @ O O O 5 E ] p ( q L { ' ( J       O O 2 H K 9 5 # $ R ^.E.!.> O 9 _ { (.(.].w O O 3 u 5 u u u u u u u u r 3 r 7 # O         O O O O           O @   O O # 3 # @ @ @ @ @ @ @ # # O   . % = # 8 b - $ -.N.z.&.D S S S D S S D S x.z.N.|.; a.dX:X:XuX>XP.>X>XuX>XuXsXyXX A.2X>X,XuXuX,X,X,X,X5X6X2X-XaXsXsXfXeXeX1XsXfXd $ aXvXSX1X  O y.3XCXeX6X7X7X7X6X7X7X7XsX5X;XI.K.i.  f.8X;X5X6XCXcX7X6XcX0XcXVXeXvXp.  *XAXAXAXAXAXbXbXvXSXAXCXO L.AXvXZXZXAXZXZXZXZXCXcXrXcXCXeXeX3XJ.ZXCXfXfXfXsXsXaXsXA.. L.sXsXdXdXuXuXuXuXuXuXuXyXuXuXuXyXuXuXiXiX.XoXA.A.XXB.B h h S v.H.G.|.H.M.=.d c g % o   . D G.B.b.B.B.b.G.B.B.B.G.G.;.,   N B.G.b.b.M.=.Z b , % % % * b 0.N.H.N.N.N.N.M.M.N.0.0.M.M.M.0.>.#.r   o x ;.M.;.;.;.5.0.0.M.M.M.0.0.-.-.+.X.b i r # # = =     + i i a a U W W W a W p r p u # X.7 # +             O     O       O O     O                               O O @ + O O O O   O             O O O   @ O O O @ @ O O @ @ @ @ @ @ @ @ @ @ @ O @ # 3 3 u u u u P ",
"2 2 @ @ O @ @ @ @ @ O O @ 2 @ 2 2 2 2 q I J H Y ( Y I I _ @ O 3 ' ] ( Y ( ( ( ' I O O     O @ p Y ' } Q.| I 3 # { { { Y.R.E.E.(.JXJXW.].PX[.  O O   O 3 @ O @ @ @ @ O O O O O O O O O 1 O 1 O O @ 2 @ @ @ @ @ @ @ @ O 1 2 O O O 2 2 O O 2 2 1 1 @ @ 2 2 2 2 2 2 @ 1 2 2 @   O 2 @ 2 2 2 1 1 O 1 2 2 1 1 1 2 2 2 @ O 1 4 w 1 5 P I w 2 P I 0 5 2 : X   O 2 H ] /.(.[.{.E.E.{ ` ( W.` K q 4 4 2 O X e ^.JXJX[.[.JX] 4 P H K W.W.R.] 2   # 3 O @ # @ @ @ @ @ @ O O O O O O O @ @ # # @ @ @ @ @ @ O @             O O                   @ + 8 _.N.N.B.N.M.z.N.|.B.B.B.B.B.B.B.B.B.B.H.H.OXOX$ S iXiXuXyXuXyXiXdXdXdXpXdXsXG.y yXaXyXdXuXuXuXaXsXsXsXsXK.f j G j j j M a.a.%.9 5 = i.A O.1 @     O O d g g c g & >.>   % f.N.d.m.OX4XoXG.S & ; d k m V j g Q f d T 4 3XZXeX3X1X5X;X1X8X;X&X8X- f CXZXvXZXAXZXAXvXvXZXZXrXvXcXCXZXrX%Xf.J.h.s.C.C.d.C.f.b.O   d d , z & g c c c g h j g c c < % % r r d d c S % $ =.b.XXXXoX.X.X.X.XA.OXN.N.M.*.M.0.. . v.|.G.B.|.G.B.G.B.A.A.XXOX|.;.. x N M M g h S %.n S ;.;.n =   = t x t x x t t t , , l x , o . t #.#.=   = b b $.$.o.o.n v t t # o + + = # # # r r a X.$.X.b i 7 7 7 7 7 7 7 9 # # # 3 u 7 # U O.X.X.y 0 0 #     O     O O O @ O O             O O O O     O O O       O O O O O O O O O               O O O   O O O O @ @ @ @ O O O O O O O @ @ @ @ O @ O O O 3 r u u u ",
"2 2 @ O O @ @ @ @ @ O O @ @ @ 3 2 2 1 5 I J L K Y Y Y I _ O O O K ( Y I ( ( K ' I O O   O @ 2 I 4 L ` W.R.^.' 4 O ' ^.Y.` Y.!.E...].JXW.Y.PXJXe #   O @ @ O @ 2 @ @ O O O O O O O O O O O O O O 2 @ @ @ @ 2 2 @ @ @ O 1 2 O O O 2 2 2 2 2 2 1 1 @ @ 2 2 2 2 2 2 @ 1 2 2 O   O 2 @ O O 2 @ O 1 1 2 2 2 1 1 2 2 2 O O 0 P Y 5 H I I P w H I w q @ O O O 5 5 1 1 1 4 ` ^.[.[.[.].[.{.{.[.'.X.  O { W.2 4 W.].JX[.[.Y.O 4 Y } ' L ( I O     O O O       O O O O @ @ @ 3 3 u p U / X.U U / X.X./ / X.p + . t b v = # = * * = = o o = -.o.w.> o.|.V.N.N.M.|.|.N.B..XB.B.B.B.G.G.G.G.|.B.|.OX=   x N h x < A *.A A x G N j a.# . B j h x < < < c G G G l h x.A.P.P.yXiX>X,X1X1XsXuXK.r.G i.-XsX%.6 XXSXSXSXSXSXSXSXSX7X. I.SXSXAXSXSXcXZXCX7X7XcXCXCXCXCXCXCXCXDXCXCXh 7XDX*X&X%X-X=X-X%X=X#Xh.L.a.< j a.a.M j a.j j M h x t.a.G S >.y.n $ n n.m.m.x.m.m.A.L.x.x.A.L.B.L.h $ n |..XA.C.A.A.A.A.A..Xl.. A.c.B B B A.dXiXL.L.L.G.G.G.B.B.B.|.B.|.G.B..XN.%   n |.|.B.G.B.B.|.B.B.v.z.z.;.#   c |..X.X.XB.G.G..X.XG.|.M.  n =.;.;.v.v.;.;.v.M.M.M.M.0.-.o.).w.w.w.O.O   +     o = y b n n $.o.X.$.-.4.9.0.9.w.w.4.4.w.w.0.4.4.4.#.#.#.$.$.-.#.#.4.q.O.i r X.X.O.#.@.O.O.U r r 3 # 3 # # 3 # 3 3 3 3 # # # 3 3 3 3 3 7 3 7 7 3 3 # # @ O O O O O O O O O O O O       O O   O O O O @ @ # # @ @ # # @ 3 3 3 # # 3 3 3 3 3 3 # 3 3 3 3 ",
"2 2 @ O O @ @ @ @ @ O O @ @ @ 3 3 2 O 4 H J L K J ( ( Y T O   O L Y K J ( K K ' 2 O     O 2 w Y Q.Y.R.E.E.E.E.^.= O @ w 5 O O   4 O u { 4 ` JXPXO.# O @ @ O O @ @ @ O O O O O O O O O O O O O O @ @ @ @ 2 2 2 @ @ @ O 1 2 O O O 2 2 2 2 2 2 2 2 @ @ 2 2 2 2 2 2 @ 1 2 2 O   O 2 @ O O 2 2 1 1 1 2 2 2 1 2 2 2 2 @ 2 u w H 4 J Y H Y H q w w P 2 O O 1 5 H w e p p O 5 ( | T.Y.{ <.^.(.K   . ^.JXKX[.|   : ^.{.{.~.    4 ` K q L 2 O   # u u p y : r r r r u U O./ ) / U U I I I U O.O.O.O.O.O.#.p r X.N.}.N.;.4.M.M.M.N.M.M.M.M.H.N.Z A |.b.B.B.N.N.N.N.H.H.B.B.B.B.B.B.B.B.B.B.P..X, X *.;.S >.S z.B &.x.N D D V.G s R B G X.z.D v.b.=.l ; k N s.P.sX5X5X6X6X5X3X4XaX6X5XsX6XsXsX6XcXCXh h aX7X6XsX6X6XcX7XVXsX. >XCXeXcXfX4XfXaXsXsXfXCXZXZXAXAXZXAXbXZXAXAXG 8XSXAXZXZXZXZXZXZXCXgXCXvXgXd XXCX6XCXfXfXfX,XK.I.x.  L.:Xj.P.+XiXd C.dX,X,X,X,XyX,X,XuXpXuX,XpX>XpXL.h j P.dXuXuX>X,XuXuXuXXXB & oXB.a.XXXXJ.J.L.B.B.G.G.B.B.G.B.B.B.b.B.B.b.B.H.t . c G..XB.c.x = X X X : = & u + . M OX.Xm.L.L.m.A.B.m.|.G.x &.b.N.b.b.N.v.v.z.b.M.z.M.N.-.8 9.q.q.4.#.O.p # X.o.-.9.0.0.0.0.5.-.:.-.-.:.:.-.4.#.#.9.9.4.#.4.1.#.#.#.#.#.4.4.$.-.+.+.+.#.9.o.7 3 u O.1.1.1.<.#.#.X.p u 3 # 3 9 u P P P u u u u u u u u u u u u u u u u r # @         O O @ @ O O O O   O O   O O O O O O O @ u u u u u R R U p p p U U U U U U p p p u ",
"@ 2 @ O O @ 3 2 @ O     + @ O 2 @ 3 2 2 w J J K ^ K ( ) H O     O I ( K ( H X O O O     O H ` R.W.R.} 4 1 K R.E.E.' O   3 J L L L ` Y ` JXL X {.JX[.` 2 . O 1 # O O O @ O O O O O O O O @ @ @ @ @ @ @ @ O O O 1 2 1 1 2 2 O O O 2 2 O O O O 1 1 @ @ 2 2 2 2 1 O O @ # @ O O O @ 1 1 2 2 1 1 2 1 O O O 1 2 3 3 2 O 3 w H w w e w Y L 4 w w w 6 O   @ 2 5 5 H K ' ' ' w O w 2.T.Y.^.Q.E O O 4 | ^.].JX[.|   + { ].!.q O         O O O O u O./ p 0 / O.@.1.1./ u U u u U W O.#.#.1.#.9.-.+.9.9.X.+ t 0.|.N.;.M.N.N.0.N.N.N.M.M.|.N.|.Z x M.H.N.N.B.N.N.N.N.B.B.B.B.N.b.B.B.B.G.N.G.|.=.$ b.oXP.XXXXOXL.oXoXL.oXoXoX+XM b.oXoXyXXXoXyXoXiXdXx g uXaXaXaX<XaXaX<XaX,X4X4X,X,XaXaX2X2XaX,XgXdX. ;X3X2X1X;X1X1X1X;X6XfX  P.CXeXCXfX6XCX6X6X6X6XfXCXZXvXCXCXCXDXcXCXSXj.J.SXAXZXcXeXfXsXsX6X6XaXfXCXK.-.AXvXZXZXgXfXsXeXsXdX$ m.dX,XyXyX>XN.$ XXuX>XiXP.I.I.I.I.I.I.I.I.P.yXXXiXx.; A.yXP.P.I.P.P.I.A.iX& B XXA.A..XA.`.G.G.G.G.B.B.B.B.B.B.B.B.B.B.N.B.|.B.b   > -.A   d l.G.B.B.|.|.G.|.|.*.+ = N.OXL.B.B.G.B.B.B.G.|.N z.N.N.z.M.M.M.M.M.M.M.M.M.M.;.b b >   # a a # $.-.0.-.o.*.;.;.-.-.-.-.-.-.-.-.#.#.#.#.#.#.-.4.1.1.#.#.#.#.#.+.#.#.#.#.#.#.#.#.$.W i # # W 8.1.<.,.) ) <.1.O.u w w p u u R U ! U U p U U U U U U U I I U U I u 3 @ O O O O O O O O O O O O O   O O O O O O O O O O @ 5 R U U U I I U U U I I I R P P R R ",
"@ # @ O O @ @ @ @ O     @ @ O 2 2 3 2 2 q w H I K K ( Y q O     O e H I ) e O O O O O O @ q K | { K L H ' Y.R.R.E.Y.H O p 2.!.^.{.[.JXJXJXJXL 5 W.].JX{.q O   1 O O O O O O O O O O O O @ @ @ @ O O O O @ @ @ @ O O O @ @       O O O @ @ @ @ O O O O O O O @ @ O O O O O O O O O O O O O O O O O O O O O O O O O 1 w H H 5 q w w 3 4 2 2 @ O O   O @ 2 2 L E Y K K Y 4 1 Y !.R.L w @ O # 2 2 4 q ` ].JXR.O O Y q O O X       3 p u p O.U 2 e @.@.8.8.1.q.8./ u 9.9.q.w.w.w.w.w.0.0.0.w.0.X.n -.N.N.N.M.N.N.N.;.N.%.N.M.M.H.M.H., Z 0.H.N.N.N.N.B.N.N.N.B.B.B.B.H.N.B.B.B.B.|.|.;.. n.OXG..XL.L.G.L.L.L.L.L.B.XXS D L.L.L.XXI.XXL.I.I.L.. H.yX,X>X>X>X>X,X>XuX,X,X2X2X2XaX2X2X6X5X5XfXC.. cXZXZXZXZXZXZXZXZXAXZX@ P.CX6XsXfXfXsXsXsXsXsXsXCXCXcXcXeXCXCXCXCXDXj.U.FXbXAXeXsXaX6X5X6X6X6X6XgX,X& CXZXfXaXuXuXiXuX>XdXF < dX,XK.P.>XI.% j pXI.K.>XP.P.I.P.P.P.P.P.I.J.P.L..Xb.d .X:XP.P.:XS.S.P.P.G.$ B.OXb.B.G.G.G.G.G.B.B.B.B.B.B.B.B.B.B.B.B.N.l.B.|.*..   , ;..XG.B.G.G.B.B.B.B.G.|.M.x $ N G..XG.B.N.B.B.N.;.M.;.;.M.M.M.0.0.0.0.0.0.0.0.0.0.0.w.#.#     = s   b #.-.0.0.-.-.-.-.-.-.-.-.-.-.-.#.-.-.-.-.-.-.4.4.4.4.4.4.-.-.#.#.1.1.#.#.#.#.4.#.#.O.i 3 3 3 _ ,.1.,.) ) <.1.O.O.O.) U U R P T T T T T U T T U U U U U U I p / U p u 0 0 3 # O @ @ # # @ # # @ @ 3 3 3 3 0 0 u 3 @ O @ 3 u u p p U U U U p p U U U U U ",
"2 2 @     O @ O O O     O O O 3 4 4 2 2 3 2 2 p K Y ( H 2 O       O @ w I 2 O @ O O O O @ 2 4 4 O 5 ) Q.Y.` ` Y.E.E.' O O H ' | Y.W.(.(.(.JX].O e ].].JXJX^   1 O O O O O O O O                     O O   O O O O O O O             O O O O   O O     O O O O O   O O O O   O O         O O O   O   O O O O O @ O 2 w P H 5 5 5 @ @ @ O           O @ @ 2 2 w P K K Y w O H } ` O O O O 0 e @ O & 4 W.(.Y.O   % 2 O O O r U O.1.8.1.U 3 w <.~.q.,.~.1.O.w.U 3 w.w.w.w.w.w.0.0.0.0.0.0.0.;.*.-.M.N.M.0.M.M.M.M.N.M.|.0.M.N.N.N.o.x >.H.N.N.N.N.N.N.N.N.N.N.B.N.N.N.B.N.B.N.B.OXb.= %.OXOXG..X.XG.L..XL.L.OXL.L..X$ N.OXL.L.P.L..XoXP.oXa.f iXyX<XuXuXuXuX<XuXuX<X,X,X;X;X,X,X,X5X,X5XCXz.x ZXvXCXvXvXvXvXvXvXZXcXo C.CX6XsXsXsXsX6X6X6X6X6XfXCXCXcXCXCXcXCXCXDX>Xr.VX4XsXCXsXsXaXaX5X5XsX2X6XaX$ <XZX6XuXaXaXuXyX,X2Xd.  yXsX=X:XI.yXl.  iXdXI.yX:X:XP.P.P.P.P.P.oXJ.P.L.P.L.h ; yXpXP.P.oXP.P.L.XXD & OX.XA.G.G.G.G.B.B.B.B.B.B.B.B.B.B.B.B.B.N.B.b.b.N.v.z.b.B.B.B.B.B.B.B.B.B.B.N.B.|.N.n % . n %.*.Q m v v v b = = t v t 7 t t t i i t i i y a +.-.$.W X.$.#.X.  = -.5.-.-.-.-.5.0.4.-.+.:.-.#.#.-.-.-.-.#.#.#.#.#.#.#.#.#.+.#.#.#.#.#.#.#.#.! W X.#.O.U r O O.O.@.O.O.<.@._ ,.,.<.O.O.T I u I U T ) T T T T U U U T ) ) ) T I I I U U U U U T I p p P u u 3 0 5 3 3 3 3 3 3 @ O O O O O O O O O O O O O O O O O O O O ",
"2 2 O       O   O O       O O 3 2 2 2 2 2 O O 3 Y ( Y 0 O             O 3 O O # O O O O @ O O O   3 Y Y.R.W.` L W.Y.K O O 1 4 q L 2.[.JX[.].JX^ 4 ` E.].JXJXJ       O     O O                               O O                                               O @ @ O O O O @ O O O O O O O O O           O O O O @ 3 3 6 1 @ @           O O @     O O O O 1 2 L 4 q 2 O @ q O O 2 1 1 1 6 6 u 3 4 4 2 + + # O   # X.9.9.9.q.~.O.I p U 1.7.3.<.7.<.~.'.X.r O.w.0.0.0.0.w.0.0.0.0.0.0.;.-.;.M.M.0.M.M.N.M.M.M.N.z.M.M.;.M.N.*.t N.N.0.;.N.M.M.N.N.N.N.N.N.N.N.N.N.H.N.N.B.|.N.g - OXG.B..XB.G.B.G.L.G.L.B.L..XD S .X.X.X.XL.L.XX.XL.OX< c.yXI.>XyXP.yXyX>X>X,X,XiXiXuXuXuXuXuXaXaX6XfXx S vX0XeXeXeXcXcXcXcXZXCX. J.CX7X6XsXsX6XsXsXsXaXaXaXaXaX6X5XsXsXsX<Xh.s.h $ =   U.6X3X6XaX2X,XaX5X2XsXM d.ZX3XyXuX2X,XyXiXuXL.O 0.sX,XXXL.P.OX5 ~ dXyXL.L.L.L.L.L.L.L.L.L.L.J.I.J..XOXo j XXyXP.P.S.C.L.P.XX& &.XXA.B.m.G.G.B.B.B.B.B.B.N.N.N.b.N.N.N.N.B.b.N.B.b.b.B.B.=.b.G.G.N.N.B.B.N.N.N.V.N.N.>.y   . i #.4.:.:.:.o.+.#.-.:.#.#.+.X.X.X.X.X.W X.X.b W X.#.0.w.q.4.4.-.t # X.5.-.0.-.-.-.-.-.4.4.4.4.4.4.4.#.#.#.#.1.1.1.1.1.#.#.#.#.#.1.1.1.1.#.#.4.4.4.#.#.4.O.+ 3 U <.1.<.,.,.<.) ) O.O.,.O.) T p P U U T T T T U U U U U U U I T T T T U U I U w w 5 5 w u u u 0 0 5 3 5 3 3 3 p u I U U U U I p U U U U U U p p p p p u ",
"2 O O                       O @ 2 2 2 2 @     O H I I 3                   O   + O O   @ # # 2 O O 2 L ` W.E.R.` { ' 4 O @ 3 @ 3 L s L JX{.{.JX[.1 u ' E.W.].[.      O   O + + @ + + + + + + + + + + + + # # # # O O O O O @ @ @ O O O O + + + +     O + # 3 7 7 3 3 3 3 3 7 7 3 # 3 3 3 # # # 3 O         O           O O O O   O O @ # 3 p u p   O @ + @ @ @ @ O 2 3 O         O 3 5 4 4 1 O 3 4 2 + . $ = I ` X.O.1.1.1.9.q.<.@ p <.q.q.7.7.~.~.8.9.O.u #.w.-.M.w.w.0.0.0.0.0.0.>.0.M.*.%.;.M.M.M.M.M.M.M.M.;.N.M.N.|.N.-.n 0.N.N.N.N.}.N.N.}.N.N.N.N.H.}.N.N.G.|.B.N.|.B.x , |.|.G.G..XG.B.L..X.XL.L.L..X.Xg G..XG..X.XL.XXXXL.XXH.% iX:XoXyXyXyX>XyX>X>XyX>Xj J.>X,X>X,X,X,X>X5XsX* D ZXeXeXeXeXeXeXCXeXCXCX; s.,X;XsXaXsXsX6XsXsXsX6X5X5X5XsXdXaXaXsXsXaXsXsXsXVXU.. yXsX1XuX5X5XuXuXaXaXa.d CX6XuXuX3X2XuXuXaX,Xl $ ,XaXiX:XK.yXB . >XaXP.P.I.I.P.I.P.XXP.XXXXP.P.P.XXOXB.$ x.iXdXiXiXiXiXiXB.0.= _.`..XG.G.G.|.G.|.G.G.G.B.G.G.B.B.G.|.|.N.N.N.N.N.G.|.N.N.;.;.N.|.N.N.|.H.N.|._.N.N.N.}.a # + y $.-.-.-.+.-.4.:.:.4.:.:.4.4.4.4.4.4.1.1.4.#.#.#.#.#.#.1.-.$.4.+.r b 4.#.0.0.9.9.4.4.4.#.4.4.4.4.4.4.4.4.1.1.1.1.1.1.4.4.#.#.#.#.$.$.$.$.W O.O.a 3 u p 3 O 3 u ) <.1.8.8.<.<.<.<.1.1.<.O.U U p p U O.O.O.) O.) ) U I I I 5 5 5 5 6 6 5 5 4 H I I w 5 5 P U ) ) O.,.<.<.<.O.O.) ) ) ) ) ) ) ) O.O.) ) ) ) ) ) ) ) ) ",
"O O O                       O @ 2 4 2 @ #       2 3 3 O                     O       O O @ 3 2 @ O 2 K Y.W.W.Y.T.( q     + + O @ 1 . Y ].].].].JX' . | W.Y R.W.^ O # 3 # 3 7 7 # # # # + @ @ @ @ @ @ # # # 3 3 3 3 7 3 3 3 3 5 5 # # # 3 3 # # @ @ @ 3 r u u u u r r r r r r r r 5 5 5 5 3 3 3 3 O O O @ # # @ O O O O O O @ @ # P I P P I U P 5       @ @ @ O O O +     + +             O       2 @ @ # r O.8.8.#.#.1.q.~.q.O.2 I 1.q.1.1.q.q.1.U 9.u # $.9.$.w.9.9.0.5.5.5.5.5.0.0.0.-.o.-.*.t 5.0.0.5.0.N.N.0.0.}.0.N.-.% b -.X.#.-.-.0.0.0.0.N.N.N.w.M.w.0.0.M.M.M.M.}.-.= -..XN.|.|.G.|.G.|.|..XG.|..X|.z.n .X.XG..X.X.XOX.XXXoXl.z iXiXyXoXyXpXyXyXyXyXiXyXj K.,X,X,XuX2X2XaXsX5Xd r.eXCXCXrXvXvXvXZXvXZX0X+ , S t.a.F f.C.K.K.<X>X>X,XuXuXuXsXsXsXsXfXCXDXVXDXCXSXS.9 pX2X5X5X7X5X5X6X2X=X% aXaXdXdXaXuXyXyX>XI.S < h.=XyXP.L.L.x.% a.yXL.XXXXXXXXXXL..X.X.X.XL.B.L.B.z.N.X X Z l.b.B.b.B.l o X   . - t y m c c n n n n n m c c x x x x x b x b b y x Q $.-.n x o.;.0.;.;.-.$.o.:.;.+.a r :         # n 0.w.4.:.5.5.4.4.5.:.#.:.#.#.#.+.! #.#.1.4.4.4.1.1.#.#.X.#.#.r # #.+.W W b W W W W u u u u i i u u r r r r r r r r 7 7 7 7 r 7 7 7 7 O @ 7 r u I U X.u @ 3 u U u 3 3 3 3 3 3 3 3 3 0 # O   O # 3 # 3 5 5 5 5 5 5 0 P I U T T ) ,.,.) ) ) ,.,.) I p I I U T ) ) ) ) ,.O.O.O.O.O.O.O.] ,.,.,.,.] ] ] ,.,.,.,.,.",
"                              @ @ 2 @ O O       O O         O O                       O O 2 2 @ 3 2 H | Y.' K K 2 O     3 6 2 w 9 1 P ` ].].].JX] w 4 ` T.Y.{ q # 3 7 3 3 7 3 # O O @ O O O O O @ @ @ @ @ @ @ @ @ # # @ 2 6 2 2 0 3 3 3 # # # @ 0 0 u p p u w 5 0 0 0 0 7 3 7 7 r 3 3 3 3 # @ @   @ 3 u u u u u 5 5 5 u P I I Y ) T I w w w 3 O O O O O O O O O     O # 3 r 3 @                 O @ 0 I ] 7.1.x 1.4.q.9.#.@.1.@.~.<.@.8.@.u 3 0 r 3 U 9.4.#.#.+.4.4.9.0.0.0.0.0.0.0.9.$.#.N.9.  + 7 t t t a Q +.o.X.o.= = y . y p y y y y U W y s r r r r 7 = = . 8 t t v = + b = b t 8 x x x t = y t % & & . % ; - & & g g g g & s   . % h & = & g h g c S , g O + % & g x x g k g t 1 . j 1.B x.x.a.a.a.a.a.d # @ : & $ & g ; % $ & - g - - - $ . . & ; $ g S C.c.S.=X.X6 : h ! z g y i g g W O h c y & & 7 & - X o O O @ $ : % : o o     0 o % % % % o o o o X : X X X   X                 X > w.b 0.$.Z x o.x x c c c c n m x c x b x b 7   W W a i i i r r + 7 7 + + = =   9 r 7 # 7 i a i / 1.q.4.i .   + W W ! ! ! W W W W a a a a u 3 + 3 3 # # # 3 7 7 7 3 3 # O # 7     O + # # 7 a U U U U U W W W W O.O.O.O.O.O.O.O.#.$.#.#.O.O.O.O.#.y u @.8.7.3.8.1.@.O.p 3 @ # 3 u u u u u p p I U U u 3 3 0 u u I U T ) ) ) ,.,.) ] ,.,.,.) ) O._ I H I ,.3.<.) ,.,.,.,.,.,.,.,.U T ) O.O.) ) T ) ) O.,.,.) ) ) ) ) ) ) ) ",
"              O               @ @ @ O                       O O O O                 O O 2 2 2 @ @ O 1 4 5 2 2 3 O O O @ 2 1 1 2 : 4 @ ; 5 4 ^ R.^ 1   U W.W.U . @ 3 5 3 3 3 # O O O O O O O @ 2 @ @ @ O O O O O O @ @ @ 3 0 e 3 p 0 3 2 3 0 I U p P P P P P u u 0 0 u 0 5 5 5 5 r # @ @ # # @   O 3 u U I P P I R R R T ] ] ] ' ) ] _ I I U p u p p u u u u r 0   O U 7.,.<.8.<.] ,.O.U p u w J U U O.q.7.3.4.0.8.1.8.q.9.q.q.4.,.7.q./ @ O y e.9.1.q.w.1.4.w.w.9.9.0.0.0.0.0.5.0.-.0.w.w.w.9.s #.#.4.9.9.4.4.4.-.X.o b }.}.N.M.~.q.w.}.q.9.q.q.9.9.9.9.9.9.4.4.W ).).N.M.N.}.9.q.q.4.4.9.4.1.q.4.#.N.o.= -.H.}.0.N.M.M.H.N.>.N.N.w.|..X0.G.B._.N.n.b.v.N.0.= n L.L.P.P.P.L.L.L.P.L.L.OXJ.C.}.g.B.b.b.B.B.b.G.G..X$ d pXpXyXpXdXpXpXpXuXuXuXuXuXdXsXdXpXpXdXoXj o 6 X X   ; . X B.P.J.G.m.C.C.c.B.s.C.C.Z.A.B.C.S.L.L.c.d XXiXI.oXXXoXP.:XOXOXP..X.X.X.X.X.X|.|.A.`..X_.|..XB..X.X`..X.XB.|..Xm * M..XB.G.|.|._.}.}.}.}.}.}.).}.).).N.N.}.N.#.i +.).).w.).).w.w.~.w.w.w.w.q.w.).q.w.~.w.w.w.w.).~.~.w.q.w.q.U O u 1.w.4.+.4.4.#.1.#.O.X.X.U r # p / O.O.W W X.O.W X.W a X.#.1.1.#.#.#.W u r u U O.O.O.,.1.1.1.1.1.1.1.1.#.1.#.#.#.#.#.#.#.#.#.#.#.U / @.<.<.<.<.@.O.@.@.#.#.#.#.O.1.1.1.1.1.1.1.,.<.,.I u I ) O.<.<.<.<.,.,.,.,.I Y ) ] ,.,.,.,.] [ ) I w w T ,.O.) ) ) ) ) ,.,.,.,.O.O.O.O.) ) ) ) O.O.O.) ) ) ) ) ) ) ) ",
"                                                                              O       O O O @ 2 6 2 1 1 1 2 4 5     O @ 2 2 6 5 4 4 4 5 2 O O O P 3 O O @ 3 3 O 7 5 w J J H I ) I I I I T ) ) _ ) Y J H I I I p T ) I I ,.) U O.3 3 5 I <.6.6.| [ [ [ [ <.,.] ,.] ( ( ] ) _ ) <.P q I 8.O.2 1 I P P p p u P p p 4 q p p u U O.O.<.<.<.2.,.] ] 2.{ Q.Q.Y.} 6.<.O T O.3.3.1.<.<.3.<.<.3.3.7.7.3.3.3.1.1.1.1.3.3.8.9.9.9.q.q.9.8.8.q.q.O.3 r 1.q.3.3.4.4.9.9.9.9.q.9.9.w.w.w.0.9.4.9.0.0.9.N.4.7 W q.9.9.4.9.q.9.9.X.b o.N.}.0.4.w.q.q.q.q.w.w.w.w.w.w.~.~.~.4.}.4.-.w.N.M.0.M.N.0.).N.).).N.).}.N.}. X0.c |.|..X|.|.|..X.X.X.X.X|..X.X.X.XOXOXOXOXOXoXoXOX+XG.; pXdXdXdXdXsXsXaXsXdXsXsXsXsXsXsXsXsXsXsXsXVXVXVXDXDXv n sXaXdXdXaXpXpXuXuXdXdXuXuXsXCXCXCXCXfXfXfXaXuXpXyXP.S.h X uXsXsXsXdXdXdXuXuXuXuXpXpXuXyX>XiXiXuXP.h dXsXsXdXdXdXdXdXdXdXpXoXoXoXXXXXOXOXOX.X.X.X.X.X.X.X.X|.|.|.|.|.|.|..Xt = |.N.B.N.N.N.N.N.N.N.M.N.N.N.N.N.N.M.M.M.M.0.+ +.w.w.0.0.w.0.M.M.M.w.0.w.w.5.q.q.4.4.w.w.q.4.4.w.4.9.9.9.w.#.# 3 $.w.9.1.9.9.q.w.q.4.q.w.w.#.# U q.9.3.3.~.7.8.q.q.q.1.<.1.3.1.O.O.O.9.O.U 0 @ r / #.1.#.O.O.8.O.O.#.#.$.$.#.#.#.O.O.O.O.O.O.#.O.r r 1.7.<. .<.<.,.[ O.O.O.O.@.O./ / @.@.@./ X.O.O.) I P U ) U ) ] ] ] ,.<.O.3 T <.O.) ,.<.) O.O.,.,.) U p 0 U ) O.) ] ,.] ) ,.,.) ) ,.O.) ) _ ) ] ) ) ) ] ,.) ) ) ) ) ",
"                                                                              + + O   O O O O O O O O O @ @ O O     O O O O O 2 O 1 2 5 6 @ O   @ X O O O O O O 5 I Y Y ] 2.<._ Y _ ) ,.,.] ) ) ( ] <.<.] ) ) O.) <.) T <.<.I 2 p ) <.2.<.] 2.Q.2.} [ [ <.<.2.2.] 6.Q.2.<.7.<.) w Y ,.2.<.<.<.<.,.,.O.) ) ) ) T <.) ] <.Y 4 1 O L 4 q Y ] Y ' Q.Q.| } } /.<.1 U <.1.3.3.3.1.<.<.7.7.7.3.3.3.3.3.1.1.8.8.8.9.3.3.3.#.1.9.9.8.8.q.8.3 O @.~.9.1.q.8.8.4.9.9.9.9.9.9.9.4.4.4.9.w.w.9.9.#.}.9.3 X.#.1.1.1.1.4.9.q.w.4.4.4.w.~.w.w.w.w.w.w.w.w.w.w.w.4.9.w.w.w.w.4.+.q.w.~.w.w.w.w.w.4.w.).).N.w.w.}.N.M.% M.N.|.B.|.B.H.G.G.G.G.G.G.G.G.G.G.G.|.|.|.G.L.XXB.|., D yXL.OXOX.XL.L.I.P.oXoXoXoXiXyXyXyXyXyXyXoXI.I.yXpXaXu +.sXuXyXpXpXpXyXyXyXyXyXyXyX>XuXaXuXuXaXaXaXaXsXsXaXaXsXyX  l.oXyXoXXXOXOXoXoXXXXXXXXXXXXXXXL.G.L..X: OXL.L.G.G.G.G.G.G.H.H.G.H.N.H.G.H.H.N.B.B.B.B.B.B.N.N.N.N.N.N.N.N.N.N.N.. *.N.N.|.M.N.N.N.N.N.N.N.N.N.M.M.M.M.M.M.N.M.0.o +.}.w.0.w.5.0.w.0.w.w.w.w.w.w.w.w.w.w.w.w.w.4.w.4.w.w.9.w.q.#.# # $.q.q.q.q.,.4.q.q.4.1.1.9.q.@ 0 9.3.3.~.<.3.1.3.1.8.7.<.O.<.@.3.3.3.1.1.O.@.p # 3 U #.1.1.U #.4.#.O.1.1.X.O.O.O.O.#.#.#.#.X.1.1.r @ <.'.[ <.,.O.@.<.<.@.O.@.@.@.O.O.O.O.<.O./ ) O.T w P O._ _ ( ] ] ( I P _ ) ,.<.,.) ] <.) ,.,.,.] ) _ _ O @ I <.<.Y ) 7._ ) O.,.,.T T 3.O.) ) ) ,.,.] ) ) ) ) ) ] ",
"                                                                            + r r 3 # @ @ O O O           O O O     O O O O @ @ + # # # # O   O       O @ 3 P ) ] 2./.2.] ] [ _ ) ] <.<.,.,.] ,.<.] ) ] ,.,.) _ T ,.3.3.) 2 5 ,.[ <.6.6.2.} 2.2.2.2.2.2.2.2.2.2.[ ] ] [ <.] I H [ 7.7.<.<.7.7.<.7.<.<.<.,.,.,.,.<.) ,.2.] K K K K K ] 2.] K ' Q.Y.T.| !.} 2 ) 7.3.3.3.3.3.8.3.3.<.<.<.<.1.3.7.8.8.3.1.1.1.1.8.9.1.~.~.8.9.~.9.U O I 1.1.1.1.3.1.9.9.9.9.9.9.9.q.9.9.9.0.9.9.4.4.-.9.w.#.s a #.9.q.q.q.9.9.4.1.1.w.w.w.q.w.~.~.w.w.w.w.w.w.w.w.w.w.w.w.w.w.}.! W ~.~.~.~.~.~.~.~.w.w.9.w.}.w.w.}.N.t $.N.N.|.N.|.|.|.|.|.|.|.|.|.|.|.|.|.|.|.|.|.|.B..X.XM.$ .XXXL.XX.XXXoXoXoXoXyX>XyXyXyXyX>X>X>X,XuXuX,X>X>X>X4Xl &.sXaXpXaXuXdXuXdXpXyXiXyXI.uXuXuX,XuXaXaXaX,X2XuXuXuXaXdXd M yX>X>XyXoXI.I.oXoXI.I.XXXXXXXXoXP.I.OXx N.XXG.L.L.L.L.L.L.L.L.A.B.A.A.L.B.B.L.G.B.B.B.B.B.B.B.B._._.|._.B.B.B.|.%.% H.G.N.N.M.N.N.N.N.M.M.M.M.M.N.M.M.M.M.M.M.9.N.= t ).w.4.N.0.9.0.w.w.9.q.w.4.w.w.4.4.4.w.w.q.~.4.q.w.4.4.4.9.q.3 O O.w.#.4.q.9.4.4.8.1.3.8.9.1.# @ 9.q.O.7.3.1.1.3.1.7.q.~.@.O.#.1.W O.#.1.#.#.O.U r r W 1.8.O.O.1.1.O.O.1.#.#.#.#.#.#.#.#.1.U O.#.# O _ ~.~.8.,.) ) O.O.O.) ) O.,.,.O.,.,.8.,.) O.T u P O.<.) ( ( [ [ ) ( ,.) ) ] ) _ ) ,.) ) ) ] ] ,.,.,./ u 2 0 ) <.,.T ,.,.) ,.T 5 6 P ) ) T T _ ] ] ,.,.,.,.] ,.",
"                              O O O O O O O @ O O   O O                     O r p u u u 7 3 # +                                       O O O O O # O @ p ] 2.Q.!.} | ' } Q.2.<.] ,.,.,.,.] ] ,.<.] ] ,.,.) ) ,.2.q.q.) 3 4 _ <.2.6.[ [ [ 2.6.2.] [ } 2.2.} } [ | } 2.7.6.( w Y 7.6.6.} [ [ [ 2.6.<.<.<.<.<.<.<.,.<.2.7.| K ` ^.^.^.'.!.{ K ' } Q.{ | !.' 4 Y 3.7.<.<.<.<.1.3.3.3.3.3.7.7.7.3.3.1.3.3.3.3.3.7.7.q.~.<.O.q.~.1.u @ _ 8.q.8.1.8.8.1.1.1.1.1.1.4.3.3.1.#.4.4.9.9.9.9.1.w.9.# p w.1.9.1.1.9.q.q.9.q.9.1.4.4.4.4.q.q.4.9.9.9.9.9.9.9.9.w.w.4.9.w.4.r $.w.q.9.q.w.w.w.w.0.w.w.w.w.0.w.}.X.%  XM.}.}.N.|.N.).).).|.|.|.|.|.|.G.G.G.|.|.|.|.B.B.OXn g OXA.I.I.L.I.oXI.P.I.I.I.I.I.I.I.I.I.yXoXoXoXI.yXyXyXpX= &.dXyXyXyXiXyXyXyXyXyXyXyXI.yXuXuXuXuXuXyXyXpX>XuXpX>X:XdXf.d pXXXP.oXoXoXiXXX.X.X.X.X.X.X.XL.P.L..Xv.z OXL.L.L.L.L.L.L.L.L.G.G.G.H.B.B.B.H.B.B.B.B.B.B.B.B.N.N.B.N.B.N.N.N.N.|.. Z N.b.M.N.N.N.N.N.N.N.M.M.M.M.0.0.0.0.0.0.0.N.0.= b N.5.M.0.0.9.9.0.9.4.4.4.9.0.9.9.0.0.0.5.w.4.5.).w.w.w.q.9.9.u O X.}.4.0.4.1.#.1.q.8.#.1.q.9.u 3 3.~.<.,.3.7.7.3.<.,.,.q.O.U 4.#.4.1.#.O.O.1.O.U u 3 3 O.1.1.O.O.1.1.O.O.O.#.#.#.#.#.#.O.O.O.#.O.# O U ,.O.) ) O.O.,.O.<.) _ ) ,.,.] ] I ) ,.] ) U 5 O I / ,.) ) [ <.,.,.3.<.,.] <.<.,.,.,.] ] ] ] ,.,.O.O.I 3 3 I ,.<.) T U T ,.T P U _ ] <.,.) T ) ) ) ) ) ) ) ",
"                          O @ @ @ @ @ @ @ @ @ @ O O O O O O O O O     O       # 5 3 3 u u u r r # # 3 3 0 3 3 6 # @ @ O         O O O @ 1 5 P P _ Y T 2././.{ | | | | [ ] ( ) 2.2.<.<.,.<.<.<.<.<.,.) <.8.7.8.<.<.3 O I 7.7.2.7.6.6.6.6.6.7.7.7.2.6.6.6.6.6.6.6.2.7.<.Y Y [ 6.2.6.2.2.Q.6.} 2.Q.<.<.<.<.<.<.<.<.1.<.[ ] ' { R.R.!.Y.K L K 6.!. .Q.!.| 4 Y !.<.<.<.2.7.3.2.1.1.3.<.<.<.1.1.1.3.3.<.1.8.7.q.q.7.7.!.~.~.~.@.0 u #.~.<.O.<.8.8.1.8.q.q.q.q.q.q.q.q.w.q.9.9.9.9.q.w.w.1.# p q.1.q.9.9.9.9.4.4.4.9.q.9.9.q.w.w.w.w.w.w.w.w.w.w.w.w.w.q.w.w.}.w.7 a ~.N.w.w.N.).N.N.).N.w.N.N.w.).).-.# 0.N.}.N.N.}.N.|.}.|.|.|.|.|.|.|.|.|.|.|.|.|.|.|.|.G.OXl &.OXoXI.P.oXI.I.oXP.oXyXyXyXyXyXyXyXyXyXyXyXyXyXyXyXyXpX; C.sXpXpXuXpX4XpXpXuXuX,X>X,XaXdXaXaXaXaXaXaXaXaXsXaXsXaXsXZ.. OXiXXXXXXXL.P.XXXXXXXXXXXXL.L.OX.XL.OXOXd b.XXL.L.L.L.L.L.A.L.G.G.B.B.B.|.G.B.G.G.|.G.B.B.B._.|._._.N._._._._.N.N.b % M.|.0.}.N.N.N.N.N.N.N.N.N.N.M.N.N.N.N.N.N.0.0.).W i }.0.w.N.M.0.0.0.w.5.w.w.w.w.w.w.9.4.#.0.w.0.9.q.4.4.q.#.q.1.O O #.q.4.4.q.w.w.9.4.q.9.O.w.q.3 0 9.1.3.<.,.<.7.7.3.<.<.0 @ O.#.9.@.O.9.1.O.1.9.7.O.u @ p O.@.O.1.1.O.O.O.O.@.@.#.#.@.O.9.#.W 1.#.3 O 6 w T ,.<.<.,.,.8.<.) ] ,.,.<.<.[ <.<.] ,.,.U 3 O 0 ) ,.T p P U _ ) ] ] ] [ [ ) ,.,.,.[ [ ] ) ) / ) O.O.p O 2 U <.<.,.O.,.,.U P w I ) ,.,.,.] ) ,.,.] ] ] ",
"                      O @ @ @ @ @ @ @ @ @ @ @ @ O O O O O O O O       O O O @ 3 3 2 2 3 0 p P I U U I P u u P T p p u 0 3 3 3 0 P U U U T ) ,.,.] ' ] ] ' | | | { 2.] w 1 q ) 2.<.<.<.<.7.2.<.[ 3.<.,.<.<.) I 4 O @ I U _ ,.[ I ) [ [ [ ] ) ] ,.[ ] ) ) ] [ [ <.<.( w w ] 2.2.( ( [ 6.6.6.2.2.[ 2.2.2.2.<.<.<.2.<.I Y } Q.T.{ | ' L H ( 2.Q. .} T.} 4 Y <.) 7.<.<.7.8.7.7.7.7.7.q.7.7.3.8.7.~.~.7.7.8.3.7.7.~.~.8.'.'.I O 2 U O.I ) ,./ U _ O.,./ _ ) ) ) O.O.O.1.1.3.9.9.3.<.<.1.@ @ #.#.X.1.O.3.#.X.U U U U W X.p p U U U U W O.O.O.O.O.O.O.O.1.O.O.3.#.O U #.+.+.+.+.#.#.#.#.w.4.9.9.w.).w.i r N.-.0.5.0.5.0.-.-.-.;.-.-.-.-.;.;.-.;.;.;.;.;.;.;.>.>.x =.B.B.B.L..XA.A..XL..XL.L.L.L.L.P.P.XXJ.I.I.>X>X>XyXdXoX; m.yXL.I.J.L.J.L.L.A..XL.m.m.m.C.C.C.C.C.h.C.m.A.A.m.L.A.A.l.. G.yXoXyXyXyXoXoXoXXXXX.X.X.XXX.XG.G..X.X&.c XX.XL..XL..X.XL..XB..X.X.X`.`.`.`.|.|.B.B.N.N.N.N.N.N.M.M.N.N.N.N.N.-.-.b Q n b t y i v v b b b a b a i a a a a a o.= a U u # # 9.:.-.-.:.:.4.4.+.#.#.#.O.#.#.W a   + a y # # 3 3 O 2 O O u O O 7.~.9.3.3.1.#.#.4.1.q.O.#.q.u @ ~.8.8.3.1.1.3.3.<.p O O u U U I U I I U I p p P U 3 O @ U O.1.#.1.O.O.O.O.O.1.,.,.1.O.#.O.u U <.,.) ,.<.] _ I P I I _ <.7.7.<.<.3.~.8.<.2.7.7.8.2.u O O u U P w P I q w _ ) I I ) ) ) ) ) ) ) ) ) <.) _ ) ) I 2 O O w P P I ) ) O.P q 2 4 P Y Y I I I I I I ",
"                  O @ @ @ @ @ @ @ @ @ @ @ @ @ @ O O     O O O O O O O O @ 3 0 0 3 3 3 p I I I Y I I I p 0 w I T ) T T T ) ) ) ) ) ) T p p I T Y Y ) Y J H Y | { ] I 2 O w <.7.[ ,.,.<.<.<.<.<.,.) <.8./ 0 O 4 J O.3 2 w w 4 w Y P H w H P P p w H H H P I P q 2 O O 2 w 4 1 4 Y H ( [ 2.2.6.6.6.2.2.2.2.2.<.<.2.J 4 q L L 4 2 1 L Y | 6.2.' ' { ' 1 ( ) P _ Y [ [ [ [ ,.,.<.,.,.) T U I P P w w P w q 3 4 5 0 p 3.P O O 4 q 4 2 4 1 O 4 4 1 O 2 O O @ @ 2 2 3 3 6 5 U <.8.1.,.,.p O O.#.U O.O.U u u u u U U O.O.O.) T ) ) ) T ) U U U U U U U U U 3 u 5 O @ U u u R R u 5 u u u + u 3 O 3 3     o # t . - - . - t - - = = = 8 t - - t t t x x x 8 = > t b o.x g p r   o x , x & s s s s t t t t g g & & n m m 0.) 1 = d 7 - d t % $ %   O @ w @ 2 r r t t - = , < < < : : % > s O 3 Z , , , t , r r t y y x x x h h h < z C X t A A A A A A A A $.A x x t = % > - - - - - - = = = = = = = = = = . + 0 X.i . -.#.X.X.X.X.X.X.X.O.W W U U U a a a s 7 O 3 @ O # O 3 # 7 U W U U T ! O.W U U U U U 3 O u O.T O.<.3.8.,.,.,.T T U 2 Q.6.2.) _ O.U r @ 3 @ @ u O O u U O.1.1.T 0 6 2 I I 0 2 U ) _ ) ) _ I Y _ _ Y I p U u O 3 1.9.O.O.O.O.1.1.1.1.1.O.#.9.O.O q 7.'.'.~.2.) P w H I u p U <.<.,.) ) I I _ ,.<.<.[ [ <.H O O w Y ] ] ] H w _ <.) ) [ ) ) ) ) ) ) ) ) I ) ] ) ) ,.) I q H H w w w q w ) I 4 2 4 5 5 4 w w w w w ",
"                O @ @ # # @ @ @ @ @ @ @ @ @ @ @           O O O 0 w 3 2 2 0 w 5 3 3 u _ ] ) ( K 2 w / <.,.) ] ,.,.,.) ] ] ,.,.,.,.) P 2 @ 0 w I ( ] ) P w H H 4 4 q I <.8.<.,.[ <.<.<.<.,.<.2.8.7.U @ O e _ 2.2.3 @ p ) ,.<.2.] [ [ ,.,.,.[ [ @.( ) [ <.<.) 5 O H _ ] ] [ 2.2.} 6.[ <.6.2.<.<.2.} 2.2.2.2.2.2.2.Q.Q.Q.| H I [ <.[ [ ] I w J ' } K Q.2.<.2.[ ] ' [ _ I H H w 3 1 O 1 5 P I I I I p I T ) ) I p 5 O 0 ) <.7.2.7.!.7.7.7.<.<.3.8.2.@.@.<.<.<.1.1.3.3.<.<.3.7.7.8.~.@ O.@.q.9.O.1.O.3.3.7.q.~.~.~.q.~.~.~.~.~.~.~./.~.~.~.~.~.~.~.~.~.q.}.1.O 3. X'.~.}.'.~.!.~.~.~.'.q.O O '.'.p e 0.}.}.}.}.}.|.}.}.}.H.N.N.H.}.}.}.}.}.|.|. X X X_.}.}. X}. X}.|.|.M.$ B.pXoXpXoXoXoXoXoXoXyXyXyXoXiXOXOX+XM..   $ m.>X5XsXsXfXsXaXaXdXL.; G OXOXoXpXdXsXVXsXsXsXsXsXsXsXsXsXVXsX8 $ B.B.L.B.B.L.P.P.>XyXuXpXuXuXyXyXL.XXoXq.( 9 z.z.z.z.z.V.M.M.M., . t ;.M.;.;.M.M.M.M.N.N.N.).N.N.).}.}.}.).N.w.q.@.U r 3 a 9.w.w.w.w.~.~.~.~.~.~.~.~.~.~.~.~.w.}.~.9.~.9.u O @ O 0 1.q.<.<.~.1.7.7.1.3.7.q.q.1.O w 3.3././.2.3.2.3.3.2./.3.J q '.[.'.6.q.@.@ 3 r p p 0 0 U U p 0 @ O 2 u ) <.[ 8._ 1 ) 2.<.,.<.2.2.2.<.<.<.2.<.3.1.U 3 3 U 3.O.,.1.1.1.1.1.1.1.#.O.8.1.4 4 !.[ [ ] ] [ ,.<.<.1.p O 2 0 p w w u U w O 1 J } 6.] 6.<.4 O q } !.2.Y w I ] 2.<.) ,.[ ] ] ] ] ,.,.2.] ] 2.<.) ) 2.7.<.) ) <.) I I O 4 I ) ) ] ] ] ] ) ) ) ) ",
"        O O @ @ @ @ @ @ @ @ @ @ @ @ @ @ @ @ @   O O 2 1 3 p I I r @ O P ] Y J Y ' ] ] ) U u # O P ] ,.) ) ,.) ,.) ) ) ) ,.,.,.] ] ,.,.] ,.2.2.2.4.U @ O 2 w ) [ 7.7.6.<.2.2.<.<.<.,.[ <.8.8.O.U O 2 K { T.} Y 3 q ] } } 6.[ ] [ [ [ [ [ [ [ ,.<.` 6.~.9.r O H T.} Q.Q.} { 2.Q.} 2.2.2.2.2.2.2.2.6.2.<.2.7.7.<.] U P ( { Y.T.} Q.Y ( ( ' { Q.!.Q.{ R.R.T.T./.6.<.X.r + O       # J 2.!.!.Q./.!.!.T.^.6.!.'._ O P 6.6.Q.Q.Q.Q.6.2.7.6.6.6.6.6.6.6.<.,.<.3.7.7.3.3.~.,./.~.2.~.q.3 H Y [ <.2.7.~.'.~.'.!.'.}.U 3 q.!.~.!.~.~.~.~.q.q.q.q.q.q.q.q.q.q.8.'.u @ ~.'.~.~.~.9.U U !.'.~.~.<.q !.+X8.  0.}.}.}.}.}.}.}.}.).|.}.0.5.N.}.N.N.|.|._.|.|.|.|.}.).).|.|.}.}.}.}.*.. pXpXuXdXuXuXuXdXpXpXdXuXuXuXuXuXpXpX|.  X 5XfXCXCXsXsXfXfXeXfXfXCXs.. +XL..XOXOXOXpXpXaX,XpXpXpXpXpXyXyXyXP h sXsXsXdXsXsXsXsXaXaXaXaXaXuXpXoXpXOXL.OX~.Y.t pXuX,XpXyXpXiXdXI.. # +XOXOXOXOXOX.XL..X.X|.|.}.}.}.}.}.}.}.}._.|.|.).).w.X.O   X.q.w.q.~.~.w.w.w.w.w.w.w.w.q.w.q.w.q.q.}.1.O { !.2 2 7.7.q.1.8.3.3.3.3.3.3.3.7.4 1 2.} 2.!.| 2./.2.2.7.3.) Y J q Q.[.'.!.p 0 / X.O.O.,.,.<.<.2.) I H P T ] ,.] Y <.H 2 <.8.) 6.2.<.<.2.2.2.<.[ 2.<.<.<.4 O #.<.1.<.<.1.O.O.3.1.1.1.1.1.O.u O ,.2.2.[ [ [ ] } ] <.3 @ U 2.T.Y.} 2.2._ 2 O 7 +.[ [ [ [ ( 2 2 @.T.} I @ w 2.Q.' ) [ [ } } ] H 2 0 O.<.<.} } | [ [ [ [ [ ] ] [ [ [ q 2 ) 3.] 2.( ] ] ) ) ] ",
"        O @ @ @ @ @ @ @ @ @ @ @ @ @   O O @ @ # 3 0 P I I Y P 5 3 U ) _ ) ] ) ] ] Y H 4 2 2 3 u P ) ,.] ,.,.] ] <.,.,.,.,.,.] ) 3.,.) ) <.2.<.,.O O 3 Y ,.2.2.[ [ <.<.[ [ ,.<.] ) [ <.,._ p 3 2 I ) } } ' K H w Q.Q.{ ] | 2.2.6.[ [ | [ [ [ [ [ !.!.) O O [ !.| !.' L ( } } } } Q. .| } 6.Q.6.} [ [ 2.6.2.( q O K ' T.Y.T.Q.Y 4 } Q.!.R.R.R.R.Y.{ { T.T.Q.} J 1 O O 2 4 w w q ) Q.!.T.Y.Y.Q.!.Q.!.' Q.'.H O T 7.2.2.2.6.6.6.2.2.6.6.6.6.2.6.6.2.8.<.<.<.2.2.2.7.2.2.2.!.~.<.H 3 | [ [ [ [ [ 2.2.7.<. X Xw O 7.~.!.!.!./.!.~.q.q.7.7.7.7.7.7.7.7.8.'.O.O p !.!.~.~.7.] [ <.7.!.'.q.6. .'.~.O a |.N.N.N.N.N.}.}.}.}.}.}.N.0.;.N. X|.}.}.}.|.|.}.}.}.}.).N.).}.}.N. XO.% pXuXyXuXyX>X>XyXoXoXyXyX>XiXuXyXdXOXM.; I.fXsXsX5XsXsXsX6XsXaXsXfXI.O }.+X.X.X X X|.|.oXyX>XyXoXOXH.-.O.1.q d sXsXaXdXaX5XyXpXdXdXpXuXuXpXP.l.OX+X+XOX}.'.^ > oXyXyXoXI.yXyXyXa.. N.OX.XL..XB.B..X|.N.-.#.H.H.N.N.N.N.N.N.N.B.N.N.N.}.N.-.  r #.~.w.9.9.9.w.w.w.w.w.w.w.w.w.q.w.q.q.~.9.r 5 '.^.L 4 O.~.2.<.8.7.3.3.7.7.7.7.H 4 '.'.!.!.2.3./.2.<.2.,.H 1 [ L K } '.'.[ 2 ) O.O.O.O.) O.,.,.] ) _ _ ) _ I ] ,.<._ 4 w <.8.[ [ 2.7./.7.7.<.7.7.2.2.7.I 3 u 1.1.O.O.1.1.O.O.<.1.1.<.1.1.U 0 2 H ,.7.2.<.[ [ <.) @ u 7.7.} } } } }  .) w @ O 2 I | } Q.[ q O { } ) 4 4 Y 2.2.<.[ ' ( ' ) I w e q H ) } ] ( [ 2.2.} } } } } } [ [ q 4 ) ] ' } [ [ [ [ ] ",
"      O @ @ @ @ @ @ @ @ @ @ @ @ O O @ @ 3 0 p p p I I P q 2 4 w I <.<.) ] ,.T H T w 1 2 T ,.) P w T ) ) ] ] ) ) ) ) ) ] ] ,.,.] ,.] <.7.7.) 5 O 2 q Y <.7.2.2.} <.2.2.2.2.2.7.3.<.<.[ I q q ( 6.} Q.Q.| K L K { ' ' } } { } | ( [ [ [ | [ | 6.!.~.H 2 L } !.Q.T.' L K } Q.} } Q. . . .} } } }  .6.!.Q.] L q ' Q.R.R.E.R.| L O O ` Y.R.R.R.R.R.R.{ !.!.] 4 1 4 L ' ` T.!.'.^.K L | } T.T.T.} } } } !.!.q 1 ] !.} } } } Q.Q.Q.Q.2.6.6.6.6.6.2.2.2.] ) ) ] <.2.2.2.[ [ Q.Q.] L Y ) 6. .} | | | } [ 0 O J ] H ] ~.7.~.~.~.~.~.~.~.~.~.~.~.~.~.~.~.~.~.'.2 O <.<.} !.'.!.!.!.'.'.'.!.) [  . X( O }.H.M.N.N.N.N.N.H.H.}.N.N.}.N.-.w. X}.}.}.}.}.}.}.}.N.+X}.r   4. X}. Xi D dXuX,X,XyX>X>XyXOXL.oXyXyX,XaX,XoX X,.& dXsXaXaXaXaXaXaXaXsXaXaX6XdX% 9.|.}.}.'.~.7.,.q.}.oXOXH.9.[ | Y.{.^ x VXsX,XpXpX,XdXpXuXpXaXuXuXuXiXb [  X+X+X}.R.^.@ b.pXpXyXyX,XyXiXiXh . G.OX.X.X.X|.).a O s w.H.H.H.H.H.N.N.N.N.N.N.N.N.N.H.N.N.r + 1.}.~.q.~.w.w.q.q.q.q.w.w.~.q.~.~.9.w.q.O.  Q.[.{.2 o O.!.!.7.2.<.3.!.2.Y !.( 4 Y Y Y 7.~.2.2.2.2.7.!._ O ] [ L L | !.!.' ) ) [ O.) ) O.@.<.<.<.2.2.<.) Y ( [ ) ,.P 2 ) 8.<.<.<.<.,.,.<.[ <.2.[ [ <.<.p O ,.3.3.<.3.7.3.3.<.1.<.<.1.3.<.O.O O w ) ) ] 2.2.O.p O 1 Y Y ) 8.!. .{ {  .[ ( H Y 2.} ' { 6.] w 5 Y <.' H 4 q H [ [ [ } 2.2.] Y ] J 4 4 ] !.7.[ [ | ] ] ] ] ] ] [ 7.) 4 I [ ' | | [ [ [ ] ",
"O O O @ @ @ @ O @ @ @ @ @ @ @ @ O @ 3 u I I I I I I I P w 4 I <.] ] ( ) ) P 6 3 2 w T ,.,.,.] ,.T ,.<.<.<.<.<.<.,.,.,.<.<.<.<.<.7.<.<.] I 4 2 w [ [ 2.} ] ' [ 2.] ] ] ] <.<.,.] ) w 2 H | Q.} ' Y.| Y I I ' } T.} { 6.[ J K 2.6.[ | | } 6.Q.Q.6.O 2 L Y.R.T.' L 4 K } Q. .} }  . .6.Q.Q.6. .6.Q.6.Y 4 L } ^.^.T.R.R.T.` L L J [ E.^.^.E.R.R.T.T.Q.{ J 4 q (  .!.^.R.T.Y.!.!.{ ` K ] } !.!.Q.Q.Q.6.!.q O 2.!.{ T.} } 2.Q.Q.Q.2.2.6.6.6.6.2.2.2.2.2.2.6.!.~.~.!.!.[ !.!.] 4 H | { ' ' ' ' ' ' ' ' 2 Y K K !.'.!.!.!.!.!.!.!.!.!.!.7.7.7.7.~.~.7.7.~.) 2 <.~.[ Q.}  .Q.!.!.!.!.<.J J !.!. XO u  Xw.}.}.}.}.}.}.}.}.}.}.}.}.}.'.~.~.!.8.q.).}.}.}.}. X).<.I ) q.).)._.$ m.dX,X,X>XyX,XuXiXOX.XiXiXuXyXuXyX|. XL M sX,X5XaXsXaX5X5X6X5X6X6X7XsX; A H.'.'.!.Q. ...` ^ '.~.2.| } } } 6.w & aX5X,XaXuX,X,X,X,X5X,X,XaXaX+X<.^ K P ,.3. .^.,.; .XXXXXyXyXoXXXpX&.  e. X|.|.}.4.P 4 I q. X}.}.}.}.}.}.}.}.}.H.H.H.H.N.N.N.}.N.$.u U ~.'.q.q.q.q.q.q.q.w.w.~.q.~.~.q.q.~.q.. q {.[.!.e @ [ !./.2.<.7.!.] H ] 2.Y H 1 O 5 u 8.<.<.<.<.8._ O 4 6.[ J J ^ Q.!.( ) ) ] ,.<.<.<.<.,.<.<.<.<.] ) ( ) Y <.,.0 0 U 8.7.7.7.2.<.7.7.<.[ <.[ <.8._ O 5 ,.7.3.<.,.<.3.<.2.<.<.<.2.<.<.U O O O O 2 3 1 O ] !.Y.L 1 4 U ) ( [ [ } 6.!.!.Q.Q. .} } } 2.[ O 3 [ Q.' 2 O O w J ( ] ] ] ] ( K } ] q 2 w ) <.} 2.2.} } } } } { ] 7.I 2 [ 2.] [ [ [ [ [ ",
"  O O @ @ @ @ O @ @ @ @ @ @ @ @ 3 3 w p P P w 5 P 2 2 w ) ) ] ] | ] ] ,._ 3 6 U 3 P U T I H P Y I T T U T T T ) ) ) T T I I I I I H q 2 O O 3 O.} 2.2.2.2.2.2./.7.2.2.2.2.2.] Y 2 H <.2.] ' ' { } ' I I _ [ { | } ] ] J 1 2 ( 2.7.<.] 6.'.'.} L O I 6.Q.{ Y.{ K ] 2.2.| ] 2.} ' [ ( I ( <.2.] P 4 I 2.!.!.Q.T.T. .!.!.L L Q.'.'.T.T.{ ' ' Y Y J E 4 O 2 / [ | K ^ ' ' K K ' ' Q.Y H w Y ] 2.] ] 8.w 2 ) !.2.{ !.6.6.6.6.6.2.2.2.6.6.6.6.6.6.2.2.2.2.2.2.2.2.[ ) q 6.( 2 Y } ' ' ^ ( ' ( K K K Y 2 ) 6.6.2.2.2.!././././././.7.7.7.7.7.7.7.7.7.7.7.q I ~.!.6.!.T.} ' { !.7._ w p ] !.6.7.O w. X}.'.'.'.~.~.~.~.~.~.~.~.~.~.'.!.} 2.] ,.q.~.~.~.'.~.2.[ !.'.'.~.~.w.. H.oXoXoXOXOXOXOXOX X'. X.X|. X}. X X[.u d.CXsXsXsXsXsXfXfX6XsXsXsXsXaX$ I  X7.!.Q.T.Q.6.( 2 ` ` {  . .[ [ <.! d dXsXsXsXdXdXaXaXaXpXpXpXoXL.,.2.!.Y.' K H P ` ' 0 0 @ p O r t c m + O e e U C p q 2 J 7.q.e.q.q.q.q.w.w.w.w.~.w.w.~.).w.w.w.9.}.w.U 0 ) 3.O.q.q.q.~.~.~.~.q.~.~.~.~.q.q.~.~.4 O P T.[.E.2 . ] 7.~.~.7.7.2.<.1 Y [ ) I 4 O O O O 2 3 w ) ) q O ) ,.] ( K ' ` [ ] ] ,.8.7.8.8.7.8.3.3.8.8.8.8.( ( ) ) <.U O 2 p _ <.8.8.2.<.<.7.<.6.2.[ ,.U O w <.~.7.3.3.3./.2.8.8.2.<.2.2.2.1.0 3 p 0 3 3 O 2 [ Q.!.R.{ w O O q ) [ ] ( Y Y | K H K ( ] ] (   @ P ] ' H 4 u q H w q q J ' | K ' | ( J 2 2 I ( ] [ ] ( ( ] [ [ Y ,.w O I [ [ ] ] ] [ <.",
"    O @ @ @ @ O @ @ @ @ @ @ @ @ @ @ 2 @ 2 2 2 2 3 O O 1 0 w q 4 2 4 2 2 O O O @ u 2 O O 3 q 2 1 1 2 2 O 2 2 O 2 2 2 2 2 O O O 1 O O 1 2 O O O O 1 1 4 4 4 5 4 4 5 5 4 5 w w 2 O 4 2 2 2 2 4 4 4 4 1 O O @ 2 2 1 2 2 4 4 2 O 2 2 4 2 2 4 w q 2 O @ O 2 L L 1 4 w w 4 2 2 2 2 2 O 2 1 O 2 5 5 1 O 1 4 w H q q q H e w q O O L L 4 2 2 1 1 1 2 2 O 1 1 4 3 2 2 1 1 O 2 4 2 2 2 O O 6 1 O O @ 2 2 2 O O 1 2 O q L 4 q q q 4 4 4 4 4 4 4 4 4 4 4 4 4 q 4 2 2 2 2 2 1 O q 2 O q Y J L w J J H w q q w O 2 q q H H L H 4 4 4 4 4 5 5 5 4 4 4 4 4 4 4 4 2 O 2 q q J q q q 4 4 4 4 1 @ 3 4 O 2 O O O.1.I q q 4 4 4 4 4 4 q 4 2 4 4 4 4 4 H 2 2 2 5 5 0 w 4 J K L 4 L Y T J O J / U O.] ] ^ I ( ^ L ^ K J Y J I ' K 1 h h.m.m.m.c.m.B.m.c.C.b.b.m.D 1 L ` ( [ [ ^ ( ) p @ p I J J ( [ [ !.P o B.L.B.B.B.B.m.L.G.v.n a u 2 L J 4 4 L L 2 @ H 1 P 2 4 K H H 2 w 2 2 2 q 4 2 X 2 q q 2 4 3 3 2 2 2 2 4 4 q q q 4 4 4 0 5 3 5 i O O q w O O 2 3 5 0 p p p 0 0 w w w w w w q w 2 @ o 2 W.R.4 . O 3 P P w w q q 1 2 q w Y 0 3 3 O O O O O O 1 O O 4 w H H q 4 4 4 2 2 4 w H w 3 w w w w w w w w w w I w P I O 2 O O q H H H H H I H I I w w 3 O 2 w w w w H w P 4 q w q q q q q 2 O 2 0 3 3 3 @ O q L K K K I w   @ w P H 4 2 2 L q 2 2 O 2 H H 3 2 2 w H H w p w e 3 1 1 4 K ] ] K q q I I 4 O 2 4 w q 2 2 q w q H w O O 2 4 J w w w w w ",
"      O @ @ @ O @ @ O O @ @ @ @ O O O O O O @ @ 3 @ @ O O O O 2 2 2 O O 3 3 # @ O O 2 2 O O O 2 O 2 @ O @ O O @ O O O O O O 2 3 q 4 2 2 3 @ O O O 1 2 1 1 1 1 1 O O 1 1 1 2 2 1 O 2 2 2 O O O O O @ 2 2 @ @ 2 2 O 1 O O 2 @ O 2 O 2 2 1 O O 2 w 2 O O O O 1 2 O O 1 2 4 2 2 2 2 O @ 2 @ O O O 3 4 2 2 2 2 2 2 O 3 O O O 2 4 1 1 4 2 6 6 6 2 2 @ 3 3 1 1 1 2 4 4 0 2 @ O 2 3 O 3 O 2 3 @ O O O O 6 5 2 @ 3 2 1 2 2 2 2 2 2 2 2 2 2 2 2 2 2 2 2 2 4 2 1 O 1 3 5 2 q 2 3 @ O O 2 1 O O O O O O O O @ w 2 1 5 4 O 4 4 4 4 5 4 5 5 5 5 5 4 4 4 4 q q 3 O 2 2 4 w 2 4 2 0 w 2 1 5 u 3 2 2 P 2 O @ 2 4 q 4 4 4 4 5 5 5 q q 5 w q 4 w H w q 4 2 6 4 4 q H 1 1 H J 4 1 2 q O L L 4 4 4 4 5 6 9 5 4 R 9 5 = u q H q q 2 1 1 1 1 2 1 1 1 1 . 1 1 +   K ` H q w w q 4 0 3 @ = 0 # 4 w H 4 2 2 O : : X O @ X O 2 2 1 1 4 L 4 q q q w H 5 4 3 9 1 3 3 P 5 T 1 H q q w O 3 w 4 w q 4 4 4 4 4 e q q q w w w w w q q 5 4 4 3 3 3 O @ 4 q 5 w w w 2 2 4 q q 4 4 4 4 q 4 4 4 4 4 q 2 O o @ 4 4 4 r 3 @ O 3 0 w 4 2 0 @ 4 2 w 2 O O @ @ @ @ @ @ @ 3 O O 2 2 1 2 2 2 3 2 2 2 5 5 4 2 2 2 2 4 2 2 2 2 1 4 4 2 2 4 2 3 @ @ 2 2 2 2 4 w 2 1 2 2 2 2 @ O 2 4 2 2 2 2 1 2 4 4 4 q q q q q 5 4 3 3 3 2 2 @ O O O O 2 1 @ O + O O 2 2 2 2 0 2 4 w 0 O O @ 2 q 2 O @ @ 3 2 1 @ O O O O 2 4 4 2 w 2 O O q q 2 2 2 2 2 2 2 2 4 O 2 1 @ O O O O O O O O O ",
"        O @ @ O O O O O @ @ @ # @ 2 3 3 3 @ @ O @ O O @ # # @ O O @ @ @ @ @ @ 3 2 2 @ @ @ @ @ @ O @ @ @ 3 @ O @ @ @ @ @ O @ @ 3 2 2 2 @ @ @ @ O O @ 3 1 O O 2 2 2 2 3 2 O O 2 2 4 1 O O @ # # @ + @ @ O O @ + + 1 3 @ @ 3 O O # 3 2 1 1 6 5 6 1 2 O @ # @ @ 2 2 @ 2 @ O @ 3 3 @ 2 @ @ X @ @ 2 2 @ 2 3 2 @ @ @ # 1 1 3 O O # # 7 2 2 3 @ 1 1 2 q @ @ 6 5 6 1 O X O O 3 3 3 @ O 3 2 @ O   O 0 e 2 1 6 @ @ 3 2 1 4 1 2 2 2 3 3 2 2 2 2 2 2 2 2 2 2 2 2 2 1 2 3 2 O 1 u 3 @ # 3 # 6 3 3 @ # # 3 # # @ 2 2 2 6 9 w 5 4 5 4 5 5 5 5 3 5 5 5 5 5 4 5 5 r O O 0 w 4 w w 3 3 4 q 4 2 2 3 w 3 O O O U J 4 w 0 5 5 5 5 5 5 5 0 5 3 3 p 0 3 2 5 5 5 5 w w 4 2 0 u 5 5 5 0 e . + q q H q 0 : L 2 0 e e u 5 q 4 L L q b . 3 E u 3 3 u u 5 5 u u L L P # 0 p t u u w w P P 5 2 4 w P w w e 3 r + 3 9 P P P T 9 H J H H w w w 0 u 4 e p 7 9 P 4 5 e e e q 4 q e w q 4 2 + i 3 4 5 w 3 # @ 2 q q q q 4 4 4 4 4 4 3 0 0 3 2 4 3 2 O 2 q w q 4 5 5 4 4 q q q q q w 4 w e 4 q q q w r O X u 3 3 w 4 7 @ O 3 0 3 4 q @ @ p O 4 4 q O @ # @ @ 3 O O 3 X O 5 5 6 w 3 # 3 6 3 6 2 4 4 4 4 4 4 4 4 4 q w 3 w O 2 2 O q 2 @ # 4 4 4 4 4 4 0 w 5 2 3 5 3 O 2 q q q q 2 2 q q 3 3 5 3 4 4 3 4 4 2 O 3 3 2 O   + # o   O 0 @     O w w 4 @ 3 q O @ 3 @ O 3 3 q 4 2 O O # 2 2 2 O O @ 3 0 q 2 2 2 O @ e 4 2 q 3 2 1 2 2 3 2 2 q O @ 3 O O U O O @ @ 2 2 ",
"      O   @ @ @ @ @ @ O @ @ @ @ O O 1 1 1 1 O O @ O O O O @ @ @ 2 2 2 2 2 2 2 2 1 1 1 1 1 1 1 1 1 1 1 1 @ 1 1 1 O @ @ O O O @ 2 4 2 2 2 4 2 O O O O @ 1 @ 6 2 2 1 1 1 1 1 1 1 1 1 1 1 1 1 1 1 1 1 1 1 1 1 1 @ @ @ @ @ 1 1 @ @ @ 2 2 2 2 2 2 2 2 O O @ @ @ 1 3 3 2 2 2 2 2 2 2 2 2 2 2 2 2 2 2 2 2 2 2 2 2 2 2 2 1 2 1 O O 2 2 1 2 2 2 2 2 2 2 2 2 2 2 2 2 2 2 2 2 2 2 2 2 2 2 2 @ 2 O O O 4 4 2 2 2 2 2 2 2 2 2 2 2 2 2 2 2 2 2 2 2 2 2 2 2 2 2 2 3 3 2 2 3 2 2 4 5 3 O O @ 2 4 2 2 1 2 2 2 1 O 2 2 2 4 4 4 4 4 4 4 4 4 4 4 4 4 4 4 4 4 4 5 5 5 3 O O 2 5 5 4 4 2 4 4 4 4 2 4 4 5 3 3 O @ p 0 5 q q q q q e e q q q q q q 3 e e 3 3 3 3 e 3 3 5 q q q q q e e q @ @ 0 0 5 q w w e e e e e e e e q q 4 w H 4 2 w 0 0 0 0 0 0 0 0 q 0 0 5 3 e u u w H H w H P 5 1 3 0 w w w w w q 3 @ 3 P w q w w e q 0 0 0 0 0 0 q q q 0 0 0 0 0 w w w w w w w w q e p 3 O 3 w q 4 q 0 e 2 2 4 e e e e 0 e e e e 4 q e 3 3 0 0 3 O # 0 e e 4 4 4 4 4 4 4 5 q 5 5 4 4 4 4 e e e e 3 O O 5 q 4 5 4 0 O O 2 q 5 4 5 @ 2 4 4 5 4 2 X @ @ @ @ @ @ O O   @ 1 6 5 5 6 3 2 2 2 2 2 2 2 2 2 2 2 2 2 2 2 2 2 3 6 2 2 3 3 3 O @ 2 4 4 2 2 4 4 q 4 2 2 3 3 O 2 5 q 5 q 4 2 5 q 5 5 5 5 5 5 5 3 2 2 2 3 3 2 @ O O @ @ 1 1 1 1 # O O @ 4 2 4 q 4 2 2 2 2 O O 4 2 2 2 2 2 2 2 2 2 O O O @ 3 5 5 4 2 2 @ 2 2 4 4 2 2 2 2 2 2 2 2 2 2 @ O O O 2 q @ @ 1 1 1 ",
"        O   @ @ @ @ @ @ @ @ @ @ @ @ 2 2 2 2 @ @ @ O O O O @ @ @ 1 1 1 1 1 1 O 1 1 1 1 1 1 1 1 1 @ @ @ @ @ @ @ @ O O @ O O O O @ 4 4 2 4 4 2 O O O O @ @ @ @ 1 1 @ @ 1 1 @ @ @ @ @ @ 1 1 1 1 1 1 @ @ @ # @ @ @ @ @ @ @ @ @ @ @ @ 2 2 2 2 2 2 2 2 O O @ @ @ @ 3 3 2 2 2 2 2 2 2 2 2 2 2 2 2 2 2 2 2 2 2 2 2 2 2 2 1 2 @ O O @ 2 2 2 2 2 2 2 2 2 2 2 2 2 2 2 2 2 2 2 2 2 2 2 2 2 2 @ @ O O O 2 2 O 2 2 2 2 2 2 2 2 2 2 2 2 2 2 2 2 2 2 2 2 2 2 2 2 2 3 3 2 2 3 4 2 2 5 3 O O @ 2 2 2 2 2 2 2 2 2 O 2 2 2 6 5 5 5 5 4 4 4 4 4 4 4 4 4 4 4 4 5 5 5 5 3 O O 2 5 5 5 4 2 4 4 4 4 2 2 4 5 2 3 O O w 5 5 5 5 5 5 5 5 5 5 5 5 5 5 5 5 5 5 4 4 4 4 4 4 4 4 4 4 4 4 4 4 4 4 O @ 3 5 5 4 4 q q q q q q q q q e 4 4 q q 2 O 0 0 0 0 0 0 0 0 w 5 q q 5 2 2 3 0 q w w q w P 5 1 2 5 w w w w w q 3 O @ 0 q q q 4 q q q q q q q q 3 3 e q q q 5 3 q q q w q q q q q w 0 3 O 2 e q 2 q q 3 @ O 2 q q q q q q q q q 4 4 4 2 2 4 3 3 O @ 0 e e 4 q q 3 4 4 4 3 q q q q q q q q q q q @ O O 3 3 4 5 4 3 X O 2 5 5 5 w @ @ 2 5 5 2 @ X @ @ @ @ @ @ O O   O @ 6 5 5 3 3 6 6 3 3 3 3 6 6 3 3 6 6 6 3 3 5 3 3 2 2 2 2 3 2 X @ 2 e 4 2 4 5 4 5 4 2 2 3 #   2 4 3 4 3 2 2 4 4 4 4 4 4 4 4 4 3 2 @ 2 2 2 @ O O @ @ # # 3 1 1 + O O @ 2 2 2 4 3 2 2 3 2 O @ 3 2 2 @ @ @ @ @ @ @ O     O @ 2 2 3 2 @ @ @ 2 2 2 4 4 4 4 4 4 4 4 4 2 # O   O @ 4 @ @ @ @ @ ",
"          O O O O O O O O O O O O O O O O O O O @ O O O O @ @ O O @ @ @ @ @ @ @ O O O O O O O O @ @ @ @ @ @ @ @ O @ @ @ O O @ @ X O O O @ @ O O   O O @ @ @ @ @ @ @ @ @ @ @ @ @ O O O O O @ @ @ O O O O O O O O @ O O @ @ O O @ O O O O O O O O     O O @ @ @ @ @ @ @ @ @ @ @ @ @ @ @ @ @ @ @ @ @ @ @ @ @ @ @ @ @ @ @ O O @ @ @ @ @ @ @ O @ @ @ O O O O O O O O O O O O O O O O O O O O O @ @ O O O O O O O O O O O @ O @ @ @ @ @ @ 2 2 2 2 2 2 @ @ @ @ O @ @ O O 3 @ O O O @ 2 @ @ @ @ @ @ @ O O O @ 2 2 2 2 2 2 2 2 2 2 2 2 2 2 2 2 2 2 2 2 6 # @ O 2 3 3 5 5 3 3 3 3 2 2 2 3 5 3 3 O O 0 5 5 5 5 5 5 5 5 5 5 5 5 5 5 5 5 5 w 5 5 5 5 5 5 5 5 5 5 5 5 5 5 5 5 O @ 3 w w w 5 q w w w w w w w w e e e e 0 2 @ u 5 5 5 5 q 5 q q q w w 5 2 2 2 3 0 w w q w p u 3 5 w w w w w w w 3 O O 3 0 0 w q q q q q w w q q q q q q 0 0 0 q w w w w w w w q w w 0 1 O 2 w q 4 q 0 3 @ O 2 0 5 5 5 w w w w w q e 4 2 2 4 4 4 O @ 3 3 2 4 3 q 3 3 3 3 3 3 5 3 5 5 5 w w w w w # O @ 3 3 3 q 5 : X O @ 3 3 3 3 X O O @ @ @ O   O O O O   O O O     O @ 1 3 # # 2 2 2 2 2 2 2 2 2 2 2 2 2 2 2 2 2 2 @ O @ 3 3 @ O @ # 3 3 @ 2 3 4 3 3 2 3 3 # O @ 3 3 3 3 2 2 3 e e 3 3 3 3 3 3 3 @ @ @ 3 3 @ @ O O O @ @ @ @ @ O     O @ O O @ @ O O @ O O O @ @ X O O O O @ @ O O       O @ @ 2 @ O O O @ @ 2 2 2 2 @ @ @ @ 2 2 @ @ O     O @ @ @ @ @ @ ",
"                                                                                                O O O O                                 O O           O O O O O O O O O O O O                                         O O           O O O O                   O O O O O O O O O O O O O O O O O O O O O O O O O O O O     O O O O O O O O O O           O O O O                           O O           O O O O O O O O   O     O O O O O @ O O O O O O O O O O O O O     O O O O O O O O O O       O     O @ @ O O O O O O O O O O O O O O O O @ O O @ @ 2 @ 2 @ @ @ @ @ @ @ @ 2 @ @ O O 3 3 6 6 6 6 6 6 6 6 6 2 6 6 6 3 3 3 3 3 3 6 6 2 2 2 2 3 2 2 2 2 2 2 2 @ 3 3 5 5 5 3 3 5 5 5 5 5 5 5 5 3 0 3 3 3 @ @ u 5 5 5 5 q q q q q w q q 4 2 2 2 3 0 e e 0 0 3 3 6 5 0 0 0 0 w 0 3 @ @ 3 3 e 0 3 q q q q q q q q q q q 0 0 0 0 0 w w w w w w 0 0 q 0 3 @ O 3 0 q q q 0 # @ O @ 3 3 3 5 3 5 5 5 5 q q 4 2 4 4 3 3   O @ @ @ X @ 2 2 2 2 3 3 3 3 2 2 2 3 3 3 3 3 3 # O O 3 @ 2 3 2 # O O O O O O O     O O O O                           O O O O   O O O O O O O O O O O O O O O O O O O O @ 3 3 @ O O O @ @ O O @ @ @ @ @ # # @   O @ @ @ # @ O @ @ @ @ @ @ @ @ @ @ @ @ @ @ @ @ O         O O O O         O     O               O O O O O     O O             O O   O       O O O O O O O O O O O O O           O O O O O O ",
"                                                                                                                                                                                                                                                                                                                                                                                                                                        O                         O                                           O O       O O O O O O O O O O   O         O O O O   O O O O O O O O O O     O O O O O         O O O O O O O O O O O O O O O       O O         O O O @ @ @ O O O @ O O O O @ O O O O O O O @ O O 3 3 3 3 3 3 3 3 3 4 2 2 3 2 @ @ @ @ @ O O @ @ @ O O @ # @ @ @ 3 @ O   O @ O O @ @ @ @ @ @ 2 2 @ @ @ @ @ 2 2 @ @ @ 2 2 2 @ @ @ 2 @ 2 @ # @ O # 3 2 2 @ O O     O O O O O O O O O O 2 2 2 2 2 2 2 @     O O   O O O O O @ @ # @ @ O                 O   O O O O O O X                                                                                               O O     @ # # @       O O O O O   O O O O @ O   O O O O O O   O O O O O O O O O O O   O O                                                                                                                                                 ",
"                                                                                                                                                                                                                                                                                                                                                                                                                                                                                                                                                                                                                                                                O O O O O                               O     @ O O O O O O O O O O O O O O O O           O       O O   O   O O       O     O   O O O O O O O O O O O O O O O O O O O O O O O O O O O     O @ O O O         O                   O O O O @ @ O O                 O O O @ @ O O O                                                                                                                                         O @ @ O                                                                                                                                                                                                                           ",
"                                                                                                                                                                                                                                                                                                                                                                                                                                                                                                                                                                                                                                                                                                        O                       O                                                                                                                           O O                                                                         O                                                                                                                                                                                                                                                                                                             O O                                                                 ",
"                O                                                                                                                                                                                                                                                                                                                                                                                                                                                                                                                                                                               O O O O                                                                                                                                                                                                                                                                                                                                                                                                                         O                                                                                                                                                                                                                     O O O     O             O                                           "
};
