/* XPM */
static const char *xpm_[] = {
/* columns rows colors chars-per-pixel */
"300 168 256 2 ",
"   c #040100",
".  c #0C0100",
"X  c #0C0A03",
"o  c #060908",
"O  c #140202",
"+  c #1B0102",
"@  c #140905",
"#  c #1B0A05",
"$  c #1D0509",
"%  c #150B0A",
"&  c #1D0B0B",
"*  c #150609",
"=  c #1B120B",
"-  c #1C0E12",
";  c #1B1515",
":  c #0B0E11",
">  c #230203",
",  c #2B0104",
"<  c #240A06",
"1  c #24060A",
"2  c #2B050A",
"3  c #240B0C",
"4  c #2B0B0D",
"5  c #2B0B05",
"6  c #32050B",
"7  c #330B0D",
"8  c #360708",
"9  c #24110D",
"0  c #2C130D",
"q  c #2B190C",
"w  c #32140D",
"e  c #341A0E",
"r  c #39150B",
"t  c #250D11",
"y  c #2C0D11",
"u  c #2A0A16",
"i  c #330D12",
"p  c #3B0D13",
"a  c #390A16",
"s  c #251212",
"d  c #2C1313",
"f  c #2D1A14",
"g  c #2D1619",
"h  c #2D1A1B",
"j  c #251A18",
"k  c #331314",
"l  c #3B1315",
"z  c #351A14",
"x  c #3B1B14",
"c  c #341519",
"v  c #3C151A",
"b  c #341B1B",
"n  c #3C1B1C",
"m  c #3C2215",
"M  c #34231B",
"N  c #3D221B",
"B  c #382616",
"V  c #2F2417",
"C  c #3D1D21",
"Z  c #371B21",
"A  c #271D25",
"S  c #3D2323",
"D  c #382726",
"F  c #2F2827",
"G  c #1A2022",
"H  c #430D17",
"J  c #421216",
"K  c #421C16",
"L  c #43151C",
"P  c #4B151D",
"I  c #431B1D",
"U  c #4A1A1E",
"Y  c #4A1913",
"T  c #53171B",
"R  c #53190B",
"E  c #59230D",
"W  c #432315",
"Q  c #44231B",
"!  c #4A241C",
"~  c #452A1C",
"^  c #4B2B1C",
"/  c #482916",
"(  c #522C1D",
")  c #582918",
"_  c #4C311C",
"`  c #54321D",
"'  c #5B351D",
"]  c #47220D",
"[  c #662918",
"{  c #66351D",
"}  c #76371C",
"|  c #722A16",
" . c #4C1621",
".. c #441C22",
"X. c #4B1D23",
"o. c #4D1E29",
"O. c #431822",
"+. c #521D25",
"@. c #531E29",
"#. c #5A1E2A",
"$. c #561923",
"%. c #5A1E31",
"&. c #651B2A",
"*. c #442224",
"=. c #4D2125",
"-. c #452A24",
";. c #4C2C22",
":. c #452529",
">. c #4C2329",
",. c #442A2A",
"<. c #4C2A2C",
"1. c #512026",
"2. c #532D22",
"3. c #53232B",
"4. c #5A242D",
"5. c #542A2D",
"6. c #5B292E",
"7. c #5B2A23",
"8. c #4B3328",
"9. c #543223",
"0. c #5B3323",
"q. c #5C3A23",
"w. c #54342B",
"e. c #5A372B",
"r. c #4C2C31",
"t. c #4A2A32",
"y. c #5B2631",
"u. c #542C32",
"i. c #5C2C33",
"p. c #572A35",
"a. c #4B3635",
"s. c #543234",
"d. c #5C3136",
"f. c #543439",
"g. c #5D343A",
"h. c #5C3B3D",
"j. c #573B37",
"k. c #62232D",
"l. c #662A28",
"z. c #633423",
"x. c #633B24",
"c. c #6B3C25",
"v. c #643C2B",
"b. c #6A3729",
"n. c #743D2B",
"m. c #773927",
"M. c #632532",
"N. c #622C35",
"B. c #632E39",
"V. c #6A2D39",
"C. c #692935",
"Z. c #623136",
"A. c #63343B",
"S. c #6A343C",
"D. c #633A3E",
"F. c #6A3A3E",
"G. c #663C33",
"H. c #773C36",
"J. c #732D31",
"K. c #621B11",
"L. c #594339",
"P. c #514236",
"I. c #6A4128",
"U. c #73432C",
"Y. c #7B432C",
"T. c #784427",
"R. c #694438",
"E. c #744333",
"W. c #7C4433",
"Q. c #78483A",
"!. c #76523C",
"~. c #7B421D",
"^. c #5D3D42",
"/. c #573B42",
"(. c #643D42",
"). c #6B3C43",
"_. c #6A3742",
"`. c #723C45",
"'. c #5C4244",
"]. c #5C4747",
"[. c #585446",
"{. c #634345",
"}. c #6B4245",
"|. c #644549",
" X c #6C444A",
".X c #654A4C",
"XX c #6C4A4C",
"oX c #674B44",
"OX c #724246",
"+X c #73444B",
"@X c #74494D",
"#X c #784946",
"$X c #795448",
"%X c #6B4D52",
"&X c #744C52",
"*X c #7B4D54",
"=X c #784651",
"-X c #755255",
";X c #7B5458",
":X c #6B524F",
">X c #7F5A60",
",X c #883919",
"<X c #843C29",
"1X c #833D35",
"2X c #933E2A",
"3X c #92461C",
"4X c #A95319",
"5X c #B46517",
"6X c #87452B",
"7X c #97492A",
"8X c #834433",
"9X c #8B4534",
"0X c #844A34",
"qX c #8B4A35",
"wX c #854C3B",
"eX c #8B4B3B",
"rX c #88453A",
"tX c #944938",
"yX c #89513A",
"uX c #975331",
"iX c #A95729",
"pX c #A85535",
"aX c #B0552E",
"sX c #B86628",
"dX c #B66734",
"fX c #8F633C",
"gX c #C57135",
"hX c #C07711",
"jX c #874C43",
"kX c #875446",
"lX c #955747",
"zX c #845659",
"xX c #8F4C4A",
"cX c #966253",
"vX c #A75F4C",
"bX c #CA7448",
"nX c #833D45",
"mX c #BC8527",
"MX c #D08A33",
"NX c #DDA638",
"BX c #B3966A",
"VX c #D28C4A",
"CX c #EE9555",
"ZX c #F4AF4F",
"AX c #E5AB5D",
"SX c #FBD052",
"DX c #FCEC58",
"FX c #FAD36A",
"GX c #FCEF6D",
"HX c #DDC564",
"JX c #FBF38B",
"KX c #FCF6B0",
"LX c #DCCD9B",
"PX c #FEFBD0",
"IX c #EDE9D8",
"UX c #B9B099",
/* pixels */
"o X     . . . . . .       . . O . . . . . . .           X   . . . . . . . . . . . . . . . . . . + .         o   X   . . . . .   . . .       . . . .   . . . .       o     . . O . . .     . . . . . . . . . . . .   X :       o   . . . . . . . . . . . . . . . % . . . %     X   X X     . . . . . .   . . . . . . . . . . .   X       X   .   . . . . . .   . . . .         . . O . *   X o   X .     . . . . . . . . . . . .   . . . O O .   . X       . . . O O O O O O O O O O O O O O O O . .         X X X * O . . . . . . . . . . . . . . . . . .   . %   : X       . % . . . . . .   . . . O O O O O O O . . . ",
"      % M b g h s 9 = & & 9 9 s g g h g h h h j = X : X   . h F D D D D D D D D a.a.,.D b d 9 3 + & %               * & $ $ & s & & - - - - s s j j h D D h *   X       * s b S S F M V M M M M h g g s 3 & $ * O .     X     X . O * & & - s s F F F F F F F S b b Z M j %           . % O O s g j j j h h h h F F F F F F F M X         . h D D D D D D D D D D D D D D D D D D D d & .       . * s h F h j j j j j j j j j j F D a.a.r.S s % X X     ; a.]./.h.h.j.j.j.f.j.j.j.j.j.j.j.j.h.j.].D ;     X     h F D ,.t.a.a.a.a.a.a.a.a.a.a.a.S S b g 9 & .           . . . & & t j h D D ,.a.,.,.,.,.,.,.<.<.d . . * ",
"% X s j..XXX.X.X.X.X].].]..XXXXX].].|.|.|.|.].].D %   . . D ]./.|.|.|.|.|.|.|.|.{.{.|.|.|.|.|.|.f.h.f.D %     . a.j.].'.h.f.f.^.|.|..X.X.X.X.X.X|.'.'.|.%X].r.Z       s t.'.|.^.'.'.'.'.'.'.'.'..X.X.X.X.X.X.X.X/.a.h . %   . j /.h.'.'.|..X.X.X|.|.|.|.|.|.|.|.|.'.'.].'.a.;   . % F /.].h.a.'./././.'.'.'.'.|.'.'.'.'.'.'.'.'.D %   . . S ]./.|.|.|.|.].].].]..X.X|.].].].].|.%X%X.Xf.S . . . S <.'..X.X|.'.'.|.|.'.'.'.'.'.'.'.]..X%X%X.X'./.* .   - a.:X-X|.^.h.h.h.h.h.h.h.h.h.h.h.h.h.h.^.%X'.D *   X   j '.'.'.|.|.|.'.'.'.'.'.'.^.h.(.(.{..X{.j.h.j.M O .   * F D D D r.].].|.|.'.'.].]..X.X.X.X.X.X.X.X/.d . . ",
". & ,.{.h.g.(.}.f.s.s.s.r.u.d.d.^.^.^.(.(.(.^./.:XD . . s f.f.<.........*.*.*.*.I ..*.*.:.<.5.u.u.>.f./.D . . j '.h.s.r.>.:.:.:.u.u.f.f.f.f.f.f.(.h.u.f.h.^.f.r..   * D f.g.p.O.*.*.*.*.*.*.*.*.:.:.<.u.f.g.^.(.%X|./.t * . A j.{.{.{.{.{.(.(.(.s.f.f.f.f.f.f.g. X|. X%X%X%XD . . D ].^.f.u.>.>.:.:.:.:.:.:.<.<.*.*.*.*.......*.:XD . . t /.^.s.h.h.h.h.h.h.h.h.(.(.^.^.^.^.^.^.^.(. X(.h.$ . . f.h.(.{.(.^.(.(.<.<.<.<.>.:.:.:.r.r.t.u.p.g.^.'.g . . D '.h.u.>.>.>.=.=.=.=.=.=.=.=.=.=.=.=.=.:.*.r.a.t . . O a.f.f.u.>.....C C :.=.=.=.=.=.=.=.X.3.>.*.<.s.b O . . D %X%X.X%X%X(.(.^.g.g.s.s.s.,.,.,.,.:.:.:.,..XS * . ",
". 9 r.u.L L 3.3.>.>.*.....X.@.3.X.X.X.o.X.o.o.:./.a.+ + C f.O.>.o.X.o.X.o.o.o.o.3.3.3.3.3.3.3.3.L a X.s.r.3 O S f.r.X.X.3.y.>.X.o.o.o.o.o.o.>.>.O.O.X.X.o.>.>.>.t . 3 C >.o.@. .>.>.=.=.=.=.=.=.X.X.X.o.o.>.3.>.3.>.^.*.+ O ,.f.>.=.o.X.X.X.X.X.o.o.o.o.o.o.o.o.3.y.A.g.u.f.:.+ $ f..Xr.O.>.3.X.=.=.=.=.=.=.=.=.=.=.=.=.o.=.o.=./.f.$ O c f.O.X.>.>.o.>.>.>.>.>.3.3.3.>.>.>.>.3.3.X.@.o.u.1 O $ d.u.3.=.>.3.>.>.3.3.3.>.>.>.>.>.L O.X.o.@.o.X...*.O + <.d.>.o.y.@.=.o.o.o.o.o.o.o.o.o.o.o.o.=.>.O.>.<.y + + 1 r.u.u.3.3.o.>.>.>.=.=.o.o.+.+.+.+.X.3.3.X.=.5...2 O u /.%X|.h.g.p.3.>.>.>.=.=.=.=.>.>.>.>.>.>.>.:.s.,.j * ",
"+ b u.>.P +.4.$.3.3.o.X.o.+.@.4.@.3.@.@.@.@.3.>.c :.$ + r.p.v p.3.3.3.1.3.3.3.3.+.+.+.1.3.3.4.4.M.4.p.>.<.c + C :.o.@.y.y.y.3.3.@.@.@.@.@.3.@.3.3.3.4.3.3.3.3.3.u O y >.>.@.B.B.@.@.=.=.=.1.+.+.3.3.3.@.+.+.X.o.i.o.p.>.O $ ,.*.>.@.3.3.3.3.4.4.3.3.3.3.3.3.3.3.@.X.3.3...u.:.+ 2 :.>.O.X.3.@. .3.3.3.@.@.+.+.+.+.+.+.+.+.o.+.o.>.^.y + >.p.a o.@.@.@.@.@.>.o.@.$.$.X.X.X.X.X.X.y.@.@.@.i.v > c p.3.o.+.3.3.3.o.3.3.3.3.3.3.3.3.3.3.y.y.y.@.X.O.O.+ > ..o.X.@.@.@.+.+.+.+.+.+.+.+.+.+.+.+.+.+.+.3.y.>.c + + k >.O. .X.@.@.@.o.X.3.3.3.3.4.4.4.4.P @.3.X.X.=.X.v + Z /./.>...o.X.3.3.3.3.3.=.X.X.X.X.X.X.X.X.X.*.*.r.b O ",
"+ c ..X.@.4.#.$.3.3.o.o.o.+.@.#.@.@.@.#.#.#.3.3...:.1 + >.3.H +.@.+.+.+.#.1.+.3.@.+.+.+.$.$.$.$.#.@.y...:.c + ....o.3.4.@.$.X.o.@.@.@.@.@.@.@.3.y.4.@.@.@.@.@.>.d O y >.X.P @. .@.@.1.1.1.+.+.+.+.+.+.+.@.@.+.+.y.3.o...+ i r.u.o.+.+.+.+.1.+.3.+.+.+.+.+.+.+.+.y.$.@.3.o.p.>.> v >.u.3.p.y. .P 4.4.4.3.3.1.+.+.+.+.+.+.+.+.+.o.>.f.p + >.d.@.3.@.@.@.@.@.3.@.3.@.@.@.@.>.>.@.@. .@.#.3.y.L + c o.X.+.+.+.1.+.X.+.+.$.X.$.X.$.X.3.@.@.$.$.@.@.3.L + > >.X. .@. .3.3.3.3.1.1.3.3.3.3.3.3.3.3.3.3.@.y.3.o.+ O :.u.o.@.4.y.y.4.@.@.o.$.X.$.$.$.$.$.$.+.3.1.1.3.o.O.+ O.f.3.o.o.@.@. .X.X.X.$.+.+.1.3.3.3.3.3.3.3.3.:.r.g . ",
"O y I o.y.4.$.@.3.3.o.o.o.+.@.#.@.@.@.@.@.@.@.3...C y + ....3.i.+.+.+.+.+.+.+.+.+.+.+.+.+.+.+.@.#. .3.>.r.c O :.>.o.X. .$.@.@.4.@.@.@.@.@.3.3.3.@.X. .X.4.y.@.O.g O 4 >.X.$.M.4.4.3.3.3.3.3.4.4.3.3.3.+.+.$.$.$. .i.X...+ v C <.3.4.3.3.+.X.X.X.+.+.+.+.+.+.+.+.$. .y.i.O...>.y p >.3.X.o.@.@.4.+.+.+.+.X.X.X.X.3.3.3.3.3.3.3.3...:.p + a X.3.3.X.X.X.X.X.X.X.X.#.#.3.3.3.3.3.3.P 4.#.@.X.v O n X.+.3.+.X.P X.+.3.3.3.3.3.3.3.3.y.4.#.@.@.$.@.o.>.+ > u.u.X.4.y.+.1.1.1.+.+.+.+.+.+.+.+.1.1.1.1.o.y.o.t.> O <...o.@.$. .@.@.3.y.+.+.+.+.+.+.+.+.4.3.3.3.3.X.P p + C 3.>.u.y.o.@.3.3.3.3.1.1.1.1.X.X.+.+.$.X.o.X.>.,.d . ",
"O c :.>.3.3.$.@.+.>.>.>.>.+.+.+.@.@.@.@.@.@.>.>.:.*.+ + ..>.3.3.+.+.+.+.+.+.+.+.+.+.+.+.+.+.+.+.+.$.>.>.,.y + :.>.>.@.@.@.@.@.@.@.@.@.@.@.@.@.@.@.@.@.@.@.@.@.>.t . c r.>.@.@.@.@.@.=.=.=.=.+.+.1.1.+.+.+.+.@.@.o.3.u.c + > C ,.=.1.1.1.1.1.1.1.1.1.1.1.1.1.1.1.3.3.o.3.>.=...> 4 :.>.>.>.X.+.+.1.1.1.1.1.1.1.1.1.1.1.1.1.1.1.=.=.<.4 + *.>.X.3.@.@.@.@.>.>.>.@.@.@.@.>.>.>.>.@.3.@.X.3.>...+ 3 =.+.1.1.1.1.1.1.1.1.1.1.1.1.1.=.>.>.@.@.@.@.@.>...+ 4 :.=.=.o.+.1.=.=.=.=.=.=.=.=.=.=.=.=.=.=.=.X.=.....+ O *.*.>.o.@.@.@.@.@.>.=.=.1.1.+.+.+.+.+.X.o.=.=.5.=.7 + C :...>.>.3.o.@.@.1.1.1.1.1.1.+.+.+.+.+.+.@.>.>.,.b . ",
"O c :.>.3.3.X.@.>.>.>.>.=.o.@.+.>.>.@.@.@.@.>.>.:.*.+ + C :.>.3.1.1.=.=.=.=.=.=.=.=.1.1.=.=.1.1.+.o.>.:.,.s O *.:.>.>.>.@.@.>.>.>.>.>.>.>.>.>.>.>.>.>.>.>.>.>.:.s . g r.o.@.@.@.@.>.=.=.=.=.1.1.1.=.=.=.=.1.=.>.>.>.r.c + > Z ,.=.=.=.=.=.=.=.=.=.=.=.=.=.=.=.=.3.3.o.3.:.*.*.+ 4 :.:.:.>.X.+.1.=.=.=.=.=.=.=.=.=.=.=.=.=.=.=.=.:.<.4 + *.:...3.>.>.o.>.>.>.>.>.@.@.o.>.>.>.>.>.3.3.o.3.=.C + 3 =.=.=.=.=.=.1.1.=.=.=.=.=.=.=.=.>.>.@.@.@.@.>.>...+ 4 :.:.>.+.3.=.=.=.=.=.=.=.=.=.=.=.=.=.=.=.=.X.>.*.*.+ O :.*.>.>.@.@.@.@.>.>.=.=.=.=.1.1.1.1.1.X.o.=.=.5.*.4 + C :...>.>.>.o.>.=.=.=.=.=.=.=.1.+.+.+.+.+.@.>.>.,.b . ",
"O h :.:.3.3.o.3.>.>.>.>.>.>.@.@.=.=.=.=.1.=.=.=.,.S O O n :.=.>.=.=.=.=.=.=.=.=.=.=.=.=.=.=.=.=.1.o.=.:.,.9 O S *.=.=.=.=.=.=.=.=.=.=.=.=.=.=.=.=.=.=.=.=.=.=.:.s . g r.>.o.@.3.>.>.=.=.=.=.=.=.=.=.=.=.=.=.=.=.=.>.<.c + $ Z ,.=.=.=.=.=.=.=.=.=.=.=.=.=.=.=.=.=.=.X.>.=.:.S + 2 -.:.=.=...=.=.=.=.=.=.=.=.=.=.=.=.=.=.=.=.=.=.:.,.4 O ..=...>.=.=.=.=.=.=.=.=.1.1.=.=.=.=.=.=.3.=.X.>.*.n + < =.=.*.*.=.=.=.=.=.=.=.=.=.=.=.=.=.=.=.=.1.=.=.=.*.+ 4 ,.,.>.=.3.=.=.=.=.=.=.=.=.=.=.=.=.=.=.=.=.=.>.:.*.+ O -.*.=.=.=.=.=.=.=.=.=.=.=.=.=.=.=.=.3.X.=.=.*.<.*.4 O S :.*.:.=.>.=.=.=.=.=.=.=.*.=.=.+.+.+.+.+.@.>.>.>.b O ",
"O h :.>.3.3.o.>.>.>.>.>.>.>.>.>.=.=.=.=.=.=.=.=.-.S O O n :.=.>.=.=.=.=.=.=.=.=.=.=.=.=.=.=.=.=.1.o.=.:.-.3 O S :.=.=.=.=.=.=.=.=.=.=.=.=.=.=.=.=.=.=.=.=.=.=.:.s . g r.>.o.@.o.>.>.=.=.=.=.=.=.=.=.=.=.=.=.=.=.X.:.<.c O $ Z :.=.*.=.*.=.=.=.=.=.=.=.=.=.*.=.=.=.=.X.>.=.*.S + 3 *.:.:.=...=.3.=.=.=.=.=.=.=.*.=.=.=.=.=.=.=.=.-.*.4 O n *.=.>.=.=.=.=.=.=.=.=.=.=.=.=.=.=.=.=.3.=.X.>.*.n O < *.*.*.*.*.*.=.*.=.=.=.=.=.=.=.=.=.=.=.=.=.=.=.=.:.+ 0 ,.,.>.>.3.=.=.=.=.=.=.=.=.=.=.=.=.=.=.=.=.>.<.=.-.+ O ,.,.=.=.=.=.=.=.=.=.=.=.=.=.=.=.=.=.3.X.=.=.*.,.*.3 O S :.*.:.=.>.=.=.=.=.=.=.*.*.=.=.=.1.1.1.+.@.>.>.>.b O ",
"O c :.:.3.3.o.3.>.>.>.>.>.>.@.@.=.=.=.1.1.=.=.=.:.S O O n :.=.=.=.=.=.=.=.=.=.=.=.=.=.=.=.=.=.=.1.+.=.:.*.3 O n :.=.=.=.=.=.=.=.=.=.=.=.=.=.=.=.=.=.=.=.=.=.=.:.s . g r.>.o.o.@.>.>.=.=.=.=.=.=.=.=.=.=.=.=.=.=...=.:.k O + b :.=.=.=.=.=.=.=.=.=.=.=.=.=.=.=.=.o.=.X.>.=.*.S + > *.*.*.=...1.3.=.=.=.=.=.=.=.=.=.=.=.=.=.=.=.=.:.S 4 O b *.=.=.=.=.=.=.=.=.=.=.1.1.=.=.=.=.=.=.3.+.X.3.*.n + < *.*.X.*.=.*.=.=.=.=.=.=.=.=.=.=.=.=.=.1.1.1.=.=.*.+ 4 ,.,.>.3.3.=.=.=.=.=.=.=.=.=.=.=.=.=.=.=.=.=.3.=.:.> + ,.,.=.=.=.1.1.=.=.=.=.=.=.=.=.=.=.=.3.=.=.=.*.:.C 1 O S *.*.:.:.>.=.=.=.=.=.=.*.*.*.=.=.=.=.=.=.>.>.>.>.b O ",
"O c :.>.3.3.o.@.o.>.>.>.>.>.@.@.=.=.1.+.+.1.=.=.:.S O O n *.X.=.1.1.1.1.1.1.1.1.1.1.1.1.1.1.1.1.3.+.=.*.*.< O b :.=.=.1.1.=.=.=.=.=.=.=.=.=.=.=.=.=.=.=.=.=.=.:.3 . g r.o.o.@.@.@.>.=.=.=.=.1.1.=.=.1.1.1.=.=.=...=.>.k O + b *.=.=.=.=.=.=.=.=.=.=.=.=.=.=.=.=.1.1.X.>.=.*.n + > *.*.=.=.X.3.3.=.=.=.=.=.=.=.=.=.=.=.=.=.=.=.=.:.N 2 O l ..=.X.=.=.=.=.=.=.=.=.+.+.=.=.=.=.=.=.1.+.X.1.=.n + > *.X.X.X.X.=.=.=.=.=.=.=.=.=.=.=.=.=.1.+.+.+.=.=.*.+ 4 :.=.=.+.1.1.=.=.=.=.=.=.=.=.=.=.=.=.=.=.=.=.3.=.:.> + ,.:.=.=.+.+.+.1.=.=.=.=.=.=.=.=.1.=.3.=.=.=...=.n 1 + S *.*.:.>.3.o.=.=.=.=.=.=.=.=.=.=.=.=.=.=.>.>.>.>.b O ",
"O c :.>.3.3.$.3.+.o.>.>.>.@.@.@.1.1.+.+.+.+.1.=.*.n O O n X.X.1.+.+.+.+.+.+.+.+.+.+.+.+.+.+.+.+.#.+.=.=.*.> O b =.=.1.+.+.+.+.1.1.1.1.1.1.1.1.1.1.1.1.1.1.1.1.>.3 . g >.o.$.@.@.@.>.=.=.=.1.+.+.+.1.1.1.+.+.+.1.X.=.>.k + + n *.=.1.1.1.1.1.1.1.1.1.1.1.1.1.+.+.+.+.X.3.=.*.I > > ....X.=.X.3.4.+.1.1.1.1.1.1.1.1.1.1.1.1.1.1.=.=.n 2 + l ..1.X.1.1.1.1.1.1.=.1.+.+.1.=.=.=.=.1.+.+.X.1.X.n + 1 X.U U X.+.X.+.+.1.1.1.1.1.1.1.1.1.1.+.+.+.+.1.=.I + 2 :.=.o.$.$.+.+.+.+.+.+.+.+.+.+.+.+.+.+.+.+.X.1.X.*.+ + :.*.=.=.+.+.+.+.1.=.=.=.=.=.1.1.+.+.3.o.=.=...=.I > + C *.*.>.>.3.o.1.1.1.1.1.=.=.=.=.=.=.=.=.=.>.>.>.<.b O ",
"+ c :.=.3.3.o.3.=.=.>.>.>.>.@.+.=.=.=.1.1.1.=.=.*.n O + n *...o.1.1.1.1.1.1.1.1.1.1.1.1.1.1.1.+.3.+.=.=.*.> O b :.=.=.1.1.+.+.1.1.1.1.=.1.=.1.=.1.=.1.=.1.=.1.>.3 . g <.X.o.o.@.>.>.=.=.=.=.1.1.1.1.1.1.1.=.=.=...=.:.k O + b *.=.1.1.=.1.=.1.=.1.=.1.=.1.1.1.1.+.+.X.3.=.*.I + > I ..X.=.X.3.3.1.=.1.=.1.=.1.=.1.=.1.=.1.=.1.=.:.b 2 + k ..>.X.=.=.=.=.1.=.=.=.+.+.=.=.=.=.=.=.1.o.X.=.*.n + 1 X.X.X.X.X.X.+.=.1.=.1.=.1.=.1.=.=.=.1.1.1.=.=.=.n O 1 *.*.X.X.X.+.1.1.1.1.1.1.1.1.1.1.1.1.1.1.1.X.=.*.*.+ O *.*.=.=.1.1.1.=.=.=.=.=.=.=.=.1.1.+.4.=.=.=...*.n > O S *...>.>.3.o.1.+.+.1.1.=.=.=.=.=.=.=.=.=.>.:.:.<.b . ",
"> 3 c C :.:.:.:.*.:.:.:.:.*.*.*.:.:.:.*.*.*.*.*.b 4 + + d C *...>.>.>.>.>.>.>.>.X.=.=.>.>.>.>.>.3.X...C k + O + :.:.:.>.>.o.X.X.>.>.>.=.=.=.X.=.O...=.>.=...I n + O & b S C *.u.=.=.>.>.:.:.:.>.*.*.=.=.=.=.:.:.*.*.b 3 O O s S =.=.=.=.=.=.=.=.>.>.>.>.>.>.=.=.3.3.>.>.:.n d + 3 d n *.>.3.3.>.*.*.*.*.=.*.*.=.=.=.=.=.=.=.=.*.b s + + < g n *.*.*.>.:.>.>.3.5.3.3.3.>.>.:.:.:.:.:.*.C c d # + I *.>.>.=.X.=.=.3.3.3.3.3.3.3.5.>.>.:.:.:.:.:.*.g + + k *.:.X.X.>.>.=.=.X.X.X.X.3.3.>.>.>.>.>.=.*.:.*.c 1 > d C :.:.:.:.:.:.:.:.<.:.:.:.=.X.X.X.=.=.>.<.:.C d > O 3 n :.<.>.3.3.3.1.3.1.1.=.=.=.=.=.=.=.=.=.*.*.b h = @ ",
"> 3 d c n b b c d d d d d d d d d d d d y d y d n d $ $ 4 c b c c n n ..*.*.:.:.*.*.*.*.*.*.:.:.*...n C c & & s h b S *.*.=.X.X.c c c c l k k k k c c v c k i y O . O 9 g d y c c k c c c c c c n I ......C C C S S c 3 O O 9 b c c c c c c c c k k k p k k i i v l l c b g & O + & g Z :.>.>.>.>.<.<.<.<.<.<.<...n n c k i i 4 d 3 # & 9 f c b k k k c c c v n n n c c c c c c Z b b h s & O O k n *.=.=.*.:.<.*.*.*.*.*.*.*.*.<.:.*.S S b h h s + O 3 b n c c n n n n c b c c i i k c ..*.:.:.*.S n y + O $ y y d y d y d y d d d k c k c v v ....*.*.*.n 4 + . # c S :.*.>.>.X.X.X.X...O.....L L L v v n b b g s % X ",
"+ + 3 d g g d 3 d d d g d g d g 3 3 3 d d g c c c 3 + O 1 d d d k k k i i y 4 4 i i i i i i i i i 4 4 4 + O . O g g g c k i 6 2 i i i y i 4 4 4 k k k k k i 4 4 O . @ 9 g s d c y y y i y k d d 4 4 4 4 y y y d c h d # . . & g c k k k k k k k k k k k k k k k i i y d d s # O O O < d c k k p i i i i i i i i i i i i i i y y 3 & O + & s d d < 3 3 4 y k k k k k k y y 4 4 3 d s s s 9 & & + 1 4 i i 4 2 2 2 i i i i i i i d y d y y 3 9 3 3 # O O < c b c c i i i i y y y 4 k k k k k k k c d g d < + O < g g g g g g g g g d d y 4 4 2 2 , i i k k c 4 + . O & g c b c k k i i i i i i p p l l l k k c g g g s = X ",
"+ < 3 g c c c c d d d d d d d d c c g g g d d d 3 + O O < d g d 4 4 y y k k k c y d y y y y y y k k d 3 + . . . & & 9 d k k i i c c c c c c c c k c k k k d y y . . * = d g c c d d k k k k d d y y y y d d d d d d 9 + O . @ 3 4 4 4 4 4 4 4 4 k d y d y y y y k k y y d 3 O . @ & 3 d d y 4 4 i d i d y d y d y y y d k c c c d & O . O 3 d g c c k d y 4 4 4 2 4 4 y d c c c c h g 9 # O . . 2 d c b c c c n y y y y y y y d 4 4 4 4 d s s s # O O + 4 d d y d k k k k d y d 4 4 4 y y y y d g g d + O O + + g g g g g g g g d d d d k k k c i i y d k 4 + O + & 3 d d y 4 4 p p p k k k k k i i i i d d d s = & @ X ",
"+ + < 3 d d d d g g g g g g g g < < < 3 3 3 9 d < + O + + 3 s d y y d d k c c c d d y y 4 4 4 4 4 y y < O O . . & & 3 d d k k i y d d y y y y y c k d d y y y d . . O # 3 s y 4 k k k c c c c c k k k k k k g g + + + O . . O O d d d d d d d d k d k d d d d d k y 4 3 9 & # O O O & 3 d d k k c c c c c c c c b c c c k d d d & O . . O + & < d d d d k k k k k k k k d d d d c h d 9 & + O O $ 3 y d y y d k k d k d k d k k c c c d d s 9 9 O O + + y g c c d d y y y y y y y y d d d d k d g g 3 + + O + + d d d d d d d d 1 < 3 3 4 y i i i i y d d 4 + O . O O # 4 k c c k k k k c c c c i i k k d d g g O O . . ",
"+ + + + + O O O O O O O O O O O O O O O + O + + 3 > + + + + $ $ $ + + + + + + + 4 3 3 1 > > + + O + $ O . O O . . O O + + + + + + + O O O O O O + + + O O O O O . O O O O + + O + + + + + + + + > > + > + + + + O O O . . . . O O O O O O O O O > > + + + + + + O O O O O O . . . . . O O + + + 3 3 3 3 1 1 3 3 + + + + + + + + O . . . O O O O + + + + > > > > > > > + + + + + + O O O O O + + + > 4 3 > + + + + + + + + + + + + + + + + + + + O + + O + > > + 1 1 1 1 1 > > > > > > > > > > > + O O O O O + + O O + O O O O O O O O O + + + + > + + + + + O O O O O + < y d y > > > > > > > > > > > > > > + + O O O . ",
"n n n c k k k k c c c c c c c c ..n c k 2 > + + + + + + + O O O 2 4 4 y k k c c 1 1 1 > > + + + O + > O O O + O + < 4 k c n I I k k k k k k k k 4 1 > + + + > > 3 g c d y k i 2 , , , 2 2 2 2 2 i i p k k k k k c c c b b c c k n n n n n n n n > > > > + + + > > + + + > 3 < & c g g d y y 4 4 + + + + + + + + + + > 1 2 4 y y n b c b n n b c c c k 4 2 > > > + > > 2 4 k c b k d 4 3 3 3 4 4 + 1 y k k k k c c c c c c c c k i i i k c n n C C *.n y > > + + + + + + + O O O > > 1 4 y k c n c k 4 1 > > > + + + + + + + + + 2 4 i k l n O...c l i k k k 4 2 3 + O O + > + + c c k k k k k k 2 2 4 4 4 4 4 4 k c c c ",
"*X&X&X&X&X&X&X-X*X-X*X-X*X-X*X-X;X;X;X-X&X&X@X@X+X@X@X@X@X&X&X;X&X&X&X&XXXXXXXXX-X-X-X&X&XXXXX XXX;X;XXX|.XXXX.XXX%X-X;X;X;X;X;X;X-X-X-X-X-X-X-X-X&XXX X X XXX%X|.%X-X&X&X;X;X&X@X@X@X+X&X&X&X&X&X&X&X&X&X&X&X&X&X&X&X-X-X-X&XXX-X-X-X-X-X-X-X-X@X@X@XXXXXXXXX@X*X&XXXXX%X%X%XXX-X-X-X-X-X;X;X;X&X&X&X&X@X@X@X@XXXXX@X&X&X&X&X&X>X;X&X&X-X;X;X;X&X&X*X*X*X*X*X*X*X*X*X*X*X&X&X&X;X;X-X&X&X&X-X;X X&X-X-X&X&X&X&X-X-X-X-X-X-X-X;X;X;X;X;X;X;X;X;X&X;X;X&X&X;X;X&X&X&X&X&X&X&X&X&X-X-X-X&X&X&X&X&X;X&X@X@X&X&X&X@X&X&X&X&X&X&X&X&X&X&X*X;X;X;X;XzXzX;X*X;X;X;X&X@XzX;XXXXX-X;X;X;X&X&X&X&X&X&X&X&XXXXXXXXXXXXXXXXX-X-X-X;X",
"i.i.i.i.i.i.i.i.p.u.p.p.p.i.p.i.Z.g.Z.g.Z.g.Z.g.Z.A.Z.A.Z.A.Z.A.g.A.g.g.g.g.g.g.A.A.A.A.A.A.A.A.g.g.g.g.g.h.h.h.h.g.g.g.A.A.Z.Z.A.g.A.A.A.A.A.A.D.D.D.D.D.D.D.D.D.D.D.A.A.D.D.A.S.D.D.D.D.A.A.A.Z.Z.Z.Z.Z.Z.Z.A.i.i.i.i.i.i.i.i.g.g.g.g.g.g.g.g.g.g.A.A.g.g.A.A.A.A.g.g.g.g.g.g.g.g.g.g.g.A.A.A.A.A.A.A.A.A.A.A._._.D.D.D.A.A.A.A.A.A.A.A.A._._._.D.D.D.D.D.D.D.S.S.S._._.D.D.D.D.D.D.A.A.A.A.A.g.g.g.g.g.g.g.g.d.i.d.i.i.i.i.i.u.u.p.p.p.p.p.p.i.i.i.d.i.d.d.g.g.g.A.A.A.A.A.A.A.A.A.A.g.g.g.g.D.D.D.D.D.D.D.D.D.D.D.D.D.D.D.D.A.A.A.D.D.D.A.A.D.D.D.D.D._._._.D.D.(.(.D.D.D.D._._._.D.D.D.D.D.A.A.A.A.A.A.A.A.g.g.g.g.",
"Z.Z.Z.Z.Z.Z.Z.Z.B.B.B.B.Z.Z.Z.Z.i.i.i.i.i.i.i.i.N.N.N.N.N.N.N.N.i.d.d.d.g.g.g.d.u.u.u.u.u.u.u.u.i.i.i.i.p.p.i.i.u.u.u.p.y.y.y.y.i.d.i.g.g.g.g.g.g.d.d.d.d.d.d.d.g.g.d.i.N.N.N.N.V.V.N.N.N.i.i.i.i.N.N.N.i.i.N.N.B.B.g.g.g.g.Z.Z.i.i.i.i.d.d.d.d.g.g.g.g.g.g.Z.Z.i.i.d.d.g.d.d.d.d.d.g.g.g.g.Z.Z.i.i.i.i.i.i.i.i.p.p.p.u.u.u.u.u.p.p.p.i.i.i.i.i.B.N.B.N.N.i.i.i.N.N.N.N.B.N.N.N.y.y.p.p.p.p.p.p.i.i.i.i.i.i.i.i.g.g.g.g.g.g.g.g.g.g.B.B.Z.Z.Z.A.A.A.A.A.A.A.Z.A.i.i.i.i.i.i.i.i.d.d.d.d.d.d.d.i.p.y.y.y.p.p.p.p.i.i.N.N.N.N.i.N.y.y.y.y.y.y.p.p.i.i.i.i.i.N.N.N.i.i.d.d.d.d.d.d.g.g.i.i.N.i.N.i.g.g.g.d.d.i.i.i.g.g.B.B.",
"3.3.3.3.3.3.3.3.3.4.y.y.y.y.y.p.y.y.y.y.p.p.y.y.y.y.y.y.4.4.4.4.3.3.3.3.3.3.3.3.g.g.d.d.g.g.g.g.p.i.i.i.i.p.i.i.A.Z.Z.A.Z.Z.A.Z.3.u.u.u.p.p.p.p.i.i.d.i.i.i.i.d.g.d.d.i.i.N.N.N.4.4.4.4.3.3.3.3.y.4.4.4.3.3.3.3.3.3.3.3.3.3.3.3.3.3.u.u.u.p.p.p.p.p.p.p.p.p.p.p.3.3.3.3.3.6.6.6.p.i.i.p.i.i.i.i.i.i.i.i.i.i.i.i.Z.Z.Z.Z.g.g.g.g.y.y.i.i.i.i.i.i.i.i.N.N.i.i.i.i.N.N.N.i.i.i.N.N.A.A.Z.Z.Z.Z.Z.Z.3.3.3.3.3.3.3.3.3.3.3.3.3.3.3.3.3.3.3.4.y.y.y.y.4.4.4.4.4.3.3.6.p.p.p.p.i.i.i.i.3.3.3.3.3.y.3.3.Z.Z.B.B.Z.Z.Z.Z.i.i.i.N.i.i.i.i.A.A.A.A.A.A.A.A.i.i.i.i.N.N.N.N.N.N.N.d.i.i.d.i.g.g.g.g.N.N.N.i.3.3.3.3.3.3.3.3.3.3.3.3.",
"L L L L L L L L L L O.O.O.O.O.O.O.O.O.O.O.O.O.O.X.X.X.X.X.X.X.X.X.O.X.O.X.O.X.O.L L L v L L L L I I I L L L L L L L L L L L L L X.O.X...X.X.X.X.X.O.O.O.O.O.X.O.L L L L L L L L  . .L I I L I I O.X.X.X.O.O.O.X.L L L L L L L L O.O.O.O.O.O.X.O.O.O.O.O.O.O.O.O.X.O.X.X.X.X.X.X.L L L L L L I I L L I I L L L L L L L L L L L L O.O.X.O.X.X.X.X.O.O.I L L L L L O.O.O.O.O.O.O.O.L L L L L J J J X.O.X.O.X.O.X.O.L L L L L L L L L L L I O. . . .P L L L L L L L L L L L L L L L X.O.X.O.X.O.X.X.L L L L L L L L I I I I O.I I O.L L L L L L I I ....O.X.X.X.X.X.X.X.X.O.O.O.O.........O.O.X.X.O.O.O.I O.I L L L L L L L ",
"I I I I I I n n n n n I I I I I l l l l l l l l v v v v v v v v v c v c v v v v I n I n O...O...................I I L L L v v v v n v n n n I n l k l k l k l k n n n n n v L L v l c c c c c c n n n n v v v v n n I I I I I I l c l c c c v c l k l l l k l k v c v v v v v v n I I I I n I ..........O...O.......O...O.n I I v v v v v v v v ............I C l l l k k c l l v v v v v v v v v n v n v n v n I n I n I n I n n n n n I I I I L v v v c c b c n n O...........v c v c v c v v O.O.O.O.I I I O.................L L I n n n n n b b c v v v L L l p p l l k k k c c c k l l p l v c c c c c l l O.O.....",
"+ + + + + + + + + + + + + + + + + + + + O O O O + + + + + + + + + + + + + + + + + + + + + + + + O O O O O + + + + + + + + + + + + + + + + + + + + + + + + + + + O O O O O O + + + + + + + O O O + + + + + + + + + + + + + + + + + + + + + + + + O O O O O O O O + + + + + + + + > > > > > > > > + + + O + + + + + + + + + + + + > > > > > + > > + + O O O O O O + + + + + + + + + + + + + + + + + + + + + + + + + + + + + + + + O O O + + + + > + + + + + O O O O O O O O O + + + + + + + + + + + + + + + + + + + + + + + + + + + + + + O O O O + + $ > > > > , > > > + + + + + + + + + + + > > + + + + + + + + > > > > ",
"3 3 3 3 3 3 3 3 3 3 3 9 9 9 s s d d d d d d d d s s s s s s s s d d d d d d d d d d d d d d d d g g g g g g c c y y y 4 4 4 4 3 y d d d d d d d 3 3 3 3 3 3 3 3 g g g g g g d d d d g d d s s s s s s s d d d d 3 3 3 3 3 3 3 3 g g g g c g g g d d d d d d d d d d d d d y y y 1 1 1 < < < < < g g g g g g g g d d d d d d y y 3 3 3 3 3 3 3 3 g g g g d d d d s s s s s s s s d d d d d d d y d d d d d d d d 3 3 3 3 3 3 3 3 9 9 9 s 3 3 y y y 4 y 3 9 9 9 9 d d d d d g d g d d d d d d d d s s s s s s s s g g g g g g g g y y y s s s s s = = 9 9 9 y y y 4 4 4 4 3 3 3 9 s s s s 4 4 4 4 d g g d d d d d 3 3 9 9 ",
"g g g g g g g g c b c b b b b b c b b b c c c c d d d d d d d d d d d d d d d d c c c c c c c c k g d k d k k k c c c c k k c k d d d d d k k k c b b b b b b b c c c c c c c c c c c c f f g g j j j j d d d d g g g f g g c c b b b b b n n n c c c c c c c c d d d d d d k d c c c c c c c c d d d d d d d d c c k k k d d d k k c c c c c c d d d d d s d d b b b b b b b n n n b b b b b b g g g d d d d g g g g g g g g g b b b b b b n b n n n n b b b b 0 y d d d d d d d d d d d d d d k d g d g d g d d d d d d d d k c c c c c h h h g g g g c c c c v v c c c b c c b b b b b b b b c c c c g g g g g g g g ",
":.*.:.:.,.,.<.<.s.-.Q N =.w.s.d.d.d.d.g.i.=.=.u.A.6.X.X.5.u.3.X...>.>.X.=.5.=.v A.p.X.L I X.X.X.3.=.>.X.v o.3.I X.1.6.6.3.3.3.5.*.5.*.n <.s.>.=.X.I 3.D.Z.U 3.OX5.u.d.(.g.5.>.5...*.:.<.<.<.:.*.S S S D S S S :.S :.r.s.a.<.*.n h.<.*.<.d.d.d.g.D.=.X.p.A.6.X.X.>.3.d.5.L X.6.X.3.=.=.6.d.d.3.L X.=.=.I I =.>.=.......I I ..u.A.v 5.6.X.=.3.=.=.*.5.d.5...n <.D.Z.1.3.Z.Z.d.Z.i.i.g.p.O.L >.i.d.<.,.:.*.*.*.*.*.S S S S S -.:.:.s.<.*.*.>.u.d.g.5.d.d.d.G.>.I 2.D.5.*.*.5.u.3.X.I =.=...=.5.3.L A.6.X.L I U X.U =.1.=.I I =.=.X.L =.p.i.u.3.>.>.X.3.I l 5.d.3.X.X.P 3.F.Z.I >. Xu.>.d.{.s.<.<.<.C C *.:.,.,.*.C :.:.:.:.",
">.>.>.>.>.>.>.>...I I >.5.w.5.=.U X.3.A.).S.i.6.A.N.6.3.+.3.i.D.X.6.i.4.3.N.).).Z.3.P X.4.N.N.4.+.+.+.+.+.4.y.6.1.3.6.N.A.N.i.6.i.D.i.=.6.d.p.i.X.Z.).N.y.B.S.N.D.D.u.L o.D.A.3.L L O...=.>.5.u.S S S S *.*.*.*.<.,.*...O...*.*...s.s.n i =.A.D.6.A.A.3.N.`.F.X.1.3.6.3.X.p.S.y.4.N.A.N.4.$. .X.y.p.3.=.X.=.1.o.3.i.d.3.X.I 3.Z.).`.N.3.y.N.4.1.Z.6.=.X.3.i.A.D.N.N.S.H.Z.1.+.P X.p.A.B.3.X.O.L X.=.>.5.3.>.....:.:.:.,.,.,.,.,.I X.>.5.u.6.3.6.=.1.1.7.G.G.N.Z.Z.d.6.3.o.3.i.A.3.N.A.6.3.N.S.F.N.1.P U 4.N.N.4.+.+.+.$.+.4.6.6.@.4.4.N.A.A.N.y.A.F.p.o.6.Z.3.3.$.V._.B.y.B.S.N.S.A.6.I *.D.D.=.v ..:.:.=.:.u.g.>.:.>.:.",
"a a v C O...X.=.=.>.6.5.5.*.I I 3.N.Z.y.3.3.i.Z.D.D.Z.3.X.U 3.i.6.p.4.1.3.i.N.i.y.4.3.4.A.S.S.B.+.+.+.3.y.i.Z.).+.+.+.4.N.i.4.o.3.Z.A.d.i.3.L J i.Z.A.A.A.N.N.y.i.@.o.3.O.p O.A.D.g.u.>.O.O.O...............*.*.n O.=.>.3.3.>.>.d...v >.5.=.=.d.3.i.N.N.B.S.A.N.X.=.i.Z.Z.A.N.X.3.i.A.N.3.+.4.y.).A.i.6.3.X.X.+.Z.D.F.Z.6.3.4.y.y.A.i.1.4.6.4.y.Z.3.P I 6.A.D.Z.Z.6.7.1.6.Z.6.3.X.o.3.i.u.3.o.3.3.3.3.X.X.O.L L v v v I ..*.:.:.>.3.i.i.6.=.X.U =.6.A.A.6.6.6.6.A.D.d.3.X.X.3.i.Z.Z.N.4.4.N.N.y.6.4.1.4.Z.F.S.B.+.$.+.3.4.N.Z.F.4.+.+.3.y.N.y.3.X.6.i.y.Z.i.X.P N.B.S.S.V.N.y.i.y.3.X.=...i I D.}.g.>.=.>.>.X.v v v v v ",
"a 6 6 2 , > > > 6 I 5.5.I l L X.X.i.A.6.X.1.i.Z.p.p.4.3.+.X.X.U X.X.X.1.6.i.6.1.y.A.F.S.Z.y.N.N.+.1.X.3.Z.i.i.`.N.i.y.y.N.N.6.3.X.=.o.U I X.3.Z.Z.X.X.Z.A.3.X.6.).).y.X.X.o.X.L 3.>.O.p 6 , > > 2 2 2 2 2 2 6 6 , , , 6 p L X.3.v =.5.=.=.6.A.A.3.X.3.A.N.X.X.Z.3.X.P P U 3.4.1.4.3.4.4.y.N.B.N.`.A.i.i.4.X.X.3.N.i.y.Z.F.F.A.p.+.i.i.4.3.X.P o.=.X.X.o.3.6.6.3.6.e.*.L 6.Z.3.X.=.v J X.3.o.O.O.> > > > , 6 6 p p p 6 6 , > > > a O.>.>.>.X.O.I 1.6.A.6.P 1.Z.Z.6.p.6.3.o.X.X.U X.X.X.3.y.Z.i.4.6.Z.F.S.B.6.N.N.1.U $.4.y.y.Z.`.B.N.4.4.N.N.y.6.4.4.1.U U X.o.3.N.X.X.N.S.1.X.6.F.).p.I X.=.I I ..>.>.v , + > , , , , , ",
"*X=X=X+X`._._._.O.p > > 7 X.3.6.3.6.3.U X.6.i.p.L U X.=.3.3.3.3.3.6.N.Z.y.3.4.y.y.A.F.S.N.4.4.4.3.3.X.+.y.4.4.S.S.S.A.y.3.1.3.4.+X).F.i.X.P U +.X.X.X.X.3.p.3.I J X.3.4.y.i.o.p , 2 p X.u.A.).}.@X=X=X=X=X*X*X*X=X`._.N.$.H 6 , p ..3.3.3.3.X.p U 3.p.3.X.X.X.X.3.=.U X.6.Z.A.S.y.4.+.3.N.A.B.y.A.p.3.6.3.X.X.3.3.3.3.i.S.F.A.i.4.y.3.4.A.N.3.3.o.3.3.3.=.X.X.X.>.d.>.x I >.=.5.>.>.=.L 2 > 6 o.S._.`.=X=X=X=X=X=X=X+XOX).)._._.>.i + > l 3.u.=.6.3.3.U P 3.A.6.L I X.=.1.3.3.3.o.3.y.N.6.3.4.y.6.Z.F.S.N.4.1.4.4.$.$.4.4.4.6.A.S.S.A.N.4.3.3.4.).A.N.6.1.o.3.3.X.X.X.X.3.y.3.U p 1.3.1.i.i.U l , , 2 L i.).).A.@X@X@X@X",
"g.g.(._._.). X X&X;X*Xi.6 + > 7 I X.X.X.1.3.3.o.X.=.3.1.X.=.p.A.).Z.i.i.3.o.+.4.y.4.4.y.B.N.4.$.3.3.+.+.3.3.3.y.N.N.i.3.X.P X.+.1.+.N.).A.y.6.3.I 3.3.X.=.d.i.I 3.X.+.3.L , 2 L ).). X+X X).D.A.i.N.N.N.N.N.B.B.S.`.xXzXzX=X_.B.J > + 6 X.=.3.i.X.i.d.3.X.=.=.I 3.3.y.S.OXF.y.N.+.+.3.4.y.N.B.N.y.3.3.3.1.+.1.3.+.4.N.Z.y.3.6.i.3.3.X.1.N.N.i.).i.p.3.=.=.=.=.=.I =.-.*.*.*.....v , + p g.*X*X+X_._.S.V.B.i.y.y.N.B.B.A._.).).`.&X;X;Xg.6 + > p L P =.3.3.6.3.L X.=.3.=.X.=.p.A.).A.i.6.1.P P X.y.4.4.6.B.N.4.+.4.+.+.+.1.1.4.6.4.N.N.4.+.P P X.i.4.Z.).A.y.3.X.I 3.3.X.1.d.y.L 3.o.X.1.L , , L D.OX*X*X).D._.).p.p.p.p.",
"d.g.g.g.A.Z.A.A._.Z.Z.+XzX@X3.6 , 6 L 3.i.6.o.X.3.3.3.1.o.o.1.3.i.X.P o.3.3.3.4.y.3.$.3.N.A.y.+.3.+.1.+.+.4.y.4.6.y.N.N.y.4.3.+.N.X.$.3.$.X.3.1.1.3.3.3.3.5.=.U o.X.p , H ).*X@Xg.g.g.i.u.5.3.3.i.i.i.i.i.i.N.N.#.4.4.y.N.S._.`.).).6., > , L X.>.=.3.u.5.=.*.>.3.3.X.X.1.P P 3.P X.3.4.4.4.y.y.6.6.4.+.+.3.3.3.+.y.A.N.3.X.3.i.3.3.3.1.1.P U i.6.3.3.o.=.=.=.=.I ..5.d.6.I i , I d.@X*XOXD.i.i._.S.B.i.i.d.A._.B.B.B.B.Z.Z.Z.Z.g.g.(.&X;X X3.p , 7 l o.p.3.>.3.3.3.3.=.o.X.1.3.N.+.P +.3.+.X.+.N.1.$.1.N.Z.6.+.1.1.1.+.+.4.4.4.4.4.N.N.y.4.3.+.y.P P 3.1.3.6.3.=.3.3.3.3.3.1.X.o.U p , p ).zX@X_.Z.i.i.B.B.y.3.Z.Z.Z.Z.",
"y.u.i.i.i.i.d.i.D.g.p.3.p.Z.).@XD.L , , p I =.3.X.P J X.3.6.X.J =.X.3.i.6.X.X.3.y.4.3.3.4.y.4.#.3.+.4.1.X.y.S.4.P P +.y.N.y.+.P 4.H P @.+.X.+.U o.6.6.o...=...l > 6 3.@X*X).Z.g.D.Z.i.i.i.i.g.A.p.p.p.p.p.y.i.y.N.N.B.V.V.V.B.V.F.).@X*X}.o., > I X.=.>.>.>.=.=.X.=.X.1.3.U P i.1.4.4.y.4.3.P P y.N.y.+.+.3.3.+.3.4.y.6.3.3.4.y.+.X.P 3.N.3.U 3.J U 3.3.o.I O.X.5.I ..v , , 3.).*X+XZ.3.i.F.A.3.p.i.d.i.d.p.y.3.i.i.i.i.d.d.Z.A.(.g.p.u.p.g. X&XZ.X., , J X.X.3.X.L L X.3.6.X.J +.X.3.y.6.X.+.4.6.4.1.4.4.6.4.1.+.4.4.+.+.6.N.6.P P $.3.y.4.+.P N.P P 1.1.o.o.L =.6.5.=.X.=.X.l > , 4.=X=X).S.i.B.B.i.p.y.p.N.A.y.y.y.y.",
"L L L I X.o.=.=.i.i.i.i.i.i.p.u.A.;XzX).L , p X.p.6.=.U X.I I o.L X.3.6.6.6.y.i.P 3.4.3.4.B.B.4.$.P $.N.B.N.N.B.4.4.4.4.4.4.@.@.V.+.P $.3.3.X.X.3.o.=.3.>.v , + ).). X).D.i.i.i.g.d.u.5.>.=...O.I v v l v L O.X.X.X.o.3.3.p.i.i.D.d.p.i.).+X+X}.7 l I X...I =.u.3.o.X.X.U P 1.A.3.3.3.3.3.3.4.3.N.y.6.4.4.3.1.X.3.A.S.y.+.1.1.X.4.4.4.y.y.4.X.J 3.=.X.L X.6.i.=.=.J , , 3.*X*XA.N.N.N.N.y.6.4.3.6.5.>.*.O.n c l L n O.I ......*.u.5.u.u.p.i.i.i.A.*XzX).I p J o.3.6.3.X.X.L X.3.P X.3.3.3.3.4.i.U +.+.+.6.S.Z.1.1.$.+.4.y.4.6.N.+.+.X.X.$.+.4.6.).3.J P +.1.3.3.>.=.=.5.>.v , > ).).}.).A.i.i.i.Z.g.i.3.3.o.X.L J J J J ",
"U ..U I L L J L I I X.=.3.6.i.i.).6.i.@X;XA.J 6 3.X.o.=.X.i.d.I o.P J X.Z.D.y.X.U +.+.X.+.y.N.4.+.4.#.+.4.B.4.$.4.+.$.$.4.V._.`.$.X.P X.X.X.3.6.X.3.6.X., , 5.zX+X).i.p.i.g.g.i.O...O.O.I I n n ..C n n n ..*.*.O...............L 3.A.D.Z.d.D.}.zXd.i 7 ..>.=.=.i.1.U X.X.L U 1.`.).A.4.$.X.+.4.$.A.F.4.U U 3.3.3.N.N.3.U X.+.X.X.y.S.N.X.H L 1.3.o.J L p.3.L X.6 , X.zXzX).3.y.S.A.N.4.1.X.P P l b b n C *.*.-.c b b n n I ..I l l I *.>.5.d.d.D.6.i.@X*Xi.p , 3.X.3.=.I 3.6.P P J P 3.S.S.4.P $.+.$.P 1.N.N.4.+.+.+.$.4.Z.N.3.4.#.+.3.y.S.OX+XP P L U P P X.3.X.3.6..., , 6.zX+X).i.p.i.Z.d.i.>.>.=.X.X.X.O.O.I I O.O.",
", , 2 2 7 7 7 7 I I l l l v ..=.3.i.6.=.d.@XOXi.> L X.=.D.D.A.}.D.i.3.1.3.3.X.P X.+.+.X.3.N.S.S.4.4.+.+.4.S.N.P +.+.$. .P P P P +.4.B.).`.OXS.i.3.p.J > l *XzXd.p.i.Z.A.d.u.>.=.....O.n c k k k 1 1 > > > 1 4 4 4 4 y y k k c c ..I I =.5.i.d.i.6.;X;X.., ..6...=.).*X`.A.A.y.X.X.P P P P $.$.$.3.N.B.4.+.$.+.3.A.S.B.3.X.$.+.+.X.1.3.1.+.3.Z.).).).@X).o.L L , L `.zX`.4.y.N.N.6.3.X.P J J U X.n b z d 0 < > > > > 1 < 2 2 4 4 n l l k l I *.>.5.A.g.6.d.+X Xd.+ L X.3.D.D.Z.+X`.Z.3.X.+.3.1.X.+.+.T U 1.B.S.Z.1.1.$.U 4.Z.N.+.P $.+.+.X.P P P X.4.A.OX@X+XA.6.3.i.l > l *XzXd.p.d.A.A.d.6.3.=.O.I L v l p p i , 2 2 2 ",
"2.;.;.! ! Q K I , 5 l *.*.I l 7 L X.3.i.6.6.D.*X}., , i.F.A.D.Z.).).`.A.4.X.P U ).F.S.N.y.4.4.4.4.$.$.4.B.N.N.B.4.B.S.V.4.4.4.N.N.).OXA.i.A.).OXp., , F.zXD.3.A.u.i.u.>...v I *.k i i 4 2 > + + $ + $ $ + + 1 1 + + > 1 4 4 y i l n I I v L =.u.g...i.zX+X7 , 3.+XA.Z.).OXF.A.A.Z.y.4.y.B.S.N.4.S.4.3.N.N.+.+.y.3.4.4.y.N.S.F.).+.X.X.4.S.OX+XOXZ.).D.Z.3., , Z.*X=X_.i.y.y.4.o.p P X.>.*.l 7 > + + < 9 q z x N N N m N Q *.-.-.> 7 x ! *.K l 7 p L >.u.6.3.D.zX)., , A.).D.).).).OX+X).i.1.X.X.F.F.Z.N.6.4.4.1.6.+.+.4.N.6.6.N.#.N.A.Z.4.+.3.4.Z.`.+XF.Z.S.).OXp.> , D.zXD.3.A.u.i.u.>.I v I ..k i i 4 2 2 > > > > > > ",
"2.;.;.^ ! / Q Q ;.Q l 5 5 k I =.I L I 3.u.5.5.i.}.@X=., I g.i.d.3.3.i.A.).D.y.+.X.+.y.S.F.F.F.F.4.4.M.B.N.k.N._.4.4.4.+.#.4.B.S.`.D.3.X.3.Z.p.X.> 1.OX).i.Z.A.i.d.<...n c c i 2 > > > > > > > > < < < 3 3 3 3 3 < < 1 1 > > > > , 4 k n I ......6.d.i.p._.OX3., I i.A.6.3.i.S.S.S.Z.4.3.+.3.4.4.S.4.4.A.A.3.4.V.F.S.S.F.S.y.+.X.+.y.).OX).N.6.3.i.3.3.I , X.+XOX).y.y._.A.=.I =.*.n 7 , < 0 x -.N B N N N N N m m m m Q Q ~ ~ ^ w.;.x w 7 w x K K l l =.5.5.6.i.}.*X6., L i.p.i.3.6.N.).`.).y.+.U +.6.S.F.F.S.F.6.4.6.Z.N.4.6.S.S.B.4.3.3.4.A.F.).A.3.X.3.N.3.L > 3.OXF.i.Z.A.i.d.3...v v l 7 2 + + $ > > > 1 1 4 4 4 4 ",
"^ ^ ^ ;.9.9.9.w.^ ;.;.;.*.n w 7 7 I I 7 l 5.d.6.3. XzXu.> v g.3.X.L P o.N.F.A.N.y.y.B.S.S.4.P P 4.S.F.N.#.4.N.B.OXS.4.4.B.S.N.4.i.=.J I 6.p.L > Z.S.S.N.N.A.N.o.O.C ..n c 4 > + 1 1 1 1 1 1 1 1 + + + + + > + $ < 1 1 1 1 1 1 1 2 + + , n :.*.l I 5.i.p.i.F.).Z.> X.Z.1.P 3.6.+.4.N.A.N.4.4.S.`.A.N.4.4.N.S.B.4.P P 3.A.).A.y.4.6.A.).A.3.P P U 3.A.I 6 6.*XOXi.o.A.A.X.l L ..n > 5 k b B B M M B B N N ~ ~ ;.;.~ ~ ~ ^ ;.;.2.2.w.w.w.9.! x 8 , K *.L 7 J i.Z.3.X.).zX3.> 6 p.1.3.X.P U 6.S.F.S.4.y.Z.F.Z.1.P P 1.B.S.N.4.4.N.B.=XF.4.3.y.A.N.y.4.X.P X.i.y.J > Z.S.S.i.i.Z.i.=.I I I n l 4 > + + + + $ $ + > > + + + + ",
"9.9.9.9.9.;.^ ;.^ ^ ;.;.;.;.;.;.l 6 i ..X.l ..g. Xu.5.@X@Xl > I 1.X.X.X.1.6.N.Z.6.4.y.A.B.3.$.$.4.V.V.4.$.#.4.k.S.V.N.B.S.S.N.4.p I =.v , > J d.*XF.i.B.N.+.P U l c k 2 + + > 4 1 1 > $ + + O O + $ > < < 3 > > $ > > > 1 2 4 4 + 1 2 1 > 1 i I v l I p.Z.N.F.*XOX6 > 7 1.P H +.4.N.S.S.B.N.B.S.N.y.+.$.y.F.B.$.+. .+.N.S.B.4.4.N.y.4.+.X.P X.o.X.> 8 D.}.d.6.3.d.>.O.O...C y < b b M M M V V V B m N m N Q Q Q ^ ^ ^ ^ 2.2.2.9.2.2.2.;.( ;.2.;.r 5 7 I L 7 J 6.D.3.3.+X+Xp > X.U U X.1.4.y.y.y.4.4.N.S.N.+.U +.+.N.Z.4.1.4.6.4.B.N.4.y.N.B.y.3.J X.3.P 6 6 L A.*XF.i.Z.N.=.L I l l k 2 > + > 4 + + + + + + + + > + + + ",
"^ ^ ` ` 9.0.e.e.9.2.;.;.;.;.;.;.d.*.7 , l >.*.i 5.5.5.6.D.}.3., X.o.3.i.A.Z.6.3.A.y.y.A.B.4.+.4.4.+.$.4.#.+.4.N.N.V.S.N.+.+.M.A.X.*.>.=.I I Z.*Xi.A.A.6.X.L U X.2 1 1 3 4 3 1 + 1 1 < < 3 3 t 3 + + $ < 3 < $ + 3 3 1 1 1 > > > 1 3 4 3 > + + + n I O.O.X.4.B.D.*X).3.P L 3.6.1.D.p.+.1.y.S.V.N.+.4.4.4.+.+.4.4.N.+.+.N.F.V.N.N.3.4.y.y.4.1.X.X., o.D.A.d.6.3.6.v ..>...k 3 d b M M M M V B B B ~ ~ ~ ~ ~ ~ ~ ~ ^ ^ ^ ^ ( 2.2.9.2.( ( 2.2.9.w.w.9.! w , r =.>.I i.d.Z.d.F.}.6., X.X.3.6.i.i.3.3.N.N.Z.S.N.+.+.6.4.1.1.4.4.+.+.4.4.B.S.B.4.4.N.F.3.+.X.P H P A.zXi.A.A.6.X.L O...2 2 1 1 4 4 1 + O O + # 3 3 y d $ + $ + ",
") q.I.x.) ) ) 0.2.2.2.2.2._ _ ` ! 2.2.K 7 5 z Q l <.d.5.i.+X).@., i.J ).Z.L p.X.X.Z.S.y.4.X.P X.P X.P P $.#.$.N.V.V.F. .+.3.p A.h.=.*.7 7 }.F.6.i.g.u.I c n d + $ $ $ > > $ $ $ 3 3 3 3 & & & & + + $ $ 3 3 t t 1 3 1 1 1 1 1 1 2 1 1 > $ + O O + d n c v y.A.B.i.`.*XH 6 O.i.i.d.p 1.1.U S.N.4.V.+.+.+.P +.3.P P P 3.4.N.`.A.P P 3.1.6.A.U 5., X.).OXg.y.A.i.L *.d < < d N N z N N N N N N N W ~ ^ ~ ~ ~ ~ ~ ~ ;.W ^ ^ ` 0./ ( { { z.0.0.2.9.9.w.q.^ x 5 , l =.v X.d.i.3.OX+XX., 3.o.A.A.O.5.X.P S.).4.3.+.P P P 3.+.U o.o.1.A.N.S.A.X.3.3.l i.}.o.1.8 8 zX_.N.d.i.3...O.C k > 1 1 1 1 1 1 1 < O * * & & 3 t y 1 1 1 1 ",
"E.z.{ { ) E { E.7.7.6.w.0.9.' ' ) 2.2.^ / x w 0 -.x ..d.Z.p.N.`.I , 6.p.p.U Z.6.P 3.N.Z.A.4.X.3.I 3.3.+.+.#.4.V.#.k.M.P 1.Z.3.d.5.w.7 7 zXd.d.A.A.=.I :.n + O s 3 3 3 t 3 3 3 3 & $ & $ & & $ $ O O + $ $ & 3 3 3 3 1 1 1 1 1 1 y y 1 1 $ + O O & O + Z >.O.X.i._.N._.*XH L l d.3.*.Z.3.P N.N.4.N.3.+.+.X.$.+.X.+.+.4.N.N.B.4.J 4.F.X.i.3.>., v +XZ.i.D.B. .H X.k c b N N N m M m m m m W W W W ~ ~ ^ ^ ~ ~ ~ ^ ` ` ` ` q.( z.z.{ { z.z.7.0.2.9.^ ^ ^ ^ Q n k p v n v 3.).N.y.*XP 6 p.u.i.n h.5.J 4.B.N.N.4.+.+.X.+.X.X.+.1.3.i.4.N.3.J 1.d.6.d.=.=.p p zXS.k.V.A.p.>.:.v 1 $ 1 3 3 3 3 3 3 3 3 O . * * $ & 3 3 3 1 1 1 ",
"n.c.{ { { { { b.l.l.l.7.0.0.' ' ) ( ( 2.w.;.x 5 z z I >.3.3.B.`.*Xl 7 I 3.).3.P P 1.6.A.).y.+.3.1.1.3.3.+.4.N.N.4.N.4.P X.6.6.6.I l , @X+X).d.i.>.*.I c 3 + + 3 3 3 3 3 3 3 3 3 $ $ + + + + O O O O O O + $ $ $ 1 1 1 1 1 1 1 1 1 1 1 $ + * * * * O O 1 c v O.O.B.y.).S.;Xp , >.3.i.Z.3.U 4.N.N.N.6.+.X.3.3.+.+.6.3.y.A.i.4.3.P L i.D.6.L , l +X}.i.3.4.3.X.P L 4 z -.-.*.m m N m m W W W W / / / / ^ ^ ^ ^ ( ( ) q.) { c.) n.[ { [ { z.7.0.2.( ^ / / ( 9.2.I 7 l *.I o.i.3.3.`.+XU , ..>.h.r.c P 4.N.B.F.N.+.+.+.+.3.3.X.1.6.i.N.A.+.P X.3.d.5.L p 6 @X).F.N.A.3...O.v 4 + + t $ & & & 1 1 1 & . . . * * + $ $ 1 1 $ $ ",
"[ m.m.| } m.m.[ [ l.l.l.' ) ) ) ) ) Y ! ;.9.~ m > z I I o.i.A.N.).*Xp p X.6.L 1.3.y.y.y.A.i.+.1.3.X.4.4.$.+.N.4.M.B.y.3.P J 3.5.l + D.@X5.i.D.L l ..n > O > 3 + $ $ + + + + O O O O O O O O O O O O O O O O + + + + + $ $ $ $ $ $ $ + O O . . . O & O O O c ..a  .A.4.i.+X).7 7 5.6.X.U +.3.N.N.N.N.+.+.N.N.3.1.3.3.i.Z.4.y.y.3.X.L >.=.p 6 *XOXp.N.p.o.X.o.L 6 k x Q m x e m ^ W Q W W / / / / / ^ ^ ^ ` ` 0.' ) { ) { [ [ } [ } } { l.z.7.0.( ' / / ^ 9.9.*.v 2 7 ..=.I i.).i.D.zX6 v L 5.n >.1.N.N.N.S.N.+.+.+.3.N.N.+.1.i.N.6.A.3.3.X.L 5.=.v + }.@X3.N._.3.v C c > + $ 1 $ + + * + + + + O . . . . O O O O O O O * ",
"| } <X} } ,X} } } } b.l.{ [ ) ) ' ( / Y W ~ ;.;.z 2 2 I >.3.4.B.3.*Xd., I L 6.6.3.A.i.X.3.N.y.3.3.3.N.N.+.4.N.N.P N.N.3.I I >..., >.@X5.6.6.L X.L p , > $ + $ $ + + O O O O . . O O O O O O O O O O O O O O O O O O O O + + $ $ + + O O * O . . % * O O + > y O.O.X.p._.3.&X}., l X.L P 1.6.N.1.6.Z.y.6.Z.i.3.i.3.6.Z.6.1.i.Z.=.5.=.I X., N.+XN.A.4.3.3.I 6 2 k Q N m x x m ~ ;.^ ^ ^ ^ ^ ^ ^ ^ _ ` ` ' 0.z.z.b.l.m.} } K.,X| ,X} } m.b.l.z.7.' q.' ) / ) ( 2.2.I , 7 >.X.1.d.i.3.*Xg., v ..>.i.3.S.N.#.4.N.4.4.y.3.y.N.4.y.Z.6.P N.y.6.o.X.3.l , 3.*Xi.A.N.U X.O.v y + O + O . O O O O O O O O .   . . . . . . . . . . ",
"| | 7XpXpX3X,X,X<X<Xm.m.m.m.{ { z.z.0.( W x m m -.w 5 l I I 3.N.A.A.+XI 6 o.3.X.X.A.y.P U i.N.y.A.4.3.y.S.F.B.+.P Z.D.3.=.u.I > I zX5.d.d.6.7 ..v , > > 1 > $ 1 $ $ $ + O O O O O O O O O O O O O O O O O O O O O O O O + + $ $ 1 $ & & & & & % & * & t 3 $ 1 c O.p d.g._.i.*Xi., L 3.U X.S.Z.J X.i.D.Z.3.o.3.A.p.i.i.1.X.p.i.I =.=.5.6 J +X3.S.N.+.P L l , k -.;.*.~ ! ;.2.9.2.2.2.( ( ` ` ` ` ` ' q.z.x.b.n.m.1Xm.,X7XuXbX7X,X,X<Xm.m.b.b.z.z.{ { { { ) ( 7.6.5.=.7 7 *.L J 6.D.i.&XL , 5.X.o.+.B.4.P $.N.N.N.A.3.+.4.N.S.y.X.U D.Z.o.=.6.X.> I zX=.i.A.6.p J v y $ $ $ O O O . . . . . . . . . . . . . . . . . .     ",
",X,XiXVXCXdX3X,X7X6X<X<Xm.m.m.c.b.b.b.0.) W W x ~ -.x 2 7 I 3.=.p.A.@X*X, 6 l 6.X.Z.i.P P 3.4.6.N.#.P $.A.S.3.P X.i.D.=.>.5.2 2 +XF.d.6.D.l >.2 2 4 2 1 1 4 4 1 3 3 1 $ + O O O O O O O O O O O O O O O O O O O O O O + $ 1 3 3 3 3 3 3 3 t t - O & t 3 1 3 1 1 2 >.p g.d.d.6.*Xl 7 1.X.+.S.6.P P X.i.i.o.X.3.3.i.3.1.X.X.6.i...<.b k , +X+XN.4.T $.J 6 7 n ,.,.;.^ ;.;.w.w.9.2.0.0.0.q.q.q.q.q.' ' z.b.n.m.<X<X9X<X,XiXVXAXbX,X3X<X<X<Xm.m.b.b.{ c.{ { ) ) 7.0.! w.K , l U X.6.p.d.&X&X, 2 v 3.+.N.k.T  .+.4.N.4.3.X.+.y.y.+.P 3.Z.i.X.3.3.7 , +X).5.=.A.7 3.6 y > $ 1 & + O & . . . . . O O O O O O O O O . . . . .   ",
"7X7XdXCXCXbXiX3X3X,X<X<Xm.m.} m.b.b.z.0.9.( ^ ~ Q ;.~ z 7 l I ..5.A.>.}.}.> X.3.o.A.Z.1.U P P +.H +.+.X.X.P H X.o.X.6.=.>.I , d.-X5.i.d.I >.p , > 2 y y 2 1 1 y 3 3 $ $ + O O O O O O O O O O O * * O O O O O O O + + $ 3 t t y > > > 1 1 3 3 3 t 3 $ $ 1 1 1 > > p c I 5.=.D.g.)., p U 1.S.7.1.X.J U 1.X.=.1.J 6.L J U o.i.d.5.n :.+ }.).X.`.4.T U J 7 z Q -.N ~ ! ! ^ 2.2.2.( 0.0.0.z.x.x.x.z.{ { c.n.m.8X6X6X2X2X,X4XCXCXCX4X3X7X2X<X<Xm.m.m.m.c.{ { ) ) ' 0.e.;.2.Q 5 r *.l >.A.X.).@X+ >.>.3.B.N.4.$.P H +.P +.+.X.1.U J X.o.X.3.1.i.X., 5.@Xi.d.(...X.l 2 1 d g 3 + O * . * * * * * * * * O O O O O O O O O O X . ",
"aX4X4XgXCXCXCXsX4XiXuX2X<X<X} m.n.b.z.) ) / / ~ ~ Q Q -.n 7 7 I l D.d.g.@X3.6 3.A.p.o.X.X.1.o.X.+.+.+.+.1.=.1.=.u.=.A.A.=.2 =.@Xd.D.6.L L l 2 2 2 2 2 1 1 1 1 3 1 3 t $ O . . O O O O O . O . . O O O O O O O O O O O O $ 3 & $ > 1 1 > 1 1 1 3 3 3 y y y 4 2 1 + > c ..O.5.g.6.OXo., =.i.F.U 6.X.X.X.o.=.=.=.=.3.3.X.X.X.3.i.g...> n &Xi.i.N.P P p 7 w Q -.8.-.! ! ;.;.2.2.2.( 0.q.0.z.x.x.v.c.{ c.n.T.m.<X2X7X2X2X3X4XgXCXCXCXgX3X7X7X2X9X<Xm.m.} } { { { z.0.^ ;.9.5.I 7 7 I I d.>.u.=X>.2 +.y.4.4.+.$.$.X.P +.+.+.1.1.3.3.3.3.3.d.A.X.6 L @Xi.D.5.L v l 2 2 1 3 3 t 3 $ * . . . . . . . . O O O + + + + + O O O O . ",
"4X4X4XgXCXCXZXCX4X4XiX7X2X6X,X<Xm.n.b.z.) ) ^ ^ ~ ~ Q Q n l l l I =.D.i.D.D.7 p p.6.6.6.6.4.3.+.+.+.1.1.1.1.>.>.X.>.5.=.L 7 @X).d.d.>.I v i 2 2 4 4 y y y 3 3 3 $ & & $ O . . . O O O O O O O . . O O O O O O O O O O O + $ $ $ 1 , 1 2 2 2 2 2 > 1 1 1 2 1 1 > $ > y n n =.u.g.A.+X, P X.6.4.1.p.6.6.3.3.3.=.=.X.=.6.6.3.6.d.D.i 2  XD.A.i.X.1.J r 7 x -.8.-.Q ^ ^ ;.2.2.2.2.( 0.q.z.z.x.x.c.c.{ c.T.Y.<X2X7X7X7X7X4X5XgXCXZXZXVXsXiX7X7X2X,Xm.m.m.} } { z.z.0.e.w.w.w.;.Q x n *.I g.i._._.p J 4.4.y.4.4.1.1.1.1.1.3.3.3.3.3.3.3.p.p.o.L 6 }.A.d.i.>.I c 7 2 4 1 3 3 3 $ O . . * * * O O O . O O + + + + + + O O O O . ",
"5X4X5X5XMXZXZXZX4X4XiX7X7X7X<X<Xm.n.b.z.0.( ( ;.~ ~ Q m x x x l I v d.u.u.).>.> 3.i.A.D.Z.6.1.X.=.=.=.=.=.>.>.>.u.}.>.>.> A.@Xi.Z.>.....k 1 1 4 y y u u u u u u 1 3 3 $ O O O O O O O O O O . . . . O O O O O O O O O O $ 3 & $ 1 , 2 2 2 2 2 2 1 1 1 y 2 1 1 > 1 1 3 d n n >.D.p.+XZ.> 6.5.@XZ.6.6.6.5.3.>.=.=.I =.5.i.i.6.6.3.> 3.;Xg.D.>.L =.7 5 7 x ~ ;.Q x ;.2.2.2.2.2.0.0.0.z.z.z.x.x.c.c.c.T.6X6X9X7X7XpXiXiX4X5X5XMXZXZXZXgXiXiX7X7X,X<X<Xm.m.c.c.z.z.0.0.9.^ ^ ;.-.I w I l d.g.d.`.i.a 4.N.A.A.y.3.3.3.1.1.3.3.3.3.3.3.g.}.u.=., 6.@X3.d.=.....k 3 3 4 y y t t & * . . * * * * * O O O O + + + + + + O O O O O ",
"5X5XhX5XMXZXZXZX5X4XiXiX7X7X2X6X<Xn.c.z.' ( ( ^ ~ ~ Q x m Q n w 7 =.v u.i.d. X, l X.6.i.p.3.o.=.=.=.=.>.=.>.:.=.=.<.=.p , zXi.d.i...I n 4 1 y 3 $ $ $ $ $ 1 $ 1 3 t t 3 + O O + O O O O O O . . . . O O O O O O $ O O + 3 t t 3 1 2 2 2 2 1 1 1 > > > 1 1 > $ + + 3 < 4 c c I d.D.d.zX, L X.5.=.X.X.*.=.=.=.>.>.3.=...=.6.5.I 7 7 *XA.).u.l I l e w w x ~ ;.~ W 2.( 2.2.0.0.0.q.0.z.z.x.x.c.c.c.} T.6X6X7X7XpXpXaXaX5XhX5XhXZXZXZXgX4X4XiX7X7X7X6X6Xm.m.b.b.z.z.9.9.^ / ^ ;.Q 0 w *.I g.g.B.*XL H X.p.i.3.X.o.3.1.=.>.>.>.>.>.>.=...=.p , zXD.d.i...I n 2 < 4 3 y y d u 3 $ O . O . O O . . . O O O + + + + O O O O O O ",
"5XgXNXMXMXZXZXZXMX5XsXaXuXuX7X9Xm.m.c.{ ' ( ^ _ ~ ;.~ m m ~ m w 7 =.7 >.i.u.@X3., i L X.X.X.o.3.X.*.*.*.*.:.:.:.*.l u.+ A.).3.6.>.O.n i > 3 d $ t t t t t t t t $ & & & O O O * * * O O O . . . . . . O O O O * O O O O & & & $ 3 3 1 1 1 1 1 $ 1 3 t t t 3 & $ . 3 3 < k c v =.d.3.+XA., 3.J I I I ....X.=.=.=.5...L I =.*.v 7 Z.*X3.(.>.k b < N N m m ~ ;.9.2.2.( 2.9.9.0.q.q.q.q.z.x.x.I.I.I.} m.6X6X9X7XpXpXdXsXgXNXmXhXZXZXZXMX4X4XiXiX7XuX6X6X6Xm.c.b.z.0.9.e.w.;.;.8.-.n 4 *.i 3.i.y.*XA., 7 X.=.X.I X.>.=.=.=.=.=.=.=.=...7 5.> i.}.6.6.=.I n y + < d 1 y y y 3 1 + O . . . . . . . . . O O O O O O O O O O O . ",
"MXZXZXZXNXSXSXSXNXsXsXdXuXuX7X9X<Xm.c.{ ) ( ( _ ~ ~ ~ N N N x x 7 i I v >.D.g.+X> > , , , , , , + + + + + + + + + > , , =Xy.B.N.O.C k 1 + < s & 3 & - - t t t t O O O O . . . O * * O O O O . . . . O O O O O * . . . . O + O O & & $ $ $ + + O $ $ & & & % * * . & 3 > 4 k v L d.d.i.@X, , , + > > > > > > > + > > > + + + > , zXN.Z.X.*.b 0 # M V q e x W ! ^ ^ ( ( ( ` ` ' ' q.q.z.x.I.I.I.I.} T.6X7X7XuXpXaXdXdXCXSXZXNXZXSXSXZXsX5XiXiX7X7X6X6X6Xm.b.z.z.0.^ 9.w.;.~ ~ Q Q k 7 v v 3.B.B.*X> > , , > > > > > + + + + + + + + , > 6 }.i.d.d.I I k 1 + < 9 < $ > > $ + O . . O . . . O . O . . . . . . O . . O . . . ",
"NXSXSXSXSXSXSXZXZXgXsXdX7XuX7X9X6Xm.m.c.{ ' ` ` _ _ ~ ~ Q x x m k , ..v ..D.u.).@X@X+XOX}.}.).D.h.h.h.h.h.h.h.h.h.-Xu.@XOXA.4.P L c 4 + $ + & - . . . . . O O O O O + O O . O O * * * * O O O O O O O O O O O * O . . O + $ $ O & & * * O O . . .   . .         * * # + + 2 c I I 3.d.+X+X6.@XZ.}.}.{.(.(.D.D.D.h.(.}.(.g.h.{.+X=X#.V.L *.n # 9 q q q e e x K W ! ^ ^ ^ ( ` ` ` q.q.x.I.I.I.I.I.T.6X7XtXuXpXpXdXdXMXZXFXSXSXSXSXSXZXMXsXsXiXiX7X6X6Xm.m.b.z.0.2.W / ^ ~ Q m x m N 5 I v X.B.y.).+X@X@X X}.(.D.D.D.D.D.h.D.D.D.D.D.;X6.@X+XA.3.X.L v 4 + + + # 3 + $ > > > + O O O O O O O O O O . . . . . . . . . . .   ",
"MXSXSXFXSXSXSXSXZXgXsXdX7X7XuXtX9X8Xm.c.z.' q.9._ ^ ~ ;.Q e x Q w 4 l *.I 5.D.>.d.i.p.Z.).).F.Z.(.(.{.{.{.{.{.{.D.D.}.+Xp.N.@.H n c > + $ O O j * * $ $ $ $ $ $ $ 3 3 3 $ + $ 3 O O O * * O O O . O O O O O O O $ * * + & s t & * * * * O . . . & & & - % % % @ & O O + + > l ..v 6.i.d.D.D.6.d.D.D.D.D.(.(.).).(.).).(.D.D.D.D.3.S.@.=...b < f V M ~ -.;.^ ( ) ! / ^ ^ ( ( ( ` z.x.x.x.I.I.I.U.Y.6XuXuXpXpXdXdXdXVXFXSXSXSXSXSXSXFXMXsXdXaXpX7X6X6Xm.m.c.z.7.2.( / ^ 9.;.W m ~ -.i p O...y.B.o.i.i.i.d.g.D.D.D.(.(.(.(.(.).{.{.d.g.).(.D.g.6...v l 1 + > + O d 1 1 2 4 y 3 3 3 $ $ $ $ $ $ $ $ .   . . . . . . . . . . ",
"mXZXFXGXDXDXSXSXMXgXgXdXaXiXuX7X6X6XY.n.c.x.q.q.` 0.v.^ 2./ ;.z N b c n *.*.5.d.i.i.i.i.N.N.N.N.i.i.i.i.i.i.i.i.g.d.i.6.3.+.X.I k d < g 1 d + 3 3 3 + + t y 1 t 3 3 3 1 1 1 1 1 $ $ $ t s t O . . & & < 3 1 y d . 9 & & g 3 $ 3 t $ s $ $ . O 1 3 3 3 3 3 3 3 3 < 3 $ k + k > k ..*.>.>.u.d.g.A.i.N.N.N.N.N.N.N.B.B.N.N.N.i.y.p.d.5.:.*.c 4 k N Q Q Q ! 2.U 1.2.2.0.9.0.0.( ( v.x.c.I.U.U.T.Y.0XeXtXpXiXaXsXgXgXMXMXVXFXFXFXDXSXFXZXgXsXdXaXiXpX7X6X6XY.m.n.b.b.) / 0.9.0.^ e.~ *.n k c v O.>.g.i.y.y.y.y.y.N.y.N.y.i.i.y.y.y.i.A.g.i.u.>.=.....v 2 4 > $ 4 > k 4 6 2 4 3 3 3 3 > 1 2 4 1 1 3 3 %     @ @ . *   . O O O ",
"mXZXFXFXDXDXSXSXVXbXbXdXsXiXuX7X6X6XY.T.c.x.x.q.0.0.v.( 2.! ;.x k k d 4 k b ..=.i.y.y.y.N.N.M.N.N.i.i.i.i.i.i.i.i.p.6.3.1.o.X...3 < d < g d g t 1 3 $ + y y 1 y t 3 3 1 1 1 1 1 k 1 + + 1 t t & . s 3 > > + 1 4 & 9 & @ O O + y + O 3 $ 3 O $ t 1 1 1 2 2 2 4 4 y d y y 1 y 2 4 ....*.>.>.5.u.p.d.B.B.B.N.N.N.N.4.4.y.y.i.N.B.Z...n b c 4 2 w I I ! ;.U 1.! 7.2.2.0.2.0.0.( ( x.x.c.c.T.T.T.0X0XeXtXpXiXaXsXgXgXgXMXAXFXFXFXDXSXSXVXgXgXdXaXpXpX9X6X6XY.m.c.b.b.' / 0.0.0.( w.! ;.-.n c c C ,.<.i.N.N.N.N.N.N.N.N.N.i.i.i.i.N.i.A.g.i.u.>...n c i 2 4 + + 3 > 2 6 6 4 4 3 3 3 3 2 2 2 , > 1 3 3 O . . . . % * . . . O O ",
"MXZXFXDXDXDXSXZXVXbXgXdXsXiXuXtX9X6XY.T.c.x.x.q.0.0.v.( 2.^ ~ x z n b k k I =.I I U P P P P P P X.X.X.X.X.X.X.X.X.X.U I P L J v 4 4 c $ y 3 k 3 1 3 $ + t y 1 y 3 3 1 1 1 1 1 1 $ 1 y y y 4 1 1 O < 4 4 i 2 4 2 3 O + 3 > + , y t & t t u + 1 t 3 1 1 4 4 4 4 4 > 3 4 > 1 2 4 > k l v v L L L O.v v v v L L L L ..O.O.O.O.O.O.O.v C n l z x *.=.K I 1.K ( 2.0.( 2.0.2.0.q.( ( v.c.c.I.T.T.Y.0X0XqXuXiXiXaXsXgXgXgXNXZXFXGXGXDXSXZXVXMXgXgXdXpXpX7XqX6XY.T.m.m.b.) / 0.0.9.( 2.*.;.<.*.l k C ..C v v v L v v v v X.......X.X.X.X.I L L I I I I n 4 2 y + > k c n 4 4 4 3 3 < 3 3 i 4 , , , 1 < < & O & O O # . . s s d y ",
"ZXFXGXDXDXDXSXMXVXbXgXsXsXiXuXxX9X8XY.T.c.x.x.q.0.0.v.( 2.;.m Q 5 2 , > > , 6 6 7 6 8 8 8 8 8 8 7 7 7 7 7 7 7 7 6 6 6 6 6 6 6 2 + + + > + 1 y k 1 3 $ + t t 1 t 3 3 1 1 1 1 1 1 3 y y 1 + + + > > ,.u.g.A.i.u.5.<.+ + + > > , > y t 3 t t O $ $ 3 3 3 3 3 3 4 4 4 4 > 1 > + + + i i i i p p p p p p p p p p p p i i p 7 7 6 2 2 , 4 4 > > 7 l r *.K 1.! ;.! 2.2.2.0.2.q.q.( ( v.v.c.I.T.T.Y.0X0XqXuXiXiXdXdXbXbXMXZXFXFXGXGXDXSXNXVXVXbXbXdXpXpX7XqX6XT.T.n.c.b.0.^ q.q.9.2.! ;.l l k 2 , 2 y 2 p p p p i i i i 7 7 7 7 7 7 7 7 6 6 6 2 2 , , , 2 > > O + O > 4 4 4 4 3 3 3 < 3 y 4 2 2 2 2 < + 1 O O O + + O S f.f.f.f.",
"FXGXGXDXDXDXHXMXVXbXgXsXsXiXlXxX9X8XY.T.c.x.x.q.0.0.0.( 2.2.e ~ }.D.D.D.D.A.A.).d.d.Z.N.N.N.N.Z.i.i.i.i.i.i.i.i.).).).).).`.OX}. X{.f.h.:.> > 1 3 3 + + t t $ t 1 1 1 1 1 1 $ $ y + + p A.*X`.d.4 :.>.o.+.P X.X.>., u.}. Xi.$.6 1 1 O $ $ O $ $ 3 3 3 3 3 3 3 3 3 4 > s.h.{.{.@XD.D.D.A.A.A.A.A.i.N.N.N.N.N.N.N.N.N.N.B.V.V.S.A.D. X XD.D.(.}.}.5.7 ;.;.2.! ^ 2.2.9.9.0.q.` ( x.c.I.U.U.Y.Y.0X0XuXuXiXiXdXgXbXVXNXSXGXGXGXGXDXSXNXVXVXbXbXdXpXpXtX7X6XT.T.n.b.b.q.^ 9.9.9.2.K ;.j.d.d.g.g.f.d.g.y.N.N.N.N.M.M.M.N.N.N.N.B.N.N.N.).).).).).}.}.}.(.s.s.r.:.1 2 y 4 4 3 3 3 3 3 3 1 2 4 7 4 4 1 + O > <.h. Xs.> i ........",
"FXGXGXDXDXDXSXAXVXbXgXsXsXiXlXxX9X8XY.T.I.x.x.q.0.0.0.2.9.9.w ;.D.d.d.D.D.i.i.D.Z.A.Z.A.A.A.A.A.Z.Z.Z.Z.N.N.N.N.N.N.N.Z.Z.Z.Z.d.g.u.(.(.|.+ y 3 3 3 + O t t & t 1 1 1 1 1 1 $ $ O Z (.).y. .y._.> ..O.X.X.P  .X.P > 3.3.4.4.S._...Z + t $ + 3 3 3 3 3 3 3 3 3 3 d y + f.f.g.s.(.g.g.A.A.A.A.Z.Z._._.F.F.F.F.F.F.V.A.S.S.S.S.S.A.A.).).D.d.d.D.D.w.2 ;.2.2./ ~ w.2.9.2.9.e.` ( x.I.I.U.U.Y.W.0X6X7XuXiXsXdXbXbXVXNXFXGXGXGXGXDXDXAXVXVXbXbXdXpXpX7XqX0XT.U.U.b.b.q.^ ` 9.9.2.r ;.G.d.g.{.}.(.(.).).F.F.F.F.F.F.F.B.B.B.B.B.B.B.N.3.y.p.i.g.A.(.(.}.h.|. X^.1 1 2 4 4 3 3 3 & 3 < + 2 7 7 2 1 3 y g.A.}.i.i.D.X.O...X.X.X.",
"GXGXGXGXGXGXGXFXVXVXgXsXsXiXpXxX9X8XY.T.I.x.x.q.0.0.0.2.0.9.5 ;.5.p.p.i.i.i.i.i.i.i.i.i.d.d.d.i.i.i.i.i.i.i.i.i.i.i.i.i.i.i.p.i.g.g.{.h.(.O y 1 3 3 + O t t & t 1 2 1 1 1 $ $ + r.u.u.y.y.M.C.V.> L X.+.@.$.#.#.P 6 V.4.4.#.C.V.g.a.1 d + O 3 1 3 & & 3 & & - t 1 > + <.f.s.d.d.i.i.i.i.i.i.N.i.p.u.u.p.u.u.u.u.A.g.g.g.i.i.u.p.p.y.N.d.i.5.5.d.6., ;.2.^ ~ ^ 9.2.9.9.9.q._ ( x.I.I.U.U.Y.W.0XqX7XiXiXdXdXbXVXVXNXDXDXGXGXGXGXGXFXCXgXgXgXdXaXpX7X6X6XT.U.U.n.v.q._ _ 9.9.2.w 2.;.5.u.d.g.p.f.p.i.i.i.i.i.u.i.i.i.i.i.i.i.i.i.i.i.i.i.i.i.u.u.u.u.u.h.h.f.+ 4 4 4 3 3 & & & 3 < + 2 7 2 + > d *.3.y.4.P U i.3.p U U P P ",
"GXGXGXGXGXGXGXGXVXVXgXgXsXiXpXtX9X8XY.U.I.I.x.q.0.0.0.2.0.9.5 2.5.N.Z.i.i.A.A.i.i.i.i.i.i.i.i.i.i.i.i.d.i.i.i.i.A.A.Z.Z.Z.d.i.i.u.d.:.<.C O y y 3 3 + O t t & t 1 2 1 1 1 $ $ + <.u.i.i.y.#.&.&.7 >.X.L P H $.#.H 6 N. .M.M.&.#.u.*.O + O O $ $ 3 & & & & & - t y y > :.h.u.g.<.i.i.i.g.g.Z.Z.A.p.s.s.s.s.s.p.u.u.u.u.s.s.s.s.d.p.4.i.A.Z.6.6.D.2.5 2.;.Q -.;.;.;.9.9.9.q.` _ x.I.I.I.U.Y.W.0XqXuXpXaXdXdXbXVXVXNXDXDXGXJXJXJXJXFXZXgXgXgXaXaXpX7X7X6XT.U.I.v.v.q._ _ 9.9.9.5 5.<.d.A.g.g.(.g.u.s.s.s.s.s.s.s.s.s.s.s.s.s.s.s.d.i.i.g.g.g.g.A.D.d.s.f.:.:.O y 4 4 3 3 & & & & < > 4 6 > + + c u.4.4.4.4.4.y.3.6 P P P P ",
"DXGXJXJXJXGXGXFXVXVXgXaXsXiXiX7X6XY.U.c.q.' q.q.) ) 0.( ! K r w U X.L P J L P I I =.L ..l ..I I ....X...I I I I 3.L L I p l X.I l ..n n i > 4 3 1 + O O $ & - & > + + 4 :.'.<.O y <.3.4.#.C.&.C.v p L +. .#.#. .6 P @.y.C.M.&.k.p.> + ..s.k O O $ O O . * * * * $ > > y n n O.p v l v ..L O.X.O.l c n C *.*.*.*...n n <.c c k n X.X.7 P L I l I , , x ;.~ Q ~ 9.W ^ ^ / ^ ` 9.` q.x.x.I.U.U.T.6XtX7XaXdXgXbXgXMXSXDXDXGXJXKXKXJXGXNXMXMXsXsXaXiX7X6X6XT.c.z.z.0.^ _ _ ~ Q m e w Q z I I ..v >.>.k n n b n n *.b I n I n I n n I =.v v L p l ..O.c n ..c 4 > > 1 c d & & & = & + 1 , v D. Xn > p 4.N.B.M.4.y.P > H $.+.$.",
"DXGXJXKXKXJXGXFXMXMXbXdXaX4X3X3X6XY.U.x.' ' 9.q.( ) 0.( ! W x r 2 , X.I X.p 7 2 6 7 , 7 , 7 2 7 7 7 7 7 7 6 2 6 2 > 2 l 7 i l l O.n 2 1 > + > + $ + O . . . O $ > + > n *.*.:.:.+ i X.3.M.M.k.4., > v X. . . .H , X.3.+.4.M.M.k.6 2 l >.s.<.c $ . O * . . . . . O > + 1 4 y ....l p p v p 6 2 2 , 2 4 4 i y 4 4 i 4 i n i 4 2 p , p J o.L l > 7 > 5 m x N N N N Q / ^ ` 9.` _ ` q.q.x.I.U.U.T.6XtXtXaXaXaXgXMXZXSXDXDXGXKXKXKXJXGXNXmXsXsXiXiXiX3X6XT.T.c.z.e.w._ _ _ ~ ~ m e e > + c I O.i i 6 7 4 > > > 2 7 i 2 2 4 4 4 4 4 7 2 > 2 l i i c k *.n y 1 > + + O O O O . . . O O > l o.3.3.=.p , P $.k.4.4.y.X., H U +. .",
"DXGXKXPXPXKXJXFXMXgXbXaXaX3X4X7X6XT.I.{ ' ' 9.9.` ) 0.2.2.! Q K I 6 A.A.}.d.D.D.5.u.d.D.h.h.s.s.g.g.d.d.d.d.d.d.D.5.5.d.u.u.h.(.h.<.4 2 i y c 3 $ 1 t 3 $ $ t g + , v 5.<.v I d.> , P o.i.+.4.+.i 4 v X.P P L p > =.i.>.3.N.k. .> p 3.=.>.<.<.C O O O . . * * . + 4 4 4 1 4 :.g.g.u.5.u.p.>.3.d.i.i.Z.Z.Z.g.i.i.Z.Z.g.i.d.p.Z.).i.i.d.A.d.5.5 l x z ~ 8.oXL.R.R.;.~ ~ _ _ ^ ^ 9.' ' x.I.I.I.T.6XtXpXpXaXgXgXgXCXFXFXFXJXKXPXPXKXFXNXmXsXdXsXiX3X3X3X~.T.c.z.e.9._ ` _ ^ ~ Q x x x 4 s.g.^.g.g.A.i.Z.i.F.d.D.i.Z.Z.Z.Z.Z.Z.Z.Z.d.).s.p.g.s.u.h.^.h.*.4 + > 3 < + + + O . . . O O 2 ..3.L H 3.X., 7 P 4.i.4.6.U , p U X.U ",
"HXGXKXPXPXPXJXFXdXdXdXdXaX7X7X3XT.T.c.{ ' ' 9.q.` ` 0.2.2.2.;.;.*.> =.=.>...*...=.I n n n *.*.5.*.*.*.*.*.*.*.*.=.n *.<.,.*.*.:.u.*.> > y y k 1 t y u t 1 $ $ 3 > I >.>.3.X.L X.l , 7 I 3.3.p.=.4 1 4 i 6 p p i + *.s.<.i.i.X.6 6 J 3.=.L v ..r.3 O . . . .   . + d y y 3 3 *.u.*.*.<.u.g.>...>.X.X.=.=.X...O.L I O.X.L X.O.X.5.i.>.>.=.=.=.> k 5 -.L.8.8.B w.L.j.9.~ W W / _ q.' ' ' x.I.I.T.Y.tXpXpXaXbXdXdXVXFXFXJXKXPXPXPXKXFXAXmXdXdXaX3X,X3X3X~.c.x.z.0.9.9.` _ ^ ^ / Q m ~ 2 =.*.>.>.....>.=.I >.L >.I 3.X.X.X.X.*.*.X.*.5.*.:.u.<.C C *.<.c + O + & + O & O O O O O O + O.X.+.X.H X.o.p 6 J 3.6.1.=.I 2 > 7 p 7 ",
"JXKXPXPXPXIXLXLXBXbXvXvXuX7X3X6Xm.n.c.{ ' ' q.q.9.` 0.2.2.2.2.;.*.+ k *.n I b k k 4 c 4 i l k l k k k k k k k k k 4 4 k c k k n y 4 + + 1 1 3 $ y 3 > $ 1 t t 3 i =.=.J I +.X.+.X.8 , v n =.*.c 3 + 1 1 > > > + O y c b ,.:.i > H P 1.1.X.L O.:.,.d O O .     . O < > 3 > + 4 y *.c n k n 4 p k d g g c g g d 3 3 g b b b c b n 1 4 k b z c > N -.L.8.z w.L.L.m L.e._ m m ~ ` 9.' ' ' { x.I.U.T.1XtXpXiXaXpXdXVXHXLXKXPXPXPXIXLXLXAXdXpXpXdX7XuX,X~.~.} { ' 0.9.9.` _ ^ ^ / Q Q m > c c *.*.v k c g c b d b 3 g d d d d d d d d k y 4 k c d d c d < + O + # + O + O O # * . + k 5.L  .#. .P o.o., 2 l I l l k > O > , > ",
"HXLXIXIXUXUXBXBXBXfXqXpX6X6X6XT.m.c.{ ' ' ' q.q.0.0.0.( 2.2.;.;.w.d > 2 + + + O + O 1 O + > + O + + + + + + + O + 3 3 < 2 > + O > 3 1 y d y d 3 3 3 3 y g y 1 + 2 l I I X. .#.4.4.P 6 k 1 d O . . . O + O O + O O O O # d 3 > 2 P #.1.T U X.>...,.3 . . * % . . O < < d 4 + 1 + + O > + + + 2 + O O O O O O O . O O O O . O + + 3 4 + > > < < b N ].j.L.P.-.P.oXe.e.9./ W _ ` / ` ' ' ' { c.I.T.<XtX7XiXiXpXvX0XBXUXLXLXLXLXUXBXBXBXfXyXlXvX<X6X,X} } { { ' ' ` ` ` ^ / W / / ~ -.4 1 + + O O O + O # . O + O O O O O O O O O O O > > > 3 + O O + & & 3 3 3 & # + + & & O . O i X.P  .#.#. .$.1.p 2 2 5 + + + O O O + + ",
"    X : o     O , , R uXuXqXY.c.c.c.{ ' ' ' 9.q.0.0.0.( ( ^ ;.;.,.*.b n *.*..X.X;XXX.Xc b h.{.XX'.'.'.L.L.L.L.h.d a.|.|..Xs.0 O + 3 1 y d 3 y < y y y y 3 $ O O > , p X.$.P $.$.+.1.l 1 O . . . ; 9 b ,.,.s.j.a.9 ; % @ @ . O 7 P #.$.P P X.X.l > + O . . o     $ 9 3 f g 3 y 1 1 y .X%X-X{.{.i h.h.^.'.{.'.^.^.{.^.s.h.y f.{.^.j.f.4 c c k N D 8.j.q j.w.V q w.L.e.9._ ~ ~ / / _ ' ' ' { { I.T.6X7X3X4XiXvXjX8 + + + * o X . . O + > , rXtX1X9Xm.} } { { ' ' ` ` ( / W W W / ~ Q x d b S Z .X.X;X.X|.4 b j..X%Xh.L.h.L.h.h.h.h.4 r.'.'..Xf.g O O O O O O O . . O + + O . O + > p P P  .#.#. .X.I 4 + + O + 9 # b D 8.D ",
"X X o o o o   X + > R qXT.T.U.v.c.c.{ ' ' ' q.q.q.0.2.! ! ! ^ ^ b <.-.n -.4 h.s.d.s.D.2 7 ,.:.*.,.:.:.:.:.:.:.:.4 <.<.n *.S 4 + 4 d < 4 d 3 t $ d y 1 > 1 c t.(.p , 6 p p P $.P p X.n O O . q D a.8.8.w.-.<.j.a.M D D q @ . . 4 p P +.1.+.J 6 > > r.|.D . . . - . & & s d < y 3 1 4 {.(.h.s.(.> O...=.>.>.3.>.>.>.=.=.D.> >.5.c S a.4 N k + q f M oXB w.8.P.a.L.R.e.8._ ~ B ~ ` _ ` ' ' { x.I.I.m.qX7X7X6XfXlX8 > + * o o : X X @ < w , xXH.H.H.m.} { { { ' ' ' ` ^ / W W W / ~ x *.b ,.:.y '.h.u.>.D.> l =.<.I >.>.>.>.>.>.>.:.1 :.<.C ,.,.c < < # + + # @ O . O + O O c s.s.I , a H  .4.$.P I n + O + > N w.a.N 8.8.8.",
"    o o o o o   . O ] Y.m.T.E.x.x.x.x.q.q.q.9.9.` ( ( ^ ^ ! / / *.*.*.L L 7 5.d.6.6.i., I I >.>.U U X.o.o.=.=.=.l X...n :.*.2 + 4 4 4 4 3 3 3 3 3 3 i i 2 L 3.X.4.+.p , > l ..C c 2 > O w ^ w.R.R.W K 2.G.R.$Xe.x ;.w.w.w.0 O < > k n c l 7 > N.N.).).(.$ O   . % O & s 3 $ 3 y 4 > g.A.3.p.i.p l *.=.X.3.X.P +.3.3.4.3., 5.5.>.*.<.z b 0 d M M q :XP.V a.P.D oXw.L.x 9.~ ~ e._ ` _ ` ` ' q.q.x.{ W.0X0XyXW.Q., > O     : o o X % X . O R.E.U.c.c.c.{ { { ' q.9._ _ ~ ~ / Q Q m z N z M S 4 r.u.p.A.i.8 J 3.3.>.I ..X.=.=.=.=.=.2 I :.*.=.n 4 + > + $ + * * * * . # O > ;.1.P N.$.6 > 6 c C n k < + + I *.d.e.e.r e.e.2.",
"o o : : : o o   X # ( Y.m.m.I.x.q.q.q.q.0.` ` ` 9.9.9.;.^ ^ ^ ^ 2.*.*.U P p 6.Z.Z.Z.A.6 X.=.5.3.X.+.3.3.3.3.o.X.p X.=...<.<.c 1 4 4 4 3 3 3 3 3 3 1 2 2 2 L @.P #.4.+.p > > y d s O + > w.w.! ) b.! 0.v.G.v.Q.0.r ( 2.2.w.~ 5 > < 1 + 4 + l }.3.#.#.+.}.<.O .   . s & + + d 3 4 4 2 d.D.i.N.6.> X.5.X.3.X.3.X.4.4.H U 6.l ....=.I h.-.b < 0 b 0 V D L.a.B 8.L.L.j.e.e m ~ ~ w._ 9.` 9.` q.q.I.I.E.E.U.n.yXkXQ.r + O     o : o o o X @ V oX!.I.c.{ { { { ' ` ` _ _ ~ ~ ~ / Q I n z M f z N 4 5.u.Z.A.N.p L =.3.5.X.=.3.3.3.3.o.X.i >.<.=.<.:.k > > > $ + * * * * . @ + 5 U T T k.4.X.a > $ g d O O < x e.7.7.7.l.J z.0.) ",
"G ; G A A G G G X B I.Y.m.{ z.x.' ' ( ( ( ( ) ^ 9.` 2.^ ^ ! / / ;.I K I l 8 6.N.A.A.A.7 X.=.3.3.=.=.=.3.3.=.=...2 *.=.n ,.,.c + 1 1 1 < & & & & 3 $ + > 6 I @.P P 4.4.I i 1 $ + O + z z G.0.Y 0.z.) b.Q.Q.R.kXQ.! 0.2.! / ^ m e > O b 1 > =.P +.N.4.P d.u.. . @ . & g g g $ O 1 k p 5.6.3.p.A.6 >.<.=.5.L o.X.3.o.I >...4 :.<.,.=.@X5.:.z c M M f # D L.a.L.L.q m Q ~ ;.w.;.~ m 9.` q.` I.q.I.q.` { U.c.n.Q.kX$X0 9 ; G ; G G ; ; = f j.!.R.' c.{ { ' ) ( ( / ~ ~ ~ ~ / Q K I x N M f f b 4 5.d.A.N.y.p U X...>.=.=.=.>.3.=.o.X., *.:...=.:.c 3 > + + + O * O . X . + l U T T $.4.y.O.1 $ < + . q z ! G.1.7.z.H.Y E.E.b.",
"F F A A A A G G = 8.R.n.c.{ { x.' ` ( ( ) ) ^ ^ ^ / / W W K x x K w l l 7 8 6.d.Z.Z.i.7 L ..=.=.*.*.*...*.=.=.=.4 ,.<.S -.D 9 O + + + O O O O O & O O > k X.>.o. .+.X.X.>.n $ O O N s.e e.0.7.Q.kXE.E.kXkX#XcX$Xb.b.v.v.^ W W ;.<.+ O + w.>.3.N.4.S.A.D.f.+ . . & . . O 3 O > > + 2 u.g.d.6.d.2 b c :.,.*...3.=.I <.u.*.+ n S S -.R.z *.z < < z < q q q N q M -.x z ~ e x e ~ 9.^ / 9.^ q._ ' ` I.' { ' z.n.v.R.w.M j F G G G G A V ,.L.R.x.' { { { ' ) ( / / ~ ~ N W W W W I I n N M z b 4 5.D.Z.i.6.7 L I I =.X.....X.X.=.=.=.7 :.<...*.:.c > $ + + * * * . . * . 3 I U T #.$. .@.o.C c O O 4 8.Q K 0.7.b.Q.jXz.jXkXE.",
"; ; ; : ; ; : X V P.v.{ n.n.z.I.q.0.0.0.0.( ( ( ! ! ! W W K x x x w x x l 7 5.d.i.d.6.7 l ....*.:.-.,.,.,.:.*.C d ,.r.D D D 9 O d d d d d d s s & O O $ c :.>.3.+.+.L X.p.*.> O b w.w.5 G.Q.Q.kXcXQ.Q.kXkXkXcXkX[ n.Q.kXG.v.( ;.R.l l s.-X X+XA.#.4.4.X.*.r.D a.t.D r.Z + > k + 4 *.XX;X-X X+X*.XX'.j.s.b C <.5.s.*.c f.<.%Xj.'.n d.5 s.L.j.h.oXL.a.0 q oXj.8.8.w.-.j.e.$XoXj.^ R.R.!.R.!.R.R.I.I.I.E.Q.jXlXkXcXoXf X ; : : ; ; = B j.j.v.x.b.{ { { { ' ` ` _ _ m W W W U K K I n Q -.N b 2 >.(.i.Z.i.6 l =.=.*.=.>.>.>.>.=.X.U L u.u.*.*.C 4 + $ $ * * * * . . . . 4 *.U T k.4.P o.>.>.c O + ;.w./ ! G.n.jXjXwX) Q.Q.U.",
": X o o : :     8.P.q.' n.U.x.v.z.z.0.0.0.0.2.2.2.( ( ^ ! / W W x b N Q *.l 5.d.3.6.>.2 i *...:.-.,.w.s.<.*.b k + c b c b s # # 3 3 3 < < < & & & + O $ c n ..3.+.3.X.X.>.c + > s.8.2.r $XkXjXkXQ.n.Q.kXlXwXcXkX) Q.Q.!.E.kXR.2.2.5.j.> 5 5.=.@X`.4.N.Z.g.s.O # O 1 Z f.$ d y 4 *.n h.d.h.g.5.c < b S '.,.s.n n S s.s.,.+ 0 g s.w 5.+ n b N N k 8.-.,.j.R.~ w.Q ~ j.oXj.;.K e.!.e.v.R.R.R.I.x.q.x.!.!.wXE.b.b.Q.:XM .   o o o : . N L.j.R.v.n.x.c.c.{ q.q.9.;.;.Q Q / ! ! ! ! ! Q Q w.*.b 2 ..d.3.i.u., l =.:.*.:.<.5.u.5.X.L p , l v k b c 1 + + $ * * * * . O O O 4 I J Y $.+. .3.t.v 1 + w w.^ ^ 0.Q.Q.jXjXjXE W.Q.T.",
"F %   : : o o % P.P.` ' c.x.z.x.z.z.z.0.0.0.0.2.2.2.2.^ ! ! ! Q e -.Q m ,.4 l Q l I l > > c l n b b b c c k k k > 4 d d d # O & 4 4 4 4 3 3 3 3 3 # O + y 2 6 I L +.J p v 2 + b 8.;.G.! kXjXkXkXkXY.0XkXkX0XkXY.) wXQ.E.E.kXE.v.! *XQ 7 ;.D.D.6.`.H H P >.*.g b a.Z 1 Z c c + > *.2 s.,.5.<.i 4 j.f.r.*.n c c b c c k + z h.j.:.k w.> j.w.h.|.h.oXQ n <.G.5.#XK e.e.^ G.R.v.e./ e.R.I.!.v.E.q.x.x.!.q.E.kXkXQ.R.-Xa.;   o o o o O -.j.R.G.E.z.n.b.x.x.q.q.9.;.;.~ ~ / ! ! ( ;.;.~ m -.N I 7 l I v I L + , c b n b c v l l l p p > , 2 i c 4 + & + * @ @ * * X . * O 3 l 8 8 H P  .o.O.y + 4 ~ 9.q.0.b.jXW.rXeXlX[ wXwXW.",
"P.=     :   X F ].P.q.q.z.' ' x.0.0.0.0.0.0.2.2.( ( ! ! ! W K K w -.N z -.> + 7 , 7 , + + 2 , 4 3 + O + + , l I I I I ..n < + g 4 7 7 4 4 4 3 3 3 3 + > , > > p p H 6 , i , , ;.;.w.Q.Y Q.kXcXwXcXY.c.0XlXlXcX0XE wXQ.kXE.Q.) v.zX7.d.2.2 >.X.J S.H H 8 L > c 3 O Z ,.1 :.y c :.*.+ *.2 2 k 2 :.+ + :.> <.+ 1 O 2 k h.,.h.n n n I <.+ h.Q k N N -.m Q <.R.;.R.K 2.R.w.R.2.! e.v.e.R.v.$Xv.Q.0.x.q.$XI.!.!.E.Q.R.:X].V   o o o   c R.e.R.e.b.) E.z.z.z.q.9.` ;.;.~ ~ ^ ^ ( 2.1.2.;.z N b Q 7 7 7 , , > + + > 1 4 2 > + + + , l X.I I I *.*.4 + & $ @ @ * * * . O + + 1 2 , , , 8 H a i 2 > x 9.( v.z.n.jX0XeXeX9X[ eXwXW.",
"a.D j A G A ; a.L.e.` ` q.q.q.q.0.0.0.0.2.( ( ( ! ! ^ ^ ! Q K x z B N -.-.k w.s.d.d.d.d.d.d.d.f.h.*.>  X}.).OX=XOX@X=X;X-X.Xb k 6 6 6 4 4 4 4 4 > + ..(. XOXA.y.p 6 p > > > I Q e.!.R.Y kXjXwXcXlX{ n.kXyX0XlX8XR kXn.kXn.v.0.v.cXG.#Xe.l 2 7 i.> , a *X XzX{.O t + t.c C d d S :.n {.h.h.-Xf.-Xf.u.zX(.;X4 2 @X@X@XzX;XzX@X*X&X;XcX2 j.Q b x w.s.s.Q *.e.;.G.2.Q R.;.e.2.2.v.e.R.0.e.R.R.R.G.q.R.!.x.$XQ.Q.b.oX:XP.D ; ; G G j h.G.v.v.v.b.z.z.z.z.0.0.` 9.;.;.~ ~ ^ ^ ! ! U K Q N *.*.:.l u.A.d.d.d.d.f.f.f.f.{.n ,  X@XA.OX@X+X*X&X&X-X-Xb + O * O . . . . O O h. XD.OXZ.P 6 a 1 > + k r 9.R.I.) Y.eX1X9XeX9X[ qX0X8X",
"j.D = ; ; ; j a.j.w.` ` ` 9.q.9.0.0.0.2.2.2.( ( ! ^ ;.^ ! / K x z B M N *.4 =.;.>.>.>.>.>.>.>.:.<.n > Z.N.N.S.V.S.S.N.i.d.h.c c 6 6 6 7 4 4 4 4 1 > >.A.B.V.N.V._.u.X., + > ! 2.G.Q.E.R jXwXwXlXeXE n.W.lXm.vX8XR lXn.kXn.U.0.v.cXQ.cXG.! > I 3.+X_.B.=XOX X Xk 3 + ,.g S d y *.c c r.:.*..X:.{...>.(.l A.I l d.u.g.+XOX+XA.Z.y.D.-X*.s.z n k L.<.w.~ <.G.2.G.! ! R.;.j.9.^ R.9.R.9.0.G.R.R.G.0.9.!.q.$XE.E.Q.$Xe.8.a.A ; A G j s.e.w.e.0.7.7.7.7.) 2.2.( ^ ~ ~ m W / ! ! ! K K *.-.*.N n 2 I =.>.>.=.=.:.:.:.:.5.l > d.D.6.A.A.4.N.p.d.h.'.d + * * * * * * * * < f.5.J 1.6.Z.A.o.a + + l ! q.E.U.) Y.eX<X9XtXtX[ qXqX8X",
"j.8.X X X X F j.j.w.` ` ` 9.0.9.0.0.0.2.2.2.2.^ ! ^ ;.;.;./ K m z M z N b > I *.=.=.=.=.=.=.=.=.=.I 2 i.y.B.V.k.C.C.k.i.i.i.7 7 6 6 6 7 4 4 4 4 4 2 X.y.4.4.k.M._.d.p...+ 7 w.e.R.E.E.E wXwXeXlXlX{ 0XeXlXY.vX0XE lXn.lXc.E.0.E.cXQ.kXR.G.x (.u.d.4.y.A.OXp.D.c 3 & D g :.c t :.k n ,.C b  X*.}.L =.).I A.L p 6.d.A.).S.S.M.N.6.*.;Xk f.*.2 w.s.<.<.Q ;.j.5.j.! ^ oX^ R.9./ R.;.R.2.9.G.G.G.G.9.L.$X^ !.Q.E.!.e.L.P.8.%   : : % w.0.0.0.0.0.0.0.0.0.2.9.9.;.;.;.m m / ! ! ! ! Q Q Q N b b , I =.=.=.*.*.:.:.:.:.<.v 2 i.i.p.Z.y.N.N.3.3.u.f.3 + * @ @ @ * * * + $ 5.5.1.6.6.y.3.p.t., + Q 9.v.Q.U.[ Y.eX<X9XeXeX[ qXqXW.",
"w.8.X X X   D j.G.e.` ` 9.9.0.0.9.9.2.2.( ( ^ ^ ! ^ ^ ^ ! Q K x f M z M b > Q *.>.>.>.>.>.>.>.>.>.I p Z.N.V.V.M.C.C.N.S.Z.i.2 , 7 4 4 4 4 4 4 4 k > v 3.y.N.k.#.o.>.p.u.+ K e.v.E.U.U.E 0XwXeXlXcXW.8XlXlXeXlXeXE lXH.lXb.Q.0.E.wXkXcXzX! , g._._._.i.y.OXi.}.>.d h D h ,.c 3 S b <.<.*.b XX<. XI =.@X3.}.p L A.).).`.F.S.N.C.V.i.@X+ *.h.-.R.z 8.-.m Q w.;.e.;./ oX;.R.;.x R.;.R.2.9.v.G.G.G.9.9.!._ R.Q.#X#Xv.j.j.a.V ; ; ; s j.e.q.e.e.e.e.e.0.0.0.9.9.9.9.;.B m ~ ^ 2.2.;.*.n m N N n 4 =.6.>.>.>.=.=.=.:.:.5.I p A.Z.i.N.N.S.S.N.Z.d.f.4 # * * * * * * * O 4 d.d.7.4.4.4.>.u.g.v + 5.q.z.Q.U.[ Y.eX<X9XeXeX[ qX0XW.",
";.8.@ X X   S 5.e.2./ ~ _ ` 9.2.2.2.( ^ ^ ^ ^ / / / ~ ~ Q m x z 0 z f x N 5 =.<.=.=.=.=.=.=.=.=.:.l l Z.N.N.M.M.&.k.4.y.i.i.7 2 3 3 3 < < & & < 1 + c 3.i.V.4.@.p.f.u.>.+ l e.b.E.U.U.E 0X0XeXlXwXn.n.lXeXwXlXjXE kXW.kXn.Q.0.E.lXwXH.$XG.x  X}.).+Xi.y.).F.F.I b D D A ,.g $ b b <.<.*.n  X5.}.I X.}.l D.v d.}.g.D.).`.S.N.k.4.i.5.5.*.-.w.N ,.-.Q b x 8.-.w.;.m oXw.R.~ r j.9.R.2.9.G.R.G.G.w.~ L.R.R.v.E.R.#XR.a.a.D F j ; h w.w.w.w.0.w.0.0.2.2.2.2.^ ^ ^ ~ e m m / ! ! ! Q m N N M b < ..>.=.=.*.*.*.*.=.*.5.l p A.B.4.4.N.M.C.N.A.g.u.3 + O O O O O O O O 4 3.3.1.1.4.d.p.u.^.v + e.R.z.W.U.[ Y.eX<X9XeXeX[ wX0XY.",
"^ 8.# X X   S 5.7.! W B B ~ ! ! ^ ^ ^ ! / W W W m m Q m m x z e 9 f q z N 5 >.5.1.>.1.1.3.3.3.>.=.c I A.A.N.C.V.k.C.N.A.A.d., + # # # # * * * + O O n 5.3.3.@.@.u.f.>.I + K G.E.E.W.Y.E 0X9X9XlXyXn.0XjXlXn.lXjXE jXQ.kXn.Q.) E.wXeXcX#Xw.+ I p.y._.@.y.A.F.Z.l b F M A D g $ d S *.s.:...D.d.D.=.=.}.3.(.7 5.XXg.D.D.F.N.N.k.N.3.6.5.<.n n b 8.N z z z 8.-.-.m x L.w.e.m e w.9.j.;.;.e.j.j.j.9.;.8.R.q.0.I.2.R.:X8.D F j % % V -.^ ~ ^ ^ ^ ^ ^ ! ! ! Q W W W m q e e x K K x x w q f d d > n =.>.>.>.=.=.=.=.=.3.p J ).S.N.k.V.C.V.C.S.d.>.+ + + * O O O O O + + I =.6.4.1.6.>.f.r.> + G.!.c.Y.U.[ Y.eX<X9XeX9X[ wX0XY.",
"^ 8.9 X X   *.5.7.! m B B ~ ^ ! W W W W m m x x x x x x x z w 0 9 f q z x > I *.=.1.1.1.1.1.1.=.n d *.i.Z.A.V.C.V.S.S.S.A.5.+ O O O X . . . . . . . k ..L L P X.a ..O.l > 2.Q.E.U.W.n.R eX9X<XlXlXwXjXkXlXn.jXjXT Q.Q.Q.R.R.) n.m.m.lX#XzXI h.}.).`.@.4.@.4.Z...t - - j h s & 3 n k u.:.X.6.i.u.=.=.h.D.h.> k {.h.D.d.Z.3.N.N.F.A.5.+ I ;.*.8.0 z 9 f f -.-.~ M m 8.~ ;.m Q ;.;.w.Q ~ w.w.w.w.~ m B W / q.v.9.e.-.B 8.D F j ; F N W W W ~ W / / ! ! / / Q Q K m e e m m K x l e 0 0 0 9 d > n =.=.=.=.=.=.=.=.=.I p P S.B.V.N.V.J.V.C.S.y.X.+ > & & & & & & $ 1 2 J I U J H X.I >.Z O + R.Q.c.T.T.[ Y.eX1X9XeXeX[ wXwXW.",
";.8.f   X . *.d.e.2.^ ~ _ ;.2.2.W W m m x x x x e z z z z q 0 9 9 f q k k + x n l J J J J J J l > + b ..=.6.y.+.i.p.=.X.I n O . . . X X X X . . & . > i p H H a 2 Z c + + -.R.R.R.!.E.R jXwXn.lXQ.Q.G.kXQ.E.Q.kX! Q.#XR.R.G.2.v.R W.kX#Xw.+ + i a v a O.H 6 7 + O O * s s 3 3 1 y O C b k l X.l k n k b k 4 c ,.,.s.u.g.3.p.3.i.=.I > I w k z -.z 9 0 < N N Q m m ~ N Q m 9.~ / 9.x W ;.2.;.;.m e m e / 9.W ! ;.N N D j . . * j N ~ / ~ ~ ~ / / 2.2.2.2.;.;.! ! ~ ~ ~ ! ! Q K x N M M f d + l I l l l l l l l l 2 , p 3.X.y.4.4.4.#.+.3.=.I > g t 3 3 3 t t 3 3 + i J U p 8 p 7 i t O > }.!.x.c.E.{ W.jX1XrXjXeX[ wXwXH.",
"a.,.V . # O -.-.;.;.;.^ ^ ( ( ( ^ ^ ^ W x e x m x e z z z e e q # 0 f b 0 + k > 2 2 k 1 k 4 > 4 4 < > 3 d c k y y b d c 3 g d O . . . . . . . . + O + > , 6 , , > O .     . D L.L.:Xj.8.oX$X#XkX;X X X-X;X-X@X;X~ oX-X:X].:XD . O w.#X-X.X. O + + + O O + + + . $ $ t t t t t 3 1 + y 4 + k d 1 3 d 4 < < + + < 3 y S 4 > k b 7 4 c 5 4 x z x x z z w 0 x I x K Q Q ! / ! ~ ! ! ;.;.;.;.;.;.;.~ B B B m W / ~ ~ -.N D V   %   V B W ~ W m m / ^ ^ ^ ( ^ ! ! ! ! ! ! ! ! U U K Q q M f c c > l 7 2 2 k 1 k 4 > 4 3 < 1 3 d k k i k k 2 b b d $ g 3 3 3 3 t 3 3 3 . u 6 , , > , , + O . . + @XR.R.#XA.`.#XzXzX#XzX6.kX#XQ.",
"a.a.M . O + ,.-.-.;.;.2.( ( ( ^ ^ ^ ^ W x e x m e e z z z e w k d f d d 0 < s.<.=.5.:.+ 1 ..:.:.4 3 3 3 d g g d . s d h + # O . O . . . . . . O 3 < :.D.).`.`.`._.^.a.F o   @ O # # O . . # < > + + + + > < + + O # O @   @ X . + e }.-X].. ,.h.g.(./.|.).(.'.D $ 1 3 y y y t 3 $ + ,.r.*.S c O c S S Z n d < 3 c b c y O c d k 4 c 1 4 x z x x x x w w K K K K U U ! ! ! ! ! ! ! ! ;.;.^ ^ ^ ~ B B B B N ~ Q Q -.N D V   X   M B N ~ m m m / ^ ^ ^ ^ ! ! ! ! ! ! ! ! U U U I I b N z d b 4 5.=.>.u.=.+ 1 C ,.,.d 3 3 d g c c g + 4 < 3 3 4 O + 3 3 3 3 t 3 3 t t f.).=X*XOXOX`.).a.%   . 4 d # > + > + > 4 > 1 + 2 > < ",
"a.a.D . O < ,.-.-.;.;.^ ^ ( ! ^ ^ ~ ~ W x e x m e e z z e e k d z c 0 4 4 4 {.}.(.&XXXv =.(. X(.(.{.|.|.|.|..X.Xg a.f.'.j.f.*.< O . . . . . . . O + ,.g.3.+.$.4.%.B.u.D X @ . O k + @ X   @ 9 . . O O . O # # O . .   = X X   ; z + , ;..XO (.3.#.y.i.A.V.V.N.v > 1 1 y y y 4 1 k 2 |.&X X{. Xn s.{.|.|..X{.h.'.|.%X/.{.c |.f.h.u.s.n b Q z z k x n e w I K K U U I ! ! Q Q ! ! ! ! ! ! ^ ^ ^ ~ B B B m N Q Q Q Q N D M   X   F N N N m m m Q ^ ^ ^ ! ! ! ! ! ! ! ! U U U U K I *.N z < N 7 D.A.).&X Xc *.(.|.'.{./.h.^.|.|.|.{.b h.j.s.<.h.,.n 4 4 4 3 t 3 3 t Z p.M.k.k.1.k.4.s.j.  X . . =       X     X           X ",
"D 8.D O + 0 -.Q ;.;.;.^ ^ ! ! ^ ~ ~ ~ m e w e m e e e e e q q d d k 0 4 4 2 d.d.3.6.i.l X.>.X.>.*.>.<.<.:.*.<.r.> :.*.<.<.r.k O O . . . . . . . O < ,.g.3.1.4.C.M.M.u.:.O . O + < O O     . # . . O . . O + + O O O . @ .     O < + U G.XXO A.4.M.M.y.M.&.&.N. .> > 1 y y y 2 2 a + g.i.i.3.D.p l ......>.:.:.s.:.g.:.s.> s...*.:.,.c k b z z z x b w w K K K ! K K K Q Q Q Q ! ! ! ! ! ! ! ! ~ B B B B m m Q Q m N D M . X X F M m N m z x Q ~ ^ ! ! ! ! ! ! ! Q Q K U U K I n b z f + b , D.A.3.6.p.l ..:.*.*.u.<.<.<.u.s.u.5.> <.<.*.*.s.c > 4 4 4 4 y 1 1 4 c y.M.k.k.T #.+.>.a.  o . O =     X       X           X ",
"D 8.D O O f -.-.;.-.! ! ! ! ! ! / ~ ~ m e w e z z e e q q q q q 0 k w 7 7 , 6.3.i.6.p.J o.o.X.3.=.3.u.5.>.>.>.u.+ <.<.:...*.i + O . . . . . . . . O c :.=.3.4.M.M.k.i.c . . w ~ ;.;.N q ~ ~ _ ^ ;.^ K 2.9.^ 2.) r 2.^ ;.-.-.< > + ) kXzXoXO 1.V.&.M.#.k.&.&.M.H > 1 1 y y 2 2 2 6 + _.A.D.y.).8 L o.o.X.X.O.O.3.O.>.....> <.*.*.*.*.4 4 z k c z z x w w K K K K K I K I Q Q Q Q ~ ~ ! / / / / / e B m m m m W m b N D M # X % M M B B m e z m / ~ ! ! ! ! Q Q Q Q I K K K I I x z f f + b > d.6.N.y.p.J =.X...<.>.=...*.>.>.>.X.> *.=.*.*.<.k > y y 2 4 2 2 2 4 1 o.#.&.k.1.k.4.u.a.  X O B M N -.Q W ;.w.;.9.9.w 9.;.~ ",
"8.,.M O O z -.w.-.-.! ! ! ! ! ! Q ~ Q m e 0 e z e e q q q q 0 q k k 7 7 7 2 Z.Z.i.N.N.p X.>.o.>.X.X.X.X.O.O.O.O.> u.:.....:.i + O . . . . . . . . . b 5.u.y.4.4.$.4.s.+ . 9 R.}.R.$XR.` $X$X$XkXkXQ.b.kXkXE.wXjXR Q.Q.Q.#X$X7.r 5 I.!.#XR.+ r 1.&.M.M.V.C.&.M.a > $ 1 t 4 2 2 2 > + d.i.A.y._.p H +.3.3.p.3.X.3.>.>.=.l > *.<.u.,.,.k 0 z k c z z z 0 4 x x x K I I I I Q Q Q Q Q Q Q Q / / / / e e e e m m m m m m B M 9 @ = V V m m m e e m Q / / / Q Q Q W Q I I K K K K x x M M z 3 b < u.3.i.N.N.p X.>.=.>.>.=...X.>.>.o.X., *.=.=.=.<.i > y y 4 4 4 1 3 3 u r.4.k.6.4.M.N.>.,.. . c XXR.$XQ.b.l.jXxX#XjXkX) kXlXjX",
"D D S < < b Q 8.-.-.~ / / / ! / Q Q N x w 0 q z q q q 0 q 0 0 0 w k 4 4 7 2 A.A.6.A.A.p X.3.>...3.>.=.=.>.>.X...> u...v *.r.i O O . . . . . . . O . z <.6.i.4.y.N.D.j.9 @ M R.R.G.Q.H.) kXwX9XxXrXH.[ eXjXm.8X9X[ 0Xn.b.H.jXb.b.' !.!.$XL.. 5 6.+.4.3.i.#.#.o.2 * $ & t t 3 1 2 i , A.i.N.4.y.8 a P o.+.3.3.X.3.3.>.*.k + ..:.<.b n 1 > 0 0 c b d k 5 5 x x z x n n I I I Q I Q Q Q Q Q Q Q ! / e e e m x x x x N b b M f # 9 f z m m z e e x N Q Q Q Q W Q W W x n n n K x x z b M f 9 c 4 u.6.p.A.A.p O.3.>...>.=.....X.=.X.I , *.*...I :.k > y 4 3 3 t 3 3 3 . Z >.i.d.2.4.+.i.:.& 3 A.#XG.G.Q.J.l.jXlXrXjXlXK.xXlXrX",
"c z -.b z N z N -.~ ~ ~ / / ! / Q Q m x w 0 q z q q q 0 0 0 0 0 0 q 0 4 2 > u.6.d.d.p.6 v ..X.>.<.=.....>.>...I + i.u.*.:.<.y O O . . . . . . . O . 3 c p J P X.J l 9 = @ D L.E.H.H.H.[ eX1XtXtXqXW.{ eXlXm.qXqXR m.m.8XwXQ.l.n.kX!.c.!.R.. 5 L U X.v C H a c + * % & - t & 3 1 1 1 g.d.S.N.y.a o.u.3.>.3.X...3.>.5.:.n > *.C C <.<.k 4 c 0 c c 0 q < < z x w x n n n I I I I I Q Q Q Q Q Q Q Q e e e e x x x x Q b z z z 3 9 0 z z m z e e x m Q Q Q Q W W K m N b n x x x x z f M 3 # 0 2 u.i.g.g.i.6 c ..*.:.<.:.*.*.>.>.X.O., ,.:.C n <.b 1 3 3 3 3 t 3 3 & X h c l l l U U O.2 O + jXH.H.m.1Xm.l.rXxX1XjXxXR rXlXeX",
"z z z z z z z z x z e r x Q K x e e e e e e e e 0 0 0 0 0 3 < # # 0 < < 4 1 u.d.d.D.u.v l *.r.*.*.C *.:...=.=.l > ..<.*.*.a.3 . O O O . . . . . + . O > , 6 6 6 , , + . . 8.R.Q.W.H.8XK.tX9XtXtX8XY.{ W.yX0Xm.yXE Y.W.Q.E.Q.v.n.Q.W.wXW.!.O + 8 , , 3 > > > O       . . . . O O O O >.g.A.g.u.p O.3.3.>.5.>...*.*.s.*.d 1 <.r.*.r.*.> > 2 + < c 3 3 3 4 4 4 4 4 w k k w 4 4 z x x x x x x K K x e e e e z x x z x x z z z z V M m m m m x x x x e e e e e e r w q 0 0 0 4 4 4 3 0 9 9 # $ 3 u.d.d.D.d...n <.<.S ,.C C *.*.>.=.i + b :.:.-.s.3 O + $ + . . * * .   = 4 > > > , , , 2 O > #X1X1XH.W.l.b.wXeXwXwXwXE yX0X0X",
"z z z z z z z z x e e l x Q K x x x x x x z z z w e z z k 0 0 3 # f f f c > N n *.:...2 1 c C c b S ,.C k n I 7 4 ..*.n c b + + & & & & & & & & & O 4 n ..3.3.4.k.3.Q < . -.v.b.W.H.8XK.tX9XtXtX6XU.{ W.yX0XU.yXE U.E.E.Q.Q.v.R.jXeX9X8XQ.+ J 7.i.6.,.:.3.5.D ;         . . . O & O *.r.:.=.O.2 , O...c c C n n c *.c 1 + n C b n v 2 4 c > > 3 3 3 3 0 4 4 0 0 0 w k 0 4 4 z x x x x x K K K K m N Q Q Q Q Q Q x x x x z x N N m m m m m x x x x x x x x x x z 0 0 0 0 0 4 0 3 # = s 9 & + c l ..:...y 4 b Z c n S :.n k n O.2 4 b n N c c + & + & * . . * % * % b ..U 5.d.N.A.>.*.O < OXH.8XW.W.z.b.wXwXwXwXeXE yX0X0X",
"z z z z z z z z z e w e x m I x Q Q Q m m m m m z z b b b c d 0 # V f b b + b c k c i + + 4 k y 3 1 4 y 2 4 7 > + + > 4 3 s O g t t t t s s s s 3 > n >.X.o.X.#.&.#.1.z + w.#XQ.W.n.Y.E yXqX9X9X0XT.} 0XyX0XT.yXE U.U.b.Q.R.0.v.1XtX2XrXQ.> T #.$.+.X...6.d.<.F           X . . O . d y 4 4 4 + + i k y 4 1 1 k 2 y > + O 3 4 4 2 y + 1 d < > < 3 3 3 4 3 4 0 0 0 k k 0 4 0 z x n n K K K K K K ~ ~ ~ ;.*.;.;.;.Q I x x x m m m Q Q Q Q Q Q Q Q Q Q I Q Q I K x 0 9 9 0 0 0 3 9 # # q s & + k 4 2 y 2 + O < 3 + < > 4 y 1 4 7 > O + > d 4 3 O g & 3 & O * % % % g :.#.$.1.1.+.3.d.r.* < Q.H.E.Y.W.[ m.eXeX0XeXeXK.eX9X9X",
"z z z z z z z z z e w e x m x x Q Q I Q Q m m m x b b b b z k d # f 9 9 d < ,.,.n *.n k c C :.S n O + n :...I v p l n :.S b O + 3 3 3 3 3 3 3 3 < > I 3.X.X.P $.&.T 1.l O ;.#XQ.W.n.Y.E yX0XqX9XqXm.m.9XqX6X6XeX[ Y.W.b.#XR.e.b.1XxXxXxXQ.> T T T $.+.X.P $.I h           X . . + O Z Z C *.:...n n C :.n + > *.....n c c n ....*...1 > 3 + 3 0 3 3 3 3 4 0 0 0 0 q d 0 4 0 k x I I K K K K K Q Q Q Q Q Q Q Q Q Q Q x x x I Q ~ Q Q Q Q Q Q Q Q Q Q Q Q I I I m 9 9 9 9 3 3 3 9 = = = = & > :.:.C *.*.b b *.,.S c + + n *.n L O.k l n ,.*.c O + 3 s 3 * * & - & c o.#.T T U P  .>.S . # Q.E.U.U.W.{ c.eXeX0XeXeXK.eX9X9X",
"e e e e z z z z z w w z x n n x K K K x n x x x x z b b x z w 0 < f 3 < 0 < u.s.d.h.h.g.g.(.(.^.{.*.*. X;X&X+X@X+X*X*X;X-XXXb d 1 1 1 1 1 1 < < 1 > I 3.X.P P $.&.T 1.l O ^ !.E.W.n.U.E yX0XqX9XtX<X<X9XtX9X9XeX[ 8XQ.H.#XQ.A.F.jXxXxXxXE.> $.$.T $.3.$.$.#.*.b .       . . . O & 3 a.s.h.g.h.g.(.^.(..X^..... X&X+X+X+X&X+X&X*XXX(.C 1 3 + 3 0 3 3 3 3 3 0 0 0 0 d d 0 4 4 k x I I I K K K K Q x n x n n n x x Q I K x K K Q ! ! ! ! ! Q Q K Q K K K K K x x x 9 9 9 9 9 9 3 = = = = & & 3 s.h.s.g.g.s.s.h.^.h.{.*.:.XX&X X+X*X*X*X*X;X;X Xk y 3 y 3 + $ & t 3 4  .$.T $.+.#.4.O.b . @ R.E.U.U.E.{ b.wXwX0XwXwXE yX0X0X",
"e e e e e e e e z w w z x n n x K K K x x x x x l l l z l k 0 4 3 z 0 0 k , >.3.L I ....X.=.....>.v X.i.p.p.N.y.4.N.i.u.g.{.c > y y y y 4 4 4 4 4 > v o.U P P $.T P I 0 O 8.#XQ.W.n.W.E yX0XqX9XtXm.<X9XtX1X9XeX[ W.E.n.2.! l l ) 7.jXjXR.+ J P T T P P #.k.1.b . . . . . . O O O $ :.<.u.:.>.:...:.,.:.>.v O.g.i.i.Z.N.S.N.B.N.g.h.c > > < 3 3 3 3 < 3 3 9 0 0 0 0 d 0 3 4 w z x x I I K K K K I I I I Q Q I I I K x x K K K U K U U K K K L K K K K x x x l z 9 = 9 9 9 9 3 & % % = & & 1 <.>.=.>.>.>.>.<.<.<.=.L >.i.p.4.i.i.y.i.p.i.A._.p , 4 y 4 > $ 3 t 3 4 L P P P U  .$.>.S . + R.n.Y.Y.W.{ b.wXwX0XwXwXE eX9X9X",
"w w e e w w w w z w w z x m b x K K K K l x l l l l l x l z k 4 4 z z z l 2 =.X.X.X.>.3.3.>.X.X.O.L 3.y.3.4.M.M.k.V.y.3.u.g.k > y 6 y y y y 4 4 4 + i X.+.4.4.k.#.U b # . 8.R.E.W.n.W.E yX9XtXtXeXm.n.0XeXW.wXQ.) E.R.R.> # . . + > R.$X].. > i 3.@...L T $.l 1 . . . . O O O O O > :.*.>...O.=...>.>.=.>.X.>.Z.4.4.V.M.V.M.M.4.>.<.y + > < 4 3 3 3 < 3 3 3 3 3 0 d d 0 3 4 w z n n x K K K K K I I I I I I I Q K x x x l K K Y K L U L L K J K K K K J l l l z 9 = 9 9 9 9 & = @ % = & & + *...X.X.X.X.X.X.X.X.X.L >.y.4.4.N.y.4.N.4.4.y.A.a 6 2 i 2 > > 1 4 1 $ b P H U X.X.@.o.C . 1 Q.H.<X6X8X[ m.eXeX9XeXeXK.tX9X9X",
"w w w w w w w w z w q z x m b x I K K K x x n n l x n n x z k 0 2 c k k l 2 >.=.1.1.3.i.p.3.>.o.>.p I B.A.N.V.V.M.S.V.N.i.i.i 2 2 2 2 2 1 1 3 3 4 O > 6 7 H 8 8 P v 0 O . 8.R.H.W.n.W.E tX9XtXtXeXb.n.0XeXY.wXW.E v.v.R.O & . . @ . oX:X[.. + x 2 i k 4 6 7 < + . . . O O O O O O 1 :...>.*.=.u.<.=.I =.3.L L N.y.N._.N.`.V.V.4._.(.C 1 3 3 9 & & 3 3 < 3 3 4 4 0 0 d 0 3 4 k z x x x x x x x x x x x x x x x x x x x r l x K K K K K K K K l l I I I K x x x x 9 = 9 9 9 9 & & @ @ = & 3 1 ,.>.3.3.3.3.3.>.>.>.6.p L N.S.V.V.V.k.N.N.B.N.N.p p 2 2 2 > $ 1 3 1 & h v p l l p J p c . 3 #X1Xm.m.8X[ m.eXeX9XeXeXK.tX9X9X",
"q q q q q q q q 0 0 q q z z z z z x n b b x z c z z z z z z k k + 1 k c k 4 =.O.X.X.X.3.o.X.o.X.*.v i u.N._.M.N.M.V.4.y.i.i.p , 6 6 6 6 y y t t d O O + + > 4 2 > 2 > O   8.G.Q.m.n.E.E tX6XtXqX9Xm.m.qXqX6XqXqX[ E.R.h.O . ; ; X   j.-X.XO O O + + # # # 9 ; X . . * * * O O O O 4 <.*.<.:.....:.<.<.>.o.l P N.S.N.4.V.4.N.N.y.g.h.n 3 3 & 3 & & & 3 3 3 3 4 4 0 0 q q d q q w n n b b b x b x x x I Q Q Q n n Q n z w w z b Q m Q n n x x x x x x x x x x x z = = = 3 3 3 3 3 & = & # s 3 *.>.X.o.X.3.=.I X...=.I p p.N.V.N.k.#.C.N.N.+.p.L > y 3 1 + + $ 3 t . . + , > > , , > . . & R.E.E.n.E.) W.jXxX9XtXeX[ rXeX8X",
"0 0 0 0 0 0 0 0 0 9 0 0 q q z z k k k k k k k k k k w w w 0 0 4 4 4 c d 4 1 *.*.:.>.>.3.3.o.3.>.<.n l d.A.A.y.V.N.S.N.S.).g.l 2 , , 1 1 1 1 & & + O 3 n S *.*.I =.=.I 5 . 8.R.Q.m.n.E.) tX6XqXqXrXm.m.qX9X6XqX9XR Q.R.XX& ; : : ; * a.:X].O 4 b x m -.,.D V =     . . * O O O O O $ *.C <.:.*.*.*.*...=.=.p H N.4.4.N.S.S.S.N.i.s.s.d + + # 9 = & & & & < 3 4 2 < < < < < < < < z z c c c z c z e e l x x x x z x z q 0 0 q z z x x z z z w w w z z z z w w w f = = & & < < < < s s & O < > *.>.=.3.3.=.X.=.>.=.=.I 7 d.S.A.B.S.S.S.N.N.6.d.C 1 1 + O . . O + $ % h *.U K K =.6.u.g @ # D.E.Q.E.E.) W.jXxX9XtXeX[ wXeX8X",
"0 0 0 0 0 0 0 0 4 9 4 0 0 q q q 0 0 4 4 4 4 4 4 4 4 4 4 4 2 2 2 < # 0 3 < > *.*.*.:.:.>.3.>.>.=.*.y i u.Z.i.3.A.3.y.3.i.d.<.4 1 $ $ $ $ + + + + O O S s.d.A.6.i.D.Z.d.m   8.R.Q.m.n.E.) tX6XqXqXeXm.m.qXqX6XqXqXR !.R.L.s j : : j s a.%XXX+ =.D.Z.Z.F.).D. X}.r.. . . O O O O O O + Z C <.*...*.,.*...>.=.i p i.`.).A.i.i.p.i.d.<.s.d + # & = & @ @ # # < 3 3 2 < < < < < < < < k k k d d d 0 0 4 7 w z l z z w z w 0 5 5 0 q z k k w w 0 0 4 4 0 0 0 0 0 0 0 0 & & & & < 1 1 < + # * O + $ C *.=.=.>.=.<.:.=.=.<.n i i.d.3.1.4.N.N.3.p.6.5.y O + O O . . O O + s s.F.k.N.l.C.`.`.d.+ 1 H.H.H.n.E.) W.eXtX9XtXeX[ 0XqX8X",
"q q q q 0 q q q 0 0 0 0 q q w k w 4 4 4 2 4 4 0 4 4 4 2 2 2 2 2 + + s 3 < + c k n c n 2 v O.I I n k i =.3.o.X.>.o.>.v ..C b + $ + + + O * * + + < + :.u.3.N.+.B.y.y.d.-.. 8.Q.H.m.H.U.) eX9XqXqXeXm.m.qXqX6XqXyXE !.R.V j : : : * & S {.-X+ 1.S.4.$.$.T $.M.V.p.O O * O O O O O 1 + c i c k l l I n c I L 2 , L J X.3.=.3.X.I n k n 3 + 3 & & O @ @ # & < 4 4 4 d 0 0 d w 0 w 0 k d w 0 0 0 4 4 2 4 w e z z w w z w 0 4 4 0 w k w w w 0 0 4 5 5 0 0 0 0 0 0 0 0 9 9 3 3 4 4 4 3 O + * O # O y 4 v i l l :.b k n k 4 2 =.6.=.3.3.=.1.v ....n > + 3 & & * O $ & 3 y g.V.&.l.l.&.C.M.B.+ 6 `.1Xm.H.Y.) W.eXtX9XeXeX[ qXqX8X",
"c z c z c c c c z k z k z k z z z k 7 4 2 4 w k w w w 7 7 4 4 4 d j h s < O g y + > i + c c 2 , + O + + 2 7 p 6 i v y d d 9 . . $ $ $ & & & & $ 3 + =.3.$.k.$.M.4.3.i.:.. 8.OXH.J.1XU.) eX9X9XqXeXc.n.eXqX0X0XyXE !.9.# % o o o   . & ,.XX+ J 1.k.k.k.k.&.M.M. .$ * $ & & 1 $ $ 1 + i y i k v i + > > + > + + > , p l 2 > 2 2 2 > 4 + O + # & O # & & 3 3 d k k c c c c z z c c z k k k k k k w 4 w k c z z z z l l k k k k z c c z k w w 0 0 0 k k w w w w 0 d d g d k i i y d 3 s 9 # & O 4 4 7 2 2 + 2 k 4 k O + + > 2 , 2 > 7 v 2 4 4 4 + 3 s 3 & & & & 3 t , y.M.T &.&.$.&.$.N.+ 7 nX1XJ.H.Y.E 8XeXtX9XeXeX[ 0XqX6X",
"z z z z z z z z z z z z z c c z x z w 4 4 7 z l z k k k k w w d h g h s 3 < <.r.%Xh.<.+ v d.(.;X&X&X&X(._.g.p.=., ..S D S M O . & & & & & & & 3 > + I 3.#.k.&.k.C.y.6.n . 8.OXjXJ.1Xn.) eX9X9XqXeXc.m.eXqX0X0XwX] !.m q   :   o   . = g .XO l 3.#.#.k.M.&.M.&.H > $ t t t t 3 1 + > r.p.g.g.5.2 u.(.(.D. X@X+X@XA.g.>.c + c ,.,.:.,.3 O O O & @ # & & 3 d d c c k k k k k z z z z z z z z z z z 0 k z x x x l l x x x l l l l x x z z k k w 0 0 z z z k k k k k c c c k l l k c c g 9 + 3 < ,.r.g.h.d.+ *.{.{.h.{.XX X(.(.d.A.>.> n n *.*.n + 9 3 & & & & & 1 1 $ >.C.&.k.k.&.J.#.i.> 7 #XH.J.8XY.E 8XeXeX9XeXqX[ qXqX6X",
"c c z z z z c c z z c z z k w w x c 7 2 2 7 k l c k k k k k k y y 3 d 3 y y f.h.u.u.d.6 g.).i.g.g.A. X_. X). X).i f.h.j.a.a.j * & & & & & & 3 3 > + p 4.M.M.k.#.M.N.o.k . 8.R.rXJ.1Xn.{ qX9X9XqXeXm.m.eXeX0X0XwX] R.e M X ;     X = V = [.O z w.5.5.6.4.$.#.P 6 > $ 3 t t 3 1 1 + 2 g.(.(. Xd., 6.A.Z.A.`.OX).).Z.(.)..Xl h.|.j.'.^.b + + O & @ * @ & 3 0 d c c i i k k k k k k c c c c c k k k 0 0 k z x x l z x x l J x l l l z z z k k 0 0 0 z z z k k k k k c c k l l l k k g d & O 3 d f.{.g.d.d.+ =.(.D.D.D.}.}.(.OXD.}.D.2 s.h.h.{.h.c d 1 1 1 1 1 1 1 $ 1 C 4.M.6.4.4.N.p.:.& < @XQ.b.E.U.E 8XeXtX9XeXqX[ qXqX6X",
"z z z z z z z z z z k k w w 0 4 c c 4 2 5 4 k c k k k k i y 7 4 y y c y 4 > *...5.>.3.> 3.D.p.i.y.y.A.g.).p.g.g.> :.<.S S D = . $ 1 $ $ 1 & < < 1 > 6 o.4.#.k.$.P #.P 2 O 8.G.H.J.1Xn.{ qXeX9XqXeXm.m.eXeX9XqXwX) v.x z @ %       X F @ P.. < -.*.I >.>.X...v > $ $ 1 3 3 1 1 > y 4 >.c l 5.5.> i.Z.N.N.S.N.3.4.4.i.d.{.> ,.<.n :.<.4 O O O # O O O + & 3 y d k k k k k c c c k k k k k k k k k 4 0 k z z c z k l l l l J l l l z k k k 0 0 0 0 k k k w w w w k k k k p p i i k b h 9 O & + *.<.5...=., d.d.=.d.6.p.d.Z.).4.A.d.2 <.*.I :.,.4 > 1 1 4 4 2 1 1 1 g c U 7.5.;.U L :.d @ O &X#Xv.U.U.E 8XeXtX9XeXqX[ 0XqX6X",
"k z k k z z z z c z z z z z z z c c k 4 1 3 k b k c c c k k k k 4 k i 2 4 > ..>.=.3.3.6 i.y.4.N.N.N.V.y.3.i.A.u.2 ..*.<.,.D # . > 1 1 > 1 1 1 1 y + 2 p p P H H 8 8 H + O -.OXH.J.8Xb.z.8XeX9XeXtX1X| lX9XeXqXeXz.E.! w j.'.a.].[.[.V V [.# + 0 d 4 k k d b b 3 + $ > 1 1 1 > > > 1 >.u.<.:.>.2 4.N.N.V.V.S.B.N.N.y.i.u.> I *.*.*.*.4 < 3 * O O O O + & 3 4 d k k k k k k k k k k k k k k k k k 4 4 0 k c c z k k z l l l l l l 7 k k k 4 5 4 0 w 0 0 0 0 0 0 4 c c k k p i i y y h s O & 3 ,.*.=.3.3.8 N.y.4.N.N.y.y.4.4.A.S.3., =.*.:.<.:.2 > , , 2 2 2 2 2 4 . s i J x 7 p l 1 O X = R.R.I.!.E.) wXeX9XeXtXeXE 8XqXqX",
"z z z z z c z c w w w w 0 0 0 4 c c k 4 1 3 d b 4 0 4 4 4 4 4 4 k c k 4 7 , =.6.>.3.3.6 N.y.M.V.S.V.S.V.y.N.A.p., ..*.<.<.r.3 O 2 2 2 2 1 3 3 3 d + > > > > > , H 8 6 + . 8.#XH.J.rXv.x.0XtXqXeX9X<X| lX<X9X8XrXR E.G.x 0 N a.'.P.V 9 a.oXO O + O O + + + + + O 1 t y u y y y y 1 2 :.*.....:., 4.V.V.k.k.C.N.4.B.N.Z.6.> ..=.*.*.S > O + O * @ O * # & 3 d d k 7 7 i i i k k k c c c c k k k k 4 0 0 k c c c z k k k k i k 7 7 w k c k 4 4 4 0 k k k k k k w k d d i i p i 4 4 g h 3 . O + *.*.1.3.3.6 y.N.N.S.F.B.B.B.N.B.S.4.> *.=.=.5.3.2 , , , , , , , , 1 . t , , > + , 6 4 &   % XX#XE.I.E.E 0X0X8X9XeXeXR T.0X6X",
"k k k k c c c c k d d d d d d 4 d g d 3 1 < y g y d 4 4 y 3 4 4 > 2 7 7 p 6 =.3.o.o.o.6 4.y.M.S.V.M.V.V.M.i.N.3.6 =.....C *.1 O 2 2 2 2 4 3 3 3 < > *.d.D.}.}.=X`.`.A.I . j.#XH.J.H.b.' W.eX8XeXtX1Xm.lXtXeXeXeXR H.Q.! 5 0 b z w 5 ! $X}.> I I u.s.h.(.h.h.h.*.+ * $ 1 1 1 > $ O > :.:.*.:.<., y.S.S.N.k.M.N.N.N.N.Z.3., =.=.*.:.:.3 + + . . . * @ # & 3 y d k 4 4 y y k k k k c k k k k k k k 4 4 d c z c c k k k k k k k k k k k c k 4 4 4 d 4 4 4 4 4 4 4 4 d d k i i i i y < 3 # . + < ,.<.=.+.X.6 3.4.N.S.S.M.N.B.N.B.B.3.7 5.>...X.>.6 , 2 2 , , 2 2 2 1 y u.S.S.F.G.S.Z.A.f.. # #XE.E.b.E.) wX0X8X9XeXeXE 8XwX0X",
"4 4 4 0 d d d d c c c c c c c c 4 d d 3 + + 3 d g d d d d d d d 1 y i 4 i 2 ..=.>.o.X.6 @.N.B.F.M.4.N.N.y.Z.Z.3.6 :.:.:.,.s.k + 1 , 1 1 1 < 1 1 1 1 ,.h.d.u.3.3.4.N.i.*.. 8.R.J.J.Q.v.' wXeX0XeXeX1Xm.lX9XrXeXeXz.E.Q.G.d.;.b l 7.b.#XzXF., 1.6.X.L X.X.L *.X.i $ $ 1 1 3 1 1 1 3 y ,.S n *.<.1 i.N.B.S.V.B.N.N.N.A.Z.=.6 <.<.:.*.*.3 + & O # & O O + # < 3 4 4 y y k k k c c c y d y y y y 4 y < 3 4 d k d d 0 z c c k k k c c 4 d k 0 2 < 2 4 c c c c c c c c g g d k i k k d d d & O & < *.:.=.o.X.8 1.y.B.F.k.4.M.N.y.A.A.3.> :.*.I =.5.p 2 6 6 2 2 2 1 1 1 i d.N.k.k.l.C.k.S.|.O 3 }.G.W.n.Q.) jXwXwXjXjXeXE W.0XW.",
"3 3 4 3 4 3 4 3 d d d d d d d d 3 3 3 3 + + & 9 s s s 9 9 9 9 9 3 d 4 > 4 2 :.s.=.O.O.p X.p.y.B.y.y.i.y.3.g.i.I > ..*.<.,.,.+ O + + + + O O O + O O c >.=.3.3.N.@.@.>.n . L.*XH.J.H.I.` wX0X0XwXeX<Xm.lXeXrXjXjX) Q.H.e.R.D.<.D.kXkXQ.jXH.> 8 $.X. .X.X.P +.$.p + O * $ $ $ + + O + S S C S *.+ ..=.3.3.i.i.4.o.i.i.u.I 7 =.:.:.:.*.> O O O @ # O O O + + > 1 1 4 4 4 4 4 y y y 4 4 4 3 2 3 3 3 > < 3 4 0 0 4 3 d d 0 3 3 0 d d 3 4 4 4 < > 1 3 d d d d d d 0 0 3 & 3 3 4 4 y y 9 & O O + $ *.,.*.....7 X.6.y.N.4.4.i.6.3.d.d.I > ,.,.<.u.<.4 > 2 1 1 1 $ + + + 1 3.k.&.&.7.k.&.+.d.O 0 OXH.W.z.E.! Q.W.W.wXrXwX) Q.wXW.",
"3 < 3 3 3 3 3 3 < < < < < < > < # & 3 & + O + & + # + + + + + + O + 3 < 3 + k c c k c 2 l X.O.X.3.o.o.=.X.>...2 1 c d c c c O . O O O . O . O O & + n 5.3.4.#.#.B.y.y.b . D R.Q.J.Q.R.` kXwXwXyXwXm.b.wXwXW.wXQ.Y $XQ.e.#X@Xs.d.7.jXQ.Q.#X, H #.P P #.@. .$.P 6 O O O + + + O O O O b S Z b n + k *.=.I I >.=.l =.I n 7 3 c c b y k + + & O O . O O + + + > 1 1 1 > > > > > > $ 3 3 3 3 3 3 3 3 > > 3 4 4 4 3 3 3 3 + + + # 3 3 3 4 4 4 < > 1 3 > > > > > + > + O O O + + > 1 < O O @ # 3 + y k b k c 2 p X.I U o.X.=.=.I *.I 2 + c 0 d c k O + $ + O O O . . . O O.k.C.J.l.M.k.y.u.O 4 A.jXQ.z.Q.( #XQ.rXjXjXjX) Q.Q.E.",
"3 9 0 9 0 9 0 9 + + + + + + + + + & & & * O * & O O O O O O O O O & s 9 3 . + O + + > + + 4 > + , + + 2 4 1 + O O + . + # + . . . . . . . . . O O O k 3.N.V.k.k.B.i.i.c   = 5.H.b.H.R./ !.W.Q.Q.wXn.c.jXkXQ.kX!./ !.R.e.}.oX=.r , I.kX$XQ., J +. . .+.@. .$.T 6 > $ 3 t t t 3 1 3 O O O O O > O < 4 4 1 + + + 2 4 + + O O O O + > 4 + # g s s 9 & & & & 3 3 3 4 4 3 3 1 + $ + + y y y y y t t 4 < 3 4 0 d d d 0 9 3 # O O # & 9 4 d k k 4 3 2 4 4 4 4 4 4 4 4 3 O @ O + + 1 < < s s s s g O 1 1 + O + O + 2 > > > + + 2 2 > + O . # O + < < O < + + O O .     . s >.#.k.4.T k.k.p.C . O K H.Q.v.Q.( #X#XwXjXjXjXz.kXkXQ.",
"d d d d d d d g # + # # # # # # * & & & * O * * * * * * O O O O . @ & & d s r.f.XX X&X X X;X X(.g.v .. X&X{.(.{.^.{.h.XX'.,.+ O . X X X . . O * & O 2 I +.M.k.#.y.o...$   . 4 L p J x + ( ] ! ) Y 8 5 W ! r W K w e z k c d < O O r e.;X:XO 7 ..X.X.X.U H P P 6 > $ 3 t t 3 3 $ y + r.XX%X|.%X^.-X(.h. X<.2 I -X;X{.D.h.'.h.h.XX(.g.i + + + 3 s 9 9 9 9 y y y y c c d y 4 1 1 > k k d d d d d d 4 4 k c c c c g c d 3 < # 9 d f k c l c k 4 4 k 4 4 4 4 4 4 4 4 & & & 3 y y d d d < + + y 4 u.{..X{.XX X X-X}.D.u.v =. X@XD.(. Xh.{.h..X{.*.+ 3 3 3 & % * X X . . c X.N.Z.2.1.3.>.b     O r x r x + Q Q K ! ! ! , ! / x ",
"4 4 4 4 4 4 4 4 d 3 + O # & @ O O * * * * * * * * * O O * * * * ; s s s 1 1 i.d.i.N.N.N.N.N.N.i. X<.6.(.A.).N.S.).).).}.D.(.c + O O O O O O O O + O < l p p H p , C h .     . + k + O @ . O > + O O O . O 3 O . . . * s .   . h M O + -.[.O + w 5 2 2 2 6 p k + 1 1 1 1 1 3 3 3 + O g.u.i.A.3.y.Z.D.A.D.).U y.F.A.A.S.F.F.).).).).+X8 l > 1 1 4 3 3 3 3 4 4 4 4 4 i y y i > > i i i i i i i i i i i i i i i i k k k 4 < 4 c d 4 y i i i i i y y y y y y y y y y > 1 3 4 y y 4 4 4 4 4 4 2 , u.p.i.N.N.N.i.i.i.i.).4.1.).A.S.B.B.S.S.F.`.F.D.n y 1 $ + O O O O O . 0 p p r 7 l c g ; o o   O # @   . .   . & . . @ .   = ",
"i i i i i y d d d 3 + O @ # @ @ * * * * * * * * * * * O * * * * % - t t 2 > i.B.C.C.C.C.C.N.B.N.i.v I i.6.S.k.C.N.N.N.Z.i.d.2 + + O O O O O O O O . + 2 > > , > , > .     . . O 1 O . .   . O O . . . . . & O .       X       % 9 O < a.P.  O > + + + + > , + . 1 1 1 1 1 1 1 1 > > A.d.Z.S.4.N.N.B.N.B.S.P #.B.4.4.y.N.N.N.B.B.V._.8 p , , 4 y y y y y y y y y 4 i 4 4 y > > i y y y y y y y i 7 7 7 7 7 7 7 7 7 k 2 > 1 d d 2 i i i i i i i i 4 4 4 4 4 4 4 4 > > 3 4 4 4 4 4 7 i i p 7 6 i.i.B.C.C.N.N.B.N.N.N.P P S.V.S.C.V.C.k.C.V.N.y.7 > 3 1 + O O O O O . + 8 8 7 > , > * :       O O .           % .         % ",
"i i i i y y d d d 3 + O @ # @ O O O * O * * * * * * * * * * O O * & 3 t 2 , B.V.M.C.C.N.N.N.N.N.i.v L i.y.S.M.V.C.N.N.N.i.d.7 + + O O O O O O O & + g ,.5.u.A.A.A.3.Z =   . s n ..n b < D b -.~ -.0 n -.N -.-.S < b M M h D & . O Q R.;X].. x 2.F.Z.d.5.X.X.c + > 1 1 1 1 1 1 1 > > A.d.A.S.M.V.4.N.4.N.N.H  .N.k.M.N.N.N.N.N.B.y.i.6 6 2 , y y 4 4 4 4 4 4 4 4 2 4 4 4 4 > + y y y y y y y y y 7 7 7 7 7 7 7 7 7 4 2 > 1 0 d 3 i i i i i i i y 4 4 4 4 4 4 4 4 + > 1 4 4 4 4 2 4 i 7 7 7 2 i.p.N.N.N.N.N.N.N.N.4.P H N.M.C.C.C.C.k.M.V.y.y.i > 3 3 $ O O O O O & ,.6.N.e.5.5.5.Z A     . b N N N x N b n ,.:.N 4 m Q -.",
"4 4 4 4 4 4 3 3 s & O O @ @ @ O O O * * * * * * * * O O * O O O . $ 3 y 6 2 B.V.M.M.M.M.M.M.M.N.A.X.I Z.N.V.M.N.V.V.B.S.N.A.p + + O O O O O O O . . < n *.*.3.3.B.N.s.M . # w.}.F.R.R.^ $XR.#X#X$Xe.R.$X#X#X$X$X;.R.R.R.R.oX-.5 + F.zXzXL.O 2.7.1.+.3.6.4.D.^.r.> 1 1 1 1 1 1 2 > > d.i.N.B.k.N.N.N.N.N.N.P P N.B.B.B.B.B.B.V.Z.i.i.p 2 i 1 y y 3 < 3 3 3 3 3 3 4 y 4 4 4 > + y 4 4 y y 4 4 4 4 4 7 7 7 4 4 4 4 4 0 2 > < d d 3 4 4 4 4 4 4 4 4 4 4 4 4 4 4 4 4 $ + < 3 4 4 4 4 1 4 2 4 2 , u.u.M.M.M.M.M.N.N.N.B. .P C.k.N.k.M.V.C.N.S.N.d.k 2 3 3 & * O * * * + C P T U K U o./.a.: % n R.oXR.#XG.#X#XQ.kXjX#X7.#XjXQ.",
"4 4 4 4 4 4 4 9 9 & O O O @ @ . * * * * * * * * O O O O O O O O O & t y i 6 B.V.N.C.C.C.C.C.B.N.i.I J N.y.N.M.M.C.N.M.N.p.Z.i > + O O O O O O . # O d *...I I P H X.=.b O -.Q.F.b.E.E.] kXU.wXwXjX{ n.kXQ.Q.Q.!.( Q.E.R.R.!.v.v.) jXjXjXG.+ U H T P X.X. . ...y > > 1 1 1 1 1 1 2 2 d.i.N.N.N.N.B.B.B.B.N.P P B.B.N.N.N.N.N.N.i.g.s.c 4 d 3 3 3 3 3 3 3 3 3 4 3 t d y y d $ $ d t t t t t t t 4 4 4 4 4 4 4 4 4 d d 4 > 3 d d 3 4 4 4 4 4 4 4 4 y y y y y y y d + & 3 s d d y 4 4 y 4 4 4 1 s.u.B.C.C.N.N.B.B.N.B.$.P V.N.V.C.C.V.N.y.Z.6.u.i 3 3 & & * O O * * + C P P P J T $.3.S - s D.#X#Xv.Q.b.H.W.H.jXeXrX[ jXjX0X",
"k d k d d d d d 9 & O O O @ @ . O O O O * * * * O O O O * O O O O $ y y i 2 i.i.V.V.V.V.V.B.B.Z.3.v i i.i.B.S.S.B.N.y.y.p.g.l > + O O O O O O . O O 0 *.=.=.=.X.T 1.*.z O w.#Xb.b.H.W.R wXY.qX9XeX[ m.0X8XW.W.W.E E.U.U.n.E.z.n.kXxXeXlX#X+ Y T T P o.o. .#.3.c 1 1 1 1 1 1 1 1 4 i d.i.N.N.B.N.N.N.N.N.4.U H y.B.Z.N.N.N.i.N.p.s.r.c 4 3 3 + 3 s s s s s d d d 3 s 3 3 t + O s t t t t 3 3 3 t 4 4 4 4 4 4 3 3 0 0 3 + < d 0 < d d d d d d d d 4 4 4 4 y y 4 4 + # 3 9 s 9 3 3 y d y d y 4 f.p.B.V.B.B.B.B.Z.Z.3.J H N.N.S.V.S.S.N.i.d.6.s.k 3 3 & * O . . . O O C $.$.+.P P P o.c $ & +XH.Q.b.n.[ m.H.8X9X8X9X[ eXeX6X",
"4 4 4 3 3 3 3 3 3 # O O O @ O . * O O O O O O O O O O O O O O O . + 3 y 2 > >.>.4.4.4.4.4.4.4.3.X.k 2 6.6.i.Z.N.y.6.3.3.3.d.k + + O O O O . . . . . 3 S *.I I P P $.l < O ;.Q.Q.H.rX0XE 0X0XuX9XtXm.8XqXeXeX0XyXE 0X0XW.W.W.) { 0X1XeXxXR.+ p 4.$.P X. .P  .O.3 $ $ $ $ $ 1 1 1 1 2 <.5.3.1.4.3.3.3.3.3.I l , =.i.i.i.i.6.6.3.5.:.:.3 3 + 9 O & 3 3 3 3 3 3 3 3 + & & & & O O & 3 3 3 3 3 3 3 3 3 3 3 3 3 3 3 3 < 3 + O + 3 3 + 3 3 3 3 3 3 3 3 < < < < < < < < O O + & & & & + < 3 3 3 3 > s.<.3.4.4.3.3.3.3.5.X.6 6 3.3.y.4.N.Z.p.6.u.>.<.y 3 $ + O . . . . . O Z  .$.+.P P P 3.c O > Q.H.H.W.W.m.n.Y.eXyX8XyX[ fXeX8X",
"+ + + + + + + + 3 # O O O @ O . O O O O O O O O O O O O O O O O . O $ 1 > + ..O.L L L L L L L L b 2 + *.I I X.I X.I L I b :.> O O O O O O . . . . . 3 *.*...X.P  .$.i 4 O ;.G.H.m.8XY.E T.6X9X<X6Xm.m.8XqXqXY.eXR 8XY.c.n.W.{ b.qX9XtX8Xv.> 8 J $.X.X.X. .@.o.u $ * & $ $ $ $ 1 O + n I I v ..I X.I I ..p 7 + I =.=.X.....I I n n b + < O s O 3 O O O O O O O O O * O O * . . * 3 & 3 & & & 3 3 3 3 3 3 3 3 3 3 + + O O O # + O O O O O O O + + + + + + $ $ $ + . . O O + + + + O + + + + O *.*.L P P L L L n n I 2 , ..I X.X.X.3...I ..c n + O + O O . . . . . * ..o. .$.P #.#.X.p . q Q.H.b.n.n.c.c.m.wX0XT.yX[ qX6XT.",
"< < < < 3 < 3 3 & & & & & & & & + & + + . O $ $ & & $ & $ & & O O O 3 3 < 1 + + > > > > > > + + O O O + + + + + + + + + + + + + 1 1 O + O O + & + O + 2 , 7 8 H H a p + O w.R.b.H.8XW.R 0X8X9X<X9X} 8X9XeXeXm.eXE 0XW.n.n.W.z.c.qXqXtXrX!.+ , J H a l v a L c * * * . . . . & + + + + + + > > + + + + + + + + + + O + O + O + O $ + O + + < + O . + O . O . . . O . O . . . . . O O O O O O O O O O O * * + $ $ + + + + + + + + + O O + O O O 3 & & < & 1 1 1 < 9 & 3 s # & s O + O 4 1 + 4 O + > > > > + + + + + + + + + + + + > > > + + + + + 1 3 . & * & & & . u a a p p H P O.4 . < #Xb.W.n.U.{ n.n.wX0XW.0X[ 0XeX6X",
"< < < 3 3 < 3 3 3 3 3 & & & & & 3 t 3 & . $ t & t t t t t t t & g g D a.f.'.^.^.^.^.D.D.D.D.h.h.|.'.|.|.|.|.|.|.h.h.h.h.j.j.j.j..X/.c 3 O + & + 3 + 4 i 2 6 , 6 6 6 y O . w.#XH.H.8XW.R wX8X9X<X9Xm.8X0XeXeXm.wXE W.W.n.H.Q.z.b.8X6XtX0XE.+ > , 6 , 1 1 , 6 1 .   X X . % & ,.a.'.'.h.h.h.h.h.h.h.h.h.h.h.h.h.h.h.h.h.h.h.h.h.L.h.f.f.h.'.f.S 3 3 d + . O . . O . . . . . . . . O O O O O O O O O O * * * + & $ + + + + + + $ + # O O # O O O 3 3 < < < < < 3 3 9 & 3 9 # & 4 + g 3 <.r.s.{.h.^.D.D.(.h.h.L.L.L.|.|.|.|.{.{.{.{.h.h.h.h.h.h.h.h.{.h.g 3 O $ * * . u a 6 , , , , , + . 9 $XH.Q.c.E.z.n.n.wX0X0XwX[ eXeX8X",
"3 3 3 3 3 3 3 3 3 3 3 3 3 3 3 3 s d t t O 3 d t t t t t t 3 3 t t t Z S ,.r.,.<.:.:.:.:.:.:.:.*.*.S *.*.*.*.*.*.S S S S S S S S :.:.y y 3 d d + 1 + k I L P H H H O.Z & . -.D.G.H.Q.W.R wXW.qX<XqXm.8X0XeXeXn.wXE Q.E.n.H.Q.z.b.8Xm.tX0XR.O 5 7 6 p n O.O.L i O   X . . * * D a.:.:.:.:.:.:.:.:.:.*.-.*.-.-.*.*.-.-.-.-.-.-.-.:.*.C C ,.s.:.4 O d d + O O . . O . . . . . . . . . . O . . . . O O O O * * * + $ + + + + $ $ $ $ # O O # O O O 3 3 3 3 4 4 4 4 4 3 & 3 9 < < 3 3 y > C *...u.:.<.=.=.:.:.:.*.*.-.S S *.*.*.*.*.*.................*.*.4 y t d t O * Z O.H l l H P I y . < #Xb.U.n.H.z.H.n.eXrX8XeX| tXtX9X",
"3 3 3 3 3 3 4 3 3 3 3 3 3 3 3 3 d d y t O 3 d t 3 $ 3 $ 3 $ + d + + y y c C n C n n n n n n n n n n n n n n n n *.*.*.*.*.*.*.*...C 1 > $ + $ + 4 1 =.g.S.).F._._.).{.S + a.}.F.H.Q.W.R wXW.qX<XqXm.8X0XeXjXn.wXE Q.E.n.H.Q.z.b.yX<X9X0XI.+ ;.5.Z.A. XXX`.+X(.S O @ . * $ O d c n n n n n n n n C n n n n C n n *.*.*.*.*.*.*.*.<.=.I I I k > + 1 + O O O O . . . . . . . . . . . . . . . . . O O O O * * * + + + + + + + + + + # O O # O O O 3 3 4 4 4 4 4 4 4 4 > 3 3 1 1 1 y + + 4 k p ..O.O.I I n n n n n n n n n n n I I I ..*.*.*.*.*.X.X.>...2 1 > $ 1 O Z f._.S.F.F.`.#X).r.O # R.z.U.W.H.z.H.n.rXrX8XeX| tXtX2X",
"2 3 4 4 4 4 4 4 3 3 3 < < < < < t y t 3 O 1 y 3 1 1 3 $ 3 $ O Z ..O...v p i > > 6 6 6 6 6 6 6 6 , , , , > > , > > > > > > > > > v a p C c + 1 y > + v 3.4.4.#.#.#.4.u.d . -.G.b.H.Q.W.R wXY.qX<XqXm.8X0XeXeXn.wXE W.E.n.H.Q.z.b.tX<XeXwXR.> 2.A.N.p.u.3.+.4.i.S . . . g Z b C O.6 6 6 6 6 6 6 6 7 7 7 7 7 7 7 7 > > > > > > > > > > , 6 p L ..>.k + + O O O   . . O . . . . * * * * * * * * * O O O O * O * + $ + + + + + + + + + O O + O O + 3 < 3 3 1 1 2 2 2 4 > y 4 2 1 > n =.v ..L 7 6 2 > 6 6 6 6 6 7 2 2 > > , , , , , , > > > , , , , , L v p O.v $ 1 y u ,.y.4.4.4.1.6.d.<.O 9 #XH.n.Q.Y.z.n.m.eX9X8XeX| tXtX2X",
"4 4 4 4 4 4 4 4 1 1 1 1 1 1 1 1 3 t 3 1 O $ 3 3 y 3 d 3 u 3 + <.+X`.=X`.+X=X X+XOXOXOXOXOXOXOXOX=X=X@X@X@X@X@X@X+X+X+X+X+X+X+X+X+XXX&X>X Xy > 1 2 , I y.4.M.#.#.k.4.5.z + w.Q.n.H.8XW.E 0XY.qX<XqX} 8X0XeXeXm.wXE W.W.n.n.W.z.c.qX<XtXeXQ.> K 3.y.4.y.3.$.k.6.I + + $ f. XXX}.).OXOX`.OXOXOXOXOXOXOXOXOXOXOXOXOX+X+X+X+X+X+X+X+XOX=XzX*X=X@X&X*Xu.2 > + O O   @ . O . . . . * * * * * * * * O * O O O * O O + + + + + + + + + + + O O + O O + 3 1 1 1 1 2 2 2 2 4 > i 2 2 , > X. X).+X@XOX@X*X+XOXOXOXOXOXOX}.}.@X@X@X=X=X=X=X=X X X X+XOX+X+X@X+X`.=X;X(.2 > > d r.N.k.N.4.#.k.1.*.. 3 #XH.b.U.Y.{ n.m.wX0X8XeX[ eXeX9X",
"2 2 4 4 4 4 4 4 4 4 4 4 4 4 4 4 3 t 1 1 O $ 3 3 y 3 d 1 u t + u.V.C.V.M.y.y.@.y.N.N.N.N.N.N.N.N.N.N.N.N.N.N.i.i.N.N.N.N.N.N.N.N.B.p.p.p.>.> , y , > J 3.4.M.&.k.k.7.( w + 9.E.z.H.8XY.R 0XT.qX<X9X} 6XqXeXeXm.eXE 8XY.m.m.W.{ m.6X<XtXrXQ.> J $.#.@.4.y.&.k.1.p O O O :.i.i.y.N.N.N.N.N.N.N.N.N.N.N.N.N.N.N.N.N.N.N.N.N.N.N.N.N.@.4.N.N.N.y.p.p.g., > + O O   % . . . . . * * * * * * * * * * * O O O O O O + + + + + + $ $ $ + + O O + O O + 3 3 4 4 4 4 4 2 2 4 > i 2 2 , > 3.A.i.i.N.4.4.i.3.N.N.N.N.N.N.i.i.i.i.N.N.N.N.N.N.i.i.i.i.N.N.V.V.B.y.3.3.o.> , y 1 ..k.k.l.l.k.k.4.<.O < H.b.z.U.U.{ I.c.Q.W.W.0X[ 0XqX6X",
"3 3 4 4 4 4 y 4 y y y y y y y y t t 3 3 O 1 t 3 3 $ t + 3 $ O u.d.y.B.y.M.A.B.A.N.N.N.N.N.N.N.N.N.N.N.N.i.i.d.i.i.N.N.N.N.N.N.i.p.u.p.p.u.2 2 + 2 > L 3.4.y.4.k.7.) ! 5 + e.Q.b.H.W.W.R wXY.qX<XqX} 8X9XeXeXm.eXK.8XW.m.n.W.z.b.8X8XrXH.#X> L i.3.3.p.y.4.k.4.l + + + r.u.3.y.A.B.N.N.N.N.N.N.N.N.N.N.N.N.N.N.N.N.N.N.N.N.N.i.i.N.i.B.Z.D.D.A.i.>.+ + + O @   . O O . . . . * * * * * * . . . . . O O O O O O * O + + + + + + O + O O + + O + 3 y y y y y y i i 4 > i 2 2 , > 5.d.p.i.Z.p.i._.B.B.N.N.N.N.i.i.i.i.N.N.N.N.N.N.N.i.i.i.i.i.i.B.B.B.p.i.u.u.2 4 > > O.4.4.4.4.#.4.3.5.O 4 @XH.z.E.E.' I.I.!.Q.W.Q.) 0XwXY.",
". s s t d y 2 c t 3 3 3 3 3 4 4 3 & + O O + $ & - % % - $ t + C n O.O...=.=.>.>.>.>.>.>.>.>.=.=.5.:.n S r.,.S S :.<.u.5.>...*.:.,.:.C n k 4 1 $ 4 1 y c v k v ..n m m < O ~ #Xv.G.G.Q.( $Xv.Q.Q.eXH.1XjXjX1X1XjX[ wXQ.n.b.jXG.b.$XR.$X#XoX+ 7 I i k c v v v p i O > 1 y *.:.S r.r.:.:.<.r.r.r.r.u.5.5.<.>.=.=.*.<.>.=.*.*.=.>.<.r.*.,.h.:.*.C :.y 3 + . .     . O O * . . . . * . . $ O @ X   X   . * * * O O O * * * O O O O O * & $ + O O O + & j j & $ 1 2 2 2 2 2 2 2 5 2 2 *.*.*.*.*.*.=.=.3.u...:.,.S <.S <.3.3.3.3.>.>.=.,.,.,.:.:.>.>.>.<.,.<.<.n > + < . s b c l v I I b n + + h.@XG.#Xv.x.E.U.E.!.Q.!.) kXQ.kX",
"  % & O + > 1 1 t t t t t y y y 3 & + O O + + $ & . * % s t + 4 y y k k c c b b c c c k k 4 4 4 4 y d g b F h g Z c 4 4 i c b b n b c d y < > $ + O + 1 y d c c # 9 c < + n j.e.d.e.G.! R.e.R.R.b.l.l.Q.#XH.E.kXY F.Q.G.G.e.w.j.XXoX:XR.h.+ 4 4 4 4 y y y y y y O O O + s t s D h h g d g b g 3 y y 4 y 4 k k k 4 0 k c c k d y 3 g 3 t D c t Z 1 $ O . . . . . . O . . . . . . O O O . . X     @ O . . O * * * * * * * O O * * O . O O O O O . . % % O $ t 1 + + + + + + + + + k k k k k k k k i n k g g s g c c c l p i 7 4 4 d d d y 7 7 7 7 l 4 4 c 0 + O 3 @ - g d 4 4 7 y 4 c # < ,.<.I 2.) ! 7.) z.b.z.G.! #X$X#X",
".   . + 1 i 2 O O O O O O O + O + O O + $ 1 y g O . . . O O $ > k k c c b n n n n n c 7 , > + + + > + . . . O O O O + + + + O O + O O O O O O O O + > 3 y 4 + O O O + O O 1 7 5 , , , > 5 , 5 w 5 + O + + O O O + + . . @     . O O + + + + + + 4 4 2 2 2 2 4 y i y y d t . . $ . . . O O + + + + + + > 1 2 2 4 1 , 2 4 4 2 , 1 + O O O + O $ Z Z c d s s s g h d u s s s s s s 1 y 3 * . . X   . O & s t & O O . . . . O O O O h h b Z C c 3 O * % . . & :.f.h.<.<.<.<.<.<.<.<.I ..I *.*.*.*.*...c > O . . . O > > 2 p l L ..*.*.*.*.*.*.*.*.*.c 4 2 d 4 O O . . . . O O + + > O > < 3 x c 7 r r r r 8 8 8 , 5 + + > + ",
"X . & a.|.(.(.f.|.|.].].|.|.|.|..X|.{.(.(.|..X.XD & * O s S ^.|.(.{.{.{.{. X X X X X X X X X X X(.g.s.S + . . O b *.d.(.{.(.(.{.{.{.{.|.|.XXXXXX{.|.|.|.XX{.<.y . . O d j.{.{.R.}.}.).F.R.}.}.XX.XL.L.].].P.P.].P.F X   X     = a.j.h.R.R.{.{.D. X X{.(.(.{. XXX X.XXX%X/.C $ O O O g t.f.r.f.^.s.d.g.h.D.{. X X X X{.(.(.{. X|.Z O + O O y ^.|..X|.|.'.].|..X%X|.|.].].].].].].^..X^.f.g . X   & S '.:X.X'.^.|.].].].].'.'.'.'.'.|.%X-X-X.Xh.t.. . . & a..X X&X X X{.{.{.{.{.{.{.}.{.{.{.{. X X&Xh.S O . O . < {.{.}.}.}.}.}.|..X.X.X X X X+X X(.D.h.h.h.<.d O . . O 4 k c ..5.f.h.{.XXoX X}.}.}.R.}.}.}.}.}. Xf.2 O O ",
". O D .X X(.XX&Xh.f.f.f.g.d.d.d.|.|.(.(.(.^.^./..XD . . t s.h.p.5.5.5.5.5.5.5.5.....=.=.>.5.5.u.u.u.g.j.S O O O ^.(.g.u.X.....*.u.s.s.f.h.h.(.(.{.(.f.u.g.(.g.,.3 O + Z h.f.:...3.>.X.1.U >.1.<.,.D ,.a.f.f./.'.].].a.*     A a.|.}.R.}.}.}.(.(.(.D.g.g.g.g.(.(.(.|.%X%XXXh.b O O c ^..X{.g.u.>...*.=.=.=.>.>.>.<.>.=.=.*.=.>.<.'.h O O > s.XX{.(.(.(.^.{.|..X.X|.|.|.|.|.].|.|.{.%X|..X,.. . . r.^.%X.X^.f.^.%Xf.f.f.f.f.f.f.f.,.r.r.u.u.s.f.h.O . O S {.^.>.3.>.>.>.<.>.>.>.>.>.>.>.<.<.<.5.5.(.h.f.3 . O & a.^.D.g.i.u.3.>.*.=.=.=.=.=.=.=.=.>.u.u.<.5.s.b O . O c f.}. X@X;X{.D.R.L.j.d.d.5.5.5.5.p.d.g.h.h..X:.. O ",
"O g ,.<.O.O.o.>.>.>.,.,.>.>.>.>.>.:.>.>.>.>.>.,..Xj.. . y r.>.L X.X.X.X.X.X.....3.>.>.>.=.=.X.X.L ..:.f.s.3 + n s.3.X.I X.3.u.p.O.O.....=.:.>.>.>.=.I I =.5.<.:.+ O 3 :.r.<.:.>.5.=.=.1.I =.5.>.:.:.>.>.t.t.r.t.r./.^.h . . D '.=.L X.1.5.6.>.u.=.=.X.X.X.o.>.>.d.h.(.h.^.{.<.$ 1 f.%Xh.>.>.>.p >.=.=.=.=.=.=.=...X.=.>.>.=.X...j.j.O O c r.c *.........o.:.>.>.>.>.>.:.:.:.:.>.O.O.O.u.r.1 . + |.(.h.u.>.:.>.r.>.>.>.>.>.>.>.>.C :.<.>.>.>.u.f.D + O b r.*.O.3.X.=.X.*.X.X.X.X.X.X.X.=.=.=.=.=.I *.<.g . . 9 ,.......X.o.=.>.>.........X.X.X.X.U =.X.v ..<.*.< . 3 s. X+XD.d.d.u.:.*.Q Q *.=.U >.r.>.>.>.:.r.:.C ,.O . ",
"O h *.O...>.>.o.>.>.>.>.>.>.3.3.u.>.3.>.>.o.....C ,.O O Z >.3.3.3.3.3.3.3.=.=.=.X.X.X.X.=.=.=.1.3.p.=.*.,.1 O b >.>.o.+.3.3.>...=.=.=.=.=.>.>.>.>.=.=.3.5.>.=.:.3 O 3 :.:.*.>.>.p.=.3.1.X.X.6.=.@.@.@.@.@.y.y.y.%.o.p.O.+ u t.>.3.U 3.X.=.=.X.3.=.=.3.3.3.3.>.=.3.X.X...O.:.C + 4 >.u.O.l >.p.X.=.=.=.=.=.o.o.o.X.X.=.=.=.=.X.I D j.t O :.u.n u.X.o.o.o.>.>.>.o.@.3.>.>.>.>.>.>.>.3.X.>.f.c . t >.X.O...o.>.>.>.X.o.o.o.X.X.X.X...:.>.>.>.>...C *.O $ ,.r.>.3.3.3.3.3.=.=.=.=.=.X.X.X.X.o.o.o.=.X.*.:.S + + b C *.=.o.o.o.>.>.>.=.=.=.=.1.1.1.1.3.3.X.I *.:.*.c $ S ^.{.d.=.X.X.=.=.....>.5.4.6.O.>.O.>.>.:.u.>.Z t.h * ",
". c ,.>.3.X. .u.X.o.o.o.o.X.X.X.L O...o.>.3.>.>.:.a.$ O <.>.3.o.1.1.=.o.o.X.X.X.3.3.3.3.3.3.1.1.L y.X...r.k + n v X.3.4.3.o.=.>.>.>.3.>.=.=.=.=.6.=.X.=.X.I X.u.Z + t ,.,.>.u...y.O.3.X.O.L 3.X.@.#.#.@.@.#.#.@.B. .@.3.> Z u.C 3.X.i.X.=.1.=.3.X.X.1.3.3.1.X.X.3.X.o.>...>.>.k v O.>.>.3.3.>.X.1.1.1.3.3.3.3.3.3.3.=.o.o.=.3.3.r.D 3 O C r.>.O.>.3.3.3.3.3.@.@.@.@.3.>.>.>.>.3.@.y.y.O.u.n O n >.3.3.>.X.X.X.o.o.o.o.o.o.o.o.>.>.:...X.>.3.>.:.Z O 1 ,.:.X.3.o.1.=.o.o.o.o.o.o.3.3.3.3.3.3.3.3.O...*.:.O O ,.*.*.=.o.+.+.=.>.=.=.=.=.=.1.1.+.+.3.X.X.3.u.<.=.*.+ Z s.<.L L 1.y.X.>.=.*.>.=.U 1.u.p.>.>.>.O.>.C t.t.h O ",
"O b :.X.3.3.@.o.>.>.>.>.>.>.@.@.>.>.>.@.@.>.>.>.<.*.+ + ..>.>.3.1.1.1.1.1.1.1.1.1.1.1.1.1.1.1.1.3.@.>.:.,.4 + *.>.>.@.@.@.@.>.>.=.=.=.=.1.=.=.=.=.=.=.=.=.=.=.>.d O g t...:.>.>.o.o.>.3.>.>.=.=.+.+.+.+.+.+.@.@.3.X.3.>.+ 2 ,.>.>.1.@.1.1.1.1.1.1.1.1.1.1.1.1.1.@.3.o.3.>.>...> 6 >.>.>.3.o.3.3.1.1.1.1.1.1.1.1.1.1.1.1.1.1.1.=.:.,.d O n :.>.=.@.@.@.@.@.@.@.@.@.@.@.3.>.>.3.@.@.@.$.+.>.*.O 4 >.@.+.@.@.3.3.3.@.@.@.@.@.@.@.>.>.>.>.>.>.>.>.>...O 4 :.>.=.+.@.1.1.1.1.1.1.1.1.1.1.1.1.1.1.1.=.o.>.*.*.$ O ,.:.:.>.@.@.@.>.>.>.=.=.1.1.1.+.+.+.+.X.X.=.=.5.=.4 O S :.>.3.o.3.+.=.=.=.=.=.=.+.+.1.=.1.1.1.1.>.>.>.:.b . ",
"O b :.X.3.4.@.+.>.>.>.>.>.@.@.@.>.>.@.@.@.@.>.>.:.:.+ + ..>.@.3.1.1.1.1.1.1.1.1.1.1.1.1.1.1.1.1.3.@.>.>.:.4 + *.>.>.@.@.@.@.o.>.=.=.=.1.=.=.=.=.=.=.=.=.=.=.=.>.d O c t...:.>.>.>.o.o.3.=.>.=.=.=.1.1.=.1.1.=.=.3...>.*.O 1 :.:.>.@.@.@.@.1.1.1.1.1.1.1.1.1.1.1.+.@.o.3.3.>...> 6 >.>.>.3.o.3.3.1.1.1.1.1.1.1.1.1.1.1.1.1.1.1.=.:.,.d O n >.>.o.@.@.@.@.@.@.@.@.@.@.@.@.3.>.@.@.@.@.$.o.>.*.O 4 >.+.@.@.@.3.3.3.@.@.@.@.@.@.@.@.>.>.>.>.@.>.>.>...+ 4 :.>.o.+.@.+.1.1.1.1.1.1.1.1.1.1.1.1.1.1.1.o.>.=.*.> O :.:.>.>.@.@.@.@.>.>.=.=.1.1.+.+.+.+.+.X.X.=.=.5.=.4 O S :.>.3.o.3.+.=.=.=.=.=.1.+.+.1.1.1.+.+.+.+.1.3.*.n O ",
"O b :.X.1.4.+.+.1.=.=.=.o.+.+.+.1.=.1.+.+.+.o.=.,.*.+ + I =.1.3.1.1.1.1.1.1.1.1.1.1.1.1.1.1.1.1.@.+.>.>.:.4 + *.>.>.@.@.@.@.o.>.=.1.1.1.1.1.1.1.1.1.1.1.1.1.1.=.d O c <...:.>.>.>.>.@.@.>.=.=.=.! ! =.=.=.=.=.*.>.*.,.N O + *.*.>.@.@.@.@.@.1.1.1.1.1.1.1.1.1.1.+.1.o.3.=.=...> 2 =.>.=.3.X.1.3.1.1.1.1.1.1.1.1.1.1.1.1.1.1.1.=.:.,.d O n >.>.o.1.+.+.+.+.+.+.+.+.+.+.+.o.=.1.+.+.+.$.X.1.*.O 2 =.+.+.+.+.3.1.1.+.+.+.+.+.+.+.1.=.=.=.o.1.1.=.=...+ 2 =.=.=.+.+.+.1.1.1.1.1.1.1.1.1.1.1.1.1.1.1.o.>.=.*.> + :.:.>.>.@.@.@.@.>.>.=.=.=.=.+.+.+.+.1.X.o.=.=.5.=.4 O C :.>.@.o.3.+.=.=.=.=.=.1.+.+.1.1.1.+.+.+.+.+.3.*.b O ",
"O b :.X.1.4.+.+.1.=.=.=.o.+.+.+.1.=.1.+.+.+.=.=.:.*.+ + I =.+.3.1.1.1.1.1.1.1.1.1.1.1.1.1.1.1.1.3.+.>.:.:.4 + *.>.>.@.@.@.@.o.=.=.1.1.1.1.1.1.1.1.1.1.1.1.1.1.=.d O c <...o.>.3.>.>.@.1.1.1.=.=.=.! =.=.=.=.=.=.=.*.<.b O + S :.>.@.@.@.@.@.1.1.1.1.1.1.1.1.1.1.+.+.o.3.=.=...> 2 =.>.=.3.X.+.1.1.1.1.1.1.1.1.1.1.1.1.1.1.1.1.=.:.-.0 O n =.>.o.1.+.+.+.+.+.+.+.+.+.+.o.=.=.=.1.+.+.$.X.=.*.O 2 =.o.+.1.+.1.1.1.+.+.+.1.+.1.+.1.=.=.=.o.+.1.=.=...+ 2 =.=.=.+.+.+.1.1.1.1.1.1.1.1.1.1.1.1.1.1.1.o.3.=.*.> + ,.:.>.>.@.@.@.@.@.>.=.=.=.=.1.+.+.+.1.X.o.=.=.>...2 O S :.>.3.o.3.+.=.=.=.=.=.1.+.+.1.=.1.+.+.+.+.+.3.=.n O ",
"O b :.X.1.4.+.+.1.=.=.=.=.1.+.+.=.=.1.+.+.+.=.=.=.*.+ + I =.+.1.1.=.=.=.1.1.1.1.=.1.1.=.=.=.=.1.@.+.>.:.:.4 + ..>.>.@.+.@.>.>.=.=.=.1.1.=.=.1.=.=.=.=.=.=.=.=.=.y O c <.*.>.>.3.>.+.+.+.+.1.1.=.1.1.1.1.1.1.1.+.X.X.3.l + > S :.>.@.@.o.>.>.1.1.=.=.=.=.=.=.=.1.+.+.X.3.=.=...> 2 =.=.=.1.X.+.1.1.=.=.=.=.=.1.=.1.=.=.=.=.=.=.=.:.,.d + v =.=.X.1.1.+.+.+.1.1.+.+.+.1.=.=.=.=.=.1.+.+.X.=.*.O 2 =.o.+.=.1.1.1.1.1.=.1.=.1.=.1.=.=.=.=.=.+.1.=.=.*.+ 2 =.=.1.+.1.1.=.1.1.=.=.=.=.1.=.=.=.=.=.=.=.@.3.>.*.> + ,.:.>.@.@.@.@.+.+.o.=.=.1.=.1.1.+.+.3.X.o.=.X.>...1 O S :.>.3.X.1.X.=.=.=.=.=.=.1.1.=.=.=.1.+.+.+.+.3.=.n O ",
"O b ,.X.1.4.+.+.1.=.=.=.=.1.+.+.=.=.=.+.+.+.=.=.=.*.+ + I =.o.1.=.=.=.=.=.=.1.1.=.1.1.1.=.=.=.=.@.o.>.:.:.4 + ..>.>.+.+.@.>.>.=.=.=.1.1.1.1.=.=.1.=.=.=.=.=.=.=.y O k <.*.=.>.3.=.1.1.1.+.+.1.1.1.+.+.+.+.+.+.+.X.o.3.p + + C :.>.@.@.o.>.=.1.1.=.=.=.=.=.1.=.=.X.+.X.1.=.=...> 2 =.=.=.1.X.+.1.=.=.=.=.=.=.=.=.1.=.=.=.=.=.=.=.:.:.4 + v =.=.X.=.1.1.1.1.=.=.=.+.+.1.=.=.=.=.=.1.+.+.X.=.*.O 3 =.=.o.=.=.=.1.=.=.=.=.=.=.=.1.=.=.=.=.=.1.1.=.=.*.+ 2 =.>.=.1.1.1.=.1.1.=.=.=.=.1.1.=.=.=.=.=.=.@.3.>.:.> + ,.:.>.@.@.@.@.+.@.o.=.=.=.=.1.1.+.1.3.o.=.=...=.I 1 O S ,.>.>.X.1.X.=.=.=.=.=.=.1.1.=.=.=.=.>.@.@.@.3.>.Z O ",
"O b ,.X.1.3.+.+.=.=.=.=.=.1.+.+.=.=.=.1.+.1.=.=.=.*.+ + I =.+.1.=.=.=.=.=.=.=.=.=.=.=.=.=.=.=.=.@.o.=.:.:.4 O ..>.>.o.+.@.>.>.=.=.=.1.=.1.1.1.=.=.=.1.=.=.=.=.=.d O c <.*.=.=.3.=.+.1.1.1.1.=.=.=.=.=.3.>.>.>.>...o.r.y $ + Z :.>.o.>.>.>.>.=.=.=.=.=.=.=.=.=.=.X.o.X.1.=.=...> 2 =.=.=.1.X.+.1.=.=.=.=.=.=.=.=.=.=.=.=.=.=.=.=.:.:.4 + v =.=.X.=.=.=.=.=.=.=.=.+.1.=.=.=.=.=.=.1.1.o.X.=.*.O 3 =.=.=.=.=.=.=.=.=.=.=.=.=.=.=.=.=.=.=.=.1.=.=.=.*.+ 4 :.>.=.1.3.=.=.=.=.=.=.=.=.=.=.=.=.=.=.=.=.3.3.>.:.> + ,.:.>.@.@.@.@.@.@.>.=.=.=.=.=.=.1.1.3.o.=.=...=.n > O S ,.>.>.o.1.X.=.=.*.*.=.=.1.=.:.:.:.>.>.>.o.o.3.:.Z O ",
"O b :.X.>.3.@.o.>.=.>.=.>.1.@.+.>.=.>.=.>.=.>.=.:.*.+ + I =.o.1.=.=.=.=.=.=.=.=.=.=.1.=.1.=.=.=.@.o.=.>.:.4 O C :.>.>.o.>.>.>.=.1.=.=.=.1.1.1.=.=.=.1.1.1.=.=.=.d O c <.*.=.=.3.1.+.+.+.1.1.=.=.=.>.>.>.>.>.>.>...o.r.y $ + Z :.>.o.o.>.>.>.1.>.1.=.=.=.1.=.1.=.o.o.X.3.=.X...> 2 =.>.=.>.X.+.1.=.=.=.=.1.=.1.=.1.=.=.=.=.=.=.=.:.:.i + v =.>.X.>.=.>.=.>.=.>.=.@.1.>.=.>.=.>.=.3.=.o.X.:.*.O 3 =.=.=.=.=.=.=.=.=.=.=.=.=.=.=.=.=.=.>.=.>.=.>.=.*.+ 4 ,.>.>.3.3.=.=.1.=.1.=.=.=.1.=.1.=.+.=.=.=.3.3.>.>.> + >.:.>.>.@.@.@.@.@.>.>.=.=.=.=.=.1.1.3.o.=.=...=.n > O S ,.:.>.X.1.X.=.=.=.=.=.=.1.=.=.:.:.>.>.>.>.>.t.:.Z O ",
"+ y *.<.>.X.o.3.@.o.o.o.@.@.@.>.o.>.>.>.>.>.>.:.>.k > > l =.3.o.o.o.o.o.o.o.o.o.o.o.o.o.o.o.o.o.3.X.o.>.c + > c *.*.>.>.3.3.+.o.3.3.3.3.3.3.3.3.X.+.3.3.3.3.3.=.4 O 3 :.<.>.3.3.3.1.1.1.1.1.1.1.o.+.o.o.o.o.o.o.>.>.:.i $ > c r.>.3.3.3.3.3.3.3.@.=.1.=.1.1.1.1.+.+.3.3.>...i 1 3 k ..>.3.@.X.X.o.o.o.o.o.o.o.o.3.3.3.3.3.>.@.>.:.c > > i ..>.3.3.3.3.3.3.3.3.3.>.>.>.>.>.>.@.@.3.3.3.>...k < + ..>.3.>.X.X.o.3.o.o.o.o.o.o.o.o.@.@.@.o.o.X.X...c 1 2 C >...X.p.3.3.3.3.3.3.3.3.+.o.+.o.@.>.3.3.>.y.>.v , , v 3.>.o.o.o.o.o.o.=.>.>.>.>.3.3.3.3.X.X.=.>.>...k 2 + d *.<.=.O.X.>.>.>.>.1.3.1.3.1.>.=.>.>.>.o.o.>.>.C u * ",
"O 3 C ,.:.>.>.p.3.3.3.3.3.3.3.3.>.>.>.>.:.:.>.,.n 4 + + p ..>.>.3.3.3.3.3.3.3.3.3.3.3.3.3.3.3.3.y.@.>.>.k + + 4 S *.:.:.3.3.@.+.+.o.o.o.o.o.o.o.3.3.3.3.o.X.O.L > O > C *...=.>.3.3.3.3.3.3.>.3.+.+.+.o.o.=.=.=.>.<.*.y + + 4 ..3.3.3.3.3.3.3.3.3.3.3.3.3.3.3.3.@.@.3.>.>.C y > $ y C >.3.3.3.3.3.3.3.3.3.3.3.3.>.>.o.o.o.X.X.X.C y > > y C ....o.o.o.o.@.@.@.@.3.>.3.3.3.3.3.3.3.>.>...c y + O l O.3.3.3.3.3.3.3.3.3.3.3.3.3.3.3.3.3.>.>.>.>.*.y + > c ..O...u.>.>.>.o.o.o.o.o.3.3.3.3.3.3.3.3.>.u.>.l > > i O.>.>.>.>.>.>.>.>.*.*.=.=.=.=.=.=.3.3.3.3.>...i > + 4 S <.:.>.3.p.3.3.3.3.3.3.3.3.3.>.>.>.>.>.>.>.*.n y + ",
"O $ c C C C ..>.v v v v v v v v p i i i y y y d c > O + y C ..O.=.=.=.=.=.=.=.X.=.=.=.=.=.=.=.X.3.X.O...i + O < b Z S *.=.X.X.O.L v v v v v v v I I O.I L v p i + . + c n c c v O.O.O.O.O.O.O.O.O.X.X.O.O.........*.n 3 O O 1 c n v v v v v L v v v v v v v v L O.L O.....b y + + t b *.>.o.o.o.>.>.=.=.=.=.=.=.I L L v v v v c d < + $ y c c c v v v v O.L O.O.O.O.O.O.O.O.O.O.L C n c d 3 + O i v ..>.>.X.....=.=.=.=.=.=.=.X.X.X.X...O...C C 4 + + y n c c ..I I L L L v v v ........X.X.X.=...*.O.y + + , c v v v v v v v v c c k k l l l l =.=.*.*.*.b 4 + O 3 n *.*.*.=.3.X.o.o.o.o.o.X.X.................C c t O ",
". + s g d y y k y y y y y y y y i k k d d d d g g 3 O O 1 d c k c k k k k k k k k k k k k k k k v k k c 4 + O 3 g g c b n c l l i i i i i i i i 4 4 i k k i i y & O + d c d y y k k k k k k k k l l l c c c c c k c d + O O 3 c 4 4 4 4 4 4 4 4 4 4 4 4 4 4 4 4 i 7 i k c d 3 + + 3 g b c c a l l c c c c c c c k k i i i y y y t $ + + 1 y d k y i i i i p p p i i i i i i i i i y d d y 3 + O c c n c k k k c k k k k c k k k v v l c c c c g t $ + 3 d y y k k k k k i i i i i i i k k k k k k c k 1 + + 4 c y y y y y y y y y y y y y y y y k k k c b c 3 + O & g b c k k l p p p p p k l k i i i i i i i d c d & O ",
". % - s s t t y d d d k k d d d y u d s s s s s j & O O $ t u y d d y d y d y d y d y d y d y y y 4 4 t & O O % s j g g c c k y y d y d y d y d 3 y y d k d y t * O O & g d y d y y y y y y y y d k k d k d d d t s t & O O & g g k k d k k k c k k k k k d k k y y y y d t * . * & g g g y y i k d k d k d k d k d y d y y y y s & O . O & s g d u y y y y i d y y y y y y y y d d d s & & * O d c c c y y d c y d y d y d y y c c c c d d d s $ O O & s d d d d d d d d d y d y y y y y y y y u d y $ O O 1 d d d d d g d d d g g g g g g c c d y d d g d 3 * O + 3 d d y y y i i i i i y y y 4 4 4 4 y y y t u t * . ",
". X % - s j s d d d d s d d d s d d j j j s s s % . . . * t s d g g g g g g g g g g g g g g g g y 3 & & * . .   = - s j g d d y d d d d d d d d g g g g g s 3 & . .   . s j s g d d d s s s d s d d d d d d s j s s & % . . . * g d d d d d d d g g g g g g g d b c d s s % .   . % - j s d g c g g g g g g g g g g g g d d d s - % . . . * & s s s s d d d d d g g g g g g g g g g s % * .   . O 3 g h h g g g g g g g g g g g g d d d s s s s . . . * - g h h g g g g g g g g g g g g g g g g j s t $ O . O $ j j d s g j j j - - s s s t t t b g s j j & @ . . O & 3 s d d k c c c c c c c g d d d d d d d g & & X . ",
"    X % % % % & * O O * * * * * . . . . .       X       . % % & & & & & & & & & & & & & & & & & & & * O . .     X X % % % & & + & & & & & & & & & & & & & * O .         % % @ & & & & & & & & & & & & & & & & % % % @ . .     . * * * * * * * * * * * * * * * * s 3 & & % %         @ % % & & s & & - - & & & & & & & & & & & & X X .     . * % % & & & & & & & - - - - - - - - % % * . .       . O & s & & & & & & & & & & & & & & & & % % % %       . * % - % & & & & & & & & & & & & & & s - & % * . . . . . * * * * * * * * . . . . . O O O s & & % % * .   . . O & 3 t y t t t t t t t t t 3 3 3 3 3 3 3 & * X . . ",
"        .   . . . . . . . . . . . . . . .       X         . . . . . . . . . . . . . . .     . . O . . . . . X         . . . . . .   . . . . . . . . . . . .     X X     . . . . . . . . . . . . . . . . . . . .                 . . . . . . . . . . . . . . . . . . .   . .               . . . . . . . . . . . . . . . . . .                 .     . . . . . . . . . . . .                 X X   . . . . . . . . . . .         . . . . .               . X .   . . . . . . . . . . . . . . . . . .         . . . . . . . . .           . . . . . . .   .       . . . O * * O O O O O O O O O O . . . . . . . . . . .   "
};
