/* XPM */
static const char *xpm_[] = {
/* columns rows colors chars-per-pixel */
"480 270 256 2 ",
"   c #060201",
".  c #0C0201",
"X  c #0B0A0C",
"o  c #090808",
"O  c #130302",
"+  c #1B0303",
"@  c #140905",
"#  c #1B0A05",
"$  c #160609",
"%  c #1B0609",
"&  c #150A09",
"*  c #1C0B0B",
"=  c #1D110B",
"-  c #191308",
";  c #1C0D11",
":  c #181717",
">  c #0C1012",
",  c #220404",
"<  c #220A06",
"1  c #22060A",
"2  c #230C0C",
"3  c #2A0C0D",
"4  c #290707",
"5  c #25120D",
"6  c #2A130E",
"7  c #281709",
"8  c #34170B",
"9  c #240D11",
"0  c #2C0E13",
"q  c #2E0F18",
"w  c #310E14",
"e  c #350E16",
"r  c #251112",
"t  c #2C1214",
"y  c #2D1A14",
"u  c #2D1419",
"i  c #2D191A",
"p  c #251A15",
"a  c #321315",
"s  c #3A1316",
"d  c #341B14",
"f  c #3A1D15",
"g  c #341519",
"h  c #3B151A",
"j  c #351A1A",
"k  c #3C1B1B",
"l  c #310D0C",
"z  c #3B2116",
"x  c #3D231A",
"c  c #362417",
"v  c #2F2413",
"b  c #1C1E22",
"n  c #3D1D21",
"m  c #361B20",
"M  c #291A21",
"N  c #1C2424",
"B  c #3C2223",
"V  c #3A2825",
"C  c #2A2825",
"Z  c #1C231D",
"A  c #43151C",
"S  c #4A151C",
"D  c #421C1D",
"F  c #4B191E",
"G  c #421716",
"H  c #48170F",
"J  c #422516",
"K  c #44231D",
"L  c #49241E",
"P  c #442A1B",
"I  c #4A2C1D",
"U  c #462916",
"Y  c #542C1D",
"T  c #4D321D",
"R  c #46311B",
"E  c #52331E",
"W  c #5A361D",
"Q  c #4C2209",
"!  c #6A351C",
"~  c #441C21",
"^  c #4C1D24",
"/  c #4F1F29",
"(  c #481720",
")  c #501F26",
"_  c #5B1E26",
"`  c #521F29",
"'  c #5C1E29",
"]  c #531621",
"[  c #442223",
"{  c #4D2126",
"}  c #4D2B22",
"|  c #4D2329",
" . c #4C2A2C",
".. c #442928",
"X. c #522126",
"o. c #522C23",
"O. c #522129",
"+. c #5B242B",
"@. c #532A2D",
"#. c #5B292E",
"$. c #5A2626",
"%. c #4A3325",
"&. c #543224",
"*. c #5A3325",
"=. c #5C3A25",
"-. c #5B3429",
";. c #5D3A2A",
":. c #553627",
">. c #4C2D32",
",. c #5D2631",
"<. c #542B32",
"1. c #5C2B32",
"2. c #5A2C35",
"3. c #4C3434",
"4. c #533235",
"5. c #5B3236",
"6. c #5C343A",
"7. c #5B3A3D",
"8. c #55383A",
"9. c #62262E",
"0. c #642A2E",
"q. c #68292E",
"w. c #68272E",
"e. c #633424",
"r. c #633B24",
"t. c #62352A",
"y. c #633B2A",
"u. c #6A3D2C",
"i. c #6B3925",
"p. c #763B28",
"a. c #642631",
"s. c #6A2633",
"d. c #652B33",
"f. c #692A34",
"g. c #652E38",
"h. c #6A2E39",
"j. c #633136",
"k. c #693136",
"l. c #64333A",
"z. c #6B333C",
"x. c #633A3E",
"c. c #6A3A3B",
"v. c #72353D",
"b. c #712E3A",
"n. c #601F28",
"m. c #564535",
"M. c #6B422D",
"N. c #674229",
"B. c #73432C",
"V. c #7B442B",
"C. c #784528",
"Z. c #6B4534",
"A. c #764732",
"S. c #6D543B",
"D. c #72421E",
"F. c #5D3D41",
"G. c #563E40",
"H. c #643D42",
"J. c #6B3C43",
"K. c #6B3842",
"L. c #733C44",
"P. c #753B45",
"I. c #5D4344",
"U. c #5C5344",
"Y. c #644245",
"T. c #6B4246",
"R. c #654449",
"E. c #6B444A",
"W. c #6C494C",
"Q. c #66494A",
"!. c #734246",
"~. c #75444B",
"^. c #7A454C",
"/. c #734A4D",
"(. c #7B494D",
"). c #794347",
"_. c #754D52",
"`. c #7B4C53",
"'. c #794852",
"]. c #7C5155",
"[. c #7A5357",
"{. c #6B514C",
"}. c #756A54",
"|. c #7B7062",
" X c #873D28",
".X c #8C3B1B",
"XX c #87472B",
"oX c #964A2B",
"OX c #98532E",
"+X c #874A33",
"@X c #974C33",
"#X c #995534",
"$X c #8A5335",
"%X c #A7552D",
"&X c #A85734",
"*X c #B35D36",
"=X c #A8522C",
"-X c #BA6438",
";X c #B56631",
":X c #A24E20",
">X c #C46A39",
",X c #CA7639",
"<X c #CE7634",
"1X c #F27F3E",
"2X c #EA7C3B",
"3X c #C25D2B",
"4X c #824C54",
"5X c #835359",
"6X c #875149",
"7X c #8A6E57",
"8X c #B2734E",
"9X c #8D7769",
"0X c #AA7B6A",
"qX c #CA7444",
"wX c #CD7646",
"eX c #F47E43",
"rX c #EC7D46",
"tX c #813F4C",
"yX c #D58A39",
"uX c #F4833D",
"iX c #EE8C36",
"pX c #F8AD39",
"aX c #D6AB38",
"sX c #958973",
"dX c #AC8C72",
"fX c #BA835D",
"gX c #D98A50",
"hX c #EA8548",
"jX c #F38143",
"kX c #F58449",
"lX c #E88A56",
"zX c #EB934F",
"xX c #F4B04D",
"cX c #D48E65",
"vX c #DFA35E",
"bX c #FACF52",
"nX c #FCE65A",
"mX c #FEF55E",
"MX c #FCD664",
"NX c #FEF965",
"BX c #FDED6C",
"VX c #DAC636",
"CX c #A99586",
"ZX c #B5AA90",
"AX c #A4978C",
"SX c #C5BAA1",
"DX c #FCF58F",
"FX c #D7CCB0",
"GX c #F3EBB7",
"HX c #E7DAAF",
"JX c #E7DAC5",
"KX c #F4EAC7",
"LX c #FEF6D7",
"PX c #F6EECB",
"IX c #FCFBED",
"UX c #DDD2C6",
/* pixels */
"  . . o                 . . . . . . . . $ $ $ $ . o o o         .   . . . . . .   o o   o . . . $ o         . &     o o . . o o . . . . . . . . . . . o   o . . .   . . . . O . .       . . . . . . . .             . . . . . . . . . . . . . O O O O . o . . @ . o o . @ @ @ @ . . @ @ @ @ @ @ . O . . . . . . . . @ @   . . O O O O + O $ O O @ @ @ O . O O . . . O O O . . . . . . . . . . . . . . . . . . . .   . o .         &   .     .   . . .   . . . .       o                     . . . o o o o o o o o   o o .     .         o . .   . . . . . . . o . . . . . . . .                   o o . . . . . o   . . . .       o o   . . . . . . . . o o o o o o o o o o $ $ o o . . . . @ . . .   .   o o     .     .     .         . . . .                 . . . $ o o o o . . . . . o o o . .   o . . .                 . . . . .     o o $ $ $ $         o o         o       $ O O O . . . @   . . . &   $ $ $ $ $ $ . . . . . . . . . . . . . . o o o o . @ @ .   & & . . . @ @ . . . . ",
"@ . . . . .   . . . . .               . .   . . . . . o             . @ . . .       o o . . . O O . . . O O . . . O . . .   .     . . . . . . . . . . . .     . . . . .   @ O O                                                         . . O O O O . . . . . @   & @   . O O O . . . . . . . . . O . . . . . . O O .   . .     O . O O O O O * @ @ @ O * O $ r p p t t 2 2 5 5 @ @ @ @ O O O O O O O O # # # # # * * * r 9 * &   . . o . . .   . o   . . . . . . . . . O O O O O O O O + O # O O O O . . . .           . @ .       . .                 .           . . . O . . . . . . . . . O . . . . . . O       . . . . .     .     @ @ O O .   . . . . . . . . o                       . .     .       . & @   .       O O . . . . . . O O . . . . . . . . . .   .     o . o o o o   o . o       o . . . .                                                                 O . O O O . . . @ @ &     . O .                                         . . . . @ . . @ . @ & @ @ @ @ @ @ @ @ . ",
". . O O O O O O * 2 2 2 g g g g g g g g g g g g g g m m m m m j p $ . . . . . .   & $   O O O O O O O O + 1 9 t g g g g j j j j j j j j j m m m m j j j $ .   @ . .     O   O 0 n n n n n n n n B B B B B B B B B B B B B B B B j j j j g a a a < O     . . . . @   . * i i u u g g g a 2 9 9 9 1 < < < < < < < t y j j  .>.>.3.3.>.4.>.u O . * @ @ @ O . 2 >.I.R.R.R.R.Y.Y.Y.Y.7.7.7.7.8.8.8.8.7.7.7.7.F.F.H.H.Y.R.R.R.R.H.F.8.9 @ . . . .     .   * B >.>.>.>.8.8.8.8.8.8.8.8.I.I.I.I.G.G.G.G.F.8.>...n m m m i i r 9         . . . .     . .           . . O r g B .......... . . . . . . . .B B B B B B u $ . . . . . . . .     @ ; i i i u t t t t 2 9 9 9 + + + + % % % % 9 2 2 2 u u u u i j p $ . . .   .   .   O 9 u u j j j j B B B B >.>.>.>.>.>.>.>.3...V B i u 9 % + + + + O O O .               . . O O O + + + + + + + + $ $ $ $ O + + + * * * * r 9 9 r i i i i g u $ O . . . . .   .   * t y y i i i i i i i i i i j j j j j j t t r r < < < < O $ $ O O O O O . . . . . . . O ",
"V >.8.G.8.8.8.8.I.Y.Y.Y.E.E.E.E.E.E.E.E.E.E.E.R.R.R.R.R.E.E.E.Q.I.G.B O . . . . .   O i >.>.>.>.<.4.6.7.Y.Y.Y.E.E.E.E.E.R.T.R.R.R.R.R.R.R.R.R.R.E.E.R.R.8.i O .           $ B H.T.T.T.T.T.T.T.T.E.E.E.E.E.E.E.E.E.E.E.E.E.E.E.E.T.T.T.T.E.E.E.E.Y.B $   . . . .   ; >.Q.R.R.R.R.R.R.R.R.R.R.R.Y.Y.Y.Y.Y.Y.Y.Y.Y.E.E.R.R.W.W.E.E.E.W.T.W.8.9   . . @ @ O * 4.W.F.T.T.T.T.T.T.T.T.T.T.T.E.E.E.E.E.Q.E.E.W.E.E.W.E.T.T.T.T.T.T.T.T.8.*     . . . .   i 8.W.Q.E.E.E.T.T.T.T.T.T.T.T.W.W.W.W.T.T.T.T.T.T.E.W.E.E.E.E.W.R.R.F.m O   @ . . O O O O $ % 9 r r r V V 3.8.Y.Y.Y.H.R.T.T.T.E.E.E.E.E.E.W.W.E.E.E.E.Y.E.7. .O . . . . . . . . ; V I.I.R.R.R.R.R.R.R.Y.Y.Y.H.F.F.F.F.F.F.F.F.R.R.R.R.R.R.R.R.R.W.R.8.2 .       @   O V G.Q.R.E.E.E.E.R.R.E.T.W.T.T.E.E.E.E.E.Y.R.W.W.W.W.R.I.F.F.F.F.F.>.g % O .         . O B  .8.7.7.7.7.7.7.7.7.F.I.I.I.I.F.F.F.F.F.I.I.I.Y.R.R.Y.Y.Y.Y.Y.R.Q...* . . O .       r 3.Y.Y.R.W.W.W.W.W.W.W.W.W.W.W.W.Q.Q.Q.Q.Q.E.E.E.I.I.I.I.8.8.8.7.8.B 2 O O . . . . O O O ",
"Q.R.R.R.R.R.R.Y.T.T.T.T.T.T.T.T.T.T.T.T.T.T.H.H.H.H.J.T.T.T.T.T.W.Q.I.y O . . @ . 1 ..I.W.E.T.H.H.6.<.<.@.@.<.<.<.<.<.<.5.5.5.5.1.1.1.1.<.O.| | O.O.<.7.W.G.u         . . j R.W.T.T.T.T.T.T.T.T.T.T.T.T.T.T.E.E.E.E.T.T.T.T.T.T.T.T.T.T.H.H.H.H.T.E.B . @   . . % 3.W.R.R.H.J.H.J.J.J.J.T.T.T.T.T.T.T.T.H.H.H.H.H.H.H.H.T.T.H.H.H.H.H.H.E.G.* O @ . O . j E.T.T.K.K.K.K.l.l.l.l.1.5.5.5.6.6.6.6.6.6.6.6.1.1.2.5.6.6.6.6.K.K.K.H.R.B O . . . . . r 3.Q.Y.T.J.l.j.5.5.5.2.2.2.2.2.2.2.2.2.5.5.5.6.l.l.l.l.l.6.6.6.x.6.6.6.H.>.O   . . O O + ..I.F.Q.Q.R.R.W.E.R.H.Y.T.T.W.H.H.H.H.x.c.c.c.c.c.c.H.K.K.K.H.W.W.W.Q.n . O   . o     * >.W.R.Y.R.T.W.T.T.T.T.T.T.T.T.T.T.T.T.T.T.T.T.T.T.E.T.T.T.T.T.R.R.T.R.8.2   . .     ..Y.Y.T.H.x.l.l.l.l.l.l.l.H.H.H.x.x.x.x.x.6.7.x.x.H.H.H.H.H.H.H.H.W._.T.<.1 . .       $ >.T.W.W.x.l.6.x.x.x.x.x.x.H.H.H.H.H.H.T.T.T.T.T.T.T.T.T.T.T.T.T.T.H.T.W.8.O . @       p I.W.T.T.H.6.6.6.6.6.6.6.6.6.6.6.6.6.6.6.6.H.H.H.H.W.E.E.E.T.R.R.R.E.W.4.0 O . @ & . . 1 4.",
"E.E.R.R.R.R.R.H.T.T.T.T.c.c.c.c.j.1.O.O.+.1.l.J.J.J.T.T.T.T.T.T././.Y.7.+ . . O % >.E.E.H.c.5.O.O./ ~ ^ { { O.O.O.O.O.O./ ) / ^ { ^ ^ ^ / { O.O.+.` {  .F.W.8.< .     . r F.T.K.H.K.K.K.H.H.H.H.H.H.H.H.H.H.H.H.T.T.T.T.T.T.T.T.J.L.L.L.K.K.K.K.x.H.F.p . . & O V R.W.R.J.J.J.H.c.c.c.c.5.5.5.5.O.O.O.O.O.O.O.O.O.| | | O.O.| | <.<.<.<.6.E...O @ @ . + 8.T.x.6.O.O.O.O.) / / / { { { { { { { { | | { { ~ ~ ^ ^ { { { O.O.O.O.| 5. .$ . . . @ O 8.Y.x.4.O.O.^ F O.O.O.O.O.O.O.O.) ) ) ) ` ` ` ) ) ) ` ` / ^ / / ^ | ` ^ @. .9 O @ . . % 3.R.W.H.J.R.T.E.T.T.E.W.H.H.x.l.<.<.<.<.O.O.O.O.O.O.X.O.O.O.O.O.5.j.c.T.7.2   @ . .     m R.R.6.6.H.H.H.~.T.c.l.1.@.| ~ 1.1.1.1.x.x.l.l.c.c.c.c.c.x.x.x.H.H.T.~.R....     O t 7.7.6.<.<.O.) ) ) ) ) O.O.{ { | | { { { { { { X.O.@.+.<.<.O.O.O.O.O.<.K./.>.O . .   . ..R.x.1.X.~ ^ ~ ^ ^ ^ ^ { { { { O.O.l.l.l.l.l.l.l.l.l.l.l.l.<.<.1.1.2.2.F.I.V O .   . @ 3.Y.6.+.{ { { / / / / / / / / / / / / / / / O.O.O.O.2.6.2.2.6.H.J.E.J.W.W.6.+ . . @   2 <.W.",
"2.2.<.<.<.<.<.<.<.@.@.@.O.O.O.O.O.{ ^ ~ ^ ^ { O.l.l.l.l.J.J.J.J.J.K.x.Y.j O     B T./.l.5.O.^ O.O.O./ { ^ ^ ^ ^ { { { { O.O.O.O.^ ^ ^ ^ ^ { O.O.#.{ ~ { O.c.~...O     . >.F.<.` ` ` ) ) ) ) O.O.O.O.+.O.O.O.O.O.<.<.#.#.#.#.#.#.,.+.,.,.O.O.O.O.+./ <.i . . O * G.Y.Y.H.2.2.2.2.O.@.@.@.~ ~ ~ ~ { { { { { { { { { { ^ ^ ^ ^ ^ ^ ^ ^ / / / 6.6.1 . @ O r 4.<./ ^ / / / / / / / / / / { { / / / / O.O./ O.) ) ) ) ) ) ) ) ) ) ) ) O.@.5 . .   O 2  .O.X.X.O.X.^ F F F ) ) ) ^ X.) ^ ^ ^ ^ / / / / ) O.O.+.O.O.O.| | @.+.` ` | j O O O O n W.H.H.H.E.T.T.H.H.H.6.<.O.| { ~ / ) / / / { { X.X.X.X.X.X.X.X.X.F { X.@.H.B O   .     & F.J.<.^ ^ | +.+.1.#.X.^ ^ { { { { { O.O.O.O.O.O.O.O.O.O.X.O.O.O.{ O.1.2.H.8.&   . . t  .| ) / ^ ) ) ` ` ) ) ) ) X.X.{ { X.X.X.X.{ O.X.O.{ ) ) / ^ ^ ^ / O.) O.<.H.g .     r 8.H.@.O.F ^ ^ ^ ^ ^ ^ ^ X.) ) ) ) ) / / ) ) ) ) O.O.O.O.O.) ) ^ ^ ^ O.^ ~ | ..* O . . r 4.5.O.O.{ ~ { ) ) ) ) ) ` ` ) ) ) ) ) ) O.O.O.O.O.O.O./ / / / O.<.2.6.x.J.T.j O .   . B T.l.",
"O./ ^ / / / / / { { { { ^ ^ ^ ^ ^ ^ O.O.O.O.O.O.O.O.O.O.<.<.<.<.<./ O.[ ..O O # 7.H.6.{ ~ ^ ) ^ ^ / / / { { { O.O.O.O.O.^ ^ ^ { { O.O.O.^ ^ ^ ^ O.^ ~ O.{ O.J.7.O   . O  .~ ^ ^ ) ) ) ) ) ) ) ) / ) ) ) / / ) ` / / ^ ^ ^ ^ ^ ^ / / / / ^ ^ ^ ^ O.^ | n $ .   i >.O.| | / / / / { { X.{ O.O.O.O.O.O.O.O.O.O.O.O.O.O.O.O.O./ / ^ ^ ^ ^ ^ ^ ^ 6.h . @ O j [ { O.^ { { / / O.O.O.O.O.O.O.O.^ ^ / / ) ) ) ) ) ) ` ) ] ) ) ) ) ` ` ` ) [ y O @   $ a O.F F O.{ X.X.X.X.X.X.) ) ^ ^ ^ ) ) ) / ) ) ) ) ^ ) O.O.^ ^ ^ / | ^ ) ` +.| [ % O O 1 F.W.~.~.J.H.x.2.O.| | | ^ { O.O.O.O.O.O.O./ X.X.X.X.X.^ ^ ^ ^ ^ ^ X.X.X.O.| 4.+   . . . r H.| | O./ O.+.+.O.O.O.O.X.X.F ~ ~ ~ ~ ~ ^ ^ / / { { O.{ { ^ / / / / / / <.8.i   . * B { / / ) ) ) ) ) ) ) ) ) ) ^ F ^ ^ X.X.X.X.{ X.O.O.O.O.O.O.O.O.O.O.) O./ / ^  .* . . j 4.{ F F O.O.^ ^ { { X.X.O.X.) ) ) ) ) ) O.O.O.O.O.O.O.O.O.O.O.X.X.) / O.( / | 2   . @ j [ O.) O.O.{ ^ ^ ^ ^ ^ / / / / / / / / / / / O.O.O.O.) / O.` ` ` O.O./ / +.6.8.#     r 8.<.<.",
"O.` / O.` ` ` ` ) ) ) ) ) ) ) ) ) ) ) ) O.O.O.O.) ) ) ) ) ) ) { O.O.| | [ + O t { { { { ^ / / / ) ) ) ) ) ) ) ) O.O.O.O.) ) ) ) O.O.O.O.) ) / / ) ) ) ) O.O.+.x.y O . < | ^ / ) ) ) ) ) ) ) ) ) / / ` ` ` ` / / O.) ) ) ) ) ) ) / / / / ) ) ) ) ) / / [ 2 . . j | / / / ` ` ` ) ) ) ) ) O.O.O.O.O.O.` ` O.O.O.O.) ) ) ) ) ) ) { / / / / ` O./ ~ . . + n { { ^ ^ { { { { O.O.O.O.O.O.O.O.) ) ) ) ) ) ) ) ) ) ) ) ) ) ) O.) ) ) ) / { ..O     4 | { ) ) ) ) ) ) ) ) ) ) ) ^ ^ ^ ^ ) ) ) ) ) ) ) ) ) ) ) ) ) ) ) { / / ) ) ) { [ 3   . ..T.!.l.1.1.O.O.O.O./ / / / O.O.O.O.` ` ` O.) ) ) ) ) ) ) ) ) ) ) ) / / / { / | r O .   O B | O.O.O.` ` ` ) O.O.O.O.O.O.) ) ) ) / / ^ ^ ^ ^ ) ) ) ) ) ) ) ) / / / / {  .i O . 2 | O.O.O.O.O.O.O.O.O.^ ^ ) ) ^ ^ ^ ^ ) ) ) ) O.O.O.) O.O.O.O.) ) { { { { { { O.[ 5   O B ~ { O.O.O.O.) ) ^ ^ O.O.O.O.) ) ) ) ) ) { { ) ) ) ) ) ) O.) ) ) ) ) ) ) ) / O.a O   O [ { / ) ) { { ) ) ) ) ) ) ) ) ) ) ) ) ) ) ) ) ) ) ) ) ) ) ) ) O.O.O.O./ / / | | y . O j | O./ ",
"O.` / O.` ` ` ) ) ) ) ) ) ) ) ) ) ) ) ) O.O.O.O.) ) ) ) ) ) ) ) O.| O.| [ , O y { ) ) ) / ^ / / ) ) ) ) ) ) ) ) O.O.O.O.) ) ) ) O.O.O.O.) ) ) ) ) ) ) / / O.O.@.y . . 2 | ^ { O.) ) / ) ) ) ) ) / / / ` ` ` ) / ) / ) ) ) ) ) ) / / / / ) ) ) ) ) ) ) { 2 O O n | / / / ` ` ` ) ) ) ) ) O.O.O.O.O.O.` ` O.O.O.O.) ) ) ) ) ) ) ) / / / / ` O.` ~ . . + n { { ^ ^ { { { { ` ` O.O.O.O.O.O.) ) ) ) ) ) ) ) ) ) ) ) ) ) ) ) ) ) ) ) / { ..+   . 3 | { ) ) ) ) ) ) ) ) ) ) ) ^ ^ ^ ^ ) ) ) ) ) ) ) ) ) ) ) ) ) ) ) ) / / ) ) ) { [ 3   . [ l.1.+.O.+.O.O.O.O.` ` ` ` O.O.O.O.O.O.` O.) ) ) ) ) ) ) ) / ) ) ) ` / / ` / | r O . . O n | O.O.O.` ` ` ) O.O.O.O.O.O.) ) ) ) / / ^ ^ ^ ^ ) ) ) ) ) ) ) ) ) / / { {  .j O O 2 | +.O.O.O.O.O.O.O.{ { { { { ^ ^ ^ ^ ) ) ) ) O.O.) ) O.O.O.O.) ) { { / / { ) ` ^ 5   O [ { O.O.O.O.O.) ) ) ^ O.O.O.O.) ) ) ) ) ) { { ) ) ) ) ) ) ) ) ) ) ) ) ) ) ) ) O.g O . O [ { / ` ) { { ) ) ) ) ) ) ) ) ) ) ) ) ) ) ) ) ) ) ) ) ) ) ) ) O.O.O.O./ / / | | t   O k O.O./ ",
") ) O.O.) ) ) ) ) ) ) ) ) ) ) ) ) ) ) ) O.O.O.O.) ) ) ) ) ) ) ) O.| O.| | 1 O d { ) ) ) ^ / / / ) ) ) ) ) ) ) ) O.O.O.O.) ) ) ) O.O.O.` ) ) ) ) ) ) / / / / ` | y   . y [ / { O.) ) / / ) ) ) ) ) ) ) ) ` ` ) / ) ) ) ) ) ) ) ) / / / / ) ) ) ) ) ) ) { 3 O O B { / / / ) ) ) ) ) ) / ) O.O.O.O.O.O.O.` O.O.` O.) ) ) ) ) ) ) ) / / / / ) O.` ~ O . + n { { ^ ^ O.{ { { ` ` O.O.` ` O.O.) ) ) ) ) ) ) ) ) ) ) ) ) ) ) ) ) ) ) ) / { ..+ . O a | { ) ) ) ) ) ) ) ) ) ) ) / / / / ) ) ) ) ) ) ) ) ) ) ) ) ) ) ) ) / ) ) ) ) { [ 3 . O [ @.^ ) ) ) ) ) O.O.) ) ) ) O.O.O.O.O.O.O.O.) ) ) ) ) ) ) ) ) ) ) ) ` ` ` ` / | r O . . O n | O.O.O.) / / / O.O.O.O.O.O.) ) ) ) / / / / / / ) ) ) ) ) ) ) ) ) / / { {  .j O O 2 | O.O.O.O.O.O.O.O.O.{ { { { / / / / ) ) ) ) ) ) ) ) ` ` O.O.) ) { { { / { ) ` ^ 5 . + ..| O.O.O.O.O.) ) ) ) O.O.O.` ) ) ) ) ) ) { { ) ) ) ) ) ) ) ) ) ) ) ) / / ) ) O.w O . O [ { / ` ` { { ) ) ) ) ) ) ) ) ) ) ) ) ) ) ) ) ) ) ) ) ) ) ) ) O.O.` O.{ { { { | y   O k O.O./ ",
") ) O.O.) ) ) ) ) ) ) ) ) ) ) ) ) ) ) ) O.O.O.O.) ) ) ) ) ) ) ) O.O.O.|  .4 + j { ) ) ) ^ ^ ^ / ) ) ) ) ) ) ) ) O.O.O.O.) ) ) ) O.O.O.` ) ) ) ) ) ) ) / / / ) | y     j [ | O.O.) ) ) / ) ) ) ) ) ) ) ) ` ` ) ) ) ) ) ) ) ) ) ) / / / / ) ) ) ) ) ) ) { t + O B { / / / ) ) ) ) ) ) ) ) O.O.O.O.O.O.O.O.O.O.` ` ) ) ) ) ) ) ) ) / / / / ) O.` ~ O . + n { { ^ ^ O.{ { { O.O.O.O.` ` ` ` ) ) ) ) ) ) ) ) ) ) ) ) ) ) ) ) ) ) ) ) / { ..+ . @ a | { ) ) ) ) ) ) ) ) O.) ) / / / / ) ) ) ) ) ) ) ) ) ) ) ) ) ) ) ) / ) / / { { [ 3 . @ D ^ O.+.O.^ O.O.O.O.) ) ) ) O.O.O.O.O.O.O.O.) ) ) ) ) ) ) ) ) ) ) ) ` ` ` ` / | r O . . O n | O.O.O.) ) / / O.O.O.O.O.O.) ) ) ) / / / / / / ) ) ) ) ) ) ) ) ) / / / {  .j O . 2 | O.O.O.O.O.O.O.O.O.{ { { { / / / / ) ) ) ) ) ) ) ) ` ` O.O.) ) { { { { { ) ` ^ 5 . + .. .O.O.O.O.O.) ) ) ) ` O.` ` ) ) ) ) ) ) { { ) ) ) ) ) ) ) ) ) ) ) ) / / / / O.g O . O [ { / ` ` { { ) ) ) ) ) ) ) ) ) ) ) ) ) ) ) ) ) ) ) ) ) ) ) ) O.O.O.O.{ { { { | y   O k O.O./ ",
") O.O.O.) ) ) ) ) ) ) ) ) ) ) ) ) ) ) ) ` ` O.O.O.O.O.O.O.O.O.O.O.O.O.|  ., O j { ) ) ) / / / / ) ) ) ) ) ) ) ) ` ` O.O.O.O.O.O.O.O.O.` ` ` O.O.O.O.O.O.O.O.O.| y . . u [ | O.O.) ) ) ) ) ) ) ) ) ) ) ) ` ` ) ) ) ) ) ) ) ) ) ) ) ) ) ) ) ) ) ) ) ) ) { y O O y ^ / / / ) ) ) ) ) ) ) ) O.O.O.O.O.O.O.O.O.O.O.` ` ` O.O.O.O.O.O.) ) ) ) O.O.O.~ O . + [ { { { { ) ) ) ) O.O.O.O.O.O.O.O.` ` O.O.) ) ) ) ) ) ) ) ) ) ) ) ) ) ) ) O.{ ..# . O k | { ) ) ) ) ) ) ) ) ) ) ) ) ) ) ) ) ) ) ) ) ) ) ) ) ) ) ) ) ) ) ) ) ) ) ) { | D 2 . @ D ^ ) ) ) ) O.O.O.O.O.O.O.O.O.` O.O.O.O.O.O.) ) ) ) ) ) ) ) ) ) ) ) ` ` ` ` O.| j O . . O B | ` ` / ) ) ) ) O.O.O.O.O.O.O.O.) ) ) ) ) ) ) ) ) ) ) ) ) ) ) ) ) ) { { /  .a O   < ^ ) O.O.O.O.| | | O.O.O.O.O.{ { { { ) ) ) ) ) ) ) ) O.O.O.O.O.O.O.O.O.O.| O.) ~ 5   + [ ^ / { { { { ) ) ) ) O.O.O.O.) ) ) ) ) ) { { ) ) ) ) ) ) ) ) ) ) ) ) ) ) ) ) O.g O . + [ { { ) ) { { ) ) ) ) ) ) ) ) ) ) ) ) ) ) ) ) ) ) ) ) ) ) ) ) ` ` O.O.O.O.O.|  .j   O a O.O.` ",
") O.O.) ) ) ) ) ) ) ) ) ) ) ) ) ) ) ) ) ` O.O.O.O.O.O.O.O.O.O.O.O.O.O.| | , O d { ) ) / / / / / ) ) ) ) ) ) ) ) ` ` O.O.O.O.O.O.O.O.O.` ` ` O.O.O.O.O.O.O.O.O.| p . O y | | O./ ) ) ) ) ) ) ) ) ) ) ) ) ` ` ) ) ) ) ) ) ) ) ) ) ) ) ) ) ) ) ) ) ) ) { { y O O a { / / / / ) ) ) ) ) ) ) O.O.O.O.O.O.O.O.O.O.O.O.` O.O.O.O.O.O.O.) ) ) ) O.O.O.~ O . + [ { { { { ) ) ) ) O.O.O.O.O.O.O.O.` ` O.O.) ) ) ) ) ) ) ) ) ) ) ) ) ) ) ) O.{ ..#   O k | { ) ) ) ) ) ) ) ) ) ) ) ) ) ) ) ) ) ) ) ) ) ) ) ) ) ) ) ) ) ) ) ) ) ) ) { | D 2 . @ ~ ^ ) ) ) ) O.O.O.O.O.O.O.O.` ` O.O.O.O.O.O.) ) ) ) ) ) ) ) ) ) ) ) ` ` ` ` O.| j O . . O B | ` ` / ) ) ) ) O.O.O.O.O.` O.O.) ) ) ) ) ) ) ) ) ) ) ) ) ) ) ) ) ) { { /  .a O   < ^ ) O.O.| O.| | | O.O.O.O.O.{ { { { ) ) ) ) ) ) ) ) O.O.O.O.O.O.O.O.O.O.| O.) ~ 5   + ..^ / { { { { ) ) ) ) O.O.O.O.) ) ) ) ) ) { { ) ) ) ) ) ) ) ) ) ) ) ) ) ) ) ) O.g O . + [ | ) ) ) ) { ) ) ) ) ) ) ) ) ) ) ) ) ) ) ) ) ) ) ) ) ) ) ) ) O.` O.O.` O.O.|  .a   O a | O.) ",
"O.O.O.) ) ) ) ) ) ) ) ) ) ) ) ) ) ) ) ) ` ` O.O.O.O.O.O.O.O.O.O.O.O.O.O.[ + O t | O.) ) / / / / ) ) ) ) ) ) ) ) ` ` O.O.O.O.O.O.O.O.O.O.` ` O.O.O.O.O.O.O.O.O.| r O O t | | O.{ ) ) ) ) ) ) ) ) ) ) ) ) ` ` ) ) ) ) ) ) ) ) ) ) ) ) ) ) ) ) ) ) ) ) { { y O O a { / ) / ) ) ) ) ) ) ) ) O.O.O.O.O.O.` ` O.O.O.O.` ` O.O.O.O.O.O.) ) ) ) O.O.O.~ O . + [ { { { { ) ) ) ) O.O.O.O.O.O.O.O.O.O.O.O.) ) ) ) ) ) ) ) ) ) ) ) ) ) ) ) O.{ ..#   O k O.{ ) ) ) ) ) ) ) ) ) ) ) ) ) ) ) ) ) ) ) ) ) ) ) ) ) ) ) ) ) ) ) ) ) ) ) { | D 3 . # ~ { ) ) ) ) ` O.O.O.O.O.O.O.O.O.O.O.` ` ` O.) ) ) ) ) ) ) ) ) ) ) ) ` ` / / O. .j O . . O B | ` ` ` ) ) ) ) ) ) O.O.` ` O.O.) ) ) ) ) ) ) ) ) ) ) ) ) ) ) ) ) ) / / )  .d O . < ~ ` O.O.O.O.O.O.O.O.O.O.O.O.{ { { { ) ) ) ) ) ) ) ) O.O.O.O.` O.O.O.O.O.| O.) ~ 2   + ..{ / { { { { ) ) ) ) O.O.O.O.) ) ) ) ) ) { { ) ) ` ` ) ) ) ) ) ) ) ) ) ) ) ) O.g O . + [ { ) ) ) ) { ) ) ) ) ) ) ) ) ) ) ) ) ) ) ) ) ) ) ) ) ) ) ) ) O.O.O.O.` ` ` | [ 6 . O a | O.) ",
"O.O.) ) ) ) ) ) ) ) ) ) ) ) ) ) ) ) ) ) O.` O.O.O.O.O.O.O.O.O.O.O.O.` O.k + O 3 | O.) ) / / / / ) ) ) ) ) ) ) ) O.O.O.O.O.O.O.O.O.O.O.O.O.O.O.O.O.O.O.O.O.O.O.| 9 O O r | | { { ) ) ) ) ) ) ) ) ) ) ) ) ` ` ) ) ) ) ) ) ) ) ) ) ) ) ) ) ) ) ) ) ) ) { { y O O a { / ) / ) ) ) ) ) ) ) ) O.O.O.O.O.` ` ` O.O.O.O.O.` O.O.O.O.O.O.) ) ) ` O.O.O.~ O . + [ { { { { ) ) ) ) O.O.O.O.O.O.O.O.O.O.O.O.) ) ) ) ) ) ) ) ) ) ) ) ) ) ) ) O.{ | % . O k O.{ ) ) ) ) ) ) ) ) ) ) ) ) ) ) ) ) ) ) ) ) ) ) ) ) ) ) ) ) ) ) ) ) ) ) ) O.{ k 3 . # [ ) ) ) ) ) ` O.O.O.O.O.O.O.O.O.O.O.` ` ` O.) ) ) ) ) ) ) ) ) ) ) ) / / / / | | j O .   O B | ` ` ` ) ) ) ) O.) ) ) ` ` O.O.) ) ) ) ) ) ) ) ) ) ) ) ) ) ) ) ) ) / / )  .d O . < ~ ` O.O.O.O.O.O.O.O.O.O.O.O.{ { { { ) ) ) ) ) ) ) ) O.O.O.O.O.O.O.O.O.O.| O.) ~ 2   + ..{ / O.{ { { ) ) ) ) O.O.O.O.) ) ) ) ) ) { { ) ) ) ` ) ) ) ) ) ) ) ) ) ) ) { O.g O . + [ { ) ) ) ) { ) ) ) ) ) ) ) ) ) ) ) ) ) ) ) ) ) ) ) ) ) ) ) ) O.O.O.O.` ` O.| ~ 4 . O a | ) ) ",
"O.O.) ) ) ) ) ) ) ) ) ) ) ) ) ) ) ) ) ) ) ) ) ) ) ) ) ) ) ) ) ) { ) ) { h + O 6 | O.) ) ) ) ) ) ) ) ) ) ) ) ) ) ) ) ) ) ) ) ) ) ) ) ) ) ) ) ) ) ) ) ) ) O.O.O.| j . O 2 ~ | ` ` ) ) ) ) ) ) ) ) ) ) ) ) ) ) ) ) ) ) ) ) ) ) ) ) ) ) ) ) ) ) ) ) ) / { { y O . 3 A ) O.) ) ) ) ) ) ) ) ) O.O.O.O.) ) ) ) ) ) ) ) ) ) ) ) ) ) ) ) ) ) ) ) O.O.O.~ O   2 [ { { { X.) ) ) ) ) ) ) ) ) ) { { ) ) ) ) ) ) ) ) ) ) ) ) ) ` O.{ ) ) ) ) O.{ { a . O h | O.O.O.O.O.O.` ` O.O.` ` O.O.O.O.O.O.` O.O.O.O.) O.O.O.O.O.O.O.) ) / / / { { a O . # ~ ) ` ` O.O.O.O.O.O.O.` ` ` O.O.O.O.` O.O.O.) ) ) ) ) ) ) ) ) ) ) ) ` ` ` ` | | j .     O B | ` ` ` ) ) ) ) O.O.O.O.` ` O.O.) ) ) ) ) ) ) ) ) ) ) ) ) ) ) ) ) ) { { O.| r O . < ~ ` ) ) O.O.) O.{ { ) ) ) ) ) ) ) ) ) ) ) ) ) ) ) ) ) ) ` O.) ` / / { { O.` ` ~ 2 . % ..{ { ) ) O.{ ) ) ) ) O.O.O.O.) ) ) ) ) ) O.{ { { ` ` ) ) ) ) ) ) ) ) ) ) ) { { a O O , [ { O.` ` O.O.O.O.O.O.` O.O.O.) ) ) ) ) ) ) ) ) ) { { ) ) ) ) O.` O.O.O.O.O.| ~ < . . < k O.` ",
"O.) ) ) ) ) ) ) ) ) ) ) ) ) ) ) ) ) ) ) ) ) ) ) ) ) ) ) ) ) ) ) { ) ) { h + O 6 | O.O.) ) ) ) ) ) ) ) ) ) ) ) ) ) ) ) ) ) ) ) ) ) ) ) ) ) ) ) ) ) ) ) ) O.O.O.| j . O 2 ~ | / ` ) ) ) ) ) ) ) ) ) ) ) ) ) ) ) ) ) ) ) ) ) ) ) ) ) ) ) ) ) ) ) ) ) ) { { y O . 3 A ) O.) ) ) ) ) ) ) ) ) O.O.O.O.) ) ) ) ) ) ) ) ) ) ) ) ) ) ) ) ) ) ) ) O.O.O.~ O   r ..{ { { { ) ) ) ) ) ) ) ) ) ) { { ) ) ) ) ) ) ) ) ) ) ) ) ) ) O.O.) ) ) ) O.{ { g . O h O.O.O.O.O.O.O.` ` O.O.` ` O.O.O.O.O.` ` O.O.O.O.) O.O.O.O.O.O.O.) ) / / / { { a O   # [ ) ` ` O.O.O.O.O.O.O.O.` ` O.O.O.O.` O.O.O.) ) ) ) ) ) ) ) ) ) ) ) ` ` ` ` | | j . .   $ B | ` ` ` ) ) ) ) O.O.O.O.` ` O.O.) ) ) ) ) ) ) ) ) ) ) ) ) ) ) ) ) ) { { O.| r O . < ~ ` ) ) O.O.) ` { { ) ) ) ) ) ) ) ) ) ) ) ) ) ) ) ) ) ) ` O.) ) / { { O.O.) ` ~ 2 . % ..{ { ) ) O.{ ) ) ) ) O.O.O.O.) ) ) ) ) ) O.{ { { ) / ) ) ) ) ) ) ) ) ) ) ) { [ t O O , [ { O.` ` O.O.O.O.O.O.` ` O.O.) ) ) ) ) ) ) ) ) ) { { ) ) ) ) ` ` ` O.O.O.O.| ~ < . . < k | ` ",
"O.) ) ) ) ) ) ) ) ) ) ) ) ) ) ) ) ) ) ) ) ) ) ) ) ) ) ) ) ) ) ) { ) ) / h + O 6  .O.O.O.) ) ) ) ) ) ) ) ) ) ) ) ) ) ) ) ) ) ) ) ) ) ) ) ) ) ) ) ) ) ) ) O.O.O.| j . O 2 ~ | ` ` ) ) ) ) ) ) ) ) ) ) ) ) ) ) ) ) ) ) ) ) ) ) ) ) ) ) ) ) ) ) ) ) ) ) { { y O . 3 A ) O.) ) ) ) ) ) ) ) ) O.O.O.O.) ) ) ) ) ) ) ) ) ) ) ) ) ) ) ) ) ) ) ) O.O.O.~ O . t  .{ { O.O.) ) ) ) ) ) ) ) ) ) { { ) ) ) ) ) ) ) ) ) ) ) ) ) ) { { ) ) ) ) { { { g . O h O.O.O.O.O.O.O.O.` O.O.O.` O.O.` O.O.O.O.O.O.O.) ) O.O.O.O.O.O.` ) ) / / / { { a O   # [ O.` ` O.O.O.O.O.O.O.O.O.O.O.O.O.O.` ` O.O.) ) ) ) ) ) / ) ) ) ) ) / ` ` ` O.| j O     O B | ` ` ` ) ) ) ) O.O.O.O.O.O.O.O.) ) ) ) ) ) ) ) ) ) ) ) ) ) ) ) ) ) { { O.{ t O . # ~ O.) ) O.O.` ` | O.) ) ) ) ) ) ) ) ) ) ) ) ) ) ) ) ) ) { { O.O.{ { { { { ) ` ~ 2 . + ..{ { ` ` | | ) ) ) ) O.O.O.O.) ) ) ) ) ) { { { { { { ) ) ) ) ) ) ) ) ) ) / { [ t O O , [ { O.` ` O.O.O.O.O.O.O.O.O.O.) ) ) ) ) ) ) ) ) ) { { ) ) ) ) ` O.O.O.O.O.O.| ~ < . . < k | ` ",
") ) ) ) ) ) ) ) ) ) ) ) ) ) ) ) ) ) ) ) ) ) ) ) ) ) ) ) ) ) ) ) { ) ) / h + O r  .O.O.O.) ) ) ) ) ) ) ) ) ) ) ) ) ) ) ) ) ) ) ) ) ) ) ) ) ) ) ) ) ) ) ) O.O.O.| j . O 2 ~ | ` ` ) ) ) ) ) ) ) ) ) ) ) ) ) ) ) ) ) ) ) ) ) ) ) ) ) ) ) ) ) ) ) ) ) ) { { y O . 5 h / O./ ) ) ) ) ) ) ) ) ` O.O.O.) ) ) ) ) ) ) ) ) ) ) ) ) ) ) ) ) ) ) ) ) O.` ~ O @ y  .{ { X.O.) ) ) ) ) ) ) ) ` ) { { ) ) ) ) ) ) ) ) ) ) ) ) ) ) { { ) ) ) ) O.O.| g . O h O.O.O.O.O.O.O.O.O.O.O.O.O.O.O.` ` O.O.O.O.O.O.) ) O.O.O.O.O.O.` ) ) / / / { { a O   # { O.) ) ) { O.O.O.O.O.O.O.O.O.O.O.` ` ` O.O.) ) ) ) ) ) / / ) ) ) ) / ` ` ` O.| j O     $ B | ` ` ` ) ) ) ) O.O.O.O.O.O.O.O.) ) ) ) ) ) ) ) ) ) ) ) ) ) ) ) ) ) { ) O.{ r O . # ~ O.) ) O.O.` O.{ { ) ) ) ) ) ) ) ) ) ) ) ) ) ) ) ) ) ) { { { O.{ { { { { ) ` ~ 2 . + ..{ { ` O.{ { ) ) ) ) O.O.O.O.) ) ) ) ) ) { { { { { { ) ) ) ) ) ) ) ) ) ) / { [ 3 O . , [ { O.` ` O.O.O.O.O.O.O.O.O.O.) ) ) ) ) ) ) ) ) ) { { ) ) ) ) O.O.O.O.O.O.O.| ~ #   . < k | ) ",
") ) ) ) ) ) ) ) ) ) ) ) ) ) ) ) ) ) ) ) ) ) ) ) ) ) ) ) ) ) / / ) ) ) { g % O < ~ O.O.O.O.O.O.O.) ) ) ) ) ) ) ) ) ) ) ) ) ) ) ) ) ) ) ) ) ) ) ) ) ) ) ) ) ) ) { p O O 2 k | { | ) ) ) ) ) ) ) ) ) ) ) ) ) ) ) ) ) ) ) ) ` ` ` ` ) ) ) ) ) ) ) ) / / / { y O . 2 h / O./ O.O.O.O.O.O.O.O.O.O.` O.) ) ) ) ) ) ) ) ) ) ) ) ) ) ) ) ) ) ) ) ) O.` ~ O @ u  .| { O.O.) ) ) ) ) ) ) ) ` ) { { ) ) ) ) ) ) ) ) ) ) ) ) ) ) { { / / / / O.O.| g . O h O.) ) ) ) O.O.O.O.O.O.O.O.O.O.O.` O.O.O.O.O.O.O.` O.O.` ` O.O.O.O.` ` / | O.~ t O   % { ` ` ` / { ) ) ) ) O.O.O.O.O.` O.O.O.O.O.O.) ) ) ) ` / / / ) / ) ) / / / / O. .j O .   $ B | ` ` ` ) ) ) ) ` ` ` ` O.O.O.O.) ) ) ) ) ) ) ) ) ) ) ) ) ) ) ) { { ) ) O.~ 9 . . $ D O.` ` / / { { { { ) ) ) ) ) ) ) ) ) ) ) ) ) ) ) ) { { { { { { { { { { { ) ) A 2 . + k | / { { { { ) ) ) ) O.O.O.O.) ) ) ) ) ) { { { O.{ O.) ) ) ) ) ) ) ) ) ) ) { [ t O O 2 | | ` ` ` O.O.O.O.O.O.O.` ` ` ) ) ) ) ) ) ) ) ) ) { { ) ) ) ) O.O.O.O.` ` ` | a %   . < k | / ",
") ) ) ) ) ) ) ) ) ) ) ) ) ) ) ) ) ) ) ) ) ) ) ) ) ) ) ) ) ` / / ) ) ) { g % O < ~ O.O.O.O.O.O.O.) ) ) ) ) ) ) ) ) ) ) ) ) ) ) ) ) ) ) ) ) ) ) ) ) ) ) ) ) ) ) { p O O 2 k | { { ) ) ) ) ) ) ) ) ) ) ) ) ) ) ) ) ) ) ) ) ` ` ` ` ) ) ) ) ) ) ) ) / / { { y O . 2 h / ) / O.O.` O.O.O.O.O.O.O.O.` ) ) ) ) ) ) ) ) ) ) ) ) ) ) ) ) ) ) ) ) / O./ ~ O O y ..| { O.O.) ) ) ) ) ) ) ) ` ) { { ) ) ) ) ) ) ) ) ) ) ) ) ) ) { { / / / / O.O.| g . O h O.) ) ) ) O.O.O.O.O.O.O.O.O.O.O.O.O.O.O.O.O.O.O.O.O.O.` ` O.O.O.O.` ` / | O.~ t O   % { ` ) ) / / ) ) ) ) O.O.O.O.` ` O.O.O.O.O.O.) ) ) ) ` ` / / ) / / ) / / ` / O.| j O .   $ B | ` ` ` ) ) ) ) O.O.` ` O.O.O.O.) ) ) ) ) ) ) ) ) ) ) ) ) ) ) ) O.{ ) ) O.~ 9 . . $ D O.` ` / / { { { { ) ) ) ` ) ) ) ) ) ) ) ) ) ) ) ) { { { { { { { { { { { / ) A * . + k | / { { { { ) ) ) ) O.O.O.O.) ) ) ) ) ) { { O.O.{ O.) ) ) ) ) ) ) ) ) ) ) { ~ 0 . . 2 | / ` ` ` ` O.O.O.O.O.O.O.` ` ) ) ) ) ) ) ) ) ` ) { { ) ) ) ) O.O.O.O.` ` ` O.a %   . < k | / ",
") ) ) ) ) ) ) ) ) ) ) ) ) ) ) ) ) ) ) ) ) ) ) ) ) ) ) ) ) ) / ` ) ) ) ) g % O < ~ O.O.O.O.O.O.O.) ) ) ) ) ) ) ) ) ) ) ) ) ) ) ) ) ) O.O.) ) ) ) ) ) ) ) ) ) ) { t O O 2 k | { { ) ) ) ) ) ) ) ) ) ) ) ) ) ) ) ) / / / / ` ` ` ` ) ) ) ) ) ) ) ) / / { { y O . 2 h ^ ) / O.O.O.O.O.O.O.O.O.O.O.O.) ) ) ) ) ) ) ) ) ) ) ) ) ) ) ) ) ) ) ) / O./ ~ O . t ..| { O.O.) ) ) ) ) ) ) ) ) ) { { ) ) ) ) ) ) ) ) ) ) ) ) ) ) { { / / / / / / / a . O h O.) ) ) ) O.O.O.O.O.O.` ` O.O.O.O.` ` O.` O.O.O.O.O.O.O.` O.O.O.O.` ` / | O.~ t O . % { ` ) ) / / ) ) ) ) O.O.O.O.O.O.O.O.O.O.O.O.) ) ) ) ` ` ` ` ) ) ) ) ` ` ` ` O. .j O .   $ B | ` ` O.) ) ) ) O.O.O.O.O.O.O.O.) ) ) ) ) ) ) ) ) ) ) ) ) ) ) ) O.{ ) ) O.~ 2 . . $ D O.` ` / / { { { { ) ) ) ) ) ) ) ) ) ) ) ) ) ) ) ) { { O.O./ / { { { { | ` ) A < . + k | / { { { { ) ) ) ) O.O.O.O.) ) ) ) ) ) { { { { O.O.) ) ) ) ) ) ) ) ) ) ) { ~ 0 . . 2 | / ` ` ` ` O.| | O.O.O.O.` O.) ) ) ) ) ) ) ) ` ) { { ) ` ` ) ` ` O.O.` ` ` O.s %   . < k | / ",
") ) ) ) ) ) ) ) ) ) ) ) ) ) ) ) ) ) ) ) ) ) ) ) ) ) ) ) ) ) ` ` { ) ) { g % O < [ O.O.O.O.O.O.O.) ) ) ) ) ) ) ) ) { { { { { { ) ) ) ` ` ) ) ) ) ) ) ) ) { { { { t O O 2 k | { { ) ) ` O.) ) ) ) ) ) ) ) ) ) ) ) / / / / ` ` ` ` ) ) ) ) ) ) ) { / { { { y O . 9 h / { / O.O.O.O.) ) ) ) ` ` ` ` ) ) ) ) ) ) ) ) ) ) ) ) ) ) ) ) ) ) ) ) / O./ n O . 0 [ | { { O.) ) ) ) ) ` ) ) ) ) ) ) ) ) ) ) ) ) ) ) ) ) ) ) ) ) { { / ` ` / ^ ^ ~ 0 . O h | { ) ) ) O.O.O.O.O.` ` ` O.O.O.O.O.` ` ` O.O.O.O.O.O.) ) O.O.O.O.` ` / / O.~ t O . % { O./ / / / / / { ) ) ) ) ) O.O.O.O.O.O.O.O.) ) ) ) ` ` ` ` ) ) ) ) ` ` ` ` O. .j O .   $ [ | ` / O.) ) ) ) O.O.O.O.O.O.O.O.) ) ) ) ) ) ) ) ) ) ) ) ) ) ) ) O.{ { { O.~ 9 . . + k O./ / | / { ) ) ) ) ) ) ) ) ) ) ) ) ) ) ) ) ) ) ) ) ) ) ) ) ) ) ) ) ` ` ` ) h * . + k | / { ) ) ) ) ) ` ` O.O.O.O.) ) ) ) ` ` O.O.O.O.O.O.) ) ) ) ) ) ) ) ) ) ) { ~ r . . 2 | / ` ` ` ` O.| | O.O.O.O.O.O.) ) ) ) ) ) ) ) ` ` { { ) ) ` ) ` O.O.O.) O.O.| a % . . < k | / ",
"O.O.O.O.O.O.O.O.) ` ` ) ) ) ) ) ) ) ) ) ) ) O.O.O.O.O.O.O.O.O.O.^ | | n t $ O * g ~ { O.| O.O.O.) ) ` ` ` ` ` ) { { | | | { | O.` ` ` ` O.` ) ) / ) { { { { ~ h 9 O O * w D | | +.+.O.O.) ) / ^ / / / / / / / / / / / / / / / / / / ) ) / / / / | / ^ ~ 0 O O 2 g ~ { { { { ) ) ) ) ) ) ) ) ` ` ) ` ` ` ) ) ` ` ) ) ) ) ) ) ) ) { { ) ) ^ | [ a O O < a ^ | O.O.) ) ` ` ) ) ) ) ` ` ` O.O.O.O.O.O.O.O.O.` ` ` ` ` ` ` ` ` ` ` ` <.| n t @ O 0 ~ / / / / O.O.O.O.O.O.) ) ) ) ) ) ) ) ) ) ) ) ) ) ) ) ) ) ) ) ) ) ` ` ` ` ^ s t O . * k ^ / / / / | | { { O.O.{ { { { ) ) ` ` ` ` ` ` ` ` ` ` ` ` ) ) ) ) O.O.O.O.O.~ t . . . $ 0 | / ) ` ` ` ) ) ` ` ` ` ` ) ) ) ) ) / / ) ) ) ) ) ) ` ` ` ` ` O./ | O.O.~ g 2 . . O a { | | | | ) ) ) ) ) ) ) ) ) ) ` ) ) ) ) ) ) ) ) ) ) ) ) ) ) ) ` ` ` ` +.+.~ h < . $ 2 [ | ` ` ) ) ) ) ) ` O.O.` ` ^ ^ ^ ^ O.O.O.O.O.O.O.O.) ) ) ) ) ) ) ) ` ^ / / w 2 O . , h / +.) ) ) / / O.O.O.O.O.O.O.) O.O.O.O.O.O.O.O.O.O.O.O.O.O.O.O.O.O.O./ O.O.~ t % O O * a ~ | ",
"O.O.O.O.O.O.O.O.) ) ) ) ) / / / / / / / / / { { { { O.O.O.O.O.O.O.| ~ g t $ O * a k [  .| | O.O.) ) ) ) ) ) ) ) { { | | | | | | O.) ) ` ^ / ) ` O.O.O.| { ~ h a r O O * 0 g ~ | +.` ` ` O.` ` ) O.O.O.O.O.O.O.O.O.O.` ` O.O.O.O.) ) ) ) ` / / / | ^ A g 0 O O 2 a k {  .{ { { ) ) ) ) ) ) ) ) ) ) ) ) ) ) ) ) ) ) ) ) ) ) ) ) ) { { { { | | k 2 O O < a h ^ | O.O.` ` ` ` ` ` ` ` ` ` O.O.O.O.O.O.O.O.O.` ` ` ` ` ` ` ` ` ` ` ` O.~ k r O . 0 k ^ / { O.{ { O.O.O.O.O.O.O.O.O.O.O.O.O.O.O.O.O.O.) ) / / ) ) ) ) ` ` ` / ~ h 0 O . # g ~ | | / / | | { { / / / / { { ) ) ` ` ` ` ` ` ` ` ` ` ` ` ) ) ) ) O.O.O.O.^ n 9 . . . + w ^ ^ / O.O.O.O.O.) ) ) ) O.O.O.O.O.O.O.O.O.O.O.O./ / / / / ^ ^ ^ | | ^ ^ h g * . . O t n | | | | ) ) ) ) ) ) ) ) ) ) ) ) ) ) ) ) ) ) ) ) ) ) ) ) ) ) ) O.` ` ` ` h a * . O 2 n ^ ` ` ) ) ) ) ) ` O.O.` ` O.O.O.O.O.O.O.` ) ) ` ` O.` ` ) ) ) ) ) ` / / A w 2 O . + h ^ / ` ` O.O./ / ) ` O.O.O.O.O.O.O.O.O.O.O.O.O.O.O.O.O.O.O.O.O.| | | | | ^ D t % O O * t n | ",
"O.O.O.O.O.O.O.O.O.O.O.O.O.O.O.O.O.O.O.O.| | O.O.O.O.O.O.+.+.+.O.| [ k t t O O * t g ~ { | | | O.{ ) ) ) ) ) ) ) { { { { { { | | O.O.O.O.) O.O.O.O.O.O. .D s w 0 r O . * 0 w g [ | ` ` ` ) ) ) ) O.O.O.O.` ` ` ` ` ` ` ` ` ` ` ` ) ) ) ) ` ` ` / ^ ~ s w 0 O O 2 a h [  .{ { { { ) ) ) ) ) ) ) ) ) ) ) ) ) ) ) ) ) ) ) ) ) ) ) { { { / / ^ ~ a < O O 2 a g h ~ | O.O.O.O.O.O.O.O.O.) ) { O.{ { { { { { { ` / / / / / / / / ` ` / { k a <   . 0 h h ~ ~ { | | | | | O.O.O.O.O.O.O.^ ^ / / / / / / / / / / / / { { / / / | h g 2 O . $ a h [ | { { / / { ) / / ) ) / / / { / / / ` ` ` ` / / / / / ) ) ) ) O.O.` O.h g 2   . . + 0 h ^ ^ O.O.O.O.O./ / / / O.O./ / { { { { { { { { ^ ^ ^ ~ ^ ~ ~ ~ ~ ~ A h g t * .   O r g [ | | | { { O.O.{ { { O.{ { { { { ) ) ) ) ) ) ) ) ) ) ) ) { { { O.O.^ ~ e t * . O r g ~ | / O.O.{ { { { O.O.O.O.O.O.O.) ) / / / / / / ) ) ) ) ) / / / / / | ( e w 2 O . + a h A / / / / ` ` ) ) ` ` ` ` ) ) ` ` ` ` ` ` ` ` ` ` ` ` ` O.| | | | | | ~ s t $ O O < r k ~ ",
"~ ~ ~ ~ ~ ~ ~ ~ D D D D D D D D D D D D D D D ~ ~ ~ ~ ~ ( ( ~ ~ h k j t t O . * t 0 g [ | | | | { { { { { { { { { { { { { { | | { | | | ~ ~ A A h h h h w w a t r O . * t w a h ~ / { ^ ~ ~ ~ ~ ~ ~ ~ ~ ^ ^ ^ ^ ^ ^ ^ ^ ^ ^ / / / / { { | | | | h s s a 9 O O 2 t a ~ | { { { { { { { { { { { { { { { { { { { { { { { { { { { { { { { { A g 0 9 . . 2 a g g h ~ { { / / { { { { ~ ~ ~ ~ ~ ~ ~ ~ ~ ~ ~ ~ | | | | | | | | | | | | ~ g t $   . 9 a w e A ~ A A A A D D D D D D D D h h h h h h h h { { { { { { { { | | | | g g * O . $ t g ~ | | { / ` ) { / / / / / { { { | | | | | | | | | | | | { { { { ~ ~ ~ ~ a t *   . . O r e D ~ | | | | | ~ ~ ~ ~ ~ ~ ~ ~ h h h h h h h h w w a w a a g g w e s s w 0 # .   @ r t n | | ..{ { { { { { { { { { { { { { { { { { { { O.O.{ { { { { { | | ~ h 0 0 $ . O r 0 k | | { { { { { { | | | | ~ ~ ~ ~ ^ ^ ^ ^ ~ ~ ~ ~ ~ ~ ~ ~ ^ ^ ^ ^ ~ h s w t 2 O . O a s h ~ ~ ~ ~ ^ / { { { { O.O.O.O.O.O.O.O.O.O.O.O.O.O.O.O.O.| | | | [ | | D w t $ . O * r g k ",
"a a a a a a a a w w w w w w w w w w w l l l 0 0 w w a a w w w w 0 w t y 9 & . . u a t a ~ D ~ ~ ~ ~ ~ ~ ~ ~ ~ ~ ~ ~ ~ ~ ~ ~ ~ ~ ~ D h s w w w w e w w w g 0 a d O     O r a t a a e e e e e e e w w w w w w w w w w w w w w w w w w w a w w w w a e e w $ O O $ t 0 w h ~ ~ ~ ~ D D D D ~ ~ ~ ~ ~ ~ ~ ~ ~ ~ ~ ~ ~ ~ ~ ~ ~ ~ ~ ~ ~ ~ ~ ~ w a t * .   $ 0 0 w w w w w e e w w w w w w w w w w w w w w w w g g g g n n ~ ~ ~ ~ ~ ~ g g t O .   * a w w w w w w l l w w w w w w w w w w w w w w w w w w g g [ [ [ [ ~ k h h 0 j O .   O 9 a s s ~ { ^ / / ^ ~ ~ ~ ~ ~ ~ ~ ~ ~ ~ ~ ~ ~ ~ ~ ~ h h h h a a 0 0 t a a a t y * .     O < 0 w g s s s s g g w w w w w w w w w w w w w a a a w t t 0 t t w a e e e w 9 &     . r g 0 a k k k h h h h h h h ~ ~ ~ ~ ~ ~ ~ ~ ~ ~ D D ~ ~ ~ ~ ~ ~ ~ ~ ~ k h g g < O   . * t g k k k k k k k k h g a a a a a a a a a a w w w w w w w w e e e a a a g a t * . . $ r g w e e e a g g a a a a a g g g g a a a a a a a h h h h h h k k k k k h h g r O O @ # t a a ",
"t t t t t t t a w w w w w a a a 0 0 0 0 0 0 0 0 t t t t t t t t 0 t t t # @ . . 2 t t a w w w w w w g g g g g g s s s s s s s s g w w w l w w w w w w a a t 0 t O . . O 2 t t t a a a a a a a a t t t t t t t t t t t t t t t t t t t t t t t t w w w 3 O O O O r 0 0 g g g g g w w a a g g g g g g g g g a g g g g g g g g g g g g g e a t r O     O r 0 0 w w w w a a a a a a w w w w w w w w a a a w w w a a a a a a a g g a a u r @ o . O 0 w w w w w w l l w w w w w w w w w w w w w w w w w w w w a a a a g a w a t p O .   . 2 t e g g s s s s s s s s s g g w e e e e e e e e a 0 0 0 0 t r t p p y p t y r # . .   . $ 0 w a g a a w w a a a a a a w w t t t t t t t t t t t t t t t t w w w w t 2 @     . * u a a t 0 0 0 0 0 3 3 3 3 a a a a a a w w w w w l w w w w w w 0 0 g g w 3 a 1 O   . $ 3 a a a a a a a a a a a t t t t t t t a a a a a a a a a a a a a a a t t a a 0 $ . O O 2 t w w w w t a a a t t t a a a a a a a a a a a t t t w a a a a a a a a g g g 2 . @ & O 5 t t ",
"t t t t t t t t t w w w t t t t 0 0 0 0 0 t t t t t t t t t t t a a u 2 O .   . O 0 t t a w g e g g g g g g g a 0 w w w 0 0 0 0 w 0 w w 3 0 w w e e e g a a r 2 . o . . * 0 t 0 t a a a a t u u t t t t t t t t 0 t t t t t t t t t t t t t t t 0 0 0 + O O O O 2 0 0 w 0 w w w 3 3 3 0 3 3 3 3 3 3 3 3 3 3 3 3 3 3 3 3 3 3 3 3 0 0 w w g t 2 O . . O % t 0 t t t t a a a a a a t w w t t t t t t t t t 0 0 0 t 0 0 0 0 0 0 0 0 t t 9 . X . O 2 w w w w w w w w w w w w w w w w w w w w w w w w w w w w w w w 0 0 0 0 0 t * . .   o * 0 q q w g w w w w w w w w w w w w w w w w w w w w 0 0 0 0 t t t t u u u t i * O . . . . . r t u g t t t t t t t t t t t t t t t t t t t t t t t t t t t t w w w w g * .       O t g a t t 0 w 0 0 0 0 w w w w a a a a t t t t 0 0 3 0 0 0 0 0 0 0 g a a a 0 + .     O 2 t t t t t 0 0 0 0 a a t a t a a a a a a a a a a a a a a a a a t t t y t t 2 $ O @ O O 2 a a a t t a t 0 0 0 0 t t t t t t t t t 0 0 0 0 0 0 0 0 0 t t a a a a a t $ . & & . # r t ",
"t t t t t t t t t 0 0 0 t t t t 0 0 0 t t 0 0 0 t t t t w w w 0 u t t * .     . O 2 r y 0 0 w w w 0 t t t t t 0 0 0 0 0 0 0 0 t t a a a a t t w e g g a t y 0 $ . @ o . $ 2 9 9 t t t t t u u u u u u u q t t t t w w w t t t t t t t t t t t t 0 0 2 + . @ @ . * r t 3 w w w w 0 0 0 0 t t 0 0 0 t t t 0 t t t t t 0 0 0 t t t t w w w a 0 2 . & & O O r r t t t t t t t t t t t t t t t t t t t t t t 0 0 t t a a a t t 0 0 0 t r *   o o O $ t w w w 0 0 0 0 t t t t t t t t t t t t t t t t t t t 0 0 0 0 0 0 0 0 0 u $ .       * r 0 0 q t 0 0 0 0 0 0 0 0 0 0 w w w w w w w w w t a a a a t t t t u u u t i # . .       . r t u g t t t t t r r t t t t t t t t r t t t t t t t t t t t t t t t u u * . .     O 2 u 0 0 g 0 0 0 0 0 0 0 0 t t t t t t 0 0 0 0 0 0 0 0 0 0 0 0 0 0 0 0 0 t 2 O . . . . $ 0 a a a a a a a a a a a a a a a a a a a a a a a a a a a a t t t t y p t t * $ O # O O < r t 0 t t t t 0 0 0 0 0 t 0 0 0 0 0 0 t t t t a a a a a a a t t t 0 0 0 t O O = & O # r p ",
"u u g g u u u u u t t t t q q q a a a a a q a a e g g g e e e a i ; * $ . . . . . O * r u a a a a a a a t t t t t t t t t u u u u u u u u u u a q w w t 0 2 $ O . . . . O $ * 9 u u u u u u u u u u u u u u u u 0 w w w w 0 w w a a a a a a a u p * O   & & @ O $ 2 t u t a a a u t t t q q t t a a a a a a a a a g q q a a a a a q q a 0 2 $ O * & @ O O * 5 r 0 0 0 0 0 0 q 0 u t t t a a a a a a a a a a a a w 0 0 0 0 0 0 0 9 & . . & & O O 2 0 u g t t t t t t t t t t t t u t 9 2 t t t t t a u g u u u a g a u t % % O .     . * 9 u u u a a a a t t t t 0 0 t t t t a a a a a u u u u q 0 0 0 0 0 0 q u * O . .       . $ 1 u g g g g g u t t t t u u u t t t t t t t t t t t t u u u u u u t t O O O . . . O $ r i u t q q q q q a a a a a a a a q q q 0 0 0 0 0 0 0 0 0 0 0 0 y 0 2 % O . . . . . O $ t a a w w 0 0 0 0 0 q q q q q a a a a a t u a a a a a a a a a u p 5 2 # O O $ # O O $ 2 t t t t t t t t t q q q 0 0 0 0 0 0 0 0 0 0 w w 0 w w 0 t t t t u t 9 * O O * = @ O $ * ",
"; 2 2 2 ; ; % % 9 9 9 9 9 0 0 0 0 0 0 0 0 0 0 0 0 0 0 0 0 0 0 t * &     . o   . . . @ * 9 9 0 0 r t r t p p p t 0 0 0 0 0 0 0 0 t t t t u u u u 0 0 t t 2 O O O @ @ @ @ @ O . @ 9 9 9 9 9 9 r r r r u u u u i u u q w t t t a a t t u a u u u p & @ . @ = = & & O + 2 r u u u u t r t 9 0 0 0 0 t 0 t t t t t t u q q u u u u u u q u u * $ # * * & @ @ O O = r u u u u u u u u u t t t u u u u t t t t a a a a a t t 0 0 0 0 r & . . . . .     O O * r r r r r r r r r # # # # & O O O $ $ $ $ % % % % r r r 0 u 0 9 9 $ O . . o     . ; 9 u u 0 0 t t 0 0 t t t t t t u u u u u u u u u u u u u u u t u 0 0 r O   .         . O O O % 9 9 2 2 2 2 * * 2 2 2 2 * * * * ; ; * * * * * * * * % $ $ $ $ $ O O O O O . O O ; r p r r 0 0 0 q q u u q q t t 0 0 0 0 0 0 0 0 0 0 0 0 9 9 9 9 2 2 % $ . . . . . .   O t 0 t t q 0 u u u u u q u q q u t 0 0 0 t t t t t t 0 0 0 q u t p 2 # O O O $ # O O O # 2 2 2 2 2 0 0 0 u u u u t t t t 0 0 0 0 0 0 t t 0 0 0 t t r r r 9 * O O # * 5 5 * O O O ",
". . . . . . . . . . . . . . . . . . . . . . . . . O O O O O O .         o o   . . . . .   . . . . . . O & & & * 5 2 9 9 9 9 9 * * * * * O O O O O O O O @ . . . O O O @ @ . . .             . . . . @ @ @ @ $ O * * * * * * * * O O O O O O O O O @ @ & = = & & @ O O # # # # # & & & # * * * * O O O O O O O O O O O O O O O O O O O O . O @ = = = = = @ . O * * * ; ; ; ; ; ; O O O O O $ $ O O O O O O O O O * * * # # $ $ # . . . . . o @ @ O O .   . . . .                         . . . . . . O O O O O O O O .     o . . .       @ $ * * r r ; r = 5 = = * * * * * # # # * * * * * * * # O O O O @ O O .             . . . . . . . . . . . . . . @ @ @ @ . . . . O O . . . . . . . .             . . . . .     .   . @ & @ O O $ $ $ $ O $ $ $ O O O O O O O @ @ O O O O O O O O . O O . .   . . . . . . . O O O O O O O O O O O O O O . . . . . . . . . . . . . . o o . . . O @ # @ @ @ @ . . @ . . . . . O O O O O O O @ @ @ @ O O $ O O O O O O O O O @ @ @ @ O . . . * * = = r * # O ",
". . . . . . . . . . . . .     . . . . . .       . . . . . . .           .   . . . . . .       .     . .     . . O O O O O . . . O O O O . . . . . . . . O O O . O O O O . O O . . . .             . . . .     . . . O O O O O . O O . . . . O . O O O O # # @ O O O O O . . . .         O O . . . . . . . . . . . . . . . . . . . .       . O O O O O # O O . . . . . . . . . . . . O O O O O O O O O O O O O O O O O . . . . . O O O O . . O @ . . . . . . . . . . . . . . . . . . . . O O . . . . . O . . O O O . .       . O . . . .   . . O . . . . . . O O . . O O         . O O . . . . . . . O . . . O O O . . . . . . . . . . . . . . . . . . . . . . . . . . . . . . . . . . . . . . . . .     . . . . . . . . . . . O . . . . . . . . . . . . . . . . . . . . . . . .         . . O O . O . . . . . . . . . . . .         . . . . . . . . . . . . . . . . . . . . . . O . . . $ O O . @ O O O . . . . . . . . . . . . . . .   . . . . . . . . . . . . . . . . . . . . O + O O O $ O O ",
"[ [ [ [ [ [ [ [ ..[ n k a a t 0 1 1 1 1 1 1 1 1 + + + + + + + + 2 2 2 2 r p i j j k k k j j j j 0 3 3 3 4 4 4 4 , , + + + % % % % % % % % * * * u j j j ................k ~ ~ n k k k n j j j j 9 9 9 9 1 1 1 1 4 1 4 4 a a a a k k k k k k k k 6 t 6 2 3 6 3 3 3 3 2 4 t t t t g g g g n n n n n n n n n n n n n n n n n n n n [ B B B ........<.| ~ k a g 3 0 + % % % % % % % % % % % % % 1 1 , 1 1 1 a a a a k k k k k k k j 3 3 3 2 4 < < , + + , , + + + + , , , % 4 4 4 4 a a j k ............[ [ ~ ~ ~ n k j k k n n m h 0 0 0 9 % * * < 2 4 4 4 a j j j j k k k a a a a 6 6 6 6 3 3 0 0 0 0 0 0 a a a a g a a a ~ B n n n n n n n k k k n k k k k n n n [ [ [ [ [ [ [ [ ..[ n k g a 0 3 % % % % + + + + + + + + + + % 1 4 2 4 4 t t a a j k j j j h h h 0 0 0 0 , , , + % % % + + + + % % % % % , , , < j j j j ..............[ n n n n m m m m g g g g 9 9 9 9 % 1 1 1 + % 2 6 r y j n n k k j k j a a 3 3 3 3 3 2 2 2 3 3 2 2 t t t t g a a a n n n n n n k k k k k n n n k k k k k k ",
"].].].].`.`.`.`.5X].].].`.`.`._././././._._./././.W.W.W.W.W.W.W._._._._._._.[.[.`.`.].[.[._._._._._._._././././.W.W.W.W.Q.W.W.W.W.W.W.W.W.W.W.W._._.[.[.[.].].`.].].].].4X5X5X5X].[.[.[.[.[.[._._._._._././././././._._._._.`.`.[.[.].].].].].]._._._././._._./._._././././._._._._._.`.].].`.].[.[.[.[.`.`.`.`.`.].].`.`.`.].[.[.[.[.[.[.5X5X5X5X5X5X5X].`./.`./.W.W.W.W.W.W.W.W.W.W.W.W.W.W.W././././.`.`.`.`.`.`.`.`.`.`.`.`.`.`._._.~.W.W.T.T.T.W.T.T.T.T.T.W.W.W.W.W.W.~.~./._.[.[.].].].].].].].].].].].`.[._.`.[.`.].`.`.`._._./.Q.W.W.W././././.[.[.].].[.[.[.[.].[.[.[./././././././._._._._.`.].].].].`.].[.].].].].].].].5X5X5X5X5X5X`.`.`.`.`.`.`.].].].5X5X5X5X5X5X5X5X4X].`.`.`.`./.W././._._._._././././.T.T.E.W._._._._._._.`.`.[.`.[.[.`.`.`.`._._._._././././.E.Q.Q.Q.W.W.W.W.W.W.W.W.W.W.W.W._.`.[.[.[.[.[.[.[.[.[.].].].].].[.[.[.[._._._._._._._._._.~.W.~.W./._._._._.[.[.5X].`.[.[.[.[._._._._./././././._._._._._._.`.`.`.`.`.`.`.`.[.[.[.[.].].].].].].].].[.[.[.[.`.`.",
"L.L.L.L.L.L.L.L.L.L.L.L.L.L.L.!.P.P.).).P.P.P.).!.!.!.!.!.!.).!.!.!.!.!.).!.!.L.^.^.(.(.(.(././.(.(.(.(.^.^.^.(.^.^.^.^.^.^.^.^.^.^.^.^.^.^.^.(.~.~./.(.(.4X4X^.^.^.^.^.(.`.4X`.^.^.^.^.(.`.'.`.`.`.`.`.(.(.`.`.'.(.(.(.(.(.(.(.^.^.^.^.^.^.^.(.`.`.`.^.^.`.`.(.(.(.^.^.^.^.^.^.^.^.^.^.L.P.L.L.L.L.v.v.v.v.L.v.L.L.L.L.L.L.L.L.L.J.L.L.L.L.P.P.L.L.).).).).P.^.).~.).).~.~.~.~.'.'.'.~.~.~.~.^.^.).).!.!.!.!.!.^.^.^.^.^.^.^.^.^.^.^.^.4X^.^.^.^.^.^.^.(.(.(.(.(.(.(.(.(.(.(.(.(.(.(.^.(.^.4X4X^.^.^.4X4X4X4X(.'.'.'.`.4X4X4X4X4X4X4X(.^.(.(.`.`.(.(.(.(.(.(.(.(.(.(.(.(.(.`.(.(.(.(.(.(.^.^.^.^.^.^.^.^.^.^.^.).).).^.L.L.L.L.L.P.P.L.L.L.P.P.P.P.P.P.P.P.L.L.L.L.P.L.P.P.P.L.L.P.P.).).^.^.^.).).).).^.^.^.).).).).).!.).^.^.).).^.^.^.^.^.^.^.^.(.(.^.^.^.^.^.^.^.^.^.).^.^.^.^.^.^.!.!.!.^.(.(.(.(.(.(.(.(.(.(.(.^.^.^.^.^.^.^.^.^.(.(.(.(.(.(.(.(.(.(.(.(.(.(.`.`.`.`.`.`.`.4X4X4X^.^.4X4X4X4X^.^.^.(.(.(.(.(.(.^.^.~.~.^.^.^.^.^.^.^.^.^.^.^.^.^.!.!.!.).L.L.L.L.L.L.L.L.L.L.L.L.L.L.K.K.",
"f.f.f.f.f.f.f.a.+.9.0.d.9.9.a.d.f.f.f.f.s.s.f.f.d.d.d.d.d.d.d.a.a.a.a.a.h.f.a.9.a.a.0.0.d.j.d.d.0.0.0.0.0.0.0.0.0.q.f.f.a.a.a.a.f.f.f.f.h.h.h.h.#.d.j.k.d.f.f.0.f.f.a.a.a.f.h.d.a.a.a.a.d.h.h.h.h.h.h.h.h.h.k.k.k.k.k.k.k.k.k.k.0.0.0.0.0.0.0.0.d.d.d.a.0.d.d.d.d.d.0.9.h.h.h.d.d.d.d.d.a.a.a.a.0.a.0.0.0.0.0.0.a.a.a.a.0.0.0.0.a.a.a.a.0.0.f.f.d.d.a.a.a.a.d.z.d.d.d.d.d.d.d.d.g.g.d.d.d.d.d.a.a.a.a.a.a.a.a.0.0.0.0.0.0.0.0.0.0.0.0.f.f.q.0.0.f.a.f.d.d.d.d.d.k.k.d.d.d.d.d.d.k.f.0.0.k.f.h.h.h.h.h.h.f.f.f.f.d.d.d.h.a.f.b.b.b.b.h.h.h.k.k.z.z.z.k.k.f.f.d.d.d.d.d.d.d.d.d.f.d.a.a.d.a.a.a.a.d.d.d.d.a.a.a.a.h.h.f.k.a.a.a.a.f.f.f.f.f.f.f.0.a.a.0.0.0.0.0.a.a.s.a.a.a.a.a.a.9.a.h.k.9.0.f.h.d.d.d.h.a.a.a.a.a.a.0.0.a.a.a.d.d.d.d.d.#.#.#.#.d.d.d.d.d.a.0.0.a.a.a.a.d.d.f.d.d.a.0.0.0.d.d.d.d.d.d.d.d.d.d.d.d.d.d.d.0.0.0.0.a.a.a.a.d.d.d.d.k.k.k.k.k.k.k.k.k.k.z.z.z.z.z.z.b.h.h.h.b.b.h.f.f.f.a.a.a.d.l.z.d.d.d.0.a.0.0.0.a.a.a.0.0.0.0.0.d.h.h.d.0.a.a.0.0.0.0.0.0.0.0.a.d.d.a.a.a.a.a.a.",
"a.a.a.a.f.f.f.f.a.a.d.d.g.a.d.d.f.f.f.f.f.f.f.f.a.a.a.a.a.a.a.a.a.a.a.a.a.a.a.a.a.a.a.a.a.a.a.a.a.0.a.0.f.f.f.f.q.q.q.q.f.f.q.f.d.f.d.d.a.a.a.a.f.f.q.q.f.f.f.w.f.f.f.f.f.f.f.f.d.d.a.a.d.f.f.f.h.h.f.f.f.f.f.f.f.f.f.f.0.0.0.0.a.a.d.d.d.d.d.0.a.0.0.0.a.h.h.a.a.f.a.a.a.0.0.0.a.a.a.a.a.a.a.a.a.a.a.a.a.a.a.a.a.a.a.a.a.a.a.a.a.s.f.f.s.s.s.f.d.d.a.a.a.a.a.a.d.d.d.d.a.a.a.d.a.a.a.a.a.a.a.a.a.a.9.0.a.a.a.a.a.a.a.a.0.0.0.0.0.0.q.f.w.w.q.q.q.q.a.0.a.0.0.0.a.0.0.0.d.d.d.d.f.f.f.f.f.f.f.f.q.q.q.q.q.q.f.f.d.d.d.d.a.a.f.f.f.f.f.0.0.q.q.f.f.f.f.f.a.a.a.a.f.f.a.d.d.d.d.d.9.9.0.0.0.0.0.0.0.0.0.0.0.0.0.0.0.0.0.0.0.0.0.0.0.0.0.0.q.q.0.a.a.a.a.a.a.a.d.f.f.s.f.f.f.f.f.f.d.d.d.d.d.d.d.d.d.d.d.d.d.d.d.d.d.d.a.d.d.a.a.a.d.a.a.a.a.a.a.a.a.a.a.a.d.a.a.a.a.a.a.a.a.0.0.0.0.0.0.0.0.a.a.a.0.0.9.9.9.9.9.9.0.0.0.0.9.9.9.9.0.0.q.q.q.q.0.0.0.a.a.a.a.a.a.a.0.a.a.0.0.0.0.0.w.0.0.9.0.w.w.w.a.a.0.0.0.0.a.a.0.0.0.0.a.0.0.0.d.d.d.0.0.0.0.0.a.a.a.a.a.a.a.a.a.a.d.d.d.d.d.d.h.h.h.h.f.f.d.d.",
"f.f.f.f.f.f.f.f.a.d.g.g.g.d.d.d.d.f.f.f.f.f.f.d.d.d.d.d.d.d.d.d.d.d.d.d.d.d.a.a.d.d.d.d.d.d.d.a.f.f.f.f.f.f.f.f.f.f.f.f.f.f.f.h.h.h.h.d.d.d.d.d.f.f.f.f.f.h.h.f.0.0.q.q.f.f.f.f.d.d.a.a.d.h.h.f.f.f.f.f.f.f.f.f.f.f.f.f.a.f.q.0.a.a.d.d.d.d.d.d.d.d.d.d.d.h.h.d.a.f.a.f.h.h.h.d.d.d.d.d.d.d.d.d.d.d.d.d.d.d.g.d.d.d.d.d.d.d.d.d.f.f.f.f.s.s.f.f.d.d.a.a.d.d.d.d.h.h.h.h.h.h.h.h.a.a.d.d.d.a.a.a.a.a.a.a.a.a.a.a.a.a.a.a.a.a.a.a.a.f.f.f.q.q.f.f.a.a.f.d.d.a.d.d.d.a.a.d.d.d.d.d.f.f.f.f.f.f.h.h.h.h.h.h.f.f.f.f.d.d.d.d.d.d.d.a.f.f.f.0.0.f.f.f.f.f.f.f.f.f.f.a.f.f.f.d.a.d.d.d.f.f.f.f.f.f.f.a.a.0.0.0.d.d.d.d.d.d.d.d.d.a.d.d.d.d.d.d.f.f.d.d.h.h.d.d.d.d.d.d.f.f.s.s.f.f.f.a.d.d.d.d.d.d.d.d.d.d.d.d.h.h.h.h.a.d.a.d.d.d.a.a.d.a.a.a.a.a.a.a.a.a.a.a.a.a.a.a.a.a.a.a.0.a.a.a.0.0.0.0.0.f.f.a.0.a.a.a.a.a.a.a.f.f.f.f.0.0.0.0.f.f.f.f.f.f.f.f.f.d.d.d.h.h.h.h.h.f.f.f.f.f.f.f.f.f.f.0.w.s.s.f.h.d.0.d.a.d.d.d.d.d.a.a.0.0.a.0.a.a.d.d.d.d.d.d.d.d.d.g.d.d.d.d.g.g.h.h.h.h.h.h.g.g.d.d.d.d.d.d.",
"d.d.d.d.d.d.d.d.a.1.g.g.g.a.g.d.d.d.d.d.d.d.d.d.g.g.g.g.g.g.g.g.g.g.g.g.d.d.d.d.d.d.g.g.d.d.g.d.h.h.h.h.h.h.h.h.h.h.h.h.h.h.h.d.d.d.d.a.a.a.a.a.a.a.a.a.a.a.a.9.h.h.h.h.a.a.a.a.a.a.a.a.a.a.a.a.a.a.a.a.0.0.a.a.a.a.a.a.9.9.9.9.a.a.a.a.0.0.0.0.d.d.d.d.d.d.d.a.d.g.d.g.#.#.#.+.+.+.+.+.#.#.<.<.1.1.1.1.1.1.1.1.1.1.1.1.1.1.1.d.d.d.d.d.d.d.d.h.d.d.g.d.,.,.,.,.1.,.a.,.,.,.,.,.d.d.g.g.g.g.d.d.d.d.g.g.g.g.d.d.d.d.d.d.g.d.d.d.d.h.h.h.h.h.h.h.h.h.k.d.d.d.d.d.d.g.g.g.a.a.a.a.a.a.a.a.a.a.d.d.f.f.h.h.a.a.a.a.a.g.g.g.a.a.a.a.a.a.a.9.9.a.a.a.a.a.a.a.a.a.a.a.a.a.a.a.a.a.a.a.a.a.a.a.a.a.a.a.1.1.d.1.#.#.#.#.#.#.#.+.+.+.+.+.+.+.+.#.#.#.#.#.#.<.<.#.#.1.1.a.a.a.a.d.d.d.a.d.1.1.1.1.1.1.1.1.,.,.,.,.,.,.,.,.g.g.d.g.g.g.d.g.g.g.g.g.d.d.d.d.d.d.d.d.d.d.d.d.d.d.d.d.d.d.d.d.d.d.d.a.d.h.f.h.h.d.d.g.g.g.g.h.h.h.h.h.h.h.h.h.h.h.h.a.d.a.a.a.a.a.a.a.d.d.d.d.a.a.a.a.a.a.a.a.a.a.a.9.9.a.a.a.d.d.#.a.1.a.g.d.d.d.d.d.a.a.a.a.a.a.1.1.#.#.#.+.+.+.,.,.,.,.,.,.,.,.,.,.,.,.,.,.g.d.d.d.d.d.1.1.",
"^ ^ ^ ^ S S S S A A S S F A D S S S S S ( ( ( ( ^ ^ ^ ^ ^ ^ ^ ^ ^ ^ ^ ^ ^ ] ^ ] ] ] ) ) ] ] ] ] ) ) ] ] ) ) ) ) ) ] ] ] ] ) ) ) ) ` ` ` ` ` ` ` O.O.O.O.O.+.O.) ` ` ` ` +.+.+.+.+.+.+.+.+.+.+.+.+.+.+.+.+.+.+.+.+.+.+.+.O.O.O.O.+.+.+.+.+.+.+.O.^ ^ ^ ^ S ^ ^ S F ^ S S S A A A A A A A A A A A ~ ~ ~ ~ ~ ~ ~ ~ ~ ~ ~ ~ ~ ~ ~ ^ ^ ^ ^ ^ ^ ^ ^ ^ ^ ^ ^ ( ( ( ( ( ^ ^ ^ ^ ^ ^ ^ ^ ^ ^ ^ ^ ^ ^ ] ] ] ] ^ ^ ^ ^ ^ ^ ] ] ] ] ^ ^ ) ) ) ] ) ) ) ) ) ) ) ) ` / / / / / ) ) ) ) O.O.O.O.+.O.O.O.O.O.O.O.O.O.O.O.O.O.O.O.+.+.+.+.+.+.O.O.+.O.O.` ` O.O.+.+.+.+.+.+.+.O.O.O.O.+.+.O.O.O.O.) ) ) ) ^ ^ ^ ^ ^ ~ ~ ~ ~ ~ ~ ~ D D D D D A D D A A F F ^ ^ ^ ^ ^ ~ ~ D ~ ~ ~ ^ ~ ~ ^ ^ ^ ^ ^ F ^ ^ ^ ^ ^ ^ ^ ^ ^ ^ ^ ^ ^ ^ ^ ^ ^ ] ] ) ) ) ^ ) ) ^ ) ^ ] ] ] ] ) ) ) / / / / / / / / / / / / / ^ ^ ^ ^ ] ) ) ) ` ` O.O.O.O.O.` O.O.O.O.` ` ) ) ) ) ) ) +.+.+.+.+.+.+.+.+.+.+.+.+.+.+.+.+.+.+.+.+.+.+.` O.+.+.+.+.+.O.O.O.+.+.+./ / / / F F F F S D A D D D D D D D D D A A ( ( ( ( ^ ^ ( ( ( ( ^ ( ^ ^ ^ ^ D D ",
"D D D D A A A D A A D D h h A A ~ ~ ~ ~ ~ ~ ~ ~ ~ ~ ~ ~ ~ A A A A A A A D D A A A A A A A A A D D ~ ~ ~ ~ ~ ~ ~ ( ( ( ( D D D D A A A A A A A A A A A A A ~ ~ A D D ~ ~ ~ ~ ~ D D A A A D D A A A A A A A A A A A A A A A A A A A A ( A A A ( ~ ~ ~ ~ ~ ~ ~ ~ ~ D D D D A h h h h h h h k k k k k k k k k k k k k k k k k k k k k k h h h h k D A A A A A A A A A A A A k k k A ~ ~ ~ ~ ^ ^ ^ ^ A A A A A A A A A A A A A A A A A A A A A A A A A A D h A A A A A A A A A A A A A A A A A A A A A A A A A A ~ D D ^ ^ ^ ^ ^ ^ ~ D ~ A A A A A A A A A A ( ( ~ ~ D D ^ ( ( ( ( ~ D ~ ~ ~ D D A A D k k k k h h h h k h h k h h h h h D D D D D D D k k k k k k k h k D D k k k k D A A A A A A k D D D D ~ ~ ~ ~ ~ ( ( A A A A A A A A A A A A A A A D D D D D D D ~ ~ ~ ~ ~ ~ ~ D D D D A ~ ~ D A A A A A A A A A A A A A A A A A A A A A A A A A A A A D D D D D ~ ~ ~ A A A ~ ~ A ~ A A ( ( ^ ~ ~ ~ A A A ~ D D A A A D D D D k D k k ~ ~ ~ D D D D D ~ ~ ~ ~ ~ ~ ~ ~ ~ ~ ~ ~ ~ ~ ~ ~ ~ ~ D D ",
"n n n n k k k k k k k n k k n n k k k n n n n n k k n n n n ~ ~ n n ~ ~ ~ ~ ~ ~ ~ ~ ~ ~ k k k k k k n n k k k k k m m k k k k k k k k k k k k k n n n n n n n k n n n n k k k k ~ ~ ~ ~ ~ ~ ~ ~ ~ n n n k n n n n n n n n n n n n n n n n n n k n B B n n n B n k k n k k k n n n k k k B B n n n n n k n n n n n n B B n n k k n n n n k k k n D D D k k ~ ~ n n n B B B B B n ~ k k k D D D D ~ ~ ~ ~ ~ ~ ~ ~ ~ ~ ~ ~ ~ ~ ~ ~ ~ n n n n n n B n m n k k k k k k k k k k D k k n n n n n n n n n n n n n n n n ~ ~ ~ ~ ~ ~ ~ ~ ~ n n n n n n n n n n n n n n n n n n n n n n k ~ ~ n n n n n n k m m k k k n n n n n n n n n n n n n n n n n n n B B B B B B B n n n n n n k k n n n k k k k k k k k n n n n n k k h k ~ ~ k ~ ~ ~ ~ ~ ~ ~ ~ D D k k k k k k k k k k k k m k m k m m k k k k n k k k k k k k k n n n n n n n n n n n n k k n n D D ~ ~ ~ ~ ~ ~ n n n n k n n n n n n m n n n ~ ~ ~ ~ n n n ~ n n n n n n n n n n k k k k k k k k k k n n n n n n n n n n n n n n n k k k k k k ",
"t t t t r r r r 5 5 5 t 2 2 2 * * * * * * * * * r r r r r r r r r r r r r t r r t t y y y u u u u u i i i i i i i i i i i i p p y y t t r r r r 2 9 ; ; ; 9 9 * 2 2 2 9 r r r r y y y p y y y y 9 9 2 2 * * * * ; * ; ; 9 9 9 9 9 9 9 r r 0 0 r ; ; ; * * ; ; ; 9 0 0 0 0 0 t t r r r r t t t t r r r r r r r r r r r r r r r r t t t t r r t t r r r 5 2 2 2 2 2 * = = = = 5 2 2 2 2 3 3 6 6 r r r r t y y y y y y y p p i u u i i i i p p r i i i M i i i p i p y p p t t t t 9 9 9 9 9 9 9 9 9 9 9 9 r r r t t t r r p p y y 2 2 9 2 * ; * ; ; * * * 9 9 9 9 9 9 9 r 9 0 0 9 9 9 9 9 * 2 9 9 9 9 r r r r t t t u u u u 0 u t t t t t t t t t t t t t t t t t t t t t t t t r t t t r # # # # # # # # * * * * 9 2 2 2 t r 0 r r r r r r r r r y y g y y u u i i p p p i i i i p p p p i i i i y t t t r r r t 9 9 9 9 ; ; ; ; 9 9 9 9 r r r r y y y y a y a y * * * * * * * * * * * * % 2 2 2 u u u t t t u t 9 ; ; ; r r r r 9 0 0 0 0 0 t t r r r r t t 0 0 r r r r r r r r t r r r r r 6 6 ",
"O O O O . . . . . . . O . . . .       . . . . . O O O . O . . . . . . . O O O O O O O O O O O O O O . . . . . .         . . . . O O O O O O O O . . .     . .   . . . . . . . O O O O O O O O O O O O . . . . . . . . . . . O O O O O O O O O O . . .     . . . O O O O O O O O O O . . O O O O O O O O O O O O O O O O O O O O O O O O . . O O O O O O O O O . .           . . O O O O O O O O O O O O O O O O O O O O O O O O . O O O . . . . .   .         . O O O O O O O O . . . . . . . . . . . . . . . . O O O O O O O O O O . . . . . . .       . . . . . . . . O O O . . . . . . . . . O O O O O O O O O O O O O O O O O O O O O O O O O O O O O O O O O O O O O O O O O O O .                       . O O O O O O . O O O O O O O O O O O O O O O O . .         . . .         . . . . O O O O O O O O . . . . . .     . . . . . . . O O O O O O O O O . . .         . .       . . . . . . . . . . . . . . . . . . . . O O O O O O O O O O O O O O O O O O O O O O O O O O O O O O O O ",
"2 2 2 2 5 2 2 5 + < 2 < < $ O + + O O # $ $ $ $ * * 2 2 2 2 2 2 2 2 2 2 $ % + + + + + + O O $ * 2 2 2 2 2 2 2 9 9 9 9 9 9 2 9 9 2 2 2 2 2 2 2 2 * $ $ % % % % $ % % % $ < < 2 2 2 2 2 2 2 2 2 2 9 9 9 9 $ 2 * $ * O $ r * $ 9 * O % $ O % % % % $ $ $ # $ * * * % * 2 9 * * * * * * * * < < * * * * * * O O O O O O + + $ $ $ $ * 2 5 t 5 2 # # % 4 3 < + % O % O . O $ O O O O 2 < < < 2 2 2 2 2 2 2 2 + + + + + O O O O O $ * 2 2 2 2 < < 2 9 9 * ; ; * * 9 9 2 2 2 2 2 2 2 2 9 2 2 * * % $ % % % % % 2 2 2 2 5 5 5 5 9 2 2 2 9 2 2 2 + % % % 9 $ $ r * $ 9 * O % $ O % % % % $ $ % % $ $ $ * + $ * 9 $ % % % % % % % % % 1 % $ # # # O O O O O O O O $ # # * # 2 5 r 2 < < < O < 2 < O % O $ $ O O * $ $ $ $ 2 2 2 2 5 2 2 2 2 2 2 2 % % % % + + + + O O % * * * * * * 2 2 9 2 2 2 2 2 2 2 9 2 2 2 2 2 2 2 2 2 2 * 9 * * * * 2 2 2 2 2 2 2 2 2 4 4 4 0 0 2 2 9 9 9 9 % 2 2 % 9 $ $ r % + 2 % + * % O % % % % * * * * $ $ * * $ * 2 9 % % % % % % % % % % * % # # # # O O O O $ + + + % % * * ",
"j j j j B n j a j a j B n t t t g y t y u u u y y y y y a a y y y y y y y a y t t t t t t t y g g g g g t t t t u u u u u u g g j j j j j j j g g g g u t u u t u u u y y y g u a a a j y y y y t t t t g u u m g u u 0 u B m u g u u m B n h u u u g j t y y t t u u g t u t t t t t t t y y y y y y y r r y y p p y y y y y y t y y d B k a 3 j a a n j t j t g y t a u u u u y y y y u u g g g g g y u y y t t t u u t t g j y y y y t t t t u u u u y y u u y y g g g g g y u g g u u u u u u u u y y y g g a a d d g g y a a a a a t 0 0 m g u u 0 j ..n j u u u m ..B n j t t t t g u y y u u g j u u u u g g g g g a g g u i i i i i i p p p p p y a y a d j d j n k j t k j k [ k g j g g y t y u u u y y y y y y t r t t t t t y y y y r 0 t t r r t y y y y a g g g g u u u u u g g g j j j j j j j g g j j u u u u u g g g g u u u u a a a a y y y t a a a a g a a m g u u t u B m u u u u m B n j g t t t t y y y t u u g g g u u u u u u u u u y y y y y y y y y y y y t t y y y g ",
"a a a a k [ ~ a a w g k ..k a a a h k j a a a a a a a a a a a a a a a a a a a a a t a a t a g k t a a a a a a g 0 0 t t t t a a a a a a a a a a a n n a a a a 0 a a a a a a a a a a a a t t t t 0 0 0 0 g g j B n n m h h ..m a a w g ~ n h a 0 g k k k g g a 0 a a a 0 0 0 0 0 0 0 0 0 w w w w w w w w a a a a a y y y a a a a a a a t k [ k a g w g k [ h k a g k k k a a a a a a a a t t a a a a a a a a a t a 0 0 0 a g j k a a a a t t a a a t a a a a a a a a a a a a a a a k k t a a a a a a a a a a a a y y y y t t t t a g a a a w g ~ n m h h a ~ g 0 a w g ~ ~ k a 0 k k k k k g a 0 a a a t 0 0 0 0 w e e w w w w w 0 0 a a a a a a a t t t h k k g a a a t k [ [ g g w g k ~ a k w g k k k g g g a a a a a a 0 3 0 a a a a a a a a a a a a a g k n a a a a a a a a a a a a a a a g a a a a a a a a a k k a a a a a a a a a a a a a y y y y t t r t w w w w g g h ~ m m h h h ..k a a w g ~ n h a 0 k k j j k a t 0 a t 0 0 0 t t t t t t t t t t t t t t w a a a a a a t t g j j g ",
"O. .O.O.A @.5.O.h ~ ^ ~  . .~ k h { <.<.k k k k k k k k k k k k k k k k k k h h h h h h w h | @.~ ~ ~ ~ k k k k k k k h h h h h h h k k h h h h D  . .~ k k k h k k k k h h h h h h k k D k k k k k k k h ~ | | ~ h h | <.| | A A / +.O.| | | |  .| [ [ | | ~ h ~ ~ ~ h n n n n k k k k k k n D D D D D D A A D k k k k ........@. .{ ~ D @.2. .s D ~ k @.@.D D s ~ @.@.~ ~ ~ D ~ ~ ~ ~ k k k n n ~ ~ ~ ~ n n n k k k k g n  .4.k k k k h h k k k k k k k k k k k k k k k k k k k  .| k h g g a s a a a k k k k k k k j g g h h h h h h s ~ | | ~ s h | <.[ { A h ^ O.O.^ ^ { { { [ .... ...~ h [ ~ n k n n n n D D D D ~ h ~ D k k D D k k D D D D ~ ~  .{ [ ~ @. .{ ~ h O.2.O.s D ~ D @.@.D D s { <.<.~ ~ ~ ~ ~ ~ ~ ~ k h h k k k k k D D D ~ k k k k g k  .<.k k k k k k k k h h h h h k k k k k k k k k k k k | | k h h h h k k k k k k k k k k k k k k k k k ~ h h h ~ | | ~ g h [ <.{ { A s ~ | | | | | | { [ [ [ @.| ~ k [ ~ k h k k k k k n n k k k k k k D h h h h h h ~ ~ k k | [ [ ~ ",
"] d.z.,.d.d.h.z.l.g.l.<.2.c.l./ ~ @.l.J.l.O.^ O.{ { | O.5.l.<.{ { { { { { { O.O.| | | ~ { 5.K.2.| | { { { ~ ~ ^ { ~ ~ ~ ^ ^ { { { { { { { ^ ~ ~ { | x.J.<.{ ~ { { O.@.+.{ O. .~ | | @.1.K.l.<.| { O.| ^ 1.H.H.1.O.^ O.l.z.g.g.z.l.z.z.z.g.g.h.z.<.A ~ A h | l.x.6.2.O.| / / / | |  . .|  .| | | | { { / O.) ) / 6.6.6.6.~ ~ h s ^ d.h.,.d.d.z.z.2.5.c.2.l.c.l./ ~ +.l.c.l.O./ { ^ { O.<.H.x.<.| | | | | ^ ^ | <. .| { ^ { c.H.<.{ { { { { ~ ~ {  .{ ~ ~ { { { {  .| | { ^ ^  .O.{ O.6.c.1.| {  .^ O.@. . .O. .~ { | @.1.K.l.1.| { O.O./ 2.K.K.1.O.^ O.l.l.g.g.z.l.K.K.h.g.d.g.z.+.{ ~ A A | 6.x.2.<.| | | | | | { { { { | | | |  . . .| | { | | l.l.6.6.^ D A G ) d.z.a.d.d.z.z.g.l.K.2.2.c.j./ / +.l.K.j.O.^ / ^ {  .O.6.6. .~ | | | | ~ {  .<. .{ { ~ { x.H.<.{ { { { { { ^ {  .{ ~ ~ { { {  .O.O.O. . .{  .O.{ O.l.H.1.| ^ | { O.@.O.{ O.O.{  .| O.+.x.5.1.| / O.O./ 1.K.H.1.+./ +.l.l.2.g.l.l.K.z.a.a.h.d.+.@.h A h s  .6.x.6.<.@.| { { { { O.O.O.O.O.O.O.{ { ^ ^ / { { { { l.6.6.6.~ ~ h s ",
"] a.d.a.a.+.' ' ,.z.d.+.1.z.z.g.d.d.k.d.z.l.+.^ / / O.+.O.1.K.<.) ) ) ) <.2.2./ 1.l.J.c.c.J.l.^ O.O.O.O.O.O.) O.O.) ^ ^ ^ ) ) O.O.O.) / / / O.O.) O.O.c.c.l.l.c.l.1.<.1.2.+.O.+.O.O.1.K.O.+.O./ O.^ ^ O.c.j.1.1.g.#.d.v.h.a.a.h.a.$.] ] +.a.h.h.O.^ / / A ^ / ^ +.+./ ^ / / / / { { { { { { { { / / / / ) ) ) ) ^ ~ ~ ~ { { | O.] a.h.a.a.+.' ' +.l.+.O.1.z.z.g.k.d.d.d.L.d.#.+./ A ^ <.O.2.K.2./ / / / 2.l.2.+.5.c.J.j.c.J.j.~ O.{ O.O.{ / { O.O.^ ^ ^ O.{ { O.O.O.O.O.O.O.O.O.~ ^ #.c.T.c.c.c.l.1.<.1.l.1.+.O.+.O.<.z.O.+.+.) O.^ ^ #.c.l.1.1.d.a.d.L.k.d.d.h.a.+.] ] +.9.h.d.<.O.{ O.( ^ ^ O.O.O./ / / / / / ^ { { { { { { { { { { { / ) ) / ^ ^ ^ ^ / / ) O.] a.h.d.a.+.' ' ,.l.+.+.<.l.z.a.d.k.k.d.L.d.+.+.^ ~ O.@.O.1.K.1.O.O.O.O.2.l.5.+.5.c.c.5.c.J.5.~ { { { { O.O.| O.O.O.O.O.X.X.X.O.O.O.{ { ^ ~ O.O.{ ^ #.c.c.l.l.l.l.1.<.1.2.+.O.O.+.O.,.l.O.+.+.^ O.^ ^ +.c.k.1.1.d.a.d.L.d.a.a.h.,.` ] ` _ 9.h.d.+.^ / { A ^ { / O.| / ^ / / / / / ) ) ) / / ) ) ) ) O.O.{ { { { ~ ^ ~ ~ ^ / | O.",
"1.d.d.1.S S A A S a.a.d.9.d.z.z.z.d.a.9.h.v.h.' ` ` ` ` ` 1.l.L.K.K.K.K.K.+.S A S +.k.k.k.+.^ ^ O.O.O.O.O.z.L.l.1.O.) F ) O.O.O.#.d.z.K.g.+.O.) F +.) F d.k.l.k.) S A F j.L.L.g.l.z.z.1.+.) ^ O.) ) 1.K.c.#.+.0.k.h.h.z.0.a.f.9.$.F A S S ] +.#.g.g.O.) ,.O.) ` ` ) ^ ^ / ` ` / { { { { [ [ { { { / / / ` ` ` ` O.O.O.O.O.O.O.O.1.g.d.1.S S A G S #.,.d.9.d.z.z.z.h.a.9.f.P.v.+.) ) ) / ` 1.g.L.z.l.l.l.K.+.( A F #.z.k.d.O.F O.) ) ) ) O.l.K.z.#.O.) ) ) ) ) ) #.g.z.J.l.+.O.^ ^ F A A d.k.z.l.^ S A S g.J.L.g.1.z.z.g.#.) ^ O.) ) d.L.z.0.+.a.h.h.h.b.0.f.f.0.$.F A A S ] +.#.l.j.O./ ,.+.` ^ ` ` ` ` ` ` ` ` { { { { { { { { | | | | O./ O.O.O.O.O.O.O.O.O.) d.d.d.a.S S A G S ,.a.g.#.a.h.z.v.h.a.a.f.P.v.+.O.) ) ` ) 1.g.L.z.z.z.z.z.+.^ A F #.z.k.g.) ^ O.) ) ) ) +.z.L.z.#.$.X.) ) ) ) ) +.1.l.z.1.+.) ^ ) ) S S 1.j.k.j.) S A F l.L.!.g.<.l.z.g.1.) ^ O.) ) a.K.z.0.+.0.h.h.h.b.0.f.f.0.] S A F S F +.g.j.j.O.) <.O.) ` / / / / ^ / / / { { { { { { { { { { / { | | | ` O.O.O.O.O.O.O.) ",
"g.O.S A ^ ^ ) ` ) ` d.z.9.9.9.a.a.a.a.d.0.f.v.z.g.+.) ( A ^ O.O.<.<.,.<.1.g.1.#.+.0.0.0.$.+.#.#.` ` ` ` L.z.g.z.z.0.O.) ` ` ` ` c.z.d.d.L.l.#.^ ` ] #.#.F +.#.+.+.d.d.d.a.g.g.a.a.a.+.` S ] ) ] d.z.c.l.0.0.0.0.0.a.a.9.9.a.s.+.F O.O.F A S S ^ #.c.j.l.,.` / +.O.| | | / / / { s d d d f k k k [ { { { | | | | { { { { @.1.g.l.2.O.S A ^ ^ ) O.` +.z.a.a.a.a.d.d.a.a.a.f.f.b.v.z.O.^ ^ A ` ,.` ,.,.,.,.1.g.g.1.#.0.0.d.$.$.+.+.` ` ` ) L.l.g.z.c.d.O.F ` ` ` ` K.z.k.g.L.g.O.) F O.$.X.^ +.0.+.+.a.d.d.,.1.1.1.g.1.+./ A F ] ^ d.v.L.z.0.0.a.d.0.a.9.9.0.h.h.0.F O.O.F A S S ^ O.j.l.g.` ` ) / / | | | / | | | h f f f k k k k ~ ~ ~ ~ | | | | { { { { +.<.2.l.2.+.^ A ^ ^ ) O.` +.z.d.a.a.a.d.h.h.h.d.f.f.b.v.d.+.) S A / +.) 1.1.1.1.1.g.g.g.#.0.a.d.+.+.+.+.` ` ` ) P.z.l.z.c.d.$.F ` ` ` ` K.z.l.g.).z.#.F ^ $.+.O.) #.d.#.+.d.d.d.1.1.+.+.g.1.O.( S ^ ) ] d.z.v.z.0.0.0.0.0.0.9.9.9.f.f.9.F O.X.^ F A A ) +.K.k.g.1.` ) +.| | | | { ^ { { h h h s s s s s ~ ~ ~ ~ | | | | | { / / +.<.g.l.",
"A A ^ ^ O.O.O.O.] +.d.g.l.+.] S ` #.d.d.d.d.a.+.l.1.O./ | { ^ D ~ D A A A ~ ~ ~ d.k.f.$.0.0.d.k.P.9._ a.K.` / ^ z.#.O.O.O.O.O.O.j.+.F S O.L.j.O.z.z.k.k.a.a.a.a.a.+.) ( G A ( / A A ( ^ / ) O.+.#.#.+.+.l.j.g.2.#.O.F ] a.h.h.h.F ^ O.O.O.O.^ ^ A h A ~ O.O.O.| n j t 9 2 % O O . . . O O O O . . O O O 2 9 t g k [ ..|  .O.O.~ A A A A / { / ) ^ +.g.g.1.+.^ S ` #.d.d.d.d.9.+.l.<.O./ O.{ ~ ^ ^ D A A ( ^ ~ ^ k.z.k.+.0.0.0.h.k._ _ k.L.O.^ F d.0.$.] ` ` ` ` L.+.S ( a.L.z.] z.k.k.k.0.0.a.d.a.+.) F G A ( / A A F ^ ^ ) O.+.1.#.+.+.k.d.d.d.1.O.^ ^ #.a.h.z.F ^ O.O.{ { ^ ^ A A S O.+.+.+.| m g t 2 9 2 $ O . . . . . . O O O O O O # * r p k [ ..|  .O.O.^ A A A A { { / ) ) ,.g.g.a.+.] S +.a.d.d.d.d.9.+.g.<.O./ O./ ^ D D A A A A ^ ^ ^ d.z.h.+.d.a.a.d.v.9.+.z.K.O.^ S d.0.$.] ` ` ` ` L.+.S ( ,.L.d.+.z.k.k.k.a.d.d.d.#.+.) F A S ( ) ( ^ ^ F / O.+.1.#.#.+.#.d.d.#.#.#.O.^ ^ a.a.f.h.F ^ { O.{ { ^ ^ A A S O.+.+.+.| n j t 2 < % O O . . . . . . . . . O O O * 2 r y n [ [ @.| O./ S ",
"[ [ | | ^ O.1.g.g.l.l.1.) ^ ^ / O.+.1.d.` F S ^ ^ ^ | O.O.O.| | | | | | O.@.@.O.] 9.a.f.0.0.d.d.z.z.v.L.g.` <.2.1.+.O.O.O.O.O.O.j.j.j.$.#.k.c.L.k.h.k.h.d.d.a.a.` +.+.+.,.+.) ^ / / ) ) / / O.O.F F ^ F ) 1.k.1.O.~ F ) F +.d.z.l.d.+.O.^ ^ { {  .@. .[ k g 4 + O O O O O + * 2 i p p y B B B B j i y p % + O O + + , 4 k k [  .[ [ { { O.{ O.+.g.l.l.1.^ ( ^ ) O.+.1.d.` F S ^ ^ ^ | O.O.O.| O.O.O.O.O.<.<.#.O.O.9.f.f.0.0.q.0.k.b.v.).#.O.#.1.#.+.$.` ` ` ` ` d.g.d.+.,.z.v.z.h.h.k.k.h.d.d.a.` +.+.#.,.+.) ^ / / ) ) / / O.O.^ ^ ^ ^ ^ #.j.#.O.{ ^ O.] +.a.z.l.2.@.O.F ~ { { | O. .~ ~ s 4 , O O O O O O $ * i p p p i j m B j i i p * $ O O + + , 4 h k {  .[ [ { | O.O.O.+.g.l.l.1.^ ^ ^ ) +.#.d.g.` F S ^ ^ ^ | O.O.O.| O.O.O.O.O.@.<.<.+.` 9.f.h.a.d.d.a.h.k.v.L.d.O.#.1.#.+.$.` ` ` ` ` d.g.d.+.` z.L.L.h.k.k.k.h.h.d.d.] _ +.+.1.+.` ^ / ^ / ) ) / / / ^ ^ F S ) #.k.#.O.~ ^ ) ] +.d.v.z.g.@.O.D ~ { { | O. .~ ~ s 4 , O O O O O + % < y u u u j j j j i y p r % + O O + , 1 4 h k { O.",
"B B [  .O.O.O.O.O.O.O.A ) / / ^ +.1.+.^ G ^ O.O.) O.O.O./ / { O./ O.<.2.K.K.c.z.#.+.+.9.a.a.a.a.a.z.P.L.g.+.l.K.+.) ) ) O.O.O.O.+.d.j.#.#.d.L.z.d.d.d.d.a.a.+.` 1.g.K.L.K.z.l.1.) / ^ ^ O.) ) ) / ) O.O.^ S ) l.2.O.) O.S A ^ / ) O.O.+.O.O.| ..k j t , O + % 4 n | <.6.H.T.~.'.`.`.`.`.].].].[.[.].`.`.~.T.H.H.| k 3 + . O O 5 c B [ | +.O.O.+.O.@.O.D ~ / / ) +.1.+.^ G ] O.O.{ { O.O.^ ^ / ) ) O.<.2.J.J.c.z.a.#.+.9.a.d.d.0.0.k.z.z.l.1.l.l.O.$.O.` ` ` ` ` O.d.g.1.+.z.L.v.d.d.d.d.d.a.+.` a.d.z.L.K.z.g.a.) / ^ ^ O.O./ / / ) O.O.A A ^ g.g.+.` +.] ^ ] ) O.O.+.+.O.| | ..k k 0 + O + , 4 [  .4.7.H.T.~.`._./././.`.`.].5X[.[.[._.~.T.H.H. .k 3 , O O + 2 i B [ | +.O.O.+.+.@.O.^ / / ) ) #.g.<./ G ] +.O.{ | O.O./ ^ / O./ O.<.2.J.J.K.z.,.+.+.a.a.a.d.a.9.k.L.L.l.#.j.c.O.O.O.O.` ` ` ` O.d.g.1.+.g.L.L.d.d.d.d.d.a.+.+.9.d.z.L.L.z.h.g.O.) ^ ) O.O./ ^ O.O.) / A A O.l.d.+.` O.^ ^ ] ) O.O.+.+.O.| | ..k k 0 + O + , 4 [ | 4.x.T.~._.`.`.`.`.`.].].].].].].`.`.~.T.K.x. .D l , O O + 3 ",
"    + 3 k ~ ^ | [  .| ~ ^ / O.+.L.O.A S O.) / O.O.O.O.O.+.<.1.g.J.K.l.l.g.g.#.+.] S S ] +.a.d.a.d.a.a.d.h.` O.+.O./ / / O.O.O.O.S ^ ) ^ a.+.d.g.a.a.a.a.+.` ( A ^ ) +.1.1.g.l.K.z.l.g.a.1.+.O.` / / / / O./ ^ A l.1.O.O.O./ ^ ^ { O.O.O.| ~ a 3 O O + 3 B  .Y._.].`.`.'.^.).P.K.K.c.c.c.z.z.z.z.K.L.L.P.^.4X5X5X5X[._.W.7...# O   . % 4 ~ | ^ { ~ { { D D / +.2.L.O.A S O.) ) O.{ O.O.O.+.<.2.g.J.K.z.l.l.d.1.+.] S S F +.d.d.d.d.0.#.d.z.O.) O.) O.O.O.` ` ` ` ( ] ) ) 1.g.z.a.a.a.0.0.+.` F S F ` +.a.a.d.z.K.z.l.l.2.<.+.O.O./ / / / ^ ^ D A z.d.#.+.] ) ) ) ) O.O.O.O.~ a 3 + + , 3 [ >.R.[.`.`.'.~.~.L.K.z.z.z.z.k.k.z.z.K.L.L.P.).^.(.5X5X5X]._./.7..., O   . % 4 ~ | ^ { ~ | { ~ D / +.2.!.+.S S O.) ) O.{ O.O.O.@.<.1.g.J.K.z.l.l.g.1.+.) S S ( +.a.d.d.0.#.0.d.d.) O.O.) O.O.O.) ) ) ` ( ] ) ) z.1.d.#.a.a.0.0.#.$.F S F ] +.a.d.g.z.K.K.l.l.g.j.<.O./ ^ / O.O.O.O.^ A K.h.#.+.] ) ) ) O.O.O.O.O.~ a 3 + + , 3 n >.Y.[.`.'.^.).).L.K.z.z.v.z.K.K.z.z.z.L.P.).^.^.^.4X5X5X].`./.7.[ + + ",
"j < O O . $ 2 [ ....[ { @.O.O.O.` ) ` ` ) ) ) ) O.O.O.O.1.g.z.L.l.z.+.1.] a.+.+.] ` ` ] 0.0.+.` +.a.d.a.d.d.+.+.) ^ / / O.O.O.O.O.O.) O.k.d.a.+.z.#.O.a.,.) ) <.O.) ) O.+.O.O.l.l.K.K.z.1.+.) O.) ) ) ) { { { { O.O.O.{ ) O.O.{ D  .| k 2 4 + , s @.~.'.]._.~.!.z.f.a.a.a.a.a.a.a.a.a.f.d.a.d.d.d.d.f.f.h.h.h.z.L.~.`.].].'.T.x.a 2 O O . + 4 B ....|  .^ O.O.O.O.O.O.O.O.O.O.O.{ { O.) 1.l.K.L.l.z.+.1.^ a.] ` ) O.O.^ #.#.+.] ` #.0.+.d.d.+.] O.O.O.O.` ` ` ` O.O.` +.z.+.d.z.z.#.$.0.d.O.) ] O.) ) O.,.O.+.l.l.K.K.l.#.O./ O.{ { { { { { { { ) ) ) ) ] ` ` ) D  .| k 3 4 + , s @.~._.]._.~.!.z.f.a.a.a.#.d.d.a.d.a.a.a.a.a.a.a.a.d.d.z.z.z.z.L.L.^.`.4X`.L.c.k < . O O + 4 B .. . .~ O.O.O.<.) ) ) ) ) ) ) ) O.O.O.O.<.2.z.L.l.z.+.1.] 1.#.+.) ` ` ) d.d.#.O.O.d.d.0.d.a.+.` ) O.O.O.) ) ` ` ) ] ] +.z.#.k.k.z.+.O.0.#.+.O.O.O.) ) O.,.O.+.l.g.K.L.l.2.+.) / { { { { { { { { ) ) ` ` ` ` ` ` ^ O.| k 4 4 + , s O.T./.`./.!.L.z.h.a.0.a.a.a.a.a.f.f.f.a.a.a.a.a.a.a.a.z.z.h.z.c.L.^.'.5X(.!.c.",
"`.E.>.j O   . O 2 j .. .O.) ) ) ) ) ` ` ) ) ) ) O.O.O.O./ / ^ ^ 1.<.) ) S +.O.O.+.` ` $.d.+.] ] S ` #.a.d.f.f.+./ / { O.O.O.O.O.O.O.+.+.d.d.#.+.S S ] ) d.1.O./ O.) ) O.<.^ ^ / ,.) F ] / ) ` ` O.{ { { { { { { O.O.O.O.^ O.O.{ { 3 + + + a 4.W.~.`.^.K.l.l.g.d.f.s.s.a.a.0.a.a.f.f.f.f.q.f.f.f.f.f.f.f.f.f.f.d.,.a.g.z.P.).4X4X`.E.>.t 2 O O + 2 j .. .| ^ / +.O.O.O.O.O.O.O.O.O.) ) ) O./ ^ S +.+.^ ^ A #.) O.+.) ) $.d.+.) ) F O.#.d.0.a.h.+.O.O.O.) ` ` ` ` ) ` +.a.g.d.g.#.S F ) ] a.#.O.+.O.) ) O.1.^ ^ ) 1.) S ^ ^ / ) O.{ { { { { { { { ) ) ) ) ( O.+./ { 3 + + + a 4.~.~.(.^.K.l.g.g.d.f.s.a.a.a.0.d.d.d.f.f.q.q.0.f.f.f.f.f.f.f.f.f.d.a.d.h.z.P.P.4X4X'.Y.>.j # . . O 6 a [  .O./ / O.O.) ) ) ) ) ) ) O.O.O.O./ / ^ ^ 1.<.) ) S +.O.` +.) ) +.d.+.) ] A ` d.z.a.h.a.+.) ) O.O.) ) ` ` ] ` ,.,.d.d.d.#.S S F ) d.d.+.F O.) ) O.1.^ ^ ) +.) ^ ^ ^ / O.+.{ { { { { { { { ) ) ` ` ^ O.+./ { 3 + + + a <.~.).^.).K.d.g.d.a.f.f.f.0.a.a.d.d.f.s.s.f.f.f.f.f.a.a.a.a.a.a.a.a.#.d.k.z.L.).4X4X",
"P.^.`.'.T.| 3 + O + t k ^ / / ) { { { { { { { { O.O.O.O.^ ^ / ) +.) / D ^ <.O.^ ) ] F ) d.k.z.l.^ ^ +.d.a.f.f.d./ { { { { { { O.) +.a.d.a.d.+.` ) +.d.l.l.1.+.O.O.{ / O.1.A D A 1.( A / ) ) ` O.{ { { { { { { { ` ` O.O.| ~ g 4 O + a <.~.4X4X).L.l.1.g.d.g.g.d.d.f.0.0.f.f.f.f.f.q.q.q.q.f.f.q.f.f.f.f.q.f.a.a.a.d.d.h.a.d.h.h.L.L.4X].T.{ 3 + O % t k @.{ ) / O.O.O.O.O.O.O.O.) ) ) ) ^ ^ ^ ^ O.^ ^ A S d.O.O.X.F F X.0.j.c.z.F ^ +.d.a.0.f.h.O.O.O.) O.O.O.` ( ' a.d.a.h.#.] ` +.d.z.z.#.O.O.O.) ^ O.1.A ^ D 1.( A ) / ) ) ) | { | | { { { { ) ) ) { / ~ g 4 O O a <.~.].4X).L.h.a.h.d.d.d.d.d.f.a.a.q.f.f.q.f.0.0.0.0.0.0.0.0.0.f.f.a.f.a.d.a.a.d.f.9.a.s.f.P.).4X'.H.[ 3 O O O 2 n { { ^ / ) { { { { { { { O.O.O.O.^ ^ / ) +.) ) S ^ 1.O.) ` ^ ^ ` g.k.z.l.^ ^ ) a.d.a.f.a.O.) O.O.O.O.O.` ] a.a.d.a.h.9._ ) +.0.k.j.1.O.O.O.^ ^ O.1.A ~ D +.^ S ^ ^ ) O.+.{ { { { { { { { ) ) O.O.{ ~ s 4 O + a <.W.].4XL.L.h.9.h.d.a.a.d.d.d.d.0.d.f.d.0.f.q.q.w.q.q.q.q.0.0.0.0.0.0.0.0.#.a.a.a.0.a.f.h.",
"a.a.d.K.^.4X~.x.~ 3 O , g ~ { { { { { { { { { { O.O.O.O.O.O.^ D +.~ { A ^ 1.O.^ O.#.#.$.) d.g.^ ^ F ) +.a.a.s.f.) O.{ { { { { O.O.#.d.z.a.#.O.) +.^ O.j.l.+.+.l.O.{ / O.1.A { ~ O.^ ^ O.) ) ) ) { { { { { { { { O.| | | k , + + k 7./.`.(.L.z.h.a.d.l.g.a.1.a.a.d.a.d.d.d.d.a.d.d.d.0.0.d.d.d.d.d.d.d.d.d.d.d.0.a.a.a.a.h.h.f.f.d.f.h.z.^.4X`.H...6 O + w ~ O.O.O.O.O.O.O.O.O.O.) ) ) ` O.O./ ^ @./ O.D ^ j.O.O.+.1.#.@.) d.d.F O.F ) +.a.a.0.f.#.O.O.) O.O.O.O.] +.a.d.a.d.] ] +.^ O.j.1.O.#.l.O.^ ^ O.1.A | / O.^ ^ O./ / ) / / { | | { { { { ) { { { a , + + k 7./.`.'.L.z.g.a.f.h.h.a.a.a.a.a.a.d.d.d.d.d.0.d.d.d.0.0.0.a.a.a.a.d.d.d.d.d.d.d.f.f.f.f.s.s.s.+.f.z.z.L.`.`.Y.k 3 O + g ^ { / { { { ) ) { { { O.O.O.) O.O.^ D +.~ { A / 1.O./ +.2.2.+.^ 1.1.F O.^ ` +.a.h.f.f.+.) ) O.O.O.O.O.+.a.d.d.h.d.] +.+.^ O.j.j.O.O.l.O.^ ^ O.1.A | / / ^ ) O.O.` / / { { { { { { { { ) { | [ h , + + n 7._.`.^.L.z.d.a.d.h.d.0.9.9.#.d.j.j.j.j.d.d.d.a.q.q.q.q.q.q.0.0.0.0.0.0.0.d.d.d.d.d.d.d.f.s.s.",
",.,.#.+.a.z.L.).5X`.6.k 4 + 0 n { { { O.O.{ { { O.O.O.O.^ ^ ~ ~ { ~ O.F O.l.O.^ ) A O.l.) F F ) O.O.` ` 0.a.f.0.#.` O.O.O.O.{ O.+.d.a.a.d.#.O.^ ^ ^ F F F #.l.^ / / O.1.2.^ / ^ ^ S ^ O.` ` ) ) O.O.O.O.^ ^ ^ /  ...y O O < ~ T.5X`.).z.g.d.a.a.a.a.d.d.g.g.z.d.1.1.#.#.O.O.O.O.F D k h A A A A ^ ^ ^ ^ O.O.+.+.,.,.,.,.d.d.d.a.a.a.s.f.a.h.P.^.]._.6.k 3 + a [ { O.O.O.O.O.O.O.O.O.O.O.^ ^ ^ ~ { ^ O.A O.c.O.F O.~ 1.l.O.F F O.O.O.` ` a.h.f.h.9.O.) ) { { { ) +.a.9.0.9.#.O.) ^ ^ ^ ^ ^ #.j.F ^ ^ O.<.2.~ / ^ ^ S ^ O.) ) ) ) ) { { { ^ ~ / O. .| a O O 4 ~ T.5X`.).z.g.d.a.d.f.f.a.a.d.d.a.+.j.1.#.O.O.O.^ ^ ^ ^ ~ ~ ~ ( ( ( / / / / +.+.+.+.,.,.a.a.d.a.a.9.h.d.9.#.a.d.L.^.]._.7.~ 1 O 0 n { O.O.^ ) ) { { ) ) ) ) ^ ^ ^ ^ { F O.~ O.l.O.^ O.F O.l.O.^ ^ O.O.O.` ` a.a.h.a.0.O.) O.O.O.{ O.` h.a.d.9.#.) O.^ ^ F F F #.k.F / ^ O.j.g.^ ~ / / ^ ^ O.) O.` ` ) O.| | ~ ~ / O.O.| d O O 4 ~ !.5X'.!.z.g.d.d.d.#.a.d.d.d.a.a.a.1.1.1.1.+.` ) ^ ^ F F F F F F F { { { { O.O.#.1.g.h.d.d.a.d.h.h.",
"l.l.1.+.d.d.d.h.P.P.`.].T.| 3 + 3 k  .O.O.O.{ { O.O.O.) ) / / / D A ^ F F c.c.O.^ O.#.#.O.) ) O.O.O.` ` 0.a.f.0.0.+.` ` O.O.O.O.+.d.a.a.a.+.O.^ ) ) O.O.^ O.O.O.O.{ 1.!.@.^ / ^ A ^ ^ ^ ` ` ` ` ` ` ` O.+.O.{ { g , O O j Y.5X4XL.K.h.g.a.a.d.g.g.g.d.a.a.+.O.` ^ ~ ~ ~ ~ ~ ~ ~ k k k k k k k k D D D D ~ ~ ( A ^ ^ ^ ^ ,.1.d.d.d.f.f.f.a.a.f.z.L.!.`.].W. .3 O 3 F @.{ O.O.O.O.O.O.O.) ) ) ^ ^ G A ~ D D c.c.{ ^ ~ 1.2.O.O.O.O.O.O.` ` 9.a.h.f.a.+.` ) O.{ { ) +.h.0.f.9.+.O.{ O.O.O.O.) O.+.O./ ^ 1.!.+.^ / ^ A ^ ^ ^ ) ) ) ) ) ) { { @.O.{ { g , O + k H.5X4XL.K.h.g.a.a.d.d.h.f.a.,.d.1.+.O.{ ~ D ~ D D D ~ ~ ~ ~ D n n n n n n ~ ~ ( ( ( ( ` ` ) ) +.+.1.g.d.d.d.d.a.a.a.h.K.J.`.[.J.| 4 O 3 ~ @.O./ / ) ) ) ) ) ) ) ) ) { A A ~ D D c.c.O.~ O.1.1.O.O.O.O.O.O.O.` a.a.h.a.a.+.` ) O.O.{ O.+.a.0.f.9.+.O.O.O.) ) ) ^ #.d.#.O.^ +.J.<.^ / ^ A ^ / ^ ) ` ` ` O.O.O.O.@.O.{ { k , O + k Y.5X4XP.z.h.d.d.d.d.d.d.g.1.1.l.g.+.O.^ ^ ^ ^ ( ( A A A h D ~ ~ ~ D D D D D D ~ ~ D A ( ( ) ) ,.,.d.g.",
"| @.1.g.,.,.d.z.a.a.h.L.4X`.J.@.O $ t  .O.O.O.) O.O.O.O.O.O.O.O.S F A ^ G ^ c.^.g.z.l.O.) O.O.^ O.O.` ` a.a.f.a.a.#.` O.O.O.O.O.+.d.a.a.a.+.O.~ O.O.O.O.O.O.+.z.<.c.L.c./ ^ ) A A ^ ` ^ ` ` ` ` O.` ` ` ^  .~ 4 O + n H.].4XP.P.a.a.d.h.d.d.d.d.g.1.+.O.O.^ D A A A D D A A A h k k k k ~ ~ n n ~ ~ ~ ~ ~ ~ h h ~ ~ ~ ( ( ^ ^ / +.,.a.a.a.d.d.d.a.1.z.J.5X].T. .O + a  .O.O.O.O.O.O.O.O.O.O.O.O.A S A ^ s ~ c.T.j.2.l.#.O.O.O.O.O.O.` ` +.a.h.f.a.#.O.) ) { { ) +.h.0.f.a.] ^ ^ O.O.O.O.O.O.+.z.+.l.J.l./ ^ ) A A / ` ^ ) ) ) ) ) ) ) ) /  .[ 2 O + n H.].4XP.P.a.a.d.h.d.d.d.d.a.a.#.O./ ^ D D A A A A D D D D ~ ~ ~ k n n n n n ~ ~ ~ ~ ( ( ( ( ( ( ^ A ~ ~ ^ O.+.+.#.g.d.d.g.g.l.z.L.].].T. .O % a <.| / ) ) { { O.O.O.O.O.O.F F A ~ A ~ c.~.2.l.l.O.O.O.O.O.O.O.` ` a.d.h.a.a.0.O.) O.O.{ O.+.h.0.f.9.+.O.^ O.O.O.O.) ) O.c.1.l.L.c./ S ) ^ S ) O.) ` ` ` ` O.O.` O./  .[ 2 O $ B H.5X4XtXP.a.a.a.d.h.d.d.d.l.2.<.<.O.^ A A A ( ( ( ( ( ( ~ h h k ~ ~ k ~ n D D ~ ~ k k h s ~ ( ~ h ( ( ( ^ ",
"D ~ ~ / +.<.d.a.a.f.f.a.h.P.4X5XR.y O , [ O.O.O.| | | O.O.O.+.+.` O.S ) ^ A #.l.z.z.+.A F O.O.F O.O.` ` a.a.f.a.a.a.+.` ) O.O.O.+.h.a.f.9.+.O.{ ^ ^ ^ ^ ) F F d.K.c.1.O.A ^ O.A O.) O.a.` ` ` ` ` O.O.O.~ l + + j 8.[.5XP.v.h.f.h.h.h.z.d.d.d.d.+.| ~ A ~ D h s ~ ~ ~ ~ ~ ~ n k k k k k g g g g g g h h k n n ~ ~ n n ~ ~ ~ n ~ A S ) ` +.1.g.d.,.h.z.z.g.L.^.].Y.d O + D { O.O.O.O.O.O.O.O.+.+.O.) A ) ^ G #.j.J.l.1.A F O.O.F O.O.` ` $.9.a.f.a.0.+.` ) ) { ) +.a.a.9.a.` ^ / ^ ^ ^ ^ ) F F d.K.l.<./ A ^ O.A O.) O.a.) ) ) ) ) { { { ~ l + + j 7.[.5XP.b.h.s.h.h.h.z.d.d.d.d.` ) ^ ^ ~ ~ ~ ~ ~ k k k ~ ~ [ [ k k k k k h h h j j g g n n n ~ D D D D D k k h A A F ^ +.1.l.g.a.g.g.d.g.P.(.].7.y O + [ | / / { { { { +.+.+.+.O.O.S ^ ^ A #.l.c.l.#.A ^ O.O.^ O.O.` ` a.d.h.a.a.a.+.` ) O.O.O.#.h.a.a.a.+.O.^ ) ) ) ) ^ S S d.l.K.g./ A A O.S +.` +.a.` ` ` ` O.O.O.O.~ l + + k 7.[.5XP.P.h.f.f.f.h.f.h.d.d.d.^ D h s ~ ~ ~ ~ ~ ~ n n ~ ~ ~ ~ n k g g a a a a a g g g k n n [ h m n n h n ~ ~ ",
"h h D ~ ~ ^ O.+.h.d.f.f.s.s.b.P.5X[.8.% + 1 D ~  .@.c.'.`.^.^.4XL.L.z.#.+.] S F S S S F ) S O.O.O.+.+.` z.h.d.a.h.#.] ` ) ) O.O.a.a.f.f.d.` ^ O.F O.+.) ) ^ S G A ( S G ^ O.2.K.^.^.^.^.4X4X^.K.O./ ~ h 4 + , <.[.`.^.v.f.a.a.a.d.g.z.h.+.` ( S D D ~ ~ ~ ~ ~ k k j y r 3 , + , O O O O + + + + + + + + + + 1 < t j j n k k ~ ~ A A A ^ A ^ { O.l.g.g.g.a.a.d.z.5X[.4.+ O 1 ~ O.F @.J.`.(.^.4X4X!.L.z.#.+.^ A S G A S F O.S O.O.O.+.+.` k.h.f.f.k.#.` ` ) ) O.O.a.a.f.f.h.` ^ O.F +.+.O.) ^ F A A ^ ^ A ^ O.g.K.^.^.^.^.4X4X^.K.O.^ ~ h 4 + , <.].`.^.v.f.s.a.a.d.g.z.h.+.` ( S G A A D h h k k g u u u 2 2 2 2 $ $ $ $ O O .   O O O O O O * 2 0 g n n k k k k h s s A ~ ~  .+.g.d.d.a.d.d.h.P.4X_.4., O 1 ^ O.~ @.H.~.^.^.).).L.L.z.#.O.F G A F ^ ^ ^ +.S O.O.O.O.+.$.z.h.d.a.a.#.` ) ) ) O.O.a.a.f.f.d.+.) O.S O.+.) O.O.^ A A ( S G ^ O.2.K.^.^.^.^.4X4X^.K.O.^ ~ h 4 + , <.].`.^.v.f.s.a.a.d.h.z.h.+.` ] S ~ k k k k k k k j j y t 2 2 2 2 $ O O O O O O O O O + + + * 2 3 a g k g [ n m n ",
"n n k k h ~ ~ ~ ) +.a.d.f.s.s.s.h.^.[.W.B O , a 4.W.`.J.K.z.f.h.v.z.L.^.L.z.#.F S F ) ) O.d.!.L.z.a.] ] z.h.d.a.a.+.] ] ) ^ ~ ^ #.a.f.h.h.0.O.^ 1.L.^.J.+.O.^ ^ S S ^ +.K.~.^.K.z.v.v.v.z.z.P.4XJ.{ 3 , + ~ H.].'.L.h.s.h.h.g.g.l.1.+.` ^ A A D k k k n k a 4 + + + + + , + < 6 d d d d [ [ [ [ [ [ [ [ B x j a 4 + + + 3 a n n ~ ~ A A A A D ~ / +.d.g.a.d.d.d.h.^._.Q.x + , s 4.T.~.J.l.z.h.h.z.l.K.^.L.z.#.^ S F ^ ) O.j.!.!.c.d.) ] z.h.d.a.a.+.] ] O.^ F F #.a.f.h.h.+.F ~ 1.L.^.L.+.) F ^ ^ S / +.J.~.(.J.z.v.K.v.z.z.P.4XH.[ 3 , + ~ H.].`.P.b.s.h.h.d.g.l.1.+.` ^ A A D A D k k k a 4 % + + O + % $ $ $ * * * * * # $ O     & * # # $ $ O O O < t a k k ~ ~ ~ D D k h D ^ O.d.g.g.d.d.d.z.^.].R.[ + , h 7.W./.K.l.z.z.z.z.z.K.^.!.c.#.^ S ^ O.) +.l.!.!.c.#.) ] z.h.d.a.0.$.] F ) ^ ~ ^ #.a.f.h.h.a.O.^ 1.L.^.J.+.) ^ ) S S ^ +.K.~.^.K.z.v.v.v.z.z.P.4XH.[ 3 , + ~ H.].`.P.b.s.h.h.d.g.l.1.+.` ^ S S D ~ k k j j a 3 4 O O + $ 2 2 2 2 p y d d d d d c c c c c d y t 5 , + + , 3 g k k ",
"n n n n k k h D k ~ O.,.a.a.f.s.d.g.z.`.`.5.+ O k 4.x.#.g.d.a.9.d.9.0.h.z.P.P.z.+.O.) ] +.k.g.#.K.z.` +.k.h.d.a.a.0.+.] ) ^ ~ O.a.a.f.f.h.z.O.O.^.j.#.1.#.) ) +.+.1.c.(.K.K.l.2.d.f.f.f.f.a.f.z. .3 + , 4./.5X!.z.d.a.a.z.z.g.<.O.{ ~ D D D D D k a t 2 O , 3 d z z P P x x P %.&.:.:.:.-.-.-.-.-.-.-.-.-.:.-.-.<.&.[ d , + # 5 k k D D D k k ~ A ^ ) +.a.d.f.h.d.1.z.`.4X8., O s 4.6.#.1.a.0.0.a.#.+.d.l.L.!.z.O.O.) ^ +.g.1.#.J.z.O.+.z.k.a.a.a.0.+.] O.^ F O.a.a.f.f.h.d.O.X.^.l.1.g.1.O.O.O.+.1.K.'.K.K.l.g.d.f.f.f.f.a.f.z. .5 O , 4./.5X!.z.d.a.a.v.z.g.<.O.{ ~ D D D D D [ k w 1 + + % % 2 3 3 3 a t t t 3 2 2 2 t t 9 9   . * r i u r 2 2 0 3 4 + + , , a j n n n k a a s D O.<.d.d.g.d.z.g.z.`.`.6., O g <.l.1.d.a.f.a.a.#.#.g.z.L.).z.+.O.O.) +.g.#.O.!.c.) ` z.h.f.a.d.9.+.) ) ^ ^ O.a.a.f.f.h.z.#.O.^.j.#.1.1.O.O.O.+.<.c.(.K.K.l.2.d.f.f.f.f.a.f.z. .5 O , 4./.5X!.z.d.a.a.v.z.g.<.O.{ ~ D A D D D B j 2 , + < 3 6 d j c c V V V c x x P P P P ....................K x d 3 + + + < ",
"+ 1 t g k k k k k k k D ) +.a.a.l.1.+.a.L.].T.g + 4 D 5.g.d.d.f.#.d.k.d.a.d.z.P.L.z.+.] ] ) A F 1.K.a.k.k.k.d.a.d.z.d.O.^ O.O.j.z.d.a.9.9.v.1.j.l.) S S +.F ^ +.L.L.K.l.l.1.1.l.d.f.s.s.a.d.,.{ + O j H.].T.l.1.h.h.d.d.l.g.+.| h h k ~ n k k k + , < 3 f .. . .&.&.&.&.I P } &.-.-.-.*.*.*.*.*.o.o.o.o.*.*.-.-.-.&.:.-.:.P 8 8 + 4 l h k k D ~ ~ D A A ) #.a.d.k.a.9.a.P.5XW.k + 3 [ 5.d.a.f.f.#.d.k.g.d.d.z.L.L.z.+.^ ) ) G ) 1.L.a.z.z.k.a.a.k.z.d.O.^ { O.j.z.d.0.9.0.z.#.k.z.O.S F ) F O.+.L.!.J.l.l.2.2.l.d.d.s.s.a.d.,.{ O O j H.].T.l.1.h.h.d.d.z.g.+.O.h h k ~ ~ k k k 4 1 , , 1 2 r p 0 0 0 0 0 0 0 0 t t t t u 0 0 9 O O 2 9 t t r 0 a 0 0 a t 4 + + + , 3 a k k k a h h h A ` ,.d.d.d.,.+.f.L.4XW.k + 3 D 6.g.d.d.d.#.k.l.j.0.#.k.z.c.l.#.O.O.) s S #.!.d.k.z.k.d.a.v.z.1.O.^ O.O.5.z.d.0.+.9.v.d.j.k.) S S ^ F ) +.L.L.K.l.l.1.1.l.d.d.f.s.a.d.,.{ O O j H.].T.l.1.h.h.d.d.z.g.+.| h h D ~ ~ k k k + + , < c c z x [ x x z z z z z I P P x x x P P P P P P P P P I I P P P P K f 8 ",
"4 1 1 + 2 a n [ n k k k h A ` 1.g.g.a.,.a.K.4X`.{ , + [ l.l.d.d.#.@.O.O.1.d.d.d.l.l.l.k.+.S A ` a.P.!.L.0.a.d.d.#.j.!.j.O.1.T.c.@.+.a.a.9.z.).L.d.+.] A ^ +.l.z.l.g.1.g.2.#.O.O.+.d.h.a.h.g.3 O +  .W._.J.j.1.a.f.f.a.#.+.~ h D k k k B a 5 + + 8 G [ } } o.o.o.o.o.o.&.} J I &.*.*.*.*.*.*.*.*.*.*.*.*.t.t.t.t.t.-.-.-.-.-.-.-.@.G 4 4 < a k D D D D D A F +.a.h.h.a.a.d.v.4X`.[ + O [ 5.d.d.z.#.#.#.#.d.d.#.+.d.z.z.1.+.S A ` d.P.L.z.a.a.a.#.+.j.^.l.O.#.T.c.@.+.a.a.9.z.L.L.d.#.] S F +.k.z.z.g.1.l.1.+.O.O.+.d.h.a.d.1.w O +  ./.`.J.j.1.a.d.a.a.a.O./ ^ A [ k k k j r % + 4 3 0 0 0 0 0 0 0 0 0 0 0 0 0 0 0 0 0 0 0 0 0 9 O O 0 0 t t 0 0 0 0 0 0 0 0 0 0 3 4 + , 0 a k k h A D ~ ~ ^ / ,.1.g.,.a.d.K.4X`.{ , + [ 1.k.d.a.#.#.#.+.+.a.g.d.k.k.k.k.+.A S ) 9.L.L.v.a.d.d.1.+.j.!.l.#.1.J.c.O.+.#.a.+.h.P.L.d.+.] S F +.k.z.l.g.1.g.2.#.O.O.+.d.h.a.z.5.3 O +  .~._.J.j.1.a.h.f.d.d.@.~ h k k k k B a 6 + + 6 6 8 z z z x x x x K K P P P P P P I I I I I I P I P P I I P I I I I I I :.;.-.",
"t 0 2 2 + 1 3 t B n n h h A ~ ^ +.2.g.a.d.d.v.P.5X5.+ + D O.^ G s s s s G F #.g.g.g.g.g.c.d.0.d.a.v.v.z.d.d.O.A ) A O.c.j.c.l.^ ~ A ] #.h.a.z.P.f.a.9.+.d.d.k.j.2.g.1.O.^ A e e A S ] ` O.l + , 7././.5.j.1.a.d.a.9.+.O.~ D k [ k x j 6 O + 5 x L L Y Y o.o.o.o.*.*.*.&.} J I *.*.*.*.*.*.*.*.*.*.*.*.*.e.e.=.e.t.e.e.e.e.e.t.t.t.j.-.K 3 , , 3 d f D F A A A S #.a.d.0.a.a.v.^.`.<., + k  .{ s A A A A G F +.j.d.d.d.k.l.#.O.d.d.v.v.z.d.g.O.A F A O.c.1.l.l.F ~ S ) 9.a.0.h.P.f.a.9.+.d.d.j.g.g.l.1.O.S A e l s A ] O.O.l O , x.`./.j.k.a.a.d.d.#.+.^ ^ ~ ~ ~ k B k t + % 2 y 0 0 0 0 0 0 0 0 0 0 0 0 0 0 0 0 0 0 0 0 0 w 0 0 O O 0 0 0 t 0 0 0 0 0 0 0 0 0 0 3 3 3 2 + , 2 a ~ ~ ~ D D A A ( +.1.d.,.a.f.b.^.4X@., , s O.O.G G G G G A ^ +.g.g.g.d.d.c.1.1.k.9.v.v.z.d.d.O.A F A O.c.1.c.l.S D A F +.a.a.h.P.f.a.9.+.d.d.k.j.2.g.1.O.^ A e e G A ] ` O.w O < 7././.j.d.a.a.d.a.9.#.O.~ D k B k k j 3 + + 5 x x z f z x x x x x K P P P P P P P P P P P P I I P P P P I P I I I I I T U W t.e.",
"t t 0 0 t 2 + + % t k [ ~ D h h ^ +.2.g.h.a.9.d.!.`.x.< O < h F ~ ^ F F ^ A A O.d.d.d.g.d.g.a.0.d.h.d.d.d.#.) A #.^ F d.z.k.O.F #.O.^ ] a.a.f.v.h.f.d.a.k.d.g.g.1.1.O.S A ^ ^ O.S S A A 3 O a c.].c.#.+.a.a.f.a.0.+.^ A A D k j y # + + d ..@.L o.o.o.o.o.o.o.o.*.o.-.&.} J I *.*.*.*.*.*.*.*.*.*.*.*.e.e.e.e.e.e.e.e.e.e.e.e.t.y.-.j.j.;.} l + + a k s h G A G F $.0.0.a.d.d.z.J./.8.t . 5 k A ^ ^ ^ ^ ^ A S O.j.g.1.1.j.g.#.1.h.h.h.a.g.#.^ A #.^ F d.z.d.+.S #.O.) ) a.0.a.b.h.h.h.h.d.d.d.d.1.1.O.( A D ~ { A A s h 6 O a H.].K.#.+.a.a.f.a.#.O.^ D D D k k a # + + 3 0 t t 0 0 0 0 0 0 0 0 0 0 0 0 0 0 0 0 0 0 0 0 0 0 0 0 O O 0 0 0 t 0 0 0 0 0 0 0 0 0 0 3 0 a t 0 4 , , , w ~ | ~ h h h ~ +.1.d.a.a.f.h.K.].x.6 . 3 D D F F F F A A F 1.1.d.0.d.#.#.#.#.a.h.d.d.d.#.) A +.F F d.l.z.+.S +.) ^ F a.a.f.b.h.f.f.a.k.d.g.g.1.1.O.S A ^ ^ | A A h k 3 O a x.`.c.#.+.a.a.f.a.a.+.F G h k k k d < + , d .. .[ P z z z x x x x P P P P P P P P P P P P P P I I P P I I I I I I I I I I U E t.e.",
"t 0 2 2 0 0 r 2 < 4 4 w D k k h k ^ +.2.1.h.h.h.k.L.].Y.c O , [ { O.) { #.A A #.g.d.d.g.k.d.a.9.d.a.9.a.#.) O.d.+.` ] d.+.k.+.] ) #.+.F ` a.f.9.b.h.a.9.#.d.k.z.l.+.^ ( +.+.O.| / +.~ , O k ~.^.l.a.a.k.a.d.a.0.S F ^ ~ D ~ k 3 O 5 j K  .} } o.o.o.o.o.o.o.o.o.*.*.-.&.} K I *.*.*.*.*.*.*.*.e.*.*.e.e.e.e.e.e.e.e.e.e.e.e.e.t.-.-.*.$.u.*. .x 8 < , 8 h k k f s A O.#.1.k.z.d.+.l.5XT.t O 3 [ ^ ) ) ^ 1.F A O.1.2.d.1.1.g.#.#.h.a.9.#.1.) ) 1.+.) F #.a.a.+.F ) +.+.F ` a.f.9.b.h.a.9.#.a.k.z.z.+.^ ^ O.O. .| ^  .k + . j W.'.z.a.a.h.a.f.a.0.^ ~ ~ ~ [ k a t O $ 2 r g a a a 0 0 0 0 0 0 0 0 0 0 0 0 0 0 0 0 0 0 0 0 0 0 0 0 O O 0 0 0 t 0 0 0 0 0 0 0 0 0 w t 0 0 3 0 0 w 0 + , 4 g h h k h A ~ +.1.a.h.h.d.g.c.5XT.d O < [ O.O.O.O.<.( F 1.1.1.#.#.#.#.#.+.a.a.9.#.d.O.O.1.+.) F #.#.k.+.` ) #.+.F O.a.h.s.b.h.a.9.#.d.k.z.l.+.^ ( +.+.O.| / O.n , O c W./.l.a.a.h.a.f.a.0.S S F F D [ k 3 + 5 f K @.} [ } L J z z x x x x P P P P P P P P P P P P P P I I I P P P I I I I I I I I I W t.e.",
"0 0 0 0 0 0 0 0 3 3 4 1 < t k k ~ ~ D ^ <.1.a.1.l.O.a.4X/.d O t [ { { O.F ^ j.!.1.+.` ) #.d.d.a.a.h.d.a.+.^ O.#.+.) a.0.#.+.d.` +.d.#.) O.+.a.s.f.a.a.a.d.#.O.O.1.z.l.+.O./ ~ { O.{ , O [ /.'.d.] a.z.a.d.#.$.F F F A h h 4 , l x [ } %. . .o.o.o.o.o.o.o.o.o.*.*.*.*.:.%.P o.-.-.t.t.t.e.e.e.e.e.t.e.e.e.e.e.e.e.e.e.e.e.e.e.t.t.t.t.t.u.y.&.L o.} 8 + < d D K A s A O.#.d.h.d.1.O.z.^._.x + 6 | ~ X.O.F ) g.L.d.+.) ) #.d.d.d.h.d.d.d.+.] O.d.+.) a.a.#.+.a.` O.a.#.^ ` +.9.f.f.f.d.d.d.#.O.O.1.z.g.+.O.{ ~ { O.{ + O B W.`.d.] f.z.a.d.,.' ^ ~ [ ~ a a 4 + + t t r r t 0 w w 0 w 0 0 0 0 0 0 0 0 0 0 0 0 0 t 0 0 0 0 0 0 0 9 O O 0 0 0 t 0 0 w w w w 0 0 w w 0 0 0 0 0 0 0 0 0 3 , , 3 g n h k A A ^ 1.a.a.#.k.+.k.4XW.f + 6 { ^ ^ O.) +.1.c.d.+.O.O.a.d.d.d.a.f.a.d.) ) +.g.+.` a.a.#.+.d._ ` 1.#.^ ` +.a.s.f.a.a.a.d.1.+.O.1.z.l.+.O./ ~ { O.{ + O B W._.d.] f.z.a.h.9.+.F A A k h k 4 , 6 f K  .&.} o.o.o.} J z J x x P P J J P P P P P P T T T T T T T T E &.&.&.Y Y Y Y Y Y E E Y W e.e.",
"0 0 0 0 0 0 0 0 0 0 2 2 + + 2 n [ ~ ~ ^ ^ +.1.l.g.a.f.z.4XW.x O 4 [ | { ^ d.L.k.S S S S A ] a.h.d.a.d.d.#.O.) O.#.#.+.F ) F ) +.1.+.O.) +.9.f.f.f.f.a.#.] A G S ^ +.l.z./ O.O.~ [ , + .._.L.1.d.a.a.d.d.#.O.F A F A s a + 4 s K }  .o.o. .}  .o.o.o.o.o.o.o.o.*.*.*.*.:.%.P &.-.-.t.t.t.e.e.e.e.t.t.e.e.e.e.e.e.e.i.e.e.t.t.t.t.t.t.t.t.u.t.*.L -.-.y. .< + l K k K F A ^ +.a.z.1.d.a.z.`.W.x O 4 [ { O.) d.v.d.F A A A A ` a.h.d.d.d.d.#.+.O.O.#.#.+.F ) F ` +.1.+.O.` +.#.f.h.a.f.a.9.] A G S F a.K.z.) O.O.~ { , O .._.T.#.d.a.a.d.h.,.O.^ A h k j t + O O # t r r r t t t 0 w w 0 w 0 0 0 0 0 0 0 0 0 0 0 0 0 0 0 0 0 0 0 9 O O 0 0 0 t 0 0 w w w w 0 0 w w 0 0 0 0 0 0 0 0 0 0 0 3 , , 0 ~ ~ D D ~ ^ O.a.k.#.a.f.v.4X/.B . 3 ~ O.O./ #.z.k.F S S S S ` a.h.a.f.a.a.#.O.) O.#.#.+.F ) F ` +.1.+.O.) +.9.f.f.f.f.a.+.] A A F ^ ,.z.K./ O.O.~ [ , O ../.T.1.g.a.a.d.h.0.O.F A D k s l + 3 f [  .} } } } o.o.o.I J z J x x P P J J P P P P P P T T T T T T T T E E &.&.&.&.E E &.&.E E Y =.i.i.",
"0 0 0 0 0 0 0 0 0 3 3 3 t 2 $ < g k ~ ^ A ^ +.g.h.h.h.a.d.`.W.k O 3 [ { ) z.v.9.] a.k.#.S ] ' #.h.d.a.d.a.+.^ ^ ^ S A ^ O.^ S ^ A G S +.9.0.f.f.f.h.a.] F ) 1.z.+.] O.K.+./ { ~ + O { 4X).k.9.+.h.d.1.#.~ D A D [ 8 , 4 a [ @.} o.o.o.o.} } o.o.o.o.o.o.o.o.*.*.*.*.*.:.%.P &.-.-.t.t.t.e.e.e.e.t.t.e.e.i.i.i.i.i.i.p.i.i.i.i.i.i.i.i.y.y.t.*.Y Y t.*.t.-.K , , d k k { A ] +.a.a.h.a.+.d.'.W.k + a D O.` h.b.9.F #.k.#.S F ` +.d.d.a.a.d.+.^ ^ F A A ^ O.) S ^ A G S +.9.a.h.h.0.f.0._ F ) 1.z.+.^ <.K.+.{ { ~ % O [ `.^.l.#.+.h.d.a.+.^ ^ A D ~ a < + O O O * r t t t r r r r 0 w w w 0 0 0 0 t t 0 0 0 0 0 0 0 0 0 0 0 w 0 9 O O 0 0 0 t 0 0 0 0 w w 0 0 0 0 0 0 0 0 0 0 0 0 0 0 0 0 a 4 , 4 h D D ~ A ^ +.d.9.f.f.9.h.`.W.x + 3 [ O.O.a.b.a.^ 1.l.1.F ] $.+.d.d.a.a.d.+.^ ^ F S A ^ O.^ S ^ D A F +.9.0.a.f.f.h.9.] F ) 1.z.,.) O.K.+./ { ~ + O ..].^.k.#.+.h.d.a.+.^ F A A [ l , , a [  .[ o.o.o.Y I o.} } I J z J P P P P P P P I I I P P T T T T T T E T &.&.&.&.&.&.&.&.*.*.*.W Y e.i.i.",
"0 0 0 0 0 0 0 0 0 3 3 3 r t 2 + + 0 k ~ [ ~ ~ ` d.a.a.a.9.z.(./.a O 4 { ) a.f.9.] F +.c.` F _ d.d.h.d.a.a.+.) O.F O.^ O.^ #.) O.{ { O.+.9.0.f.d.a.h.9.F ] 1.j.#.^ O.1.l.O.@.~ 3 O [ 4XP.h.9.9.+.9.k.#.A h k K [ 4 , 3 [ [ ..} o.Y Y o.Y I Y o.o.o.o.o.o.o.o.*.*.*.*.*.:.%.U &.-.-.t.t.t.e.e.e.e.t.t.e.e.i.i.i.i.p.p.p.p.p.p.p.p.p.p.u.u.y.t.*.Y e.e.u.e.t.-.&.8 + 6 f k D D F ] a.a.a.a.z.z.!.W.k O l { ) 0.f.9.) F +.z.) S ] 0.d.d.a.a.a.+.^ ^ F O.^ ) F +.) O.{ ^ ` +.a.h.h.h.9.h.9.F ] 1.j.#.( ) <.l.O.@.~ 0 + ..`.L.h.9.9.+.#.d.+.A A k ~ [ 3 % + < * O . O t a a t t r r r 0 w w w 0 0 0 0 t t 0 0 0 0 0 0 0 0 0 0 0 w w 9 . O 9 0 0 0 0 0 0 0 0 0 0 0 0 0 t t 0 0 0 0 0 0 0 0 0 0 0 0 2 + , a k k ~ ^ ^ O.9.a.a.9.0.h.^.[.f + l @.) z.f.0.) ^ #.c.` F _ a.h.h.a.a.d.+.^ ^ S O.F ^ F O.^ { { O.+.+.9.0.a.d.0.h.9.F ) 1.l.1.^ O.1.l.O.@.~ 3 O [ `.).h.9.9.+.#.d.+.A h k k [ 3 + , k [  . .} L Y Y o.Y Y I I I J z x P P P P P P P P I I P P T T T T T T E E &.&.&.&.*.*.*.*.*.*.W W Y e.p.p.",
"0 0 0 0 0 0 0 0 0 0 0 0 t r r r $ + 0 g k ~ D s ) 1.d.a.a.a.z.^./.g + w / ) a.d.O.+.+.+.O.) ` a.f.+.f.0.f.0.F ) ) ) ) X.O.O.) ^ { O.) +.h.a.h.9.0.0.$.F O.O.O.+.) #.g.1.^ ~ < . @.`.).a.b.f.0.a.#.O.{ A k k [ 4 4 f [ } } }  .o.o.o.o.o.o.o.o.o.&.&.&.&.&.&.&.&.*.*.&.&.&.&.Y Y t.t.t.t.i.i.u.i.i.i.i.i.i.i.i.p.p.p.p.p.p.p.p.p.i.p.p.p.u.i.e.Y Y e.i.i.i.i.t.t.K + # d j k D F ] d.h.a.9.9.d.T._.k + a O.F 9.d.+.O.#.O.+.) ] 0.d.9.a.f.f.a.] ) O.O.O.O.O.O.) ) { { ` +.h.0.h.9.9.f._ ] O.O.O.+.) +.g.1.O.~ , O | `.4Xh.z.h.a.a.d.O.^ A k [ j < + $ # * O O O O 0 0 0 0 a a a a a a a w q 0 0 0 0 0 0 0 0 0 0 0 0 0 0 0 a 0 0 % . . # 2 t 0 0 w 0 0 0 0 0 0 0 0 0 0 0 0 0 0 0 0 0 0 0 0 0 0 0 0 2 $ 1 g ~ ^ ~ A ` ,.a.a.a.d.v.^._.k + w O.^ ,.h.O.+.+.+.O.] _ 9.d.9.0.f.w.0.F F O.O.O.O.O.) ) O.{ { ] #.h.a.h.9.0.a.` ] O.O.O.+.) +.g.<.^ ~ < . @.`.).a.z.h.0.a.d.O.A k k j c + , f  . .} X.X.X.o.Y Y Y Y Y Y I P J P P P P P P P P P P I I I I T E T T E E &.&.E E E E *.*.e.e.e.e.e.e.e.e.i.p.",
"0 0 0 0 0 0 0 0 0 0 0 0 r r r r r # * p j g h ~ A ) 1.d.a.a.a.z.^./.s + h / S 1.T.l.O.^ O.) ` a.h.0.d.f.s.f.] ) ) ) ) ) O.O.) ^ { O.) #.f.a.a.9.a.a.+.] S F O.O.^.z.O.~ ~ a O j 4X^.h.a.f.0.f.a.^ F A k k d + , k ..} L } } } } o.o.o.o.o.o.o.o.&.&.&.&.:.:.:.:.&.&.&.&.I I I I ;.r.r.e.u.u.i.i.i.i.p.p.p.p.p.p.p.p.p.p.p. XOXoXp.p.p.p.i.e.e.W W Y e.e.i.i.i.t.-...+ O d c f h F +.a.a.a.9.#.z.'./.s + A F A 1.c.c.+.) ) ] ` a.h.a.a.h.f.f.` O.^ ^ ^ ^ O.) ) ) { { O.+.h.a.a.9.0.h.$.] S F O.O.^.z.` ^ ~ w O j `.^.h.9.h.a.f.a.O.^ A D [ a < $ # * * * O O O O < 3 t g 0 0 0 0 0 0 0 0 0 0 u u t t t 0 0 0 0 0 0 0 t t a 0 1 + . . & # r t 0 0 0 0 0 0 u t t t t 0 0 0 0 0 0 0 t t t t 0 0 0 9 * O O 4 k h A ^ ^ O.#.a.a.a.f.z.`._.h + A ~ A 2.!.l.O.F O.] _ 9.h.d.0.h.w.f.O.) ) ) ) ) ) ) O.O.{ { ^ 9.h.a.a.9.a.h._ ] S F O.O.).z.O.^ ~ a O j 4X^.h.a.f.a.f.a.O.A ~ k j c O 5 B .. . .o.o.o.o.I I I I I I I I x z z x J J P P P P P P I I I I T E E T E E &.&.E E &.&.*.*.e.e.e.e.e.e.$.p.! p.",
"1 1 1 2 1 1 1 1 1 1 < * * * * * 5 * $ $ % j n k A A ) 1.a.a.a.a.z.4XT.l , [ ^ s ~ ~ A A O.) $.a.d.d.9.f.f.f.$.) X.X.X.X.) ) O.O.{ O.) #.a.d.#.#.h.h.9.] O.) F A F S A ~ g O a _.4Xv.a.h.0.d.d.O.A h h A a 3 1 K ....L K  . . .o.o.o.o.o.&.&.&.&.} o.} } &.%.&.&.} } } } I I I I :.*.*.=.e.e.e.e.e.e.i.i.p.p.p.p.p.p.p.p..X*XrXgXXXp.i.p.e.! ! e.W Y Y W e.*.e.-.:.:.%.5 < y j k ^ F ` a.k.#.9.a.z.4XJ.l 4 K F G D A A ^ ) ) +.a.a.d.+.h.f.h.+.O.^ ^ ) ) ) ) ) O.{ { ` +.a.a.+.#.a.h.+._ O.) F A ( S A ~ a O 3 _.5Xz.9.a.a.a.a.O.A A D D a , O + * & @ @ O O O O $ % 2 r t t t t t t t t 9 9 9 9 9 9 9 2 2 2 2 2 9 9 9 9 2 $ O O   . . . * * * * * * 2 2 9 r r r r r r t t r 0 r 2 2 2 2 % % $ # .     O % g ~ D ~ ^ O.#.a.a.a.d.z.5XT.l , n ~ A ^ S A A O.] _ 9.0.f.+.h.w.f.+.O.) ) ) ) ) O.O.X.O.O.) 9.a.a.+.#.a.h.+.` O.) F A S A A ~ g O a _.4Xv.a.d.0.a.d.O.s ~ s k d # # 5 ..[ x K [ L L U K K K K P P P P x z x x U P P P P P I I I I I I T T E E E E E E E E W W *.e.e.e.e.! ! ! p.p.! oX",
"O O O O O O O O O O O O O O . . O $ $ O O * u B D A A ) #.a.a.a.+.z.5X6.+ , [ { D ~ { O.O.) $.a.+.0.] 0.f.f.+.O.O.O.O.O.) O.O.+.O.+.` a.a.d.O.+.h.h.0.$.O.) ^ ^ ^ ^ { [ O , T.4Xz.h.h.a.d.d.O.A D k h a , , a h K f f K J J G J G G f f J J K K K K K K P P P P P P L L T T T T Y Y Y Y Y Y W W W W e.! i.i.i.! ! ! ! ! .XyXiXzXoXp.! ! ! ! ! e.e.W Y Y W W W W I I P P , % j ..{ A S +.k.#.#.9.a.z.5X5.+ + D | ~ ~ O.O.O.) ` #.+.9.] #.f.h.#.+.O.O.O.O.O.) O.O.) ) ` +.9.a.O.+.d.z.9.$.O.) ^ ^ ^ / | [ + , T.5Xv.h.a.d.d.d.O.A s D ~ h + + + + @ O .   O O O O O O O + + + $ $ $ $ $ O O O . . O O O O O O O O O O O O O O . .     .   . . O O O O O O O O O O O O O O O O O O O O O O O O O .       . O < a [ ~ ~ ~ O.#.a.a.a.a.z.5X6.+ + ~  .A ^ ) O.` ] _ 9.+.0.) 0.f.f.+.+.O.O.O.O.O.O.O.+.O.O.` a.9.a.O.+.h.z.+._ O.) ^ F ( ^ ^ [ O , T.4Xz.h.h.a.0.d.X.A s k [ a + + 6 d 5 6 d d d f f f f f z z z z z z J P J J U U P P P P I I I I I I T E E E E E E W W W W W e.e.e.e.! ! ! ! p.! :XgX",
"2 2 2 2 2 2 2 2 * O O . . . O O O O O + % O $ y | A s S +.d.h.z.a.d.L.`...+ a |  .O.+.O.) ) +.a.d.#.F ) d.d.1.^ d.d.z.d.) ` z.g.g.+.+.h.h.,.G F a.a.h.+.) O.O.X.O.^ | , O 4.4XP.h.h.a.d.j.O.A k a k k , 3 k [ F K L } L L L L L J f f f z J K P L P P P P I I I I I I I T T T T :.*.*.W e.e.e.e.e.! i.! ! ! i.i.p.p. X:X2XiXiX<X.X! ! ! ! ! ! ! e.e.e.e.*.W W W W W &.&.%.< % g [ ~ A F O.a.a.a.h.a.v.(.[ O 4 [ | { O.^ ` ` #.d.a.#.F ) d.d.d.) d.k.z.j.^ +.z.g.k.$._ z.h.#.A F d.a.a.+.) ) O.X.O.~ [ + O 4.^.P.h.d.d.d.g.O.D k k [ a , + + < < O @ @ @ O O $ $ $ $ + + % % % % 2 * $ O @ . . . . O O O O O O O O O O O $ # # & & & @ O O O O O O O O O O O . .     O @ $ % 2 9 2 2 2 2 2 2 2 2 * * * * 5 O + j k ~ D ^ +.1.g.d.d.a.K.]...O 3 |  .O.+.O.` ] +.h.f.+.S F d.a.0.) d.j.c.j.^ +.z.g.d.+.+.h.k.#.A ^ a.f.a.+.) ) O.O.O.~ [ + O 4.5XP.h.h.a.d.g.O.A A [ f a + + t d 6 d d d d K L K K K L L L L L P P %.%.%.&.T T &.&.&.&.&.&.I I I I E E E E Y W *.e.e.e.i.e.i.i.i.p.p.! ! p.! :X<XyX",
"0 0 0 0 0 0 0 9 r * O . . . O O 2 2 0 0 9 9 $ O g A A A / +.d.h.d.a.g.L._.a + a | | O.) ) ) +.a.h.#.F F #.k.z.+.) F +.d.O.1.l.) ( ] 9.z.d.) G ^ a.a.d.+.+.O.^ ~ O.| 3 O ..[.L.f.h.a.a.1.{ F A D k f 1 4 ~  .[ @.[ } I I } } } } U J f f J K P P L L L L I I &.&.&.&.&.&.&.&.E E =.=.=.=.r.r.i.i.i.i.i.i.i.i.p.p. X X.XwXkXiXiX:X.X X Xp.p.p.p.p.i.u.u.u.i.i.i.u.r.r.r.t.;.} + + a ~ ~ A F +.d.h.h.a.d.L./.3 + a { { O.^ ` ` #.d.h.9.F F #.k.z.#.) F #.j.O.d.g.) F ] _ h.d.) A O.d.a.a.+.+.O.) ~ O.| 4 O B /.^.h.f.d.a.1.{ ~ D ~ n j 2 , t j t j p r r t 9 r r r r t t t 0 0 0 0 0 0 9 ; O O . . & $ $ $ O O $ $ $ $ # # # # # # # # * * $ $ $ $ $ $ $ $ O O O @   . @ & r r t t 0 0 0 0 0 0 0 0 3 2 2 2 p r # + a D ~ D ^ O.1.g.d.a.g.!.[.a + a { O.O.O.) ] +.h.k.#.A G #.k.z.+.^ F #.d.O.d.g.) S ] 0.z.h.+.A F 0.f.a.+.+.O.^ F O.| 4 O ..[.L.f.h.a.a.1.{ F A D k f + 3 j j d 6 d d z x  .@.o.o.} } } } &.&.&.&.&.&.:.:.=.=.:.:.:.:.;.;.=.=.=.=.E E E W t.i.i.p.p.p.p.p.p.p.p.p. X X X.X.XqXkXiX",
"0 0 0 t 0 0 0 0 t r * # O O $ % w e a a 2 0 r 1 + w ~ ~ A O.1.g.1.g.a.d.4XJ., + ~ { ^ ^ ) ) $.d.d.+.A F ^ 1.c.k.#.O.#.1.^ O.2.#.+.a.z.z.' S D { d.a.d.+.] ) O.O.| B O 3 W.~.h.a.f.f.a.O.A A k x k < + [ @.[ @.@.} } I I } } o.} I L J G K K L I } } } } o.o.o.o.:.:.:.:.:.:.:.W =.r.r.r.i.i.i.i.i.i.p.p.p.p.p.p. XoX.X>XiXiX2X:XXXXXXXXXXXXXXXV.p.p.p.p.p.p.p.p.u.u.u.u.y.&.P O , a ~ ~ A ] 9.k.j.k.d.d.4XJ., + k O.O.) ` O.#.d.h.+.D D ^ 1.c.z.#.O.1.1.^ O.1.#.+.a.h.z.+.F D { d.a.a.+.] ) O.O. .n O < Q.~.L.f.f.f.a.O.A D B B j , + r a 0 a 0 y y y y t t t t t t 0 0 t t t a a a 0 9 $ @ . . # * # # $ $ $ $ # # # # # # * % % % % % % % * # * * * * $ $ $ $   . # * 9 9 0 0 0 0 0 0 0 0 0 0 0 0 0 0 t a t + , g D ~ A ^ +.l.<.2.g.g.4XT.+ O k / / O.] _ +.h.h.#.A A F #.c.k.#.X.#.d.) X.5.#.+.a.z.v.+.^ D F 0.a.a.+.] ) O.O.| B O < W.~.h.a.f.f.a.O.A D x x f + , ....[ f 8 d f K [ U L o.o.o.} } } &.&.:.:.:.:.:.:.;.;.;.;.;.;.;.;.t.t.y.y.:.=.E W u.u.p.V.A.V.V.+X+X X X XXXXXXX X:X>XiXiX",
"0 0 0 0 0 0 0 0 t t r * O O * 9 w w w 0 a 0 2 2 + 4 a D s ~ +.1.+.1.d.a.z.^.4.O 4 { { ^ ^ ) $.0.$.O.F X.A F g.c.c.k.1.^ / / O.g.z.K.z.' S ( { F d.a.d.+.O.O.) { ~ % O 7.5Xh.a.9.f.0.O.F h [ B j , < ..@.K | | } } } I I L L L L } } U J K L I } o.o.o.o.o.Y Y Y E E &.&.*.*.W W r.r.r.e.i.i.i.i.i.i.p.! p.p. X X X.X.X3XiXiX;X.X XXXXXXXXXXXXXXX Xp.p. Xp.p.p.p.u.u.u.u.-.;.%.P 5 , a ~ D F ) 1.2.l.z.#.v.(.8.O 4 | O.O.O.O.#.d.9.+.~ O.A F g.K.J.l.1.^ ) F #.g.z.v.k.+.S F O.~ d.a.a.O.O.O.) { [ % O 4.5XK.f.f.a.a.O.F h [ [ j % < r 3 t a t t t t t t a a a a w w w w w w w a g w 0 0 2 O . . $ $ $ $ $ $ $ $ $ $ % % % % % % % % % % % % # # $ $ $ % $ $ $ $   . * r t t w w 0 0 0 0 0 0 0 0 0 0 0 0 0 0 a 3 + , g D h D O.2.O.5.l.,.K.`.4.O 1 [ { ) X.] +.h.9.$.F { G F d.c.c.j.d.) O.F #.j.z.z.h.+.S A O.^ a.a.a.+.O.O.) { n % O 8.5Xh.a.9.f.0.O.F h [ B j + 1 x  .[  .} f d k L } L o.#.-.o.o.o.o.&.&.&.&.-.-.-.-.*.-.-.-.-.-.-.-.t.t.t.y.=.=.=.=.i.p.p.p.p.p. X X X X X X X X X.X:X3XiXiX",
"0 0 0 0 0 0 0 0 q 0 9 * O O 9 t 0 0 0 0 0 0 t t t O , h [ ~ ~ O.2.g.h.z.z.L.].h O 6 { ^ ^ O.#.a.a.` F ^ ^ G G O.O.{ ^ ^ ^ ^ ^ ^ <.O.^ A S ^ { ` +.a.g.1.O.) ) { 4 O ..~.^.f.a.s.h.,.~ A K x x < 3 D [ [ [ [ } o.} } } } o.o.o.o.o.o.P J P I } o.I I I Y E Y E &.:.:.*.*.r.r.r.r.r.r.r.i.p.p.p.p.p.p.p. X X X XoXoX:X:X3XiXiX:XoXoXoXoXoXXXXX X+X+X Xp.p.p.p.p.p.p.u.u.u.e.y.*.I R + O g k A A ^ j.j.d.a.a.P.].~ O 3 { O.O.O.,.d.a.` ^ ) ) A s O.O.O.^ ^ ) ) ) ) +.+.^ A ^ O.O.O.+.a.1.#.) ) ) { 2 O  .`.^.h.s.s.d.+.^ ~ h k j 4 , 2 t a a a a a a a a t a a a a a a a t u u u 0 w w w 0 t O . . % % % % $ $ $ % % % % % % % % % % % % % % % % % % % % % % % % $   @ * 0 0 0 0 0 0 0 0 0 0 0 0 0 0 0 0 0 0 0 0 t t O < a ~ D D ^ 1.d.a.h.a.L.5Xk . 3 { O.^ ` a.h.0.` F ^ ^ s s O.X.O.^ ) ) ) ^ ^ +.+.^ G F O.O.F +.a.1.#.^ ^ ^ | 3 O ..~.^.f.a.s.z.+.D A D k c < , D  .[ [ | [ k d K } } o.o.}  .o.o.o.o.*.*.*.*.*.*.*.*.-.t.t.t.t.t.t.y.M.M.M.N.N.W W N.B.B.B.V.p.p. X X X X X X@XoXoXoX:X3XkXiX",
"0 0 0 0 0 0 0 0 q 0 0 * O O 9 t 0 0 0 0 0 0 0 t 2 r + 1 k ~ D ~ <.g.d.h.a.z.L.H.3 + k { { O.#.a.#.] ) O.O.O.A s A D F S ) ) ) ) ^ A A / ^ / ) ^ +.a.d.1.O.{ ~ s O d H.^.K.s.s.s.d.O.A s k f < < D } [ [ | | o.} } } } } o.o.o.o.&.} P x P I } o.I T T T E E E :.:.:.*.-.r.r.r.r.r.r.r.i.B.u.p.p.p.p. X XXX.X.XoX:X:X:X3XiX2X:XoXoXoXoXoXoXXXXXXXXX+X Xp.p.p.p.p.u.u.u.u.e.u.W I P P , 4 n k h G #.1.a.d.a.d.^.H.3 O h O.O.O.,.d.a.+.) O.O.O.D A A D D S ) ) ) ) ^ A A F O.F ^ O.+.a.d.#.O.{ ~ h O j T.`.h.s.h.h.O.~ D ~ [ k 3 , 3 3 a a a a a a a a a t a a a a a a a a u u a 0 w w w w t + . . $ % % % % % % % % % % % % % % % % % % % % % % % % % $ $ % % % $   @ 2 0 0 0 0 0 0 0 0 0 0 0 0 0 0 0 0 0 0 0 0 0 r r + 2 a k k A O.d.d.f.9.z.L.K.3 O k  .~ O.a.d.0.+.) ) O.O.A G A D F F ) ^ ^ ^ ^ A A F ) ) ) ) +.a.d.#.O.{ D h O j T.`.K.s.s.a.a.O.D k k d < + D | | K | | } G d K } } o.} }  .o.o.o.o.*.*.*.*.*.*.*.*.t.t.t.t.t.t.t.y.M.M.M.M.N.W W N.B.C.V.V. X X+XXXXX XXXoX@X@XoXoX:X>XkXiX",
"0 0 0 0 0 0 0 0 q 0 0 2 O O 9 t 0 0 0 0 0 0 t t 2 j 2 + 0 ~ ~ s { <.d.d.a.a.z.4X<.+ 3 [ O.+.0.0.a.+.O.) ) X.X.F O.{ { ^ O.O.O.O.,./ ) O./ O.O.^ +.d.a.a.O.| k , O 8.[.L.d.a.a.a.) D A h d 5 + a [ { { { } } } } } } } } o.o.o.o.o.} P x P I } o.I T T T E E :.:.:.*.=.=.r.r.r.r.r.r.i.i.p.p.p.p.p. XXXXXoX XoXoX:X:X:X<XxX<X:X:XoXoX@XoX@X@XXXXXXXXX+X XXXp.p.p.u.u.u.u.e.i.W I P :.P < a k k k O.O.a.d.a.#.K.].<.O 3  .O.O.,.d.#.+.+.O.O.O.{ D { { { ^ ^ { { { O.^ ) O.O.O.O.O.+.a.a.#.O.| k , + 4.`.L.a.a.h.d.^ D D D [ 0 , 2 t a t t a a a a a a t t a a a a a a a a a a a w w w w w t + . . * % % % % % % % % % % % % % % % % % % % % % % % % % $ $ % % % $ . @ 2 0 0 0 0 0 0 0 0 0 0 0 0 0 0 0 0 0 0 0 0 0 2 g 4 , 1 h ~ h ^ 1.h.f.a.a.z.4X<.O 3 | ^ +.g.d.#.+.O.O.) O.O.~ | { O.^ ^ ^ ^ ^ O.^ ^ O.^ ^ ^ ) +.a.a.#.O.[ s , + 8.[.L.d.a.a.a.) ~ A A f 6 + a  .| { { } } [ G 8 K } I o.} } } o.o.o.o.*.*.*.*.*.*.*.*.t.t.t.t.t.t.y.y.u.u.u.M.N.W W M.C.B.V.V.+XXX+XXXoXoXoXoX@X@X=X:X:X<XzXiX",
"0 0 0 0 0 0 0 0 q 0 0 2 O O 9 t 0 0 0 0 0 0 0 0 t 3 a 4 , g n a D / ,.d.h.a.z.^.`.l O k X.#.0.0.+.+.+.#.O.^ ^ { O.O.O./ / / / / O.O.O.) ) 1.1.) +.a.f.a.@. .a O B [.!.g.a.a.a.O.s A F D a + 6 ..{ { { [ } } } } } } } } o.o.o.o.o.} P x P I } o.I T T T E :.:.:.*.=.=.=.r.r.r.r.r.! i.i.p.p.p.p.p. XXXoXoXoXoX=X&X:X:XiXiXyX:X%X=X=X=X@X@X@X@X@XXXXX X+XXXXXp.p.p.p.u.u.i.u.e.Y &.I ;.d + a k [ { O.1.d.d.d.a.!.`.w O k | O.,.d.+.+.+.#.O.^ ~ { { { ^ ^ ^ { { { ) O.O.^ O.1.1.+.+.a.a.9.@. .a O [ [.J.d.d.d.a.` A D k j d % , j a a t 3 a a a a a a t t u u a a a a a a a a a w w w w w t + . . * % % % % % % % % % % % % % % % % % % % % % % % % % $ $ % % % $ . O 2 0 0 0 0 0 0 0 0 0 0 0 0 0 0 0 0 0 0 0 0 0 3 0 j 1 + a n h ^ ` a.d.f.a.h.L.`.3 O k | ,.g.d.+.+.+.#.1.O.{ { X.{ { ^ ^ ^ ^ ^ ^ O.) F O.#.#.O.+.a.a.9.O.[ t O [ [.~.g.a.a.a.O.A D A k d + t ..[ [ { { } } L G 8 K } } o.} } } o.o.o.o.*.*.*.*.*.*.*.*.t.t.t.t.t.t.y.y.u.u.u.M.N.W ! M.C.V.V.p.+XXXXXoXoXoXoXoX=X=X:X:X:XiXxXiX",
"0 0 0 0 0 0 0 0 0 0 0 2 O O 2 t 0 0 0 0 0 0 0 0 0 0 0 0 + 1 g n k ^ +.d.a.f.h.z.5Xl.+ < @.O.g.+.a.+.` +.l.O.^ O.{ { { { / / / / O.O.O.O.1.<.+.O.O.a.f.a.<.j O 2 /._.l.z.a.a.+.~ [ h A D , 5 [ [ K { [ } } } } } o.o.o.o.o.o.o.o.&.&.P x P I %.&.E T T E E :.=.=.=.=.=.=.r.r.r.i.i.i.p.C.V.V.V.XXXXXXXXoXoXoX=X=X&X:X<XpXiXiX;X*X=X=X=X=X&X=X@X@X@XoXoXXXXXXXXXV.V.p.p.u.B.M.e.Y :.&.&.&.8 , f k k D O.a.f.f.d.z.5Xc.+ , { +.<.+.a.` ) +.l.O.{ { { { { { { { O.O.) ) ) ) 1.1.#.O.O.a.f.a. .a O 4 E.`.l.g.a.g.<.D A ~ B j O # j y a a a a a a a a a a a a a a u a a a t 0 a a a a w 0 w 0 t + . . $ % % % % % % % % % % % % % % % % % % % % % % % % % $ $ $ % % $ . O * 0 0 w 0 w 0 0 0 0 0 0 0 0 0 0 0 0 0 0 0 0 0 0 t t + 1 g n D D ` f.s.s.a.z.5X6.+ < { 1.2.,.a.` ) O.l.+.{ O.{ { O.O.^ { { { ) ) O.O.#.1.1.O.O.a.f.a.@.j O 4 W./.g.g.,.g.1.D ~ D A D 4 t ..K [ L L L } } L G 8 K } } o.o.%.%.o.o.o.&.*.*.*.*.*.*.-.-.t.t.t.y.y.y.y.y.M.M.M.M.M.N.r.i.V.V.+X+XXXXX@X@X@X=X=X=X=X%X=X:X<XiXpXiX",
"0 0 0 0 0 0 0 0 0 0 0 2 O O 2 t 0 0 0 0 0 0 0 0 0 0 0 0 t + % j k h ) a.a.f.f.h.v.4Xk + s @.+.d.z.a.+.+.1.O.{  .{ { { { / / / / ` O.O.O.,.+.O.) g.d.a.+.[ < + >._.L.d.g.a.1.| k D h F 3 4 x K K { [ } } } } o.} o.o.o.o.o.o.o.o.&.&.P x P I %.&.E E E E E :.=.=.=.=.=.r.u.u.u.i.i.p.p.C.V.V.V.XXXXXXoXoX@X=X=X=X=X;XiXpXpXxX<X;X=X&X&X&X&X&X=X@X@X@XoXoXXXXXXXV.V.B.p.p.B.M.=.E *.:.:.&.I , , f k D O.+.f.f.f.h.L.5Xk + h O.g.d.z.a.+.+.1.O.{ { { { { { { { O.O.) ) ) ) #.#.O.^ j.d.a.+..., + 4.[.!.a.,.a.1. .k h ~ k 5 . 5 r a a a a a a a a a a a a a a a u u a a 0 0 a a u q 0 0 w 0 0 + . . $ % % % % % % % % % % % % % % % % % % % % % % % % % $ $ % % % $ . . * 0 0 w 0 w t 0 0 0 0 0 0 0 0 0 0 0 0 0 0 w w 0 0 t 3 % 2 B k D ) 9.s.s.a.h.K.].~ + a | <.d.z.a.+.+.1.+.| O.{ { O.O.{ O.{ { ) ) O.) #.#.O.^ j.d.a.+.[ , O 4._.!.g.d.a.1.O.k [ k F 4 4 [ [ [ { L L L } } L G 8 K } } o.o.%.%.o.o.o.&.*.*.*.*.*.-.-.=.t.y.y.y.y.y.y.u.M.M.M.M.Z.N.i.p.V.+X+XXXoXoX@X@X=X=X=X=X=X=X;X;XiXpXpXpX",
"0 0 0 0 0 0 0 0 0 0 0 2 O O 9 t 0 t 0 0 0 0 0 0 w w 0 0 g < + 2 k ~ S ] 9.f.f.0.z.4X6.+ + [ O.a.a.z.z.k.O.O.{ | | | / / / / / / O.O.O.O.+.1.K.J.l.1.+.O.j O 0 _.(.z.a.d.a.@.D k k h s , h | K K [ } } } } } } } o.o.o.o.o.o.o.o.&.&.P x P I %.&.E E T T :.=.=.=.=.=.r.r.r.u.u.u.N.i.C.C.V.XXXXXXoXoXOXOX=X=X=X%X;XyXxXpXpXxXzX3X;X*X*X*X&X&X&X=X@X@XoXoXoXXXXXXXV.B.B.B.B.u.=.E *.E E E E P O 6 k D ~ ` a.f.s.f.z.4Xl., , [ +.,.d.z.z.z.+.O.{ { { { { { { O.O.O.) ) O.O.+.l.K.K.l.1.+.O.a + g /.`.l.#.,.g.+.~ ~ ~ D p .   = r a a a a t a a a a a a a a a a a a a a 0 0 a a u q 0 0 w 0 0 + . . $ % % % % % % % % % % % % $ $ % % % % % $ $ % % % % % % % % % $ . . * t 0 w 0 0 t 0 0 0 0 0 0 0 0 0 0 0 0 0 0 0 w w 0 0 0 2 * 9 B ~ ^ ] a.s.s.a.z.5X6.+ + n O.#.d.z.z.z.+.O.| { | | O.O.O.O.O.O.) ) O.O.O.l.K.K.l.2.+.O.y O a /.'.z.d.d.g.+.~ n ~ k a + s [ [ [ { L L L } } L G 8 K } } o.o.%.%.o.o.o.&.*.*.*.*.-.-.=.=.t.y.y.y.u.y.y.u.M.M.M.M.Z.M.i.p.+X+X+X+X@X@X@X=X=X=X=X=X=X=X;XyXxXpXpXpX",
"0 0 0 w 0 0 0 0 0 0 9 * O O 9 t 0 t t t t t t w w w w 0 a t 2 % k [ D G ' f.f.9.a.L.].3 + a ^ ) O.1.#.O./ { | { / / ` ` ` ` ` ` | | O.O.^ / <.2.2.| ^ | 2 O <.`.z.d.a.,.1.| k k k f + l | K } [ [ } | | } } } } } o.o.o.o.o.o.o.o.&.P x P I } &.E E E E :.=.=.=.=.=.r.r.r.u.i.i.p.C.C.C.XXXXXXXXoXoXOX%X=X=X=X=X<XxXpXpXpXpXxXyX;X>X-X-X*X&X&X=X=X@X@X@X@XoXXXXXV.V.B.B.B.N.W E W W E E =.%.z O j n D F +.f.f.f.a.K.5Xg O j ^ S +.1.a.+.) O.O./ / { { ) ) ) ) ) ) / O.O.^ O.1.1.1.| /  .3 O <.`.K.a.a.d.g.^ k [ { 0 + O . # j y t a a t a a a a a a a a a a a a a a 0 0 a a u q 0 w w w t + . . $ % % % % % % % % % % % % $ $ % % % % % $ $ $ % % % % % % % % $ . . * t 0 w w 0 0 0 0 0 0 0 0 0 0 0 0 w w w 0 0 w w w 0 2 0 < O B [ ~ A +.s.s.a.d.L.`.a O j ~ ^ +.d.1.+.) O.O.{ O.O.O.O.O.O.O.{ { ) ) { D O.1.1.1.| {  .5 O @.4XL.h.f.d.g./ h [ a k + a  .{ [ [ K L L L } } L G 8 K } } o.o.o.&.o.o.o.&.*.*.*.*.-.=.=.=.t.y.y.y.y.u.u.u.M.M.B.B.B.M.i.p.XX+XXXXX@X@X@X=X&X=X=X*X*X=X,XzXpXpXpXpX",
"0 0 0 0 0 0 0 0 2 t t * O O 9 u t t t t t t t t w e w w a r 2 % + [ D s ^ +.a.d.a.h.].8.+ , { ^ A A A A ^ ^ ^ / / ) ` ` ` ` ` O.O.| | | ^ ~ D D h ~ >.g O g `.`.a.f.h.a./ D k n k 4 4 [ [ [ } } L L L } } } } } o.o.} } &.&.&.&.;.&.P J P I o.o.&.E E E E =.=.=.=.=.r.r.r.i.i.i.B.B.V.V.XXXX+XoXoXOX%X=X=X%X*X;X<XxXxXxXpXpXxXxXyX3X3X>X-X*X%X=X=X&X=X@X@X@XoXXXXXV.V.B.A.M.W E *.:.:.:.T %.P 7 + B ~ ~ s $.#.0.d.g.[.7.O 3 D / A S S S ^ ^ ^ ^ ) ) ) ) ` ` ` ` ` ` ` ` ` ^ ^ ( A ~ <.g O a `.(.d.d.h.1.^ s h [ B < + * O # r j y t t t t t t t t t t t a y t 0 t 0 t t t t t w e e e w t % O O # * * * $ # # # * * # $ % % % $ $ $ $ $ $ # # $ % % % % % % % $ O . # 9 t 0 w w 0 0 0 0 0 0 0 0 0 w w w w w w w w w a w 0 t 0 < 2 B [ D F +.a.0.0.d.].7.O 0 ~ ^ S S S S ^ ^ ^ ^ O.O.O.O./ / / / / / / / | ^ ^ ~ h h  .j O j [.^.v.f.f.a.O.^ F D k , < f [ [ [ { [ [ [ [ } ..K J z K o.*.o.o.o.o.o.o.o.o.*.*.*.-.;.=.;.t.t.y.y.u.u.u.u.B.B.B.A.B.B.B.B.C.XXXX+XoXoX@X@X%X&X%X*X*X*X3X<XxXxXpXpXpX",
"0 0 0 0 0 0 0 0 9 p r $ O O % 9 r r r r t t t t w w w a a r 2 2 + 3 [ h D / ,.g.a.d.~.T.a O k [ [ [ [ [ [ [ [ [ { | | { { / ^ ^ [ [ [ [ [ n k k [ B m O $ 8.5Xz.a.f.d.+.^ A k k l 4 f [ L L [ [ [ } } o.o.o.o.o.o.o.} } &.&.&.&.*.o.P J P I o.&.&.E E E E =.=.=.=.r.r.r.r.N.N.C.B.V.V.V.XXXX+XoXOX=X=X%X%X%X;X;X3XzXxXxXpXpXxXxXxXyX3X>X>X-X*X%X&X&X&X&X@X@X@XXXXXXXC.C.B.M.r.W W *.:.:.:.:.E z + y j k h A #.0.a.d.~.E.a + a | | | | | | | | { { { { { { { { { { { { { { ~ ~ D ~ [ n O + 6.5Xh.a.f.d.,.D h ~ n y # + $ O $ 5 y t t t t t t t t t t t t y t t t t u u t u t u a e e g a 9 $ O O # # # * # # # # * * # $ % % % $ $ $ # # # # # $ % % % % % % % $ .   O 2 t 0 w 0 0 0 0 0 a a w a w w a a a a a a 0 0 0 0 a a a 3 # p B k A ) 9.0.0.d.~.W.a + h ~ | | | | | | | { { { { { [ [ [ [ ....| |  .[ [ ~ n k j O + 7.5Xz.h.f.f.,.^ D D D 3 # d ..[ K K K ........} K z z f K L o.&.&.*.*.&.&.*.*.&.*.-.-.:.;.;.t.t.y.u.u.u.M.B.B.B.B.A.B.B.B.C.p.XXXXoXoXoXOX%X&X%X&X*X*X>X>X>XzXxXpXpXpX",
"3 3 3 0 0 0 0 0 r r * O O O % % 9 9 9 9 9 9 0 0 0 0 0 0 t t t r + % n ~ h A +.l.a.g.c.].7.O O # 2 2 2 < < < < # # % % % + + + + $ $ $ @ @ O O O O O .   j /.^.d.a.d.,.) A h k a , 4 [ ..K L L L L L } } } } } } } } } } &.&.&.&.&.I P P P I %.%.&.E E E =.=.=.=.=.r.r.r.N.N.B.C.C.V.V.XXXXXXoXoX=X=X%X%X%X*X;X-X>X<XxXxXbXbXbXbXxXxXyX3X>X>X-X*X*X&X&X&X@X@X@XXXXXXXXXV.C.M.r.W W *.*.*.:.:.=.%.6 % a s A G X.#.#.j.l.].7.O O 2 2 2 2 2 2 < < < % $ $ $ $ $ $ $ $ $ $ $ $ O O O O O .   j /.~.a.a.a.d.O.A k [ a # O O # O @ * 2 g g g g a a a a a a y g j g y y t t t t t t t t t w t t * O . . O & & & & & # # * % % % % $ $ $ $ # # # $ $ $ $ $ % % % + + + O     @ * r t 0 0 0 0 0 0 0 0 0 0 0 0 0 0 0 0 0 0 0 0 0 0 0 t 0 < O # j k h F +.a.a.d.c.[.7.+ O # 2 3 3 2 2 < 2 2 $ # # # $ O O O O O O O O O O . O . .   j /.^.f.f.s.a.) S A D d # 2 c ..x x x x ........K x f d f z J K &.&.&.&.&.&.&.:.:.:.-.:.;.;.y.t.y.u.u.u.M.M.M.M.Z.B.A.B.B.B.C.C.XXXXoXoXOXOX&X&X&X*X*X*X>X<X>XyXxXxXbXbX",
"2 2 2 2 0 0 0 0 * # O O O . O % 9 9 9 9 9 9 9 9 9 9 9 2 % % * * $ $ 2 ..k s / g.d.g.g./._.[ % < + + + + + + + + O + + + + + O O + O O O O O O O % O O t 5.`.z.a.a.a.+.^ h h k 4 , f  ...K K K K K K L L K K P K } } } } &.&.&.&.L P J K P I %.%.&.E E E =.=.=.=.r.r.r.r.N.N.B.C.V.V.V.XXXXXXoXoX=X%X%X*X;X;X-X>X,X<XiXxXbXbXbXbXpXbXxX<X>X>X-X-X*X*X*X&X&X@X@X+XoXXXXXXXp.i.r.r.W *.*.*.Y E E T } , a f h A A 1.+.z.d.~./..., 2 + + + + + + + + + + + + + + O O O O O O O O O O $ O O r 4.`.z.+.g.,.+./ D ~ [ 2 O O O * O O # # 2 2 3 3 3 3 0 0 2 2 2 2 5 2 * * 2 2 2 2 t t t t 9 9 9 9 O . . . @ @ $ $ # # # # # * * $ $ $ $ & & & & & $ $ $ $ $ $ $ $ O O O O     . # * r t t 9 9 9 9 2 2 2 2 2 2 2 2 2 2 2 2 % % % + % * % O # O 6 j k A ) #.d.d.a.^._. .< % + + + + + + + + + + O O O O O O O O O O $ O O O % O O y 7.'.z.a.f.d.,.S A D k t * c c c c z x c x x x x x z f d d z z z P P L L &.&.&.&.:.:.:.:.;.;.y.y.y.u.u.M.M.Z.M.M.Z.A.A.B.B.B.C.C.XXXXoXoX#X&X&X*X*X*X-X-X>X,X<X<XxXbXbXbX",
"O O O O + + + + O O O O O O O O O O O O O O O O O O O O O O O O O O + j ~ h A ) f.s.a.g.'./././././././.~.~.~.W.T.T.T.T.T.T.T.T.T.T.T.T.T.T.T.T.T.T.T.T.4XL.h.a.d.1.^ s k k t + < d f f d d f f d d d 8 d d z z J J J J U U J J J K L L P I T %.E E E E E W =.=.=.r.r.r.r.i.N.p.V.V.XXXXoXoXOXOX%X%X;X-X;X-X,X,X,XyXaXxXMXbXbXbXbXbXbXxX<X,X-X-X*X&X%X&XOXoXoXXXXXXXV.p.i.i.r.r.W W *.*.Y Y E P } l + s { h s O.d.s.d.l.`.`._._./././././././.~.T.T.T.T.T.T.T.T.T.T.T.T.T.H.H.H.T.T.T.T.4XL.z.a.h.+.^ D h k j O O O O + $ O $ O $ + + O $ $ $ $ O O O . . . . . O O O O $ $ $ $ + + + $ O O O O O O O O . . . . . . . . . . . .         . . O O O + + + O O O O . . . . . O + O O O O O . . . . . . . .         . O O O O O O O O + + a [ D D ^ f.f.a.g.`.`._./.~.~.~.~.~.~.~.~.T.T.T.T.T.T.E.E.E.W.W.W.W.E.W.W.J.T.T.T.5XL.h.a.a.9.] A ~ D a + * r 5 5 y d d d 8 8 8 8 8 8 8 8 z z f f f z K K J J P P L L L I T T T T E E =.=.=.r.r.r.u.i.i.i.M.C.C.V.XXXXoXoXOXOX%X%X%X*X-X>X,X<X<XyXzXxXbXbX",
"< < < 2 2 9 2 2 2 2 2 2 2 9 2 9 9 9 2 2 * * * * O O O O . . . O   O O % n k A S ,.a.a.d.d.g.z.K.L.L.L.L.L.L.L.L.).).).).^.^.^.^.^.^.^.^.^.).).^.4X(.(.(.P.h.9.a.d.+.F h k j 2 < x K K K K K K K d d 8 8 d z z x L I I I Y Y I o.&.&.*.*.o.*.*.=.=.=.=.=.=.N.N.N.r.N.r.r.i.D.B.B.V.XXXXXXoXoXOX=X%X*X;X-X-X>X,X,X<XzXxXaXbXbXnXbXbXbXbXbXzX;X;X-X;X*X*X&X%XOXoXoXXXXXXXXXC.B.B.M.r.y.y.y.r.=.=.&.&. ., 4 D h k ~ ' f.h.a.d.l.z.K.L.L.L.L.L.L.L.L.).).).).^.^.^.^.^.^.^.^.).).).).(.^.(.(.L.k.1.a.l.) A h k k r + 5 5 5 2 2 2 2 2 2 2 2 2 2 2 2 2 r * # O O . . . O % 9 t 9 9 9 9 9 9 9 9 t t t t 9 9 9 9 2 2 2 2 O O @ @ . . .       . . . # * 9 2 2 2 2 2 2 9 9 9 9 9 9 9 2 9 * * * * * * * * * @ . . . . . @ @ & $ # # O O O O * 2 + 4 k k k ~ +.a.a.d.h.z.K.L.P.P.P.P.P.P.P.P.^.!.!.!.^.^.^.^.^.^.^.^.^.^.^.^.^.^.^.^.P.h.9.a.#.` F A ~ h 4 + t 5 p d c x K x K K x x z z K x x x K K K L I } o.&.&.:.&.&.&.&.T T T T E =.=.=.N.M.M.M.Z.A.B.B.A.V.+X+X+XoXOXOX&X&X&X*X;X-X>X,X,X<XyXzXxXaXbXnX",
"t t t 0 0 0 0 0 0 0 0 0 t a a t t t t t 0 t t 0 0 0 9 9 $ O . . . O # + a k D A ~ <.1.a.h.d.1.+.a.a.a.a.a.a.0.0.a.0.0.0.d.d.d.d.f.f.f.f.a.0.0.a.a.a.f.f.9.a.a.a.+.^ D k n a % y ..L ....L L L L L z 8 8 f z P } o.o.o.o.&.&.&.&.;.-.t.t.*.t.;.y.y.y.y.y.M.M.M.M.M.M.N.M.N.N.C.C.XXXXXXoXoXOX%X=X%X*X-X>X>X,X,XyXyXxXbXaXbXnXnXnXnXnXbXbXbXyX,X-X-X-X;X*X&X%XOXOXoXoX+XXXXXV.V.B.M.M.M.M.y.y.y.=.;.;.[ , 8 k ~ ~ D 1.l.a.f.d.,.+.9.9.a.a.a.a.a.a.a.a.a.a.a.a.d.d.d.d.d.d.a.a.0.0.d.d.d.d.#.1.g.1.+.F A k n a % 2 j j j j a a a a a a a a a a a a g t r 2 # @ . . 2 0 t g t t u u t t t t 0 0 0 0 0 0 0 0 0 t t t t t r r 2 < 1 $ . . & # * 2 0 0 0 0 0 0 a a a t 3 3 0 9 t t t t t r r t t t t t 9 $ O O O # * 9 9 0 0 0 t t p y 5 y % % t B n k ~ <.d.d.h.f.1.,.a.s.s.s.a.a.s.a.0.#.0.#.a.a.0.d.d.d.d.d.d.a.d.a.a.0.0.0.#.a.a.#.` F A F D a + 3 y t j B ....[ [ } } } } ....} } I I L I o.o.o.o.*.-.-.;.-.-.-.*.T T T T =.N.N.N.M.Z.A.A.A.A.+X+X+X+X$X@X#X#X&X&X&X*X;X-X-X>XqXwXwX<XyXxXMXyXbXMX",
"a a a g 0 0 0 0 0 0 0 0 0 0 0 0 0 0 0 0 a a a a w w w t 0 < # @ * 5 2 + 1 a ~ ~ g  .1.d.f.d.d.g.h.f.f.f.a.a.0.0.f.a.0.0.a.f.a.a.f.f.f.f.f.q.q.a.0.0.f.f.9.d.a.+.O.D A k k 3 4 B K K L L L L K K L L K f f K I &.o.o.o.o.o.o.&.&.-.-.t.t.e.t.t.t.y.y.y.y.u.M.M.M.M.B.M.B.N.C.C.C.XXXXoXoXOXOX&X%X*X;X-X>X,X,XyXyXaXMXMXaXaXnXnXnXmXnXbXnXbXxXgX,X>X>X-X-X&X&X&X#XOX@X@X+XXXV.V.B.u.u.u.u.y.y.y.-.&.Z.;.l , k [ n k  .1.h.a.a.d.d.d.d.d.f.f.a.f.f.a.a.d.d.h.h.h.h.h.h.h.h.f.a.a.a.d.d.d.d.1.j.g.O.D A k k j 3 + a j h h s s a a a g g g g g a a a a a a t 2 # O . 0 0 0 0 t t t t 0 0 0 0 0 0 0 0 w w a a w w w w 0 0 0 0 a 0 < % O O * 9 t 0 0 0 0 0 0 0 t t 0 0 0 0 0 0 0 0 0 0 0 0 0 0 t t t t 9 1 + O % 2 r u 0 0 0 0 0 0 0 0 < a 2 4 + n [ h a  .g.h.a.a.d.d.f.s.s.s.s.s.s.s.d.d.d.d.0.0.0.0.a.a.a.a.a.a.0.0.0.0.0.9.#.g.a.+.F A A ~ k 3 + 3 r j [ K K K K K } } } } } } } } I I o.o.o.o.o.o.*.-.-.-.-.-.-.*.E T E E =.N.Z.M.M.M.Z.A.A.V.+X+X+X+X$X@X@XOX&X&X&X&X;X;X-X>X,X,X,XyXaXMXMXaXaXMX",
"0 0 0 0 0 0 0 0 0 0 3 3 0 0 0 0 0 0 0 0 0 0 w w w 0 0 0 t r @ . 2 t t a , a k k A A ` 9.k.d.d.d.d.d.f.f.a.a.d.a.d.d.d.d.a.a.d.d.d.f.f.d.a.a.0.d.0.0.a.a.a.#.+.) D k k k a + k [ K K L L L L [ [ L } L f K } } o.o.o.o.o.&.&.&.&.*.-.-.-.t.t.t.t.y.y.y.u.M.M.M.Z.B.A.A.A.C.C.C.XXXXXXXXOXOX%X*X*X*X;X-X>X,XgXyXyXbXnXnXbXaXnXNXnXmXnXnXnXnXbXgX,XwXqX>X-X;X&X&X&XOX@X@X+XXXV.V.B.B.B.B.M.u.r.r.=.=.=.;.} , a B m D ^ O.a.z.d.a.a.d.d.d.d.f.f.f.f.f.f.f.a.a.a.a.a.a.a.a.a.h.h.h.d.g.g.d.d.1.#.O.^ A A k k g , 4 k g g g a a a a a a a a a a a a a a w w t p * O @ t t t t 0 0 0 0 0 t t t 0 0 0 0 0 0 0 0 0 0 0 0 0 0 0 0 t 0 j 2 . O $ * 2 2 2 2 r 0 2 2 t a t 0 t w w w 0 0 0 3 3 3 0 0 0 0 0 0 a 0 $ O r 0 0 0 0 0 0 0 0 0 t t t t w w , a k ~ A A ` a.z.d.a.#.g.g.g.g.h.h.h.h.0.0.0.0.0.0.0.0.a.a.a.h.h.h.h.d.d.g.d.d.g.#.O.^ D D D k k + < t t [ [ L L [ [ [ [ } } } o.} } } } } o.o.&.&.*.*.*.*.*.*.-.t.t.-.=.E E =.N.M.M.M.M.B.A.A.A.V.V.+X+X$X@X#X#X&X&X&X*X*X-X-XqXwX,XyXyXzXbXMXnXbXaXMX",
"3 3 2 3 0 0 0 0 0 0 0 0 0 0 0 0 0 0 0 0 0 0 w w 0 0 0 0 a 9 @ . 2 a a a , 4 j k D A S ) ) O.+.#.1.1.a.a.a.a.d.d.d.d.d.d.d.0.a.a.d.d.d.d.a.0.0.0.0.0.0.#.O.) F A k k k k 3 , ~ [ K K L L L L [ [ [ } [ f K } } o.o.o.o.o.&.&.&.&.*.-.-.-.r.r.t.t.y.y.u.M.M.M.Z.Z.A.A.A.V.V.C.C.XXXXXXoXOXOX%X*X*X;X;X>X,X,X<XyXxXnXnXnXnXVXnXmXNXmXmXnXnXnXbXzX,XwX,X>X-X;X*X&X%XOX@X@X+XXXV.V.B.B.B.B.M.M.y.;.;.=.=.;.:.8 , B n D A ( O.) O.+.+.1.a.1.1.0.0.a.a.a.a.a.a.d.d.d.d.d.d.d.d.d.a.a.a.#.#.#.#.O.^ D A A k k k 3 4 a k h h g a a a a a a a a a a a a a a t w t t * O @ t t t t 0 0 0 0 t t t t 0 0 0 0 0 0 0 0 0 0 0 0 t t t r t 9 2 + + % 1 2 9 9 9 9 4 4 , + + 2 y 3 0 0 0 0 0 0 0 0 3 3 0 0 0 0 0 w a 0 $ O r 0 0 0 0 0 0 0 0 0 t w w w w w 4 3 a ~ D A A O.) O.+.+.1.1.1.1.a.a.a.a.a.a.d.d.0.0.d.d.d.a.d.d.h.d.h.d.j.2.5.5.X.~ A A D D k k 0 , 6 t t [ | L L [ [ [ [ } } } o.o.o.o.o.o.o.o.&.&.*.*.*.*.*.*.t.t.t.-.=.E E =.M.M.M.M.M.A.A.A.A.V.V.+X+X$X@X#X@X&X&X&X*X*X-X-X>X,X,XyXyXxXMXnXmXnXbXnX",
"0 0 3 r 0 0 9 0 0 0 0 0 0 0 0 0 0 0 0 0 0 0 w 0 0 0 0 0 t r @ . 2 t t t 3 O a B ~ D A A h A ~ / D D ~ ^ ^ ^ ^ ^ ^ ^ ^ ^ ~ ^ ^ ^ ^ ^ ^ ^ ^ ~ F ^ F ~ F ~ D A A A k k k k , a [ [ [ K L L L L L [ [ } L f x } } o.o.o.o.o.*.*.&.&.*.-.-.-.r.r.r.r.y.y.M.M.M.B.Z.Z.A.A.A.A.V.C.V.XX+XOXOXOX%X&X&X;X-X>X,X,XyXyXxXMXnXnXnXNXnXnXNXNXNXmXmXnXnXMXxX,XwXqX>X>X-X*X*X&X@X@X@X@X+X+XA.V.B.B.B.M.M.y.y.y.=.*.;.7.[ + j [ ~ D D D D D ^ ^ ~ ^ ^ ^ ~ ^ ^ ^ / ) / / / / / / / / / / ^ ^ ^ ~ F D D D D A k k k k k k 1 3 h a k h g a a a a a a a a a a a a a a t w t t * O @ t 0 t t t 0 t t t t t t 0 0 0 w 0 w 0 0 0 t r r r r 5 5 y < 1 j H.H.H.H.H.H.H.H.T.H.6.4.2 + r 2 3 3 3 3 0 0 0 0 0 0 0 0 0 0 0 0 a 0 $ O r 0 0 0 0 0 0 0 0 0 t t t t t w a , a ~ ~ D A A D ~ ~ / ~ ~ ( ^ ^ ^ ^ ^ / ^ ^ ^ ^ ) ) ) ) ) ) ) F S F F D A A A A A A A D k k k % 2 d t t [ } L L L [ [ [ } } } o.o.o.o.o.o.o.o.o.&.*.*.*.*.*.*.t.t.t.-.=.E Y =.M.M.M.M.M.B.A.A.A.V.V.+X+X$X@X#X@X&X&X&X*X*X-X-X>X,XwXgXxXbXnXmXNXNXnXnX",
"+ + + + 3 9 r 9 0 0 0 0 0 0 0 0 0 0 0 0 0 0 w 0 0 0 0 0 t r O . 2 p y p t . t k n ~ k k k k k k k k D D D D D D D D D D A A A A D D D A A A k A k k k k k k k k k k k k 1 k ..[ [ K L L L L L L [ } L d x } } o.o.o.o.o.*.*.*.&.*.-.-.-.t.r.r.r.y.u.M.M.M.B.Z.Z.A.A.A.A.V.V.V.XXXXoXOXOX%X&X&X;X-X>X,X,XgXxXMXnXnXnXNXNXNXNXNXNXNXNXNXnXbXMXxXyXwXqX>X>X-X&X&X&XOX#X@X@X+X+XA.V.B.B.B.M.M.N.y.y.;.;.;.5. .3 0 ..[ n k k k k h s k k k k D D D D k k k k h h k h h h h h D D A k k k f h k k k f k k k k 1 a k a g h g a a a a a a a a a a a a a a t w t t * O @ t 0 t t t t t t t t t t 0 0 0 w 0 w 0 0 0 t r r * * < < t + r Q.H.J.J.K.J.J.J.K.L.L.T.W.7.% 2 5 + , , + 0 0 0 0 0 0 0 0 0 0 0 0 a 0 $ O r 0 0 0 0 0 0 0 0 0 t t t t t t y , t a k ~ k k ~ ~ k h k k k k D D D D D D D D A A A A A A h A D D F D D k k k k k k k k k k c O p V p a [ [ K L L [ [ [ } } } o.o.o.o.o.o.o.o.o.&.*.*.*.*.*.*.t.t.t.-.=.E Y =.M.M.M.M.M.B.A.A.A.V.V.+X+X$X@X#X@X&X&X&X*X-X-X-XqXwXgXxXMXnXnXNXmXmXNXNX",
"4 k g + + + < r r 2 2 t 0 0 0 0 0 0 0 0 0 0 0 0 t t 0 0 t r O . * $ O $ < + + 2 y t t t t t t t a a a a a a a t a a a a d d d d d d d d t 6 3 3 3 4 , < , , , , < 4 4 4 4 3 a f k 8 K ..L [ [ [ } } L d f  .} o.o.o.o.o.*.*.*.*.*.-.-.-.t.t.r.r.y.u.M.M.M.Z.Z.Z.A.A.A.A.V.V.V.XXXXoXOXOXOX&X&X;X>X>XwX,XyXbXMXnXBXNXNXNXNXNXNXNXNXNXNXmXnXMXxXgXwXwXqXqX-X*X&X&XOX#X@X@X+X+XA.V.V.B.B.M.M.Z.&.K d h k d x < O 9 y t r t t t t t a a a a a a a a t t t t a a a a a a a a a t 3 3 < < , + , , < < , < < < 4 3 3 t a t t k a g g g a a a a a a a a a a a a t * O @ 0 0 0 0 t t t t t 0 t t t t 0 t 0 4 3 w j 2 + , j .. .3 + O ..Y.O.' ' ' ' ' ' +.+.+.O.O.7.t O + 4 h s , + + < r t 3 3 a 0 0 0 0 t 0 O O r t t t t t t t 9 t 0 1 + + + % < < < < y a a t y a t t y t t t t t a a y y t a a a a a a a a a t 3 3 4 3 3 , , + + + + + % < * O = 5 # 3 k D K L L L L [ } } } o.o.o.o.o.o.o.o.o.o.:.-.*.*.-.-.t.t.t.t.r.E E r.M.M.M.M.M.A.A.A.V.V.+X+X$X$X@X#X&X&X&X*X*X8XqXqXwX,XgXxXMXnXnXNXNXNXNXNX",
"~.[._.Y..., . 2 2 t t 2 0 0 0 0 0 0 0 0 0 0 0 0 t t 0 0 j 2 O i j g y j t 3 3 t 1 , , , , , , , , , , , , , , , + + + + + , , , , , , , , 1 4 3 a d k f f f f f n k a 3 1 , , , + , , 3 L L L L } } L d f  .} o.o.o.o.o.*.*.*.*.*.-.-.-.t.t.r.r.y.u.M.M.M.M.Z.Z.A.A.A.A.V.V.V.XXXXoXoXOX%X&X&X;X>X>XwX,XyXzXMXBXBXNXNXNXNXNXNXNXNXNXNXNXnXMXxXgXwXwXqXqX-X*X&X&XOXOX@X@X+X+XV.V.V.B.B.M.M.*.4 l s h h a a t 4 2 , , + , , , , , , , , , , , , , + + + + , , , , , , , , , , 1 1 a a a k k k k k k a a 3 3 3 4 1 1 + , 1 h a g g a a a a a a a a a a a a t * O @ 0 0 0 0 t t t t 0 0 t t t t 0 0 t t a t , , k Y.W.[.].E.2 O d 4.O.' ' ' ' ' ' ' ' +.O.O. .a O a E.5X[.H.[ , O 2 2 0 0 3 0 0 0 0 t 0 O O r t t t t t t t u 9 O 0 h h g h 3 3 3 3 1 4 1 , , 4 , , , , , , , , , , + , , , , , , , , , , , , , 4 4 s a k k k k k f k k a a 3 # + + 4 4 , l K L L L [ } } } o.o.o.o.o.o.o.o.o.o.-.-.*.*.-.-.t.t.t.t.y.E E r.M.M.M.M.M.A.A.A.V.V.+X+X$X$X@X#X&X&X&X*X*X-XqXqXwXgXgXzXMXnXnXnXNXNXNXNX",
"`.^.~.~.[.E. .+ 1 t t 2 0 0 0 0 0 0 0 0 0 0 0 0 r r 0 0 g % t R._.'.'.'._.`.'./.^.^.~.~.^.^.^.^.^.^.!.!.!.!.!.!.!.!.!.!.!.!.!.!.^.^.^.^.!.!.^.(.!.^./.(.`.`.`.`.5X5X`.~.`.'.).T.W.E.} , K L [ } } } L d z } } o.o.o.o.o.&.&.*.*.*.-.*.-.t.t.r.r.y.u.M.M.M.M.Z.Z.A.A.A.A.V.V.V.XX+XOXOXOX%X&X&X-X-X>XwXwXgXyXxXMXBXNXNXNXNXNXNXNXNXNXNXNXnXbXaXgXwXwXqX>X-X*X*X&X%X@X@X@XXXXXV.V.V.C.B.M.Z.J 4 T.`.4X4X`.'.]._./.`./.~.^.^.^.^.(.^.^.^.!.!.!.!.!.~.!.~.~.^.^.^.^.~.~.~.~.~.~.(.(./.(.`.`.'.'.'.`.5X4X`./.'./.^.~.W.7.>., g a g g a a a a a a a a a a a a t * O @ 0 0 0 0 t t t t 0 t t t t 0 0 t 9 p 2 + 0 6._./.~.L.K.'.B O 3 [ +._ n._ n.n.n.' +.+.O.O.{ , O 7.`.^.).~.[.E. .+ 4 3 3 4 0 0 0 0 w 0 $ O r t 0 0 0 0 0 0 g 1 0 W.].4X4X4X`.`.`.'.(.'.^.~.~.(.~.~.~.~.~.).~.!.!.!.!.!.!.!.!.!.!.!.!.!.!.!.!.!.(.(.^.(.'.`.`.`.4X4X4X4X'./.`.W.T.W.W.~..., x L L L } } } } } } } } o.o.o.o.*.*.-.-.*.*.-.-.t.t.t.t.y.E E r.M.M.M.M.B.A.A.A.A.V.+XXX+X$X@X#X&X&X&X*X*X-XqXqXwXgXgXyXxXbXnXnXNXNXNXNX",
"K.d.a.l.l.H._.H.g 4 2 r 0 0 0 0 0 0 0 0 0 0 0 0 t t 0 0 0 2 g H.l.h.d.h.d.z.z.d.L.P.P.P.P.P.P.L.v.v.v.v.z.z.z.z.k.k.k.k.k.k.k.k.k.k.k.k.h.d.a.0.h.d.a.a.d.d.k.k.h.h.z.z.L.L.K.z.(.T./.3 l L } } } } L d x } } o.o.o.o.o.&.&.&.*.*.-.-.-.t.t.t.r.y.M.M.M.M.M.M.Z.A.A.A.A.C.V.V.XX+XOXOXOX%X&X*X-X-X,XwXwXgXgXzXbXBXmXNXNXNXNXNXNXNXNXNXNXnXbXgXgXwXwXqX>X-X*X*X&X%X@X@X@XXXXXV.V.V.C.B.M.y.f 8 6.g.h.h.g.z.z.l.z.L.K.z.z.z.z.z.z.z.z.z.k.k.k.k.k.k.k.k.k.z.z.k.k.d.d.d.d.z.k.d.a.d.a.a.9.d.d.d.d.z.z.z.z.z.L.L.!.K._.[.a 4 a a g g g g g g g a a a a a a p * . O 0 w 0 0 w w w t 0 0 t t t 0 0 t i O , ~ /._.J.l.#.f.a.z.7.+ # [ $._ n.n.n.n.n.+.+.+.+.O.k + 4 W.z.f.a.g.l.H._.H.3 4 1 3 0 0 0 0 w 0 + O r 0 0 0 0 0 0 0 t 1 g F.l.h.h.h.v.K.v.v.K.P.K.z.K.L.K.v.v.v.z.v.z.k.k.k.k.k.k.k.k.k.k.k.k.k.k.k.h.d.0.0.h.h.a.0.a.a.d.d.d.h.z.z.z.z.J.!.!.!.R.3 6 K L L } } } } } } } } o.o.o.o.*.*.-.-.*.*.-.-.t.t.t.t.y.:.W r.M.M.M.M.B.A.A.A.A.XXXXXX+X$X@X#X&X&X&X*X*X-XqXqXwX,XgXgXyXbXnXNXNXNXNXBX",
"d.d.d.d.,.d.z.!.~. .2 # y t w g 0 t 0 t t t t t 0 0 0 0 0 2 g <.0.0.f.f.a.a.a.a.d.f.d.f.f.a.0.0.0.0.0.0.0.0.0.0.0.0.0.0.0.0.0.0.a.0.a.f.0.0.0.a.a.a.a.a.a.a.a.a.a.a.d.d.d.d.d.d.h.d.<., k [ } L } L z 8 z P &.&.o.o.o.&.*.*.*.*.*.-.-.-.t.t.t.y.y.u.M.M.M.M.B.Z.A.A.A.A.V.C.V.XX+XOXOXOX&X&X*X-X-X,XwXwXgXgXzXaXnXNXNXNXDXDXDXNXNXNXNXBXMXaXgXgXwXwXqX>X-X*X&X&X%X@X@X@X+XXXXXV.V.C.B.M.Z.f 8 <.1.a.a.a.d.d.d.d.d.a.d.d.a.a.a.a.a.a.a.a.0.0.0.0.0.0.0.0.0.0.0.0.a.a.a.0.d.0.0.d.a.d.a.a.d.d.d.d.a.a.a.a.d.d.d.d.d.g.l., 0 a a a g g g g e e g g e a a t i * . O t w 0 0 w w w w t t t t k 0 a 0 % 3 6.`.K.z.d.d.d.d.d.g.5.+ O B O._ _ _ $.$._ _ ' +.+.@.3 O ~ K.d.d.d.g.d.g.l.K./...O O y 0 4 w g 0 $ O % 9 t u t t t t t , a 6.d.0.0.0.0.0.0.0.a.d.d.d.a.a.a.a.0.0.0.0.q.q.q.q.0.0.0.0.q.q.q.q.q.q.q.q.a.a.a.0.a.f.a.f.f.f.f.f.d.d.h.h.g.d.g.h.d.l.4.+ d ..K L L } } } o.o.o.o.o.o.o.o.&.&.o.o.*.-.-.-.t.t.t.t.;.:.:.r.N.M.M.M.B.B.A.A.+X+XXX+X+X$X@X#X&X&X*X*X-X8XqXqXwXwXgXhXzXxXBXBXNXNXDXDX",
"d.d.f.d.a.d.h.h.l.H.4.2 1 0 g 0 0 t 0 0 t t t t w w w 0 y 1 g 6.k.h.f.f.f.f.f.f.d.d.a.a.f.a.a.0.0.0.a.0.0.0.0.0.q.q.q.q.q.q.q.q.q.q.f.f.f.f.f.f.f.f.f.f.f.f.f.f.d.d.f.h.d.d.d.a.9.k.@.+ k [ o.L } } K d z K } &.o.o.o.&.*.*.*.*.*.-.-.-.t.t.t.y.y.u.M.M.M.M.Z.A.A.A.A.A.C.C.C.XX+XOXOXOX&X&X*X-X-X,XwXwXgXgXzXaXbXNXBXDXGXGXGXDXNXNXBXBXxXgXzXhXwXwXqX>X-X*X&X&X%XOX@X@X+XXXXXV.V.C.B.M.Z.l l 5.g.f.f.f.f.f.f.f.f.a.a.f.f.a.f.f.f.f.f.f.f.f.f.f.0.0.0.0.a.0.q.q.q.q.q.q.f.f.f.f.d.h.h.h.f.d.d.d.d.d.d.d.d.d.d.d.d.g.1.4 0 a a a g e e e e e e g e g a t t # . O 0 w w 0 w w w w t t t t 0 t t + 4 H.~.z.a.a.d.d.f.d.d.g.1.4 O d O.' _ _ $.$._ _ ' +.+.{ 2 O { z.d.d.d.d.d.d.d.g.l.T.>.# < 3 a 0 t 9 O O 2 t u g t t t t 0 , t 4.a.0.0.0.d.d.d.d.d.d.d.d.a.a.f.f.f.q.q.q.q.q.q.q.w.w.w.w.q.q.q.q.q.q.q.q.f.f.f.f.f.h.f.h.h.h.f.d.d.d.d.d.d.d.d.d.f.l.4.< j ..K L L } } } o.o.o.o.o.o.o.o.&.&.o.*.*.-.-.t.t.t.t.t.=.&.E =.N.M.M.M.Z.B.A.A.+X+XXX+X+X$X@X#X&X&X&X*X-X8XqXqXwXwXgXhXzXxXMXBXNXDXDXGX",
"f.d.d.d.d.d.a.a.1.l.l.5.3 + g 0 0 0 0 0 0 0 0 0 0 w w 0 5 + 3 1.k.f.a.0.0.d.a.a.d.d.d.d.d.a.a.a.a.a.a.a.a.a.a.a.a.a.a.a.0.0.0.0.0.0.0.a.0.0.f.f.a.a.a.a.a.a.a.a.d.d.d.d.h.h.h.h.d.l.} , k [ } I K L x z z z I &.&.o.&.&.&.*.*.*.*.*.*.-.t.t.t.t.y.u.M.M.M.M.Z.A.A.A.A.V.C.C.C.XX+XoXOXOX&X*X*X-X-X,XwXwXgXgXzXaXbXBXBXDXLXIXLXGXBXNXBXbXzXgXgXgXwXwXqX>X-X*X&X&X&XOX@X@XXXXXV.V.V.C.B.M.Z.l 4 <.g.g.d.f.d.d.d.d.d.d.d.d.d.a.d.d.a.a.d.d.a.a.a.a.a.a.a.a.a.a.a.a.a.a.0.0.f.d.d.d.a.d.a.a.d.d.d.d.d.d.a.a.d.d.d.d.1.<.| 4 t y a a g g g g g e e g w a a t 2 O . O 9 0 w a w w w t t t t t 2 t 1 4 H.L.d.s.a.f.d.d.d.d.d.d.2.h O 4 O.+.+.' +.+.+.+._ +.O.A + + O.h.d.d.d.d.d.d.d.d.a.1.K.6.0 , t t 2 2 @ @ # 9 r t t t t t t + 3  .,.f.0.0.d.d.d.d.d.d.d.d.a.a.a.a.a.a.0.a.a.q.f.f.0.0.0.0.f.a.f.a.q.f.f.a.d.d.a.a.a.a.a.a.d.d.h.d.d.d.h.h.h.h.h.z.a.2...< x ..K ..L } } } o.o.o.o.o.o.o.o.&.*.*.*.*.-.-.-.t.t.t.t.:.E E =.N.M.M.M.Z.B.A.A.A.+XXX+X+X$X@X#X#X&X&X*X-X8XqXqXwXwXgXhXzXzXbXBXBXDXLXIX",
"d.d.d.d.h.d.a.+.a.+.+.l...+ r t r r r r r r r r t 0 0 r O O 4 [ O.+.,.1.d.d.d.d.d.d.d.d.d.d.,.1.1.#.#.#.d.d.d.d.#.#.#.#.#.#.#.#.#.#.1.#.#.#.#.#.#.#.#.#.a.a.a.#.1.1.1.1.+.+.+.+.O.[ l + f [ } I f f d 8 z z K } &.&.&.&.:.*.*.*.*.*.*.-.;.t.t.t.y.u.M.M.M.Z.A.A.B.A.A.C.C.C.V.XX+XoXOXOX&X*X*X-X-X,XwXwXgXgXzXaXbXBXBXGXIXIXIXPXDXNXMXaXgXzXgXgXwXwXqX>X-X*X&X&X&XOX@X@X+XXXV.C.C.B.M.M.Z.8 4 D 1.1.1.1.g.g.g.g.d.d.d.d.d.a.1.1.1.1.,.,.,.,.,.1.+.+.+.+.#.1.1.1.1.d.d.d.$.$.$.$.+.+.+.+.+.+.+.+.+.+.+.+.+.+.+.+.O.| g + r y a a a a a a a a a a t t t p * O . O * 0 u u t t t t t t t t 0 4 < ..K.g.h.P.s.f.d.d.d.d.d.d.g.{ O + | O.+.+._ ' ' +.` #.O.a + 1 #.a.h.h.d.d.d.d.d.d.z.h.d.2.n O 2 r % $ @ @ O $ * 2 t t t t y + < [ +.d.d.1.1.#.#.#.2.g.g.g.1.1.1.1.1.#.#.#.d.d.d.d.a.1.a.a.d.d.d.d.d.d.d.d.#.#.#.+.+.+.+.+.+.+.+.+.+.+.+.+.+.+.+.+.O.@.d + x } ....L } } } } } } } } } } } &.&.&.&.*.-.-.-.t.t.t.;.&.T T :.N.N.M.M.Z.B.A.A.A.+X+X+X+X$X$X#X#X&X&X&X-X8XqXqXwXwXgXhXzXgXbXMXDXGXIXIX",
"d.d.d.d.d.d.d.d.a.a.z.j.[ + O O O # # * * * 2 2 9 9 9 9 O . 0 [ k [ | D { [ ~ D ~ ~ ~ ~ ~ ~ ~ ~ D D D D ~ ~ ~ ~ ~ ~ ~ ~ ~ ~ ~ ~ ~ ~ ~ ~ D ~ ~ D D D D A ~ ~ D D k k k k ~ k h k k [ t + d f d d f 8 d d d f z J } } } } &.&.&.&.&.:.:.:.;.;.;.;.=.;.t.y.;.y.N.M.M.M.B.B.B.p.C.C.XX+XoXoX%X*X*X-X-X>XqXwXgXgXgXxXMXBXBXDXLXIXIXLXDXNXMXaXzXgXgXgXwXqX>X-X-X&X&X&XOXOXoX+XXXXXV.C.B.M.N.N.;.l 3 k h h ~ [ ~ k D [ ~ ~ ~ [ ~ ~ D D D ~ ~ ~ ~ ~ ~ ~ ~ ~ ~ ~ ~ ~ ~ ~ ~ ~ ~ D D k k k k h h h D D D D ~ ~ ~ ~ { [ { D k k y O * r r r r r r r 2 2 5 5 $ $ # @ O O O O . O # ; r r r 9 9 2 1 1 < 2 + k <.a.f.f.f.f.a.a.d.d.d.d.,.2.3 + a { +.+._ _ _ O.+.O.~ l + D +.d.d.d.d.d.d.d.d.d.z.h.z.g.k O O O O O     . O O O O + + + % + 9 k h | [ D [ ~ k k [ [ [ [ ~ ~ ~ ~ ~ ~ ~ ~ ~ ~ ~ ~ D D D D ~ ~ ~ ~ ~ ~ ~ ~ D D D D k k k k D D D D D D D D [ D k ~ D k 6 + x x x x K K K K D D G z x z z z P P P P I I I I I T T T T T T &.=.=.N.N.M.M.B.A.A.A.V.+X+X$X$X$XOX#X&X&X*X-XqXqX,X,XyXyXzXxXbXBXBXDXIXIX",
"f.d.d.d.d.d.d.d.h.f.d. .2 . O O . O O @ O O O O O + + O O . 1 a a g w a a a 3 3 4 4 4 4 4 , , , , , 1 1 , , , , 4 4 3 3 3 3 4 4 4 4 4 4 3 3 3 3 1 1 < 1 4 4 4 4 3 3 3 3 3 t a j j t + 2 d d 8 8 f f d z z z J K K K J K P P P P U U J P I I Y E &.*.*.=.-.=.r.y.r.u.u.i.C.C.V.XX+XoXOXOX%X&X*X*X-X>XqXwXwXgXgXxXBXBXBXDXLXIXLXGXBXNXBXxXzXgXyX,XwXqX>X-X*X&X%XOXoXoXXXXXC.C.B.N.N.r.W E :.8 + t g j a a a a a 4 4 4 4 3 1 1 , , 4 1 , , , , , , 4 4 4 4 4 4 4 3 4 3 3 3 3 3 3 3 3 3 3 3 4 3 3 3 3 0 3 0 g w h a j t O   & * # + $ $ $ $ + + O O O O O O O O O O . . O # O O O O $ + O O O O O g O.,.d.h.f.f.d.d.d.d.f.f.a.g.D , 4 D O.$._ _ ` O.O.O.D 4 1 @.a.f.f.d.d.d.d.d.d.d.h.d.l.<.2 . O O O .     . @ @ O O O O O + O % p y g t u t t 3 3 1 1 1 1 , , , , , , , , , , 1 1 1 1 1 1 4 4 4 4 3 3 3 3 3 3 t t 4 4 4 4 4 4 4 4 t 0 0 0 t a a j k a 2 # s d 8 8 8 d 8 d d d d f z z v z c c c x P P P P P P P R T T T &.=.=.=.=.r.r.M.M.N.M.B.C.C.XXXXXXXXoX#X%X*X*X>X>X>X<X<XyXyXxXnXnXBXDXLXIX",
"f.f.d.d.d.d.d.d.h.a. .2 O O O . O O O O O O O O * * * * & O + 1 + + + a B n k k k k k k g g a a a t t t j j j g g g g g g g g g g g g g a a a a a t t t a a a a n n n n B a + O + # # i x x c z z f z z z z K K K P P P I I I I P P P L P I E :.;.;.N.N.y.N.M.Z.M.B.B.B.A.V.+X+XOXOX#X#X%X*X*X-X-X>XqXwXwXyXyXbXBXnXmXBXPXLXPXDXBXmXmXMXxXyXyX,X,X>X>X-X*X%X%XOXoXXXXXXXC.D.i.i.! W W E ;.:.d < + + + a a n [ B j a a j a a a a a a a a g g g g g a a a g h h h j j j k a a a a 6 6 t t j j j j B B B n B a + 4 y 5 * . O @ # % 0 0 0 0 3 3 2 2 1 1 1 * < < < 1 % % * 2 9 9 9 9 r 9 $ O O O O % j ~ <.h.d.d.d.d.d.d.f.f.a.d.1.3 + d ^ ] _ _ ` O.^ F a , a 5.d.f.d.d.d.d.d.d.d.d.d.,.| t O . O . O . . o @ @ @ O $ $ $ $ $ O O O # O + u B n k k j j j j g g g g g g g g g g g g g g g g j j j j g g g g a t y y 6 t 6 t a a a a B B n n n a + O + + # 5 f f z z f z z x f f f f z c c c x x x x P P P P T T T T T T T &.=.=.=.=.r.r.u.M.B.C.C.C.C.C.XXXXXXOX#X&X*X*X-X>X,X<X<XyXyXbXnXnXBXDXPXIX",
"d.d.d.d.d.d.d.d.g.{ 3 O + r B y + $ # * * < * * % % % # # * 2 % 1 2 2 4.Y.H.H.F.F.F.7.7.6.8.8.4.8.8.8.8.8.8.8.8.6.6.6.6.6.6.7.7.7.7.7.7.7.7.7.7.H.x.x.x.F.7.7.7.7.7.F.F.W.8.j < p i p c c f z z z z z z z x K K P K K P L L I I I I I I P Y :.;.y.N.N.N.N.Z.Z.A.A.A.A.A.+X+X+X$X@XOX#X#X%X&X*X*X-X>XqXwX,XyXzXMXnXnXnXBXGXLXGXDXDXBXnXnXMXaXyX,X,X>X-X;X*X%X%XoXoXXXXXXXC.C.B.i.! r.N.N.N.m.m.%. .f 3 8.Y.x.7.H.7.7.7.7.8.8.8.8.8.8.4.4.4.4.8.6.4.6.6.6.6.6.6.6.6.7.6.7.7.8.8.8.Z.Z.Y.F.F.7.7.7.F.F.F.m.Y.Y.t 8.UXJXFXm.  @ 5 p g a a a a a a a a a a a a a a a u u t t t u u u p r $ O .. .k + , t { <.g.d.d.d.d.d.f.f.d.a.l.h O t ~ ) _ ] O.O.D D a + F l.h.a.d.d.d.d.d.d.d.g.g.^ 2 O O r B d O O . @ @ @ @ O . O O O O O O @ O . * ..R.J.K.H.7.7.7.7.7.7.6.6.6.7.6.6.6.6.6.6.8.8.8.8.6.6.6.6.6.6.7.7.7.7.7.7.F.x.7.Z.H.H.H.F.F.F.7.7.R.4.j , j y d x f f z z z z z z z f f z z z z z P P x x P I I I %.%.%.%.T T T &.=.=.=.=.r.r.N.M.N.M.N.B.C.XXXXXXOXOX&X&X*X-X>X>X,X,XyXyXxXMXbXbXmXBXGXLX",
"g.g.h.h.a.g.1./ [ < O + ..T.(.~. .+ $ * * 1 * * * * * * * * * 1 < + < [ [ ^ / / / / / / O.O.O.{ | | | | { { { { / / / / O.{ { O.| | | | [ [ [ [ { { { { { { { { { { | | | | a < j d d d f f z f z z z x z x K K K K K K I I I I I I I P I :.;.y.y.N.N.N.M.M.M.M.A.A.B.B.A.V.+X$X+XoXOXOX%X%X*X*X*X>X>X,X,X<XxXMXbXbXnXBXDXLXGXGXPXGXBXnXbXbXyX,X>X>X-X;X%X%X%XoXoXXXXXXXC.p.i.i.r.M.M.M.y.y.Z.Z.;.x + [ O./ ^ O.~ ~ ~ ~ ~ [ [ [ ~ ~ ^ ^ [ [ | | / ` ` ` / / ` O.O.| |  .{ | | | { ~ { { { { { { ^ { ~ [ ..[ 0 ..KXGXKXKX}.  5 u t a a a a a t t a a a a t t t t t u t t u u u y r O 3 W.[.].].5.+ O < [ +.h.h.a.f.f.f.d.,.d.` h . + s A s s s s m n a , / #.a.0.a.g.h.a.a.g.1.^ k < O +  .H.[.T...O @ @ @ @ O O O O O O & O & & # O * ..| | ` ` |  . . .| | { { | | { { { { { { | | | | { { | | O.O.O.O.{ { [ { | | | | O.O.{ { { { ^ [  . .y , f d d d f f f z z z x x x x x x d z x K P P P P P I I R %.%.T T T T T T =.=.:.:.=.=.N.N.N.N.N.C.C.D. XXXoXOX%X=X*X*X-X-X>X<X<X<XxXbXbXnXnXBXDXPX",
"1.a.a.a.d.+.O.D 2 O , @.W.T.z.k.c.[ O # 1 1 1 * * * * * * * * * * + 1 n [ { / / { { { { O.O.O.| | | | / ^ ^ ^ ^ ^ / ^ / / / / / / / { { [ [ [ [ | | | | ^ ^ ~ ~ ~ ~ ~ ~ D k 4 , f f d d f f z z z z z z J J K K K K K K I I I I I I I P I :.t.t.t.y.y.M.M.N.M.M.A.A.B.B.A.V.+X$X+XoXOXOX%X%X&X*X*X-X>X>X,X<XzXbXbXbXbXMXDXPXLXLXIXLXDXMXbXbXzX,X>X-X-X*X%X%XOXOXoXXXXXXXV.p.i.r.r.M.M.M.u.u.N.Z.Z.8 , k { O.O.~ O.O.|  .[ [ [ [ [ [ [ ^  . .| | O.O.O.O.) ) ) ) ^ ^ ~ D { [ ..{ { { O.{ { { { { ^ A { k a k 1 ..KXGXGXGXJXU.5 p t a a a a a t t a a a a t t t t u u t t u u u y # + 8._.(.^.4X5X3.O + 3 [ O.,.h.f.f.d.d.1./ ~ [ O @ 9 j f d j m g 0 O 2 A S ' d.d.l.h.d.d.+.{ k , . <  .W.T.k.l.T.j . & @ @ & O O O O O & & & & @ . * B [ ^ / / |  . .| | | { { | | { { { { { { | | | | | | | | ^ ^ ^ ^ { { [ { | O.| O.O.O.O.| ~ ~ ~ ~ ~ k < + f f f f f f z z z z x x x x x x f z x K P P P P P I I R %.%.T T T E E E :.:.:.:.=.=.N.N.N.N.N.N.C.D.XXXXoXOX%X=X*X*X*X-X>X,X<X<XaXbXbXbXbXnXDXGX",
"d.d.d.d.+./ h 4 O ,  ./.c.$.$.$.l.7.< O 1 < * * * * * * * * * * # O $ u j k k k k j j k j a a a a a h h g g g g g g g g g g g g s g g g a g g g j k k k a a a a y a a a a y $ # d d d d f f f f z z z z K K K K P P K K L L L I I I I P I :.y.t.t.y.y.M.M.M.M.M.A.A.B.B.A.+X+X$X+XOX@XOXOX%X%X*X*X*X-X>XqX>XgXxXbXbXbXMXDXLXIXIXIXIXLXDXbXbXzX>X-X-X*X%X%X=XoXoXoXXXXXV.V.p.i.r.r.M.M.M.u.u.y.Z.Z.d + a n ~ ~ h h s s h k k k k k k k k a a a a a s s s s s s s s s s g g g g g g s h s s s s a a g 0 u u i O %.GXGXGXGXPXJX..5 t a a a a a a t a a a a t t t t u u t t u u u 0 + d /.!.d.9.0.v._.4.+ O 5 k O.a.f.s.d.<.| ~ k y .   o * @ @ X X $ $   O m h A ] +.d.d.+.+.^ s 4 O ,  .T.c.O.+.X.c.6.3 O @ @ & & O O O O & & & & @ . # j k h A h k j j j a a a a g g a a g g g g g g g g g g s s h h s g g a u a s s s s s s s s a a a a a t $ # d f f f f f f f f f x x x x K K f z x x P P K P P I I I %.%.T T T E E E =.:.=.=.=.N.N.N.N.N.N.N.C.C.XXoXOXOX&X%X&X*X*X*X>X>XqX,XyXxXbXbXbXbXDXPX",
"/ / / / D h 4 + l 5.Z.X.^ ] d.$.O.5.n + < * * * * * * * * * * * # & O r r r t r 5 5 5 5 5 3 2 2 3 3 2 2 < 4 4 4 t t t t t t t t t t u t u u t t t t t t r r t t t t y y d r O # d d d d f f f f z z z z K K K K P P P P L L L I I I I P T :.y.t.t.y.y.M.M.M.M.M.Z.A.B.B.A.+X+X$X+X$X@XOXOX%X%X&X*X*X;X-X8X8XfXxXbXbXbXMXHXIXIXIXIXIXIXGXvXxXgX;X;X*X*X%X%XoXoXoXoXXXXXV.V.p.i.r.r.M.M.M.y.y.y.y.-.L + 3 a 0 3 t 3 3 3 3 3 3 3 3 3 2 2 2 4 4 4 4 t t r r r t 0 0 0 0 0 0 t t r r 3 3 3 3 3 3 3 3 y t i i r 5 O }.GXGXGXGXGXLXCX+ t a a a a a a a a a a a t t t t u u t t u u u 1 + 6.!.d.d.k.9.d.1.T.7.t O 4 k { d.d.,.~ k B y @ : : : - # < # # # p C   2 a D A ^ O.O.^ A s 1 O 3 7.T.~ F +.+.+.X.4...O O @ & & O O O O & & & & o . @ r 0 0 0 0 6 5 r r 3 3 3 3 0 0 2 2 2 2 2 9 0 0 0 0 0 0 0 0 0 0 0 0 0 9 r 9 0 0 0 0 0 0 t t t t t y y 3 O 2 d d f f f f f f f z x x x K K K f z x x P P P P P I I I %.%.T T T E E E =.=.=.=.=.N.N.N.N.N.N.N.C.C.C.XXOXOX%X&X%X&X*X*X-X8X8X8X-XxXbXxXbXMXHXLX",
"A h h k h + + g J.j.O.O.$.$.$.$.#.#.{ 4 + 2 O % % % % % * * * * # # * * O O + O # . O O O + + + O . O   O O O O   . . . . . . . O O .   O . . @ O + + + + + O O . . + + + + 2 t d d d d c c f z z z z z K K K K P P P P I I } } I I P P I :.t.t.t.y.y.y.M.M.M.M.M.M.B.B.A.V.V.+XXX+X+X@XOXOX%X&X=X%X*X8X8X6X8XvXvXvXvXvXFXPXIXIXIXIXLXKXvXcX8X&X&X*X&X%XOXoXoXXXXXXXV.p.p.i.r.r.e.u.M.u.y.y.y.y.y.;.s , O O + + + O O . O O O O + . @   O O O O . . . O . . O O O O O . O   . O O + + O $ $ + O O     O .   m.FXGXGXGXGXPXGXHXz 3 t a g t a a t a a a a t t t t u t t t t u 0 + s (.c.0.a.f.f.d.#.1.l.T.a O r n D S A k g * @ . : = z Y B.D.p.C.W J y p @ % 2 k h A A ~ a + + 3 H.1.) O.O.` _ O.O.X.[ < O @ & & O O O O & & & & * . . O $ + + + O O O O O O + + O . . . O O O O . . O O O O O O O O O O .     @ O O O O + + O O O O O + < + # t d d d d f f f z f k x x x x x K z z x x P P P P P I I I T T T T T T T T :.:.E E :.=.=.N.N.N.N.N.C.C.V.XXoXoX#XOX%X%X&X*X*X&X6X6XfXcXvXvXvXvXFXKX",
"g n n t + + h H.l.0.$.$._ _ _ _ +.+.| g + # $ % % % % % * * * * * * * * * * * * O # V  .4.4.5.6.6.r     V 3.8.>.>...B j j m m m B V V ..V i O O V 4.G.8.>.8.>...# O 2 2 t 6 t d d d d d c c f f z z z z K K K K P P P P I I } } I I P P I :.t.t.t.y.y.y.M.M.M.M.M.M.B.B.A.A.V.+X+X+X+X@X@X@XOX%X&X&X#XQ 8 f 8 8 8 8 8 7 7 C C N C C C v v 8 l Q &X%X%X%X@XoXXXXXXXXXV.V.B.i.r.r.r.u.M.u.y.y.y.y.*.*.y.} ........r % B >.8.8.8.8.6.t   . V 3.8.>.>...B j j j j j B B ....V i O O B 4.m.8.8.8.8...O sXZXZXZXZXHXPXGXGXGXGXGXGXKXm.3 a a g a t t a a a a a t t t t u t t t 0 g 2 + c.c.d.0.f.f.f.a.d.d.d.k.J.[ 2 a [ D a y $ & : M 3.7X0XcXcXcXlXlXcXfX7Xm.p ; O + g n n g + + k H.1.#.+.+._ _ _ _ $.$.O.s O . O & O O O O & & & & & @ O O 2 2 2 2 * 2 .. .4.5.6.6.4.t   . V >.8.>.>...B j j j j j n B V ..>.i O . B 3.8.8.4.8.4...@ # 5 r 3 r y y d d d d d f f z f x x x x x x x f z x x P P P P P I I I T T T T T T T T &.&.E E :.=.=.N.N.N.N.N.B.C.V.XX+X@X#X#X@X&X%X&X#XQ 8 8 8 8 8 8 7 7 v C ",
"$ 5 = O + B x.1._ _ 9._ _ _ _ _ _ ` O.| 2 O * % % % % % * * * * * * * * 2 2 2 2 +  .[.5X`.`.^.^.5X1.O # 4.Y.W.H.T.W.W./.W.W.W.W.T.Y.H.F.R.8.g t Y.E.H.6.4.7.H.I.t * r j k a d j d d d d f f c f z z z z K K K K P K L L L I P } I L P P I :.t.t.t.t.y.y.M.M.M.M.M.M.B.B.A.A.V.+X+X+X$X$X@X@X@X@X&X#X$X8 5 = - : - - - & > > > > > > : X : - & 8 #X=XOXoXoXXXXXXXXXV.V.p.i.u.r.r.t.u.M.y.y.t.y.t.r.=.M.-.:.:.:.:.4 [ [.[.`.`.`.'.5X4.O # 4.Y.E.H.T.W.W./.W.W.W.W.E.T.H.7.R.7.j 0 R.W.H.6.4.7.H.Y.# sXLXPXKXGXKXHXGXGXGXGXGXGXLX7X3 a a g a a a a a a a a a a a a t u t t u u O a T.0.q.q.f.f.f.f.d.d.a.a.,.1.>., 2 < # # r p C p m.dXcXlXlXlXhXhXhXlXcXZ.p C ; . * r 5 O O B 6.2.` ' 9.' _ _ _ _ +.+.+. .* . O & O O O O $ & & & # # O O t t t t +  ._.[.`.`.`.^.4X5.O * 4.H.E.H.E.Q.W.W.W.W.W.W.H.H.F.7.E.7.g 3 H.E.H.x.6.H.T.R.5 = j j a k f j d d d d d f z z f x x x x x x x z z x x P P P P P P P I T T T T T T T T &.&.E E :.:.=.N.N.N.N.N.M.i.B.XXXX+X@X@X@X=X&X&X$X8 # & @ - - - = - > > ",
"& . . O d @.1.] _ _ n.] _ _ _ _ _ _ O.O.g O * $ % % % % * < < < * * * * 1 1 < 1 + 5.c.k.z.h.f.s.h.2.+ O | O.O.O./ O.+.<.<.<.<.<./ | |  .O.5.[ 0  .{ ^ ~ O.~ ^ <.y # r j k j j k d d d d f f f z z z z z K K K K P P L L L L L I I L P P T :.t.t.t.t.y.y.M.M.M.M.M.B.B.B.A.V.V.+X+X+X$X$X@X@X@X@X&X@X$X, . X > > X X > > o o X > > X > X X > o < $XoXoXoXoXXXXXp.V.V.B.u.u.r.=.=.-.y.M.y.y.y.t.t.r.y.*.-.:.:.&.o.4 @.J.z.g.g.g.g.h.5.+ O | | | O./ O.+.<.<.<.<.<.) O.{  .@.8.[ l @.{ { ~ @.~ { 4.6 {.PXKXGXGXGXHXGXGXGXGXGXGXPX9X3 a a g a a a a a a a a a a a a a a t t j 2 + [ z.0.b.f.q.q.f.f.z.h.f.0.h.g.5.B O @ = 7 d ;.{.z 7 W wXlXhXhXhXhXlXwX! < z [.m.5 = & . . j 4.O.O._ 9.n.] _ _ _ _ +.+.+.@.j O O @ O O O O $ & & & O * $ O r r r t + >.6.K.l.z.d.a.a.g.+ + | O.O.O.^ | @.<.O.O.O.O./ / { | { 5.~ w O.O.| { O.^ ~ <.y 5 j t j k f f d d d d d f z z f x x x x x x x z z x x P P P P P P P P I T T T T T T T &.&.E E :.:.=.N.N.N.N.N.N.i.i.V.+X+X@X@X@X@X@X#X$X< X o > o o > X > > o ",
"N : r + O.F o.^ _ n._ _ +.+.+.+.+.+.O. .n + + $ % % % % % % 1 1 1 1 1 1 1 1 * * + [ j.a.a.a.f.f.a.+.+ 3 | O.O.O.O.O.O.O.{ { { O.O.) O.O.^ @.a 3 O.) O.) ) O.O.{ 2 O y y d d j j d d d d f f f f z z x x K K K K K K P P L L P P I L P P I :.t.t.t.y.y.y.y.y.u.M.u.B.B.B.A.V.V.V.+X+X+X+X$X@X@X@X@X6XA.3 @ o o o o o o o X X X X X o X o X X o 2 6X@XoXoXXXXXXXV.p.p.u.M.M.y.r.=.r.u.M.u.t.t.y.y.*.=.*.*.*.*.*.o., { j.a.a.a.a.a.d.@.+ 5 { { { { / ) ) ) ) ) ) ) ) ) X.{ {  .a 4  .O.O.O.O.O.O.| + {.PXKXHXKXGXHXHXGXGXPXGXGXPX}.4 a g 0 a a a a a a a a a a a a a a t t u + 3 <.a.q.q.q.f.f.f.f.f.f.f.s.f.d.l.<.$ : C v D.gXcX8XU < W cXlX1XrXlXcXW 7 z 8XcXcXXXt C = # @.X.o.X._ ' ' ' _ _ _ $.$.$.O.O.D + O @ O O O O & O O @ O O O O * r r 6 % ..2.d.d.d.d.d.d.<., 2 { ) ) ) { { { { O.O.O.O.) ) { { { | a 4 O.O.O.O.O.O.O.{ 6 + a j d d d d d d d d d d d f z z x x x x x x z z z x x x x P P P P P I I T T %.%.T T &.&.&.&.:.:.=.=.N.N.N.r.N.u.u.B.+X+X$X@X@X@X@X$XA.< X o o o o X X X X X ",
"U.p r % @.+.$.] _ n._ _ +.+.+.+.+.+.O.O. .1 % $ % % % % % % % 1 1 1 1 1 1 * * * + [ k.f.a.a.a.a.a.+.+ 3 | O.O.O.O.O.O.O.{ { { O.O.X.O.O.) O.a 3 O.) O.) ) O.O.{ t O t y d d d d d d d d f f f f z z x x x K K K K K P P L L P P I P P P I :.=.t.t.y.y.y.y.y.y.u.u.B.B.B.A.V.V.V.+X+X+X+X+X+X+X+X@X+X(.+ O o o o o o o o X X X X X X X o       r 6XoXoXXXXXXXXXC.u.u.M.u.y.r.=.W =.y.N.y.t.y.y.y.*.-.*.*.*.*.*.o., { d.f.a.a.a.a.d.@.+ 5 { { { ) ) ) ) ) ) ) ) ) ) ) ) ) X.O.a 4 | O.O.O.O.O.O.| 3 3.SXc 7 7 }.GXGXGXHXdXZXFXPXm.4 a g 0 a a a a a a a a a a a a a a t t y % g 2.a.q.q.f.f.f.f.f.f.f.f.f.f.z.z.[ . M p =.gXhXjXhX8XU < B.lXkXhXcXM., z 7XlXhXlXcXZ.5 r < @.O.o.F _ ' ' ' _ $.$.$.$.$.O.O.@.< O O O O O O & & & & @ @ O $ * r r 6 $ ..g.f.d.d.d.d.a.<., 2 { ) ) ) ) ) ) ) O.O.O.O.) ) { { { { a 4 O.O.O.O.O.O.O.{ a + a d d d d d d d d d d d d f z z z z x x z z z z z x x x x P P P P P I I T T %.T T T &.&.&.&.:.:.:.=.N.N.N.r.N.r.r.B.V.+X+X$X+X@X@X$X6X4   X X X X X X X X X ",
"0XE # # D +.+.n.n.n._ _ +.+.+.+.+.+.O.O.| 4 + + % % $ $ % % % % * * 1 1 * * * * + [ k.f.a.a.a.a.f.+.+ 5 | O.O.O.O.O.O.O.{ { O.O.O.X.O.O.^ O.a 3 O.) O.) ) O.O.{ d O 5 y d d d d d d d d d d z z z z x x x x K K K K K K P P P P P P J J P &.-.-.t.t.r.y.y.y.y.u.M.B.B.Z.A.A.A.A.A.A.A.+X+X+X+X+X+X+X6Xl O o o o o o o o X X X X X X > o X o   8 +XXXXXXXV.C.C.C.u.u.u.u.r.=.*.E W =.y.r.r.=.;.;.*.*.*.*.*.*.*.&., { d.f.a.a.a.a.d.#.+ 5 { { { ) ) ) ) ) ) ) ) ) ) ) ) ) { | a 4 | O.O.O.O.O.O.| s x %.@     @ sXLXHX%.    = ZX9X< a g t t t t t t t t t t t t a a a t t 2 + j @.a.f.f.f.f.f.f.f.d.d.f.f.a.d.@.t ; p U 8XlXjXjXkXlX8Xz 8 &XlXcX8X8 z 8XlXlXhXhXlX8XY * O k X.$._ ' ' ' ' ' ' ' +.+.O.O.O.@.4 + O O O O O & & & & @ @ O $ * r r 6 $ ..g.d.d.d.d.d.a.<.+ 2 { ) ) ) ) ) ) ) O.O.O.O.) ) { { { | a 3 O.O.O.O.O.O.O.{ a + t t d d d d d d d d d d f f f f z z f f z z z z z x x x P P P P P P I I I I %.%.T T &.&.&.:.:.:.:.=.N.N.N.r.N.r.r.M.V.A.+X+X+X+X$X$XA.l     o X X X X X X X ",
"cX8X8 # , ) ' 9.n.n._ +.+.+.O.O.O.O.O. .~ + + % % % $ $ % % % % * * * * * * * * + [ k.f.a.a.a.a.f.+.+ 5 | O.O.O.O.O.O.O.{ { O.O.O.) O.O.^ O.a 3 { ) O.) ) O.O.{ j O 2 y d d d d j d d d d d z z z z x x x x x x K K K K P P P L L P J J P &.*.-.t.t.r.r.y.y.y.y.M.Z.Z.Z.A.A.A.A.A.A.A.A.+X+X+X+X$X$X6Xo.O . o o o o o o o X X X X X > o     * :.+XXXXXV.C.C.C.B.u.u.u.u.r.=.E E E =.;.=.=.=.;.;.*.*.*.*.*.*.*.&., { d.f.a.a.a.a.d.#.+ 5 { { { ) ) ) ) ) ) ) ) ) ) ) ) ) { | a 4 | O.O.O.O.O.O.| s < #         }.LXZX  @   . }.sX< t g a t t t t t t t t t t t t t t t t 2 % r [ 1.a.a.a.d.d.d.d.g.g.d.d.1.{ g # : 6 #XlXrXkXkXeX2XlX6X8 Q cXcXQ d A.lX2XjX1X1XrXlX6X8 ; 4 | +.n._ ' ' _ +.+.+.+.O.O.O.O.D , O $ O O O O & O O @ O O O O * r r 6 $ ..g.d.d.d.d.d.a.<.+ 2 { ) ) ) ) ) ) ) O.O.O.O.) ) { { { | a 3 O.O.O.O.O.O.O.{ k + r r a a d d d d d d d d f f f f z z f f d d z z z x x x P P P P P P I I I T %.%.T T &.&.&.&.:.:.=.=.=.N.N.N.r.r.r.u.B.A.A.+X+X+X+X$X6XI # . o o X X X X X X ",
"lXcX=.* + h ) a._ _ +.+.+.O.^ ~ A A h h 3 + % $ * * * * $ $ $ $ $ $ $ $ * * * * O [ d.a.a.a.a.a.f.+.+ 5 | O.O.O.O.O.O.O.{ O.) ) ) ) O.O.) | 3 3 O.) O.) ) O.O.{ f O 2 p d d d j j j f f d d c c z z c c z z x x x K K K P P P P J J J J J P Y *.;.;.y.y.r.r.y.y.y.y.N.N.N.N.N.N.A.A.A.A.A.A.+X+X+X+X+XS.%.= : : > > > > > > > > : : : : > p ;.Z.B.p.C.C.C.B.B.M.M.M.y.y.=.=.=.E E E :.=.;.;.;.;.:.:.:.:.:.:.&.&., { a.a.d.d.d.d.d.<.+ 5 { { { ) ) ) ) ) ) ) ) ) ) ) O.{ O.{ 4 3  .O.{ / { O.O.{ k + O         sXLXdX    o   }.|.# r y y y t t t t t r 0 r r r r 9 9 r t y + $ j ~ ~ ~ ~ ^ | @.+.2.<.+.O.{ k # & - =.gXrXeXeXjXjX1XlXcX! 8 ].7Xl Y 8XlXkXuXuX1XuXjXcX=.* + a ^ +.' +.#.#.O.` ) / ~ h h s l + O O O O O O & & O O O O O O O $ 2 5 O [ d.f.d.d.d.d.f.1., 2 | O.O.O.O.O.) ` ) ) O.O.) O.O.{ {  .3 3 O.O.O.O.O.O.O.{ [ + a a d j d d d d d c d d d d d d f f f f z z z z z x x x P P z K K P L I I T T T %.%.:.&.&.&.&.&.=.W =.=.W W r.r.r.r.i.M.A.A.A.+X+X+XA.S.m.= : : : : : : : : ",
"2XlX6X8 # # D ^ +.O.~ D s s h h a 0 4 4 % % # O O O O O O O O O O O O O O O O O O [ d.f.a.a.a.a.f.+.+ 5 | O.O.O.O.O.O.O.{ { ) ) ) ) O.O.) | 3 3 O.) O.) ) O.O.{ j O 5 p t t t t a a d d d d d d d d d d v z z z z z z z K K J J J J J P P P Y E &.&.:.E E :.:.*.=.=.=.=.=.=.=.r.N.N.N.N.i.i.B.p.C.C.B.M.m.c : N N N N N N N N N b N N b C V Z.B.B.p.C.C.i.i.r.r.r.r.=.=.E E E T T T E E E T I I I I I I P P P K , | d.f.d.d.d.d.d.<.+ 5 { { { ) ) ) ) ) ) ) ) ) ) ) O.{ O.{ 4 3  .O.{ / { O.O.{ a d y .     v FXLXSX.     . 9X}.O * < < < * * * * % $ + % % % # # % % % 2 + O $ t w w w k k ~ ~ ~ ~ ~ D ..2 . - v $XlXeXeXuXjXjXjXeXlX@X8 V 3.l $XgXhXjXuXuX1X1X1XlX6Xy # # ~ ^ O.) F A A h s s a t 4 1 + + O . . . . . . . . . . . . O O O + % O [ d.f.d.d.d.d.f.1., 2 | O.O.O.O.O.` ` ) O.O.O.) O.O.{ {  .3 3 O.O.O.O.O.O.O.{ k + 6 4 t t 6 6 6 6 8 d 8 8 8 8 8 8 8 8 8 8 8 8 8 8 d z d d z x z K K P L L P I I I I I T T &.&.E E E E =.W W W W r.r.r.W r.N.M.M.B.C.V.C.A.S.i p b b b N N N N ",
"hXgXfXI - . 6 h h s s s w 3 , + O O O . O O .   . . O O O O O O O O O O O . . O O [ d.f.a.a.a.a.f.#.+ 5 | O.O.O.| | { { { { { ) ) ) O.O.) | 3 3 O.` O.) ) O.O.{ d O 5 t 6 r 6 6 d d d d d d d d d d d d d d d d z z z z J K x x J P P P P P I Y Y Y E E E E E E E E E E W W W W W r.r.r.r.r.u.i.i.i.i.N.N.c : N N N N N N N N N N N N N M V M.! i.p.i.i.r.r.r.N.r.=.=.=.=.W W E E T T T I I U U U U U U J J z f + { a.a.d.d.d.d.d.@.+ 5 { { { ) ) ) ) ) ) ) ) ) ) ) O.{ O.{ 4 3  .O.{ { { O.O.| g c FXdX}.sXFXdXS.sX9X. @ v SXV O O O + O O O O $ $ + O O O O O O O + $ % + O O O O O O % 2 r g h k D n j @ o - z fXlXkXuXuXuXjX2XkXkXwXo.; p L gXjXjX2XjXjXjXjX2XlXfXU - . r k s s s g k a 4 + O O O . O O . . . . . . O O @ @ O O O O O + + % O [ 1.d.d.d.d.d.f.1., 2 | O.O.O.O.O.O.O.O.O.O.O.` O.O.{ {  .3 3 @.O.O.O.O.O.O.| d + t 3 6 6 6 6 5 5 6 d d d d d d d d d 8 8 8 8 8 d z z f z z x K P P } I I P P P U P U I T &.&.&.=.=.=.=.W W W r.r.r.r.r.r.N.N.N.N.p.p.V.A.Z.c Z N N N N N N N ",
"hXhXcXr.7 o . 2 a 3 , + , + + + + + < 2 t $ O # * * * * O O . . $ $ $ $ * * * * O [ g.a.a.a.a.a.h.#.+ 5 | O.O.O.O.| | { { { { { O.O.O.O.{  .3 3  .O.O.) ) O.O.{ a + r 5 t t t d d d f f d d d d d d d d d v v d x K K K P P P P P P P P I I I Y &.&.E E :.:.&.E E E E E W W W W N.N.N.N.M.M.B.B.B.B.B.A.S.m.C : : : : : : : : : : : b b V :.A.N.i.i.i.r.N.N.N.N.N.N.y.y.;.=.=.=.;.;.=.:.:.:.:.:.I I I I P J J K + [ 1.a.d.d.d.g.d.@.+ 5 ..{ { { ) ) ) ) ) ) ) ) ) ) { { { [ 4 3  .O.{ { { O.O.{ 3 O 9XKXLXKXPXv 7 c KXFXFXFX}.* t p y u y p p p p r 9 2 + + O O . O 2 t < + % 5 2 2 2 2 2 % O O , 4 3 3 * . : - W cXhXkXuXuXuXuXuXjXkXlXA.r M Z.lXuXuXuXjXjXeXjX2XhXcXN.7 X . 5 a l , + + + + + + % 4 2 0 + . @ * * * * * * 9 9 5 5 5 r r r 3 3 O [ 1.d.d.d.d.d.d.<.+ 2 | O.O.O.O.O.O.O.O.O.O.O.` O.O.{ { | 3 3 @.O.O.O.O.O.O.| t + x d t t 6 6 6 6 d d x x x x K K K K K K K K K P P ..P L } } } %.&.:.&.&.I I J U U U I &.:.;.;.;.=.=.N.N.N.N.N.M.N.M.M.B.A.B.B.A.V.V.V.A.S.m.p : : b b b b b ",
"jXhXvXC.7 Z o O 3 s D { @.1.7.J.^.!.`.(.`.T.k + 3 3 3 0 < O O . % < r y t t t t 2 g 2.z.f.f.f.d.d.O.+ % ~ ^ { | / / / / / / { { ) ) { { ~ a < 3 { { ^ ~ | { ~ k 2 + d j d j j j j j d d f j f f f c d d z z c x K K K K P P P P P P L L I I I I I Y Y Y &.&.&.:.:.:.:.:.E E E =.M.M.M.M.M.M.B.B.Z.B.V.V.A.{.m.. o o o o o o o o .   o o ;.Z.r.r.r.M.B.M.N.N.N.N.N.M.N.N.y.y.y.y.;.-.-.-.-.-.-.-.-.-.*.*.&.&.o.} < a l.g.h.d.d.1.d.^ O O [ |  .O.{ { { ^ / / ^ / ^ / ^ ^ D a < 4  .O.O.{ +.O.F h < O m.GXPXGXHX7 %.v JXFX{...8 d y t t t t t t t a t w 0 2 $ @ . $ t 0 a + D J.~.T.T.R.R.H.x.6.<.A l , O . = C 7 D.gXhXhXjXjXjXjXjXkXkXlX6X8 8 6XlXjXuXuX1XeXeXjXjXhXcXC.v Z o   3 e A F @.5.x.T.~.(././.[.T.x O r t t t t t t t t t t t t t t t 4 g g.a.h.f.d.a.d.{ + O ..{  .O.{ ) ) / ) / / / ) / { { ~ a < 3 { / ^ ~ O.^ F A < + B j B j t 6 6 d x K L L K K L L [ ..L L L L } } } } } o.o.o.o.o.&.&.:.:.:.:.I P P I *.;.y.;.;.;.y.y.N.N.N.y.u.u.M.M.Z.B.Z.Z.Z.B.A.B.A.A.A.Z.3..   o X X X X ",
"jXhXlX$X- : - .._.`.4X4X4X4X4X4X4X4X4X).4X4XH., 3 3 3 3 3 % O O < 3 t t t t r r + 3 @.1.d.d.d.g.+.~ + % k D ~ ~  .| | | | |  .| O.|  .| k t # 2 k k ~ ~ h h h k < % d j a d d j j j d d j j f f f c d y c c x x K K K K P P P P P P L L I I %.} o.Y o.o.&.&.&.:.:.:.:.*.E E =.r.M.M.M.M.M.M.B.Z.A.A.A.V.A.S.m.O o o o o o o o o $ & o . Z.B.r.r.r.M.Z.M.N.N.N.N.M.M.N.N.y.y.y.t.t.t.t.-.;.-.-.-.-.-.-.-.&.o.o.o.1 3 @.1.g.g.1.<.<.~ O @ k n ~ [  . .| { | | { { O.{ | | k t # # g s h A h s s g < 6 S.LXFXFXKXFXFXZXLXFX5 5 t j a a a a a a a a a w w w 0 $ @ . 2 t t 0 0 H.L.L.c.c.c.K.K.J.J.J.!.!.c.4.t @ N - $XlXlXhXjXjXhXjXjXkXrXlX8X8 8 8XlXjXjXjXjXkXkXkXjXhXgX$X7 Z - ..`.`.`.`.`.`.4X4X4X4X4X`.(.5X7., 0 0 0 0 t t w w 0 0 0 0 w w t t O 3 @.a.h.d.a.1.+.~ + O j k ~ [ O.O.O.O.O.O.| | O.|  .| k t $ 2 k k D ~ h h h f 4 + j x x j y 6 6 j K K L L L K L L L L L L I I } o.o.o.o.o.o.o.o.o.o.o.*.*.*.:.I P P I ;.t.;.;.y.y.y.y.y.y.N.N.u.u.u.u.M.M.A.A.B.B.A.B.A.A.A.A.;.O o o X X X X ",
"lXlXlX#Xv : c /.z.z.z.h.L.P.v.z.v.v.h.z.z.L.T., 3 3 3 3 a 1 O O r 0 t t t t r r + < [  .[ { [ [ D 0 + + y a j k ~ ~ ~ ~ k k k D h h g j d 5 O # d a a 6 a a a a + 2 a a a a d j j j j j j f f f f c c y c z x x K K K K P P P P P L L L I I %.} o.Y o.o.&.&.&.&.:.:.:.=.E E =.y.Z.Z.M.M.M.M.M.Z.Z.A.A.A.Z.A.m.- . o o o o o o o X * . # Z.M.W r.r.M.Z.Z.N.N.N.N.N.M.M.M.y.y.r.t.t.t.t.;.-.-.-.-.-.-.-.-.&.o.o.o.l , D { ~ ~ ~ D ~ a . @ y g j k ~ ~ D D D k D A h h h j y 5 O O a a a 6 t a a a + 6 c sX{.FXFXdXIXsXJXAXr u g g a a a a a a a a a w w w t * @ . 9 t u 1 4 H.d.+.$.$.+.+.+.+.#.a.k.d.c.!.7.r : 5 $XlXlXlXzXzXlXlXlXlXlXlXfXH H cXlXlXlXlXhXhXhXhXlXlXlX#X7 : j W.c.z.h.d.L.L.v.z.z.z.c.c.k.!.Z.+ 0 0 0 0 t t w w 0 0 0 0 w w t t 1 4 k [ { ~ ~ D ~ g O O p d k k ~ ~ ~ ~ ~ ~ D D h h k j j 5 O # a a a 3 a a a a # # j k k x d 6 t f L [ L L L L L L L [ L L I I } o.o.o.o.o.o.o.o.o.o.o.&.&.*.:.I P P T ;.-.;.;.t.y.t.y.y.y.M.u.u.u.M.u.M.B.A.A.Z.Z.Z.A.A.A.A.A.Z.-   o X X X X ",
"8X8X8XM.C X B c.a.s.f.f.9.0.0.0.+.d.9.k.a.g.<.3 3 3 3 3 a 2 O O t a t t t t r r 2 < t a a a y a y % O O 5 r t y t t t r 2 2 3 4 t t t r t 2 O + 3 3 3 2 r 3 < # + 5 a a a a d d j j j j j f f f f c c y d z x x K K K K K K P P P P L L } } } } I Y o.o.&.&.&.&.*.*.*.*.:.*.;.y.Z.Z.Z.M.M.M.Z.Z.A.A.B.B.Z.Z.Z.x . o o o o o o o o o   c Z.M.W r.r.M.Z.Z.N.N.N.N.N.M.M.u.r.r.r.t.t.t.t.;.-.-.-.-.-.-.*.-.&.o.o.o.f + 3 a a a t 0 0 <   . 2 2 r t 3 3 3 3 3 3 4 4 t t r t t 2 O O 2 3 3 6 3 3 < < + 9X< # - U.U.m.AXc m.c m u g m a a a a a a a a a w w w a 2 @ . t 0 u 2 3 <.O.` $.+.+.+.+.+.+.+.$.+.$.X.5.% : i A.8X8X8X-X-X8X8X8X8X8X8X7Xf G 7X8X-X8X-X8X8X8X8X8X8X8XB.v X B l.d.s.f.a.f.f.f.h.d.d.k.j.d.5.4.3 0 0 t 0 t t w w 0 0 0 0 w w t t 2 1 3 a a a a 0 3 <     = 5 r t 3 3 3 3 2 3 4 3 t t r r p * O + 4 2 3 3 t 3 < , O 6 x d j B c 6 y c [ L L L L L L L L [ L L I I } } } } o.o.o.o.o.o.o.o.&.*.*.:.I P P T *.-.t.y.y.y.;.t.y.y.y.N.u.u.M.M.Z.B.A.A.B.B.Z.Z.Z.Z.Z.Z.S.c     o X X X ",
"8 7 7 7 C > k g.a.s.s.s.s.s.s.f.f.d.d.d.a.g.@., 0 0 0 0 a 2 O $ t t t t t t t r r O O , + + O O . .     . . O O O O O .   . . O O O + + 4 4 3 3 3 3 < , + + + O O 2 j j a a d d d d j j d d j j d c d y d d z z K K K K K K P P P P L L } } } } o.Y o.o.o.o.&.&.E E &.&.:.:.=.N.u.u.u.u.M.M.M.M.M.M.B.A.Z.Z.Z.m.= o o o o o o o > & r m.Z.M.W E r.N.Z.M.N.y.y.y.y.t.y.r.t.t.t.t.t.;.;.-.-.-.-.*.-.&.*.o.o.o.o.o.[ O O O O O O O O O     . O O O + O O O   . O O O O O + 1 , 4 4 4 4 1 , + + O O I.AX< 5 7 # # @ O # 7 5 t m g j a a a a a a a a a a e a g 2 @ & t u t 9 4 | O.+.+.+.+.+.+.+.+.+.+.+.$.$.O.0 p N p i 6 7 7 7 7 5 5 6 6 p p p p i 8 7 7 7 7 7 7 7 7 7 7 5 C > k k.f.s.s.f.f.f.f.f.a.d.d.g.d.1.@.+ 0 0 0 0 t t w w w w w w w w t t y O O % + + + O O .         . O O O O . . . O O O O O + < 4 3 3 3 < , + + + + O + t ..k k x c 5 t c K L L L L L K K L L [ [ } } } } } } o.o.o.o.o.o.o.o.o.o.&.&.&.J J &.*.-.-.-.-.-.y.y.u.u.y.y.y.y.y.y.M.M.M.M.M.M.M.M.M.Z.Z.Z.S.:.p   X X X X ",
"E T :.V N > g g.a.f.f.f.f.f.f.f.f.d.d.d.a.g.@., 0 0 0 0 a 2 O + t t t t t t t t # # x  .4.>. .>.B B B B V ..3.8.8.8.8.i .   t .... .6.H.W.~././._._.W.W.W._.E.7.< 2 t a a a d d j j j j d d j j d f d y d f z z K K K K K K P P L L L L } } I I } } o.o.o.o.&.&.&.E &.&.&.E =.y.u.u.u.u.M.M.M.M.u.u.u.u.Z.Z.Z.Z.V : o X X X > > > : 3.{.Z.u.W E r.N.M.N.N.N.y.y.t.t.r.r.t.t.t.t.t.;.;.-.-.-.-.#.&.o.&.o.o.o.o.o.j # V 3.>.>.>...B B V V V ..>.3.8.8.8.i     t .... .6.7././././._./././.W.W.R.8.t m.9XSXx V v - y # %.%.5 j a a a a a a a a a a a a e a g 2 @ & t u t 9 1 ^ O.+.+.+.+.+.+.+.+.+.+.+.$.$.O.2 : N C 3.%.%.I I I I %.%.%...V C C V %.T T T T T T T T T :.V Z ; j k.f.s.s.f.f.f.f.f.d.d.d.g.d.1.@.+ 0 0 0 0 t t w w w w w w w w t t * $ B  .4.4.>. .V V V V V V 3.8.8.8.8.i     r ....>.8.F.E.W././././.W.W.W.W.R.8.3 3 k j k x c 5 t f K K K K K K L K L L [ [ } } } } } } } } o.o.o.o.o.o.o.o.&.&.&.J J &.*.-.-.-.-.-.;.;.y.y.y.y.y.y.y.y.u.u.M.M.M.M.M.M.M.M.M.Z.Z.Z.V : : : > > ",
"lXcXcX7Xp ; w 1.a.f.f.f.f.f.f.f.f.d.d.d.a.g.@., 0 0 0 0 a 2 O $ t t t t t t t r * y I.Y.l.6.5.5.4.5.5.5.6.6.6.6.7.6.H.4.O + x.4XL.L.P.P.!.^.^.^.(./.(.(.^./.`._.k % t a a a d d d j d d d d j j d f d y d d f f x x x x x x K K K L L L } } I I I I I I I I &.&.&.E &.:.E E :.r.y.u.u.u.M.M.M.M.M.M.u.u.Z.Z.Z.Z.V : : N N N N N : : 8.Z.Z.u.W E =.y.N.y.y.y.y.y.t.t.r.r.t.t.t.t.t.-.-.-.-.#.#.*.&.o.o.o.o.o.o. .t 2 7.T.K.H.x.7.8.4.4.8.6.6.8.8.6.5.x.4.O + l.4X).).).).).~./.^.`.`.`.`.).^.`.[.B c FXKXsXGXsX7XFX}.PXsX< a t a a a a a a a a a w a e w g < @ & t u t 9 + ~ O.+.+.+.+.+.+.+.+.+.O.O.$.$.O.1 : p 6XcXcXgXlXlXlXgXcXcXgXcX0X8 Q 0XcXgXgXgXgXgXgXgXgXcXcX6Xp ; a j.d.f.f.f.f.f.f.f.d.d.d.g.d.1.<.+ 0 0 0 0 0 0 w w w w w w w w t t 2 p Y.H.l.l.6.5.4.4.5.8.7.8.7.6.x.5.H.4.O + l.`.).).).).L.!.^.^.(.(.(.(.^.'.`.[...3 k [ k x c 6 6 d K K F F K K L L L L L L } } } } } } o.o.} o.o.o.o.o.o.o.o.o.&.J J &.*.-.-.-.-.-.;.;.y.y.y.y.y.y.y.y.u.u.M.M.M.N.M.M.Z.Z.Z.Z.Z.Z.V Z b b N N ",
"kXhXlX&X7 ; 3 1.d.a.a.a.a.a.a.a.d.d.d.d.a.g.@., 0 0 0 0 a 2 O $ t t t t t t t r # 6 4.{ { / ^ ^ { { ) ) ^ ^ | O./ O.O.| % + l.a.f.s.a.a.a.d.z.d.a.d.d.k.k.a.z.^.7.O y k a a d d d d d d d d j j d d d y d d z f x x x x x x K K P L L L } } I I L I I I I I &.&.&.E &.:.E Y E =.y.y.y.y.M.M.M.M.M.u.u.u.Z.M.Z.Z.c p N N Z Z N N : C %.Z.Z.u.W E W =.y.=.y.y.y.y.y.t.r.t.t.t.t.t.-.-.-.-.-.#.#.o.&.o.o.o.o.o.o. .t < <./ ) / ~ ~ { { { { ~ ~ O.O./ O.O.[ + + j.a.s.s.a.9.d.d.l.k.d.d.d.a.h.d.z.~.8.7 JXGXHXPXFXFXKXFXLX7X< t 6 3 a a a a a a a a a a w a g 2 O $ t u t 2 + D ` #.+.+.+.+.+.+.+.+.O.O.$.$.{ % : 7 XXlXhXjXjXjXjXjXjXkXjXhXfX8 Q fXlXjXjXjXjXjXjXjXhXhXlX#X7 ; 0 5.d.f.f.f.h.h.h.d.d.d.d.d.d.1.<.+ 0 0 0 0 t 0 t w w t t t t t 0 t < 2 5./ O.) / ~ ~ ~ ^ ^ ~ ^ | +./ O.O. .% + l.a.f.f.a.a.a.a.g.d.d.d.h.z.d.9.k.!. .+ a k k x x 6 6 d K F F F K K L L L L L L } } } } } } } o.} } o.o.o.o.o.o.o.o.&.J J &.*.-.-.-.-.-.;.t.y.y.y.y.y.y.y.y.y.y.M.M.y.u.M.M.M.M.M.M.Z.Z.c p N N N N ",
"jXjXlX#X5 > *  .g.d.d.a.a.a.a.a.d.d.f.f.s.h.@.+ 3 0 0 0 t 1 O O r t t r t t r r % t { O./ / ) ) { { ) ) ` / { { O.O.O.| + , g.9.f.f.d.d.h.h.d.d.a.a.d.d.d.d.h.j.[ # d a a a d d d d d d d d d j d f d d d d z z x x x K K K K K K K P P L L } } } L } } I I } &.E &.&.&.I I E =.y.y.y.y.y.y.y.y.N.N.Z.Z.N.M.M.Z.;.V > > > > > > & V :.t.u.u.=.E *.=.y.y.t.t.t.t.t.t.t.t.-.-.-.-.*.*.*.-.o.@.o.o.@.@.o.o.o.o.o. .5 < { O.{ { { { ) ) ) ) ) ) ) ) O.O.{ [ + , j.9.f.f.d.d.d.d.d.d.h.h.d.a.f.f.d.j.x c KXPXGXGXGXKXGXPXPXm.5 t 8 d a a a a a a t t a a t t 0 2 O + t t r 2 O 0 ^ ' #.+.+.+.+.+.+.+.+.+.$.X.[ # : v #XlXhXjXjXjXeXeXjXjXjXlXfXQ Q 8XlX1X1X1XjXjXjXjXeXrXlX#X6 : * >.j.d.a.a.a.a.a.a.a.d.h.h.h.l.| + 0 t t t t t t t t t t t t t r r + t { ` ) ) { { / / / / { { { ) O.O.O.{ + 1 j.9.f.f.a.a.a.a.a.a.a.a.f.f.h.h.h.j...+ k k k k d 6 t j K K F F K K K K L L L L L L [ [ } } } } } } } } } } o.o.o.o.&.K J &.-.-.-.-.-.-.t.t.t.t.y.y.y.y.y.y.y.y.u.u.u.u.u.y.M.M.u.N.M.Z.m.x * > > > ",
"jXjXlX#Xv : @ n 5.g.d.1.d.d.d.d.d.d.d.d.h.d.{ + 3 0 0 0 t 1 O O r t 0 0 t t r r % a { O./ / ) ) / / ) ) ` ` ) ) O.O.O.| + , d.0.d.d.d.d.h.h.h.d.d.a.d.d.h.h.h.j.a % t a a a d d d d d d d d d j d d d d d d z z x x x x K K K K K K P P L L } } I } } } I I } %.Y E &.&.I I &.=.y.y.y.y.y.y.y.y.y.y.y.y.y.y.M.N.N.%.o o o o X . # %.N.y.u.u.*.T *.=.y.y.t.t.t.t.;.;.;.;.*.-.-.*.*.*.*.-.@.@.@.o.@.@.o.o.o.o.o. .2 5 { O.{ { { { ` ) ) ) ) ) ` ) O.O.{ [ + + 1.a.a.d.d.d.h.d.d.h.h.d.d.a.d.f.f.j.a # 7XFXHXKXGXGXLXPXCX+ j g a 6 a a a a a a a a a t t t 0 2 O + t t 0 2 + 0 A ( ^ ^ ^ ^ / / / / ^ ^ F F k * : 7 #XlXhXjXjXjXjXeXjXjXjXlXfXQ Q 8XlX1X1X1XjXjXjXjXeXeXlX#Xv : $ B 2.a.a.d.a.1.1.a.a.a.d.d.a.1.n + r 0 0 t t t t t t t t t t t r r + a O.` ) { { { / / / / ) ) ) ) O.O.O.{ + , g.a.a.a.a.a.a.a.a.a.a.a.f.f.h.h.h.j.k , k k k k d 6 t j x K F K K K K K K K L L L L [ [ } } } } } } o.o.o.o.o.o.o.o.&.K J &.-.-.-.-.-.-.t.t.t.t.t.t.t.t.t.t.t.y.y.y.y.y.y.y.y.y.y.y.M.Z.Z.[ . X X X ",
"jXjXlX#X5 X @ B ~ { @.1.@.@.@.O.#.#.+.#.^ F a , 0 0 w w t * O O t 0 0 0 t t t t % a { O.{ { ) ) / / ) ) ` ` ) ) O.O.O.| + + 1.a.d.d.f.f.f.f.f.d.a.0.a.d.d.d.h.j.< < t d a a d d d a d d d d d d d d d d d d f f x x x x z x K K K K K K P P } } L L } } I I I I I I &.&.I I E =.t.y.y.t.y.y.y.y.u.u.y.y.y.y.y.y.y.} @ o . o o . O 3.Z.y.u.y.:.T :.;.y.y.t.t.=.;.=.=.-.-.*.*.*.*.*.*.*.-.@.@.o.o.o.o.o.o.o.o.o.} # t { O.{ { { { ` ) ) ) ) ) ` ) O.O.{ [ + + #.d.a.d.a.a.h.h.h.h.h.h.a.0.0.0.d.j.% O O - m.9XsXsXsXm.# 5 m g a 0 a w a a g a a a a a t t 9 * O O t a 0 3 % 0 h h s a a a g a g g w e l 8 d O : y #XlXhXjXjXjXjXeXjXjXjXlXfXQ Q 8XlX1X1X1XjXjXjXjXeXeXlX#X6 > $ V ~ ) @.1.@.@.@.O.+.+.#.@.O.{ j + 0 0 w w w w w w w w w t t t t r + a O.` ) { { O./ / / / ) ) ) ) O.O.O.{ , + 1.h.a.a.a.a.a.a.a.a.a.a.d.d.a.a.h.g.4 3 f f k f d 6 6 d x D D D K K K K L L L L L L [ } } } } } o.o.} o.o.o.o.o.o.o.&.J J &.&.&.*.*.*.t.t.t.t.t.t.t.t.;.;.t.t.t.t.t.t.t.t.t.y.y.y.y.y.Z.Z.... X X X ",
"jXjXlX#Xy >   u [ D k a k k k D F F D D [ k # O 9 t 0 t t * O O t 0 0 0 t t t t % a { O.{ { ) ) ) ) ) ) ` ` ) ) O.O.O.| , + #.h.d.d.d.f.f.f.f.d.a.0.a.a.d.d.d.g., 2 p t y a d d d a d d d d d d d d d d d d f f x x x x z x K K K K K K P P } } I L } } I I I I I I I &.P P I :.;.t.t.t.y.y.y.y.y.y.y.y.y.y.y.y.t...@ X X X X & & 3.Z.=.y.y.:.T :.;.;.y.t.=.=.=.=.-.-.-.*.*.*.*.*.*.*.-.*.#.o.o.o.o.o.o.o.o.o.} + j { { { { { { ` ` ) ) ) ) ) ) O.O.{ [ + + #.h.h.d.a.a.h.h.h.h.h.f.0.0.0.0.d.5.O 9XAXAXFXsXV v }.- m.v t u g j a a a a g g g g g a t y r # @ O t t 0 3 + 2 g k d y y y j j j j a a s s 2 & b 5 #XlXhXkXjXjXjXkXjXjXjXlXfXQ Q 8XhX1X1X1XjXjXjXjXeXeXlX#Xv :   i [ D k s k k k D D D K B ~ k 6 O t 0 w w w w w w w w w t t t t r + a O.` ) { { { / / / / ) ) ) ) O.O.O.{ , + #.h.a.a.a.a.a.a.a.a.a.a.d.d.a.a.a.d.1 6 k a k f d 6 6 d x K K K K K K K L L L L L L [ } } } } } o.o.o.o.o.o.o.o.o.o.} z z %.&.&.&.&.*.*.*.t.e.e.t.t.-.-.=.;.=.r.t.t.t.t.t.t.t.y.y.t.t.y.Z.} @ X X X ",
"jXjXlX#X5 : & % y y y y 5 5 3 3 4 4 3 2 3 + O * p u 0 0 1 $ @ O 1 2 t g t t t t + a | O.{ { ) ) ` ` ` / ` ` ) ` O.O.O.{ , 1 #.h.a.f.f.d.f.f.f.f.d.f.f.f.a.a.a.2.+ r p t y y y y y y d d d d d d d d d d d d f z z f f f z z K K K K K K ..P P P P P I L L L I I L L L P P P L I ;.t.t.t.y.y.y.y.t.t.y.y.y.y.t.t.;.%.& o . . $ $ * m.N.=.-.*.%.T T E :.=.;.;.;.;.:.*.*.*.*.*.*.*.o.o.o.o.o.o.o.o.o.o.o.o.o.o.} [ # d | ^ { { { { ) ) X.X.) ) ] ) O.O.{ [ + , #.h.f.f.f.f.h.h.f.f.f.f.f.a.a.0.a.1.O 3.CXsXm.# @ 7 m.sXPXSX6 t a a a a a a a a a a a a t r * # @ @ $ 0 g g % < + 2 r r * * # # * * $ 2 # O @ : N p #XlXkXkXjXjXjXjXjXjXjXlXfXQ Q 8XlX1X1X1XjXjXjXjXeXrXlX#X5 : & * y t t t 6 6 6 3 3 3 5 5 2 , % % 3 3 3 3 0 0 0 0 0 0 0 0 0 0 6 5 + a O.) ) { { { ) ) ) ) ) ) ) ) O.O.O.[ , < 1.h.d.f.a.a.a.a.f.f.d.d.f.d.a.a.a.g.+ t j k k d 5 # 5 6 d k K D K K K K K K [ [ [ [ [ [ [ [ } } } } } } o.o.o.o.o.} K x x J } &.:.-.-.-.t.t.t.t.t.t.t.t.t.t.t.t.y.y.y.y.y.y.y.u.u.y.u.y.:.%.& o X X ",
"jXjXlX#X- b p O + O O . + + + + + + O O + O # p p r 0 9 O O .   $ * 9 r 2 2 2 2 + a | ) { { ) ) ` ` ` ` ` ` ) ` O.O.O.{ + < 1.h.a.f.f.f.f.f.f.f.d.f.f.f.a.a.a.1.+ 5 r 5 p p p p y t y y y y y y 6 6 6 6 6 8 8 d f f f f z z x x x x x x K K P P P P P P P P P P P P P P P P P I :.*.*.*.*.*.=.=.=.=.=.=.t.t.;.;.:.%.& o o . $ $ = 3.=.*.&.o.P P I I T T &.&.:.:.:.:.:.:.:.:.:.:.&.&.&.&.&.&.o.o.o.o. . .} } L K # d | ^ { { { { ) ) X.O.) ] ] ] O.O.O.[ + < 1.h.f.f.d.f.h.h.f.f.f.f.f.0.a.0.a.#.+ %.m.c c v m.ZXZXFXPXZX6 t a a t t t t 0 0 0 0 0 2 < * O .   . O % r y r * + + O . . O   . . O O + + . & N N - #XlXhXkXjXjXjXjXjXjXjXlXfXQ Q 8XlX1X1X1XjXjXjXjXeXrXlX#X< N p O + + O . + + + + + + + + , + O * 9 0 r r 0 0 0 0 r r r r r r r r + a O.) ) { { { ) ) ) ) ) ) ) ) O.O.O.[ , 4 d.h.d.d.d.d.a.a.f.f.d.f.f.d.a.a.a.1.+ t d d j 6 < 5 5 p d f x x x x x K K K K K K K L L L L [ [ [ [ } } } } } L L P z z z z P L } &.&.*.*.*.*.*.*.*.*.*.-.-.-.-.t.t.t.t.t.t.y.y.y.y.y.*.Y P & o X X ",
"jXjXlX#Xv N ; 1 <.<.1.5.l.l.l.l.l.l.6.6.6.a O * ; * % % O . . . . O O O O @ @ @ + a | ) O.O.) ) ` ` ` ` ` ` ) ) O.O.O.{ + 4 g.a.f.a.a.f.f.f.f.f.0.0.f.f.a.a.a.1., = = 5 r r r t r r 6 6 6 6 6 6 6 6 6 d 6 6 8 8 f z f f x z x x x z x x x x x x K K K K J J J J J J J J x J P P P P U U I I I I I I I I T T T I I %.= o o o o o = %.T E I L P P P P I T T I I I P P P P P P P P K K K K K K x x x x z z f d d d # d | ^ { { { ) ) ] ` ] ` ` ] ` O.O.O.[ + 4 g.f.f.f.f.f.h.h.f.f.f.f.f.q.f.q.q.0.< SXLXGXKXKXPXSX|.PXPX7X+ + 1 1 % * * * $ $ $ $ $ O O O . . . . O O O * # 2 | H.T.7.<.| k [ >.5.H.H.8...# : N = #XlXkXjXjXjXjXkXjXjXuXlXfXQ Q 8XlX1X1X1XjXjXjXjXeXrXlX#Xv N ; * <.#.1.5.5.6.j.j.l.l.l.l.l.~ O   O O O O O O O O O O O O O @ @ @ O a O.) ) { { { ) ) ) ) ) ) ) ) O.O.O.[ + 3 g.d.f.f.f.d.a.d.f.f.d.f.d.d.a.a.a.1.+ 5 t t t 5 5 7 # # 3 6 a a a t 6 6 a a 8 8 6 6 8 d d a 8 d d d z z z f f f f d z z z z J K P L I I I I I I I I I I &.&.&.&.&.&.&.&.&.&.&.:.&.:.*.Y P P & o o X ",
"lXgXcX6Xp : . <.~.^.L.J.z.z.z.c.c.c.c.K.^.T.j   $ $ + O O O & # $ $ O O O O O O + a  .{ { { { { { / ` ` ` / { { O.O.{ [ + 3 j.a.d.d.d.d.d.f.f.f.0.0.f.f.a.a.a.1.< # # 2 5 5 5 5 6 3 6 6 6 6 6 6 d d d f d d 8 d f f f f z z z z x x x x z z x x K K K K J J J J J J J J J J P L I I I I T I I T I T I I T T T T K %.= o o o o . = %.P I P P P P P P P P P P P P J U J J J J x x z z z z z z z z z z z z d d d y # d | ^ { { ) ) ) ) ` ` ` ` ` ) O.| | | + 3 l.a.d.d.d.d.h.h.f.f.f.f.f.a.a.a.a.#.+ sXSXZXSXZX7X- < 9XJXZX+ % 1 % $ O O $ O O O O # @ O O . . . . . .   .   ..[.`.`.`.4X5X5X4X4X4X4X5X5X[.j @ N - $XcXgXgXgXgXgXgXlXlXgXcXfX8 8 fXcXlXlXgXlXlXlXlXlXwXcX6Xp :   3.~.L.L.K.c.c.c.c.L.P.L.L.^.T.B O $ $ O O $ $ $ $ O . . . . . . . O d  .) { { { { { { ) ) ) ) { { O.O.{ [ + 3 k.a.h.h.d.d.a.d.f.f.d.d.d.d.a.a.a.1.+ # 5 3 6 t 5 5 5 5 5 6 a a a a a a d a 8 8 6 6 d d d d 8 d d d x x x x x x J J K J J K K K J K P P P P P P U P J J J J J J P P P P P P P P P I I I P P @ . o X ",
"Y I P V : > 0 J.+.+.+.$._ _ _ _ ` ` +.+.a.z.4.% r r r r r r r r t t t t t t r r O 2 k ~ { { { { { { / / / ~ ~ ~ ~ ~ k k O a O.<.d.d.g.g.d.f.f.f.d.d.d.d.d.9.+.O.+ # 2 3 a j j k k D D D K K K K K K K K K K K K L L L L L L L L L K d 8 z f K } o.o.o.o.o.o.&.o.&.&.:.:.:.*.-.-.-.-.-.-.-.-.-.-.-.:.:.:.I U U I &.:.p   o o o @ x ;.;.-.-.-.:.:.:.:.:.&.&.&.&.&.&.&.&.&.L J z z z x J P K K z z x x z z z z z z O 5 n ^ O.O.O.O.{ { ) ) ) ^ ^ { ^ ~ k j . t O.<.a.a.a.a.d.f.f.f.d.d.a.a.d.z.d.{ + V 7 7 7 # 7 - c dXdXJXy O + $ & @ @ @ & & & & $ $ & & & & $ $ @ @ O O 2 Y.^.z.d.d.d.d.z.z.v.v.v.v.z.c. .O b N V V %.T U U U P U U I R V v p c %.P P P L L L I U I P c b > q H.O.+.+.` ` ` ` _ _ _ +.+.9.z.4.% r 0 0 0 0 0 0 0 * O . . . * r r O < k [ | | | | [ { O.) ) / { { / ~ ~ k + t | +.d.d.d.d.d.f.f.f.h.j.d.d.d.d.#.~ + # f k k k k k x k k k x x K K K K K K f d a 6 6 8 f K [ [ [ [ } } } } } } } } o. .o.o.o.o.o.o.&.&.&.&.o.o.o.&.P P P P I I I I P P P P I I T I I I %...p . o o ",
"J f d p : : 3 +.+.+.+._ _ _ _ _ _ _ ' ' ' 1.| + r r r r r 0 0 0 0 0 w w w w 0 r O r y 0 a s h h j g h h h h g g h g t r O t ~ ~ <.<.<.<.<.,.a.+.+.O.+.+.O./ ^ D + # 5 a k k k k [ ~ D D K K K K K D K K K K K K L L L L L L L L } K f 8 z x L o.o.o.o.o.o.o.&.o.&.&.-.-.*.*.-.-.-.-.-.-.-.-.-.-.-.-.-.:.I U U T *.5.y   o X o @ x ;.;.;.-.-.-.*.-.*.*.*.&.*.*.*.*.*.*.*.o.U z z z x J P K K z z x x x z z z z z O * t a A A A A h h h G A h h h g a t r + t ~ ~ +.+.+.+.+.+.9.#.1.@.O.O./ ^ ~ ~ + m.y 7 # 7 7 c SXCXSXLX{.O $ O @ @ @ @ & & & & $ $ $ & & & $ $ @ @ O O + 6.c.d.d.d.0.0.q.0.f.f.f.f.f.d.@.O b N : c d 8 8 8 8 8 8 8 8 8 v p : v d 8 8 8 8 8 8 8 J 8 z y : : 9 +.+.' +._ ` ` ` ` _ $.+.+.$.d. .+ 0 0 0 0 0 0 0 0 9 # . . O 2 t p O 2 y a h h h h k h A A A h h h h s y t O 4 ~ ^ <.<.<.<.,.,.a.a.#.#.#.#.{ ^ F h < 5 j k D D k k k D D D x K K K K K K K L f d 6 6 d D L L L } [ [ [ } } } } o.o.o.o.o.o.o.o.o.o.&.&.&.&.&.&.&.&.P J J J P I I I P I P P I I T T T T %.%.p   o o ",
"8XwX8XA.v & + ,.+.+.+._ _ _ _ _ _ _ _ _ ' +.[ + 6 6 3 3 r 0 0 0 0 0 w w w w 0 r O * p j g g u u i i j g g u i i g y r ;   * d n n n n n n ~ ~ ~ D ~ ~ ~ ~ ~ k k O * r j k k k k D D D D D D K K K K K K K K K K L } L L L L L L } L f d z L } o.o.o.o.o.o.o.o.o.&.&.-.-.*.*.-.-.-.-.-.-.-.-.-.-.-.-.-.:.&.I I %.-.7.d   o X o @ x ;.;.-.-.-.-.*.-.*.*.*.*.*.*.*.*.*.*.*.-.} K z z x K P K K z z x x z z z z z z # # r a g g a a a a a a g g g g u t r ; . # u n n ~ n n ~ ~ ~ ~ ~ ~ ~ ~ ~ n k j O SXFXZXZXZXZXGXFX7 dXLXsXO # $ @ @ @ @ & & & & $ & & & & & $ $ @ @ O O + <.j.a.d.d.f.f.q.q.f.f.f.h.h.d.@.O b i A.8XwXqXqXqXqXqXqXqXqX8X7Xz 8 7X8XqXqXqXqXqXqXqXqXwX8XV.C X + <.+.' +._ ` ` ` ` _ _ _ $._ +.K + 0 0 0 0 0 0 0 0 y # . . * 0 t r O # y j a a g g y y g g g g u u g t r r . * j k k k n n n ~ ~ ~ ~ ~ ~ ~ D ~ k a O p k [ D k k k D D D D D D K K K K K K [ K d 8 8 f K [ { L } } } } o.o.o.o.o.o.o.o.o.o.o.o.o.o.&.&.&.&.&.&.&.&.I J J J I P I I I I I I T T T T T T %.%.p   o o ",
"hXhXlX#Xy : 0 2.+.' ' ' _ _ _ _ _ _ _ ' ' O.D + 6 6 3 3 r 0 0 0 0 0 w w w w 0 r * O O + % % $ $ * * * * * * # # * % O .   . + < 2 2 2 2 2 2 2 3 t t t t 3 0 0 r O * y k k k f k k k D D D D D D D D K K K K K K L } L L L L L L o.[ x d f .. .} o.o.o.o.o.o.o.o.&.&.-.-.*.*.-.-.-.-.-.-.-.-.-.-.*.*.-.:.&.T T &.:.y.c . o X o @ x ;.;.;.-.-.-.&.*.&.&.&.&.&.*.*.*.*.*.-.-.&.I x z J K K K K z z x x z z z z z z y # O O , , 1 1 * * * * 2 2 2 * # $ @ O   . O * 2 2 2 2 2 2 2 2 1 2 t y t u 9 O %.JXLXLXLXLXGXZXc . {.JXFX7 + # @ @ @ @ & & & & & & & & & & $ $ @ @ O O + <.j.d.d.d.q.q.q.f.f.h.f.h.h.z.@.O b i #XlXlXhXjXjXhXkXkXkXkXlX0XQ 8 8XlXkXkXkXkXkXkXkXjXhXlX#Xv : 0 5.+.' +._ ` ` _ _ _ _ $.$._ O.A + 0 0 0 0 0 0 0 0 j 2 @ O 2 t a r $ O O + + + % $ 2 2 * * 2 % # * * % O O     # < 2 2 2 2 2 3 3 3 3 3 3 3 a a 3 , + d k k h k k k k k D D D D K K K K K K [ [ x d d f K } L L } } } } } } } } o.o.o.o.o.o.o.o.o.o.o.o.&.&.&.&.&.&.%.P J J P P I I I I I I I I I I T T %.V p   o o ",
"hXhXlX#X7 & 0 O.` ' ' ' ' ' ' ' +.+.' ' ' a.D O 6 6 3 3 r 0 0 0 0 0 0 0 0 0 0 t u O 3 a a 0 0 9 2 O . . $ 9 * i $ O O   . . O O + $ % % $ O . O O O O O O + O O O # t n k k k k k k k k D D D D D D K K K K K K L L L L } } } } } } K 8 f } L } o.o.o.o.o.o.o.o.o.o.&.o.o.o.&.&.*.*.*.*.*.*.*.*.*.*.*.:.&.P P &.-.-.V . o o o & ..-.-.&.-.-.-.-.-.&.&.&.-.-.-.-.&.&.*.*.o.} P z z z K K K K x x x x z z z z z c d O 6 t 0 0 0 t 2 O . O + 9 2 i $ O O . . . O O + $ % % O O . O O O O O . O O O }.sX}.|.9XU.m.7 # %.R FXPXm.. # @ & & & & & & & & & & & & @ $ $ & $ @ O O ~ 5.d.0.0.0.q.f.f.q.f.f.f.f.g.@.% : 6 OXlXhXkXjXjXjXjXjXjXjXlXfX8 Q 8XlXjXjXjXjXjXjXjXrXhXlX#X7 > t O.` ' ' ' ' ` ' ' ' +.' ' ' 1.k + 0 0 0 0 0 0 0 0 0 9 # O 2 a 0 t g O 3 a 0 0 2 4 2 O . . $ 9 2 i * % O O . O O O + + + + + + O O O O O O O O + O 5 d k k k k k k k k k k D D D D D D K K L K f d 6 f K F L L } } [ [ } } } } o.o.} } } } } } o.o.o.o.o.o.&.&.&.&.%.K z P P P P P P P I I I I I I I P ..V C X o o ",
"jXhXzX%X8 : a +.` _ ' ' ' ' ' ' +.+.' ' ' +.h O 6 6 3 3 r 0 0 0 0 0 0 0 0 0 0 0 + g T.`._.].[.[.W.>.  * 8.R.Q.Q.R.G.8.>.3.>.>.>.8.8.I.I.I.>.O O ..4.8.>.>.8.3...* # r k k k k k k k k k D D D D K K K K K K K K L F L L L L } } } } K 8 f } L } o.o.o.o.o.o.o.o.o.o.o.o.&.&.o.o.o.o.*.*.*.*.*.*.*.*.*.:.&.P P &.:.4.V . o o o &  .-.-.&.-.-.-.&.&.&.&.&.&.&.&.&.&.&.*.*.o.} P z z z K K K K x x x x z z z z z c , j Y._._._._._./. .. * 8.R.R.Q.I.G.8.>.4.3.>.3.8.8.I.I.G.>.* O V 3.8.8.>.8.3...+ O + + O < # # m.JXm.sXIXsX+ # @ & & & & & & & & & & & & @ $ $ $ $ @ O + ~ 2.d.f.f.f.f.f.f.f.f.f.f.f.g.@.% : 6 OXlXjXkXjXjXjXjXjXjXjXlXfXQ Q 8XlXjXjXjXeXeXeXjXeXjXzX#Xv : u @.` ' ' ' ' ` ' +.' +.+.' ' +.s + t 0 0 0 0 0 0 0 0 0 % O 2 a 0 w + g T.`._.`.].[.W. .  * 8.R.R.I.R.G.8.>.>.>.>.>.4.8.7.F.8.>.* $ ..3.8.>.>.4.3...< 2 k ~ k k k k k k k k D D D D D D D K K K f d 6 f K F L L { } [ [ } } } } } } } } } } } } o.o.o.o.o.o.&.&.&.&.%.K z P P P P P P P P P P I I P P P P V C X o o ",
"uXuXzX#Xd : 0 / ` ' ' ' ' ' ' ' +.+._ _ ' O.g O r r t t r 0 0 0 w w w w 0 0 0 0 , { J.K.z.z.K.K.'.W.< t 7.2.6.F.H.H.T.T.T.H.H.H.E.Y.H.F.E.Y.B d Q.l.5.5.5.<.5.Z.c O 5 f k k k k k k k k D D D D K K K D K K K K L L L L L L } } } [ x 8 f } } } } } o.o.o.I o.o.o.o.o.o.o.o.o.o.o.o.o.o.o.o.*.*.*.*.&.&.&.P I &.:.-.V . o X o & 4.-.&.&.&.o.:.&.&.o.&.&.o.o.o.o.&.&.*.*.o.} P z z z K K K K x x z z z z f f f f + [ Y.J.z.K.K.K.^.W.4 r l.1.j.x.H.Y.T.T.H.H.H.Y.E.Y.H.F.E.Y.B y Y.6.5.6.4.4.6.R...+ m.%.%.x %.7XPXAX# :.LXFXy # @ & & & & & & & & & & & & @ $ $ $ $ @ O 4 D #.0.0.0.0.a.f.a.q.f.f.f.f.g.@.$ : 6 OXlXhXkXjXjXjXjXjXjXjXhX8XH H 8XlXjXjXjXjXjXjXjX1XjXzX#Xv : 0 | ` ' ' ' ' ' +.+.+.+.+.+.' O.a + t t 0 0 0 0 0 0 w 0 * O 2 g w w , | L.L.h.z.K.K.~.T.1 r H.2.6.H.H.K.H.T.T.T.T.T.W.T.H.H.T.H.k a Y.7.5.8.5.<.6.R.d < a a k k k k k k k k D D D D D D D D K x c d 6 f K F L L { { [ [ [ [ } } } } } } } } I } } } o.o.o.o.o.o.o.&.%.P z P K K P P P P P P P P I P P P P V C X o o ",
"uXjXzX#X6 X % h ` ` ` ` ` ` +.+.+.+.+._ +.^ 0 O r 0 0 t 0 0 0 0 w w w w 0 0 0 0 , D 1.a.f.s.a.9.h.l., 2 { ^ O.~ O.O.O.) +.O.O.+.<.<.O.O.| 6.B t  .X.O.F ^ ~ ^  ...O 3 f k k k k k k k k D D D D K K K D K K K K L L L L L L } } } [ x 8 f } } } } } o.o.o.o.o.o.o.o.o.o.o.o.o.o.o.o.o.o.o.o.*.*.*.*.*.&.&.L I &.:.-.V . o o X $ 4.&.&.o.o.o.:.o.&.o.&.&.o.o.o.o.o.o.o.*.o.} P z z z K K x x x x z z z z f f f f + [ 1.+.h.f.f.f.h.l., 3 { ^ O.F | O.` ` ,.+.O.<.<.<.O.O. .6.B a  .O.^ F ~ ~ { @.B 3.PXKXUXJXPXLXZXv 7 7 FXLXU.O @ & & & & & & & & & & & & $ $ $ $ $ $ O % a { O.+.+.+.+.d.d.0.0.d.d.d.g. .$ : 7 #XlXhXkXjXjXjXjXjXuXjXhXwXQ Q 8XlXjXjXjXeXrXeXeXuXjXhX#Xp X % ~ O.` O.O.O.O.O.O.+.+.+.+.+.^ 3 + t t 0 0 0 0 0 0 w 0 * O 2 a w w , ~ 1.a.h.s.s.a.f.l.+ 2  ./ +.^ O.O.O.` +.+.+.+.<.O.O.O.<.7.B a | O.O.^ O.^ O.@.>.+ a a k k k k k k k k D k D D D D K D K x c d 5 f K L L L { { [ [ [ [ } } } } } } } } } I } o.o.o.o.o.o.o.o.o.%.K z P K K K P P P P P P P P P P P P V c & o o ",
"jXhXlX#Xd : % ~ h A A A ~ ~ ~ ^ ] ] ] ) ~ a % O r t 3 3 t 0 0 0 0 0 0 0 0 0 0 0 + k g.f.f.f.f.a.h.j.+ < [ O.O.O.) ) O.O.) ) O.O.| | O.O.+.| * 2 { O.O.O.) ) ) { j O 6 k k k k k k k D D D D D D D D D D K K K K F F L L L L L L [ [ x 8 f L [ } } } o.o.o.o.o.o.o.o.o.o.o.o.o.o.o.o.&.&.&.o.o.o.*.*.-.:.&.J L &.&.:.%.# & o X ; 3.o.o.:.:.:.&.&.o.o.o.o.o.o.*.&.&.o.o.o.o.} K d f f K K z z z f z z f f k k k f , k 2.d.a.f.f.f.a.1.+ # [ { / O.` ` ` ` ` O.O.O.{ { { {  ...< 4 [ O.O.O.O.O.O.{ t p JXKXJXJXZX}.# # y O sXLXZX- & . & & & & & & & & & & & & & & . . & . O d k f G c.5X5X5.s o.L D [ { A ..* : 7 OXlXrXkXjXjXjXjXjXuXuXlXwXQ H 8XlXjXjXjXeXeXeXeXeXhXlX$Xy : % h h A A h ~ ~ [ ~ ^ ) ) ) ~ s , O t t t t 0 0 0 0 t 0 * O 2 u 0 w , k g.f.s.s.s.a.a.1.+ + [ O.O.O.O.O.O.O.O.O.O.O.| | O.O.O.| < 2 { O.O.O.O.O.O.| d + f k k k k k k k k k k k D D D D K K x x c j t j [ [ L L L L { { [ } } } } } [ [ } } } } o.o.o.o.o.o.o.o.o.o.} x z z x x P P P P P P P P P P P P P [ V @ X o ",
"kXhXlX#X6 : # r a a a a a a a s s s s e h 3 $ + 6 3 3 0 0 0 0 0 0 0 0 0 0 0 0 0 + k g.f.a.a.a.a.h.j.+ # { ^ ) ) O.O.O.O.) ) O.O.O.O.O.O.+.^ % 2 { O.O.O.) ) ) { j O 6 k k k k k k k D A D D D D D D D D K K K K F F L L L L L L [ [ k 8 f L [ } } } o.o.o.o.o.o.o.o.o.o.o.o.o.o.o.o.&.&.&.&.o.o.*.*.*.:.o.J L &.&.:.%.# o o X r 3.o.o.@.@.:.*.*.o.o.o.o.o.o.o.o.o.} o.o.o.} K d f f x K f f f f z z f f k k k f + k g.f.f.f.f.f.a.1.+ # [ { / ) O.` ` ` ` ` ` ` ) { { {  .[ # < { O.O.O.O.O.O.{ m O ..%.%.y 7 . m.CX# O %.PXJXc . . : . @ * * @ & @ & & & & & * $ $ & @   # d m.CXCX9X5X[ s 8 8 :.8.d k r . Z 7 OXlXrXkXjXjXjXjXjX1XuXlXcXQ H 8XlXkXkXkXjXjXjXjXjXkXlX#X6 : O 4 a a a a a a a a s s s s s 3 % + t 0 0 0 0 0 0 0 t 0 * O 2 u 0 w + k g.f.s.s.a.a.a.1.+ + [ { O.O.O.O.) ) O.O.O.O.| | O.O.O.[ * 2 | ` O.O.O.O.O.X.a + f k k k k k k k k k k k D D D D D D x x c d t j [ [ L L L L { { [ [ } } } } [ [ } } } } o.o.o.o.o.o.o.o.o.o.%.x z z x x x x P P P P x x P P P P P P V # X o ",
"eXeXlX&X6 : ; @ * < < < < # < * < < 3 4 3 $ @ * t a a w 0 w 0 w w w w w w w w 0 + k g.h.a.a.a.a.d.2.+ # { ^ ) O.O.O.O.O.) ) O.O.O.O.O.O.` ~ % # | O.O.O.^ ) ) { j O 6 j k k k k k k k k D D D D D D D D K K K K K K L L L L L L [ L f 6 f K } } } } } } } } o.o.o.o.o.o.o.o.o.o.o.o.o.o.o.o.*.*.o.o.&.&.o.J L &.} &.%.5 . o . r &.o.o.#.o.o.o.o.o.o.o.o.o.o.o.o.} } I } } P x d f f z x f f f f f f f f k k f f , k d.f.f.f.f.f.d.1.+ # { { / O.` ` ` ` ` ` ` ` ) { { { { n $ , { O.O.O.O.O.O.| m O O 5 + O O %.FX9X7 # 7 FXPXsX. & @ @ * O O * @ @ @ @ & @ & @ @ O . .     9XCX} , , 3 %.Q.CX9XCXY.6 5 @ > N 7 OXlXeXkXjXjXkXkXkX1XuXlXfXQ Q 8XlXjXjXjXkXjXjXjXkXkXlX#X6 : ; O 2 2 2 * * # # # # # # < < < % < t 0 0 0 0 0 0 0 t 0 2 O 2 u 0 0 + k g.f.a.a.a.a.a.1.+ # [ { X.O.O.{ ) ) O.O.O.O.| | O.O.` ~ $ * | ` O.O.O.O.O.O.a + f h A A k k k k k k k k k D D A A D K x k f 6 f [ { L L L K K K [ [ [ [ } [ } } } } } } o.o.o.o.o.o.o.o.o.o.} x z z x x x x P P P P P x P P P K P P V * o X ",
"lXlXcX#Xi N M @ . O O O O O O O . O O O O O # 5 t a a w 0 w 0 w w w w w w 0 w 0 + k g.h.a.a.a.a.a.1.+ # { ^ ) O.O.O.O.O.) ) O.O.O.O.O.O.) ~ + % | O.O.O.^ ) ) { j O 6 j k k k k k k k k k D D D D D D D K K K K K K K K L L [ [ [ L f 6 f K } } } } } } } } o.o.o.o.o.o.o.o.o.o.o.o.o.o.o.o.*.*.o.o.&.&.} J I &.} @.%.5   o . y @.o.#.#.o.o.o.o.o.o.o.o.Y o.o.} I I I } } P z d d f z x f f f f z f f k k f f f , k g.f.f.s.s.f.f.1.+ # [ / ) O.` ` ` ` ` ` ` ` ) { { { ~ k + % { O.O.O.O.O.O.| j r 9X9X9X9XCXJXZX7 v # O sXPXFXc . O @ @ & & @ @ @ @ @ . . . . O 7 |.v 7 {.CX}.{.9X9X9XsXQ.:.< + , .   & C N p $XcXlXlXlXlXlXlXlXgXgXcXdXJ 8 fXcXlXlXlXlXlXlXlXlXlXcX#Xi N p   O O O O O O O . . . O O O + # 2 0 0 0 0 w w 0 0 t 0 2 O 2 u 0 0 + k g.f.a.a.a.a.a.1.+ # [ | X.O.{ { ) ) O.O.O.O.| | O.O./ ~ + $ | ` O.O.O.O.O.O.a + f h A A k k k k k k k k k k D A A D k x k f 6 f [ { { L L K K K [ [ [ [ [ } } } } } } } o.o.o.o.o.o.o.o.o.o.} x z z x x x x P P P P x x x P K K K K V =   X ",
"N.N.Z.m.: : @ O ..| | [ [ [ [ [ ..[ | | [ r O * t a a a t t t w q q q q q q q t + k d.f.d.d.d.d.a.1.+ + { { O.O.O.O.O.O.` ` O.O.O.O.` ` ) ~ O + { ) ) ) ) ) ) { j O * y j k k k k k k k k k k k k D D D D D D D D K K K K K [ K [ k d d d f K } } } L L } } } } } } } } } o.o.o.o.Y Y Y Y Y Y Y -.:.o.} K x P }  .<.} d @ . O c @.o.o.o.o.o.o.o.o.o.o.o.o.o.o.o.} } } }  .[ c y d f z x c c f f f f f f f f f d + k d.a.f.f.f.f.f.1.+ + [ { O.O.` ` ` ` ` ` ` ` O.O.O.{  .k O + | ` O.O.O.O.O.| m B KXLXLXLXLXAX7 7 # #   7XPXHX7X9Xc       . . O . @ - - 7 c m.S.ZXLXZXsXPXsXsX0X9XQ.;.m.m.7X7XsXCX8.5 O & N : 3.Q.Z.A.Z.Z.Z.Z.M.N.N.Z.U.p p m.Q.Z.Z.Z.Z.Z.Z.Z.N.Z.Z.%.Z C & + [ | | ~  .| | | ....| | k 0 % r t a a a a a a t u 9 % O $ 9 0 0 + h g.s.a.a.a.a.f.2.+ + [ { / / ^ / / / ) ) { { | | O.O.+.~ O + { ) ) ) ` ` ) | a + a a h h s f k k k k f f f k k k D k [ B f d t d [ [ K [ [ [ [ [ [ [ K L L L } } } } [ [ } } } } } } } } } } P x f z x x x x x x x x x z z x x K x x V p X   ",
"< < 8 7 : : @  ./.^.~.~.'.'.'.'.5X4X`._.5XQ.j O r r r t t t t 0 0 0 0 0 0 0 t t + h g.s.d.d.d.d.a.1.+ + { { O.O.O.O.O.O.` ` O.O.O.O.` ` ` ~ O + { ) ) ) O.) ) { i O * t j j k k k k k k x x x x x x x x K K K K K K [ [ [ [ [ [ ..f 6 5 6 d f K } } } [  .} } } } } } } } } } } } } I L I I I } o.} } P K z z x [  . .P # # 5 ..%.&.&.&.o.o.o.o.o.o.o.o.o.o.o.} } } } } ..x d y d d c z c c d d c c f f f f f j + k d.a.f.f.f.f.f.1.+ + [ { O.O.` ` ` ` ` ` ` ` O.O.O.{  .k O + | ` O.O.O.O.O.| m 2 sXCXdX9X%.5 7 < # $ O SXLXZXZXLXFXdXsXCXAXZXZXZXSXFXFXJXKXPXPXPXKXZXZXKXCXZXZXCXZXCXZX0X9X7X_.W.Y.W...@ : N : j 4 l 8 8 l l < l 8 < p : : = 6 l l l l l l l 8 7 7 - Z : . ../.'.'.~.'.`.`.`.`.`.`.`.[.E.g + r r t t t t t t 9 * $ . $ * 0 a + h d.s.a.a.a.a.f.2.+ + [ { / / / ^ / / ) ) { { | | O.O.+.~ O + { ) ) ) ` ` ) | j + d a k k f d j j j j f j f f k k k k x j d t 5 t j k K K [ [ [ K [ [ [ [ L L } } } } } } } } } } } } } } } } K z d f z z z z z z z z z z z z x x x x c p * $ ",
"&X#X8XM.p : # H.d.d.d.d.h.h.h.h.h.z.z.c.~.[.7.% 2 * * * * * * * * * * * * * * * + k d.f.d.d.d.d.a.1.+ + { { O.O.O.O.O.O.` ` O.O.O.O.` ` ` ~ O + { ) ) ) O.) ) { p O * 5 y a a a j j d d d d d d x x x x x x K K K K [ [ [ [ [ [ c 6 5 6 6 6 8 f K K L L L L [ } } } } } } } } } } } I I I I L L } P K K x z d c x L L ..c v z P } } } } ......} L L L L o.o.o.} L I P P K d 8 y 8 8 d d d d d d d d d d d d d d + k d.a.f.f.f.f.d.1.+ + ..| O.O.O.` ` ` ` ` ` ` O.O.O.|  .k O + | ` O.O.O.O.O.| j   # O O y |.5 < # $ $ . sXJXU.dXPXKXLXLXLXLXLXLXLXPXLXKXJXJXJXHXGXKXZXdXKXdXCX0X9X9X9X9X9XdX9XCX9Xc.~.W.2 & p M.6X#X8X&X&X&X&X*X&X%X&X7Xz 8 }.#X&X&X&X&X&X&X&X&X#X#XM.p : $ x.1.a.a.d.g.h.h.l.l.z.z.z.~.[.7.+ < * * * * * * * $ @ .   @ $ * 9 O s d.a.a.a.a.a.f.2.+ + [ { / / / / / / ) ) { { | | O.O.O.~ O $ { ) ) ) ` ` ` | y O y t a a t a a a a a d d d d d d d d t 5 5 5 = 5 t a f f c j f f f f K K K K L L L L K L L L L L [ L L L K K z d d d c c z z z z z z c c c c c c z z c c i i ",
"hXlXvX#Xv : 9 <.a.a.a.a.a.a.a.a.f.a.a.a.<.K.Y.+ O . O O . . . . O O O O O . . . O h g.d.d.d.d.d.a.1.+ + [ O.O.O.O.O.O.O.` O.O.O.O.O.` O./ ~ O + { { { { { { { [ 5 O * * 2 2 3 3 6 6 6 6 6 6 5 5 5 5 5 5 5 5 5 6 6 6 l l l l a a 8 6 5 y 6 6 8 8 8 8 s f d d d d d d d d d f f f f f d d d d f f f f f 8 z z d z z f z x v z z z x x x z z z z z J G G G G G G G z z J K z 8 8 8 8 8 d d d d d y y d y y y y y y # k 2.d.d.d.d.d.d.5.+ O [ | | O.O.O.O.O.O.O.O.O.O.O.O.| | k O + | ` O.O.O.O.O.| u V U.3.U.FXCXO + $ $ $ O O r   ZXPXKXFXZXsX}.U.m.m.V V c V m.}.dXFXJXsX}.SXCXdX0X0X9X9X7X7X7X(.5Xv.d.O.6.t p 6 #XlXlXlXhXlXhXhXhXhXhXgXfXQ 8 fXlXlXlXlXlXlXlXlXhXlXvX6Xp > 9 5.a.a.d.f.d.d.d.d.d.d.d.d.1.J.H.O O O O O . . . . .         . O O + k g.d.a.a.a.a.d.1.+ + [ { { ^ { / / / ) ) { { O.O.O.| | ~ O % { ) ) ) O.O.O.| r   5 5 3 3 2 2 5 3 2 2 5 5 5 6 6 6 6 6 < 5 5 5 5 5 t t 6 6 6 6 6 6 6 t d d d d f f f f f f f f f f G G d d d d f d d 8 d d f f z z z z d d z c v v v d d c B c ",
"hXhXlX#Xy > i 6.d.d.d.a.a.a.a.a.f.f.a.a.d.j.[ O @ @ O O .   . . . . @ @ @ . @ @ O a 2.1.d.d.d.d.d.{ + # ~ {  . .O.O.O.) ) ` { { / / / ^ D w + + ~ { { ~ { ~ ^ [ # O 5 2 2 2 2 2 t a d d s s s a 6 5 5 7 5 5 5 d d s f f a a d d f x x x x K K K f f f f G G G G f d d f 8 8 d d z z f f d f z z z z z z z z z z x x x x x x x z z z z x z z d d d d f f f f f f G G D G D k k k f f f d 8 8 s a d d y y 6 6 5 5 + a 1.k.g.g.g.l.1.{ # * [ { |  .@.O. .| O.O.| | { { { { k t + < ~ ) O./ / / / { + U.LXPXPXZX+ 4 + + $ $ % * # # {.SXZXCXsXsXsX9X9X9XsXsXsXAXsXsXU.- = O + @.5X0XdX0XdX0X0X6X6XA.$.$._ O.~ 2 : c OXlXhXjXhXhXjXjXjXjXjXlXfXQ H 0XlXjXjXjXjXjXjXjXjXhXlX#Xv > u 6.d.f.f.d.d.d.d.d.d.d.d.d.g.x...+ O . . . . . . . @ @ @ . . . . @ O t @.d.d.d.g.g.g.{ # # [ | O. .O.O.{ / O.O.{ { ) ) / { ~ a + % ~ { | ^ { { { [ 5 @ p t 5 2 # # # # # 2 6 6 6 6 6 6 6 6 t t 6 6 5 5 5 6 y y d d d d d d d d d d 6 6 6 8 8 8 f f K K K K K K K K K K K K K K L L L L L L L L L L x c c y c d d x ",
"uXhXzX#Xy > i 6.d.d.d.d.a.a.a.a.f.f.f.a.f.j.[ O * * 2 2 O .     . O @ @ @ @ @ @ O , D O.O.O.O.O.D s O @ j k k ~ ~ D k A A k k A A A h h g 2 O + a ~ [ [ D D D k O * t r j j d d d d d d d d d d d 6 5 5 = 5 d c k k x k k k k x K x K K K K L L [ L L L L K K K L K z z 8 8 d d z z f f x x x x x z z z z z z z x x x x x x x x J z z x z z d d 8 d x P [ [ [ ..L L L L [ [ [ [ [ [ [ [ K K K K x c c c c d d d + 4 ~ { O.O.O.O.^ k O O a h h k D k k g h h h h h h h k a < . O g ~ { { ~ ~ ~ ~ O p S.m.R < 6 t t a u u t r r 2 + < # 5 y c %.3.m.3.%.%.p = @ . . & r * 1 { O.] Y Y c.u.6X6X7X)._ ' _ O.| * : 6 OXlXkXuXuXuX1XeXuXuXjXlXcXQ H 0XlXjXjXjXjXjXjXuXuXjXlX#Xy > u 6.d.s.f.f.d.d.d.d.f.f.f.d.g.l.[ O O O O O O O O O @ @ @ . . . . . . % k | | O. . . .k O O j k k n [ ~ D A h h h h A A h h a 3 O O a ~ { [ ~ ~ ~ n @ # i d p 5 # # # # 2 5 6 r 6 t t t t y t t t t t t a a y y d d y y d d d d d d 6 6 6 8 f f K K L L L L L L L L L L L L [ } } } }  . . .} } } } P x c y z z z P ",
"uXhXzX#Xy & y 5.d.a.a.a.a.a.a.s.f.f.f.f.f.j.[ O r t 0 0 2 O . . O O O O O O @ @ O 2 k k ~ ~ n n k t . @ r t y j a y t t t r t t a a t t p * . O r a t 3 t t 6 6 O r y a a a y y d k f f f f f f f d 5 3 5 d c K x K K K D D K K K K K K K K K K L L L L L L L L } L P K 8 8 d d z z f f x x x x x z z z z z z z x x x x x x x x J J x x z z d d d K P } } } } } } } } } [ } } } [ [ [ [ K K K K K K K K L K x k , , k k j j k h k t   O r a a j j a p t r r t t g g a a y * . O r a a 3 t t t t + # 3 5 l l w 0 w a y y y p t p y , 6 r t r 6 5 * * < < % O   . O i i 2 , { +.$.0.$.$.] _ _ $.] ' ' $.O.[ * : 5 OXlXkXjXuXuXeXeXeXjXjXlXfXQ H 0XlXuXjXjXuXuXuXuXuXjXlXOXv * w 2.d.s.s.f.f.f.f.f.f.f.f.f.a.g.[ O O O O O @ @ @ @ O O O O . . . .   2 B j k k k k n y   . 5 t y y a y t 3 t t a a a a a a y 5 . # 6 a y 3 t t t r O 5 d d d t = # # 2 5 5 6 6 r t t t t t t t t t d d d d d y d d y y d d d d d d 8 8 8 8 K K L [ } } } } [ [ [ [ [ [ L I } }  .} } }  . .}  .} } } ..c 8 d z P P ",
"uXkXzX#Xy & y 5.a.a.a.a.a.a.a.s.f.f.f.f.f.j.[ O 0 0 0 0 0 2 O O O O O O O O @ @ O O + , + + + + + O     # < * 5 * % % + O $ % % 1 1 1 * r # . O O + < , < < < < O i j j j j d d k k f f f f f f D k t < a f x k D D D D D D K K K K K K K K K K K K K K K K K K K K L K f 8 d d z z f f f f c c z z z z z z z z x x x x x x K x z z z z z z d d x P P P P L L } } } [ [ K K K K } } [ [ K K K K K K K K K K K k 6 + + + # # , 1 + O   . $ < 2 2 < # # O O O + + 4 4 < < 2 + . . O % < , < < < < % 3 k g g h w w w a t y t t t t g g g 0 y t 0 0 t t t a 0 % O O r t u 2 4 A ) 0.9._ ] 9.] _ _ +.' ' O.O.k @ : y OXlXkXjXuXuXeXeXeXjXjXlXfXQ Q 8XlXuXuXjXuXuXuXuXuXjXlX#Xv & t 2.a.s.s.f.f.f.f.f.f.f.f.f.a.d.n O O @ O O O O @ @ O O O O . . . . # $ # O + + + + , O   . * 2 5 5 2 # % + O @ % % , , , # * O . O O + < , < < < < # 5 j t d y 5 # * 5 5 5 6 6 6 6 6 6 6 6 6 6 6 r d d t t t y d d y y d d d d d d 8 8 8 8 K K L [ [ [ [ [ [ [ [ [ [ [ I I } } } } } } [ [ L L L L }  .P d 8 x } L ",
"jXkXlXOX7 X 5 @.1.a.d.d.d.d.h.h.0.a.h.h.a.O.a O 3 0 w w w 2 + . O @ @ @ @ @ @ @ O . 4 k a t 4 % + + @ @ % % $ $ $ 2 + +   . + + 1 , + + + O O O + + + + O + , + % y a k j j d j k k k k k j k h k k a 4 a x k D D D D D K K K K K K D D K K K K K K K K K K K K L L L L f d d d f f f f f f f f c c c z z z z z x x x x x x K x x x x x x z d 8 x L } } L [ [ [ L L L L L L K K K K K K [ [ [ [ [ [ [ [ D F F D j + 3 a t r 3 3 + + O $ % + % % + < O O   . O + , , + + + + + + + + + , + % % O + 0 3 a w h g w 0 0 t t t t t t a a a t t 0 q q q q q q q 9 O $ 0 t a , 4 A $.$.+.+.$.' _ _ _ _ ' +.O.{ a & b = OXlXkX1XuXuXeXeXjXjXjXlX8XQ Q 8XlXuXuX1X1X1X1X1XeXrXlX#Xv > r @.h.f.a.a.a.f.d.d.f.f.f.d.d.<.g O O O O O O O O @ O O O . @ . . O @ . * i p r 2 % + + O @ % , # # $ 2 % O   . O + 1 + + + O O + O + + + + O + , + # t y j j j t 2 2 5 6 r r r r r r r t t r r y y y y y y a a a a d d d d d d d d d 8 t d K L K K K K K K L L L L L L [ [ [ [ L L L L L L [ [ [ L } } K f 6 x } } ",
"hXlXlX#X= > = k O.+.a.d.d.d.d.a.a.a.a.d.+.{ t O 2 0 w w w 2 + . O @ @ @ @ @ @ @ O y 7.Q.x.H.Y.Y.Y.I.8.8.F.Y.I.I.I.R.Y.B . * 7.W.W.W.W.W.E.Y.Y.R.Y.T.T.T./.W.T.7.< 2 a g h h j j k k k f k k h h k k a 4 a x k D D D D D K K K K K K D D K K K K K K K K K K K [ L L L L f d d d f f f f f f f f c c c z z z z z x x x x x x K K f f z z x z d 8 x L } } L [ [ L L L L L L L K K K K K K [ [ [ [ [ [ [ K D F F D < r 8.R.Y.Y.Y.Y.R.I.7.7.H.Y.Y.I.I.Q.I.V . * 8.W././.W.W.Y.Y.Y.Y.T.T.T.T._.W.R.7.< O 6 3 3 a g w w 0 t t 0 0 0 t a a a a a q w 0 q q q q q 9 O $ 0 t t , 1 s { X.+.+.+.+._ _ _ _ +.` ~ A t & b = $XlXlXkXrXjXrXrXhXjXjXgXfXQ 8 8XlXhXhXhXhXjXhXhXrXlXlX#X7 X 2 ~ +.9.a.a.a.a.a.a.a.a.a.a.,.| y O O O O O O O O @ O O O . @ @ . @ O y 8.Q.I.Y.Y.Y.I.I.8.8.Y.Y.I.I.I.R.Y.B . * 6.W.W.W.W.W.Y.x.T.R.Y.T.T.T./.W.H.7.6 5 t k j j y 2 2 5 6 r r r r r r r t t t t t y y y y y a a a a d d d d d d d d d 8 t d K K K K K K K K L L L L L L L L [ [ L L L L L L [ [ [ [ } } K f 6 x } [ ",
"lXcXcX$Xp > r n ~ ^ O.@.O.O.O.O.+.O.O.) ^ ~ r . 9 0 w 0 t 2 O . @ @ @ @ @ @ @ O + j <. .O.O.<.1.1.8.l.c.J.H.H.H.c.6.H.7.+ B `.~.).~.^.^.`.^.(.`.^.(.`.4X!.L.!.(.k 3 k k h h a a k k f f a g g g k k a 3 t B f k k k D D k D D D K D D D K K K K K K K K K K K K L L L L f d d d f f f f c c f f c c z z z z z z z z z z z z k k f f f z x d d 8 G L L L L L L L L L L L L L K K K K K K K K [ [ K K K K K D D k O B 6.@.O.O.@.@.5.6.x.K.l.c.c.c.6.5.7.4.+ ..[.^.~.^.^.^.^.^.^.^.^.^.^.`.~.!.~._.y c sXdXS.8 < 0 t t t t t t t t t t t t t a a t t t t t t 2 O O 0 0 y % , a D F X.X.X.O.O.$.$.+.^ S A h 9 . b : 6XcXlXlXlXlXlXlXlXlXlXcXdXz 8 dXcXlXlXlXlXlXlXlXlXgXcX$Xp > 9 A ^ ) O.O.O.O.O.O.O.O.O.O./ ~ r   O O O O O O O O @ O O . @ @ @ @ O d >.| { O.@.<.<.5.6.x.J.H.T.Y.c.x.H.7.O B `.).^.^.^.^.^.^.`.(.^.(.(.4X!.L.!.(.j < a k a j d 2 2 5 5 r r r r r r r t t t t y y y y y y a a a y d d d d d d d d d 6 t d K K K K K K K K L L L L L L L L L L L L L L L L [ [ L L } } L f 8 x [ } ",
"C.D.V.E C : % n n D ~ ~ ~ D D D ~ D h h k k 5 . 9 0 0 0 t * @   @ @ @ @ @ @ @ @ O a @.O.) ) ` O.O.O.) ) ) ) / / ^ / ^ O.+ [ l.a.#.,.d.h.h.d.d.d.a.d.h.h.h.a.h.c.h + a h h h a a h k f d a g g g k k a 3 t B f f k k D D D D D D K K D D K K K K K K K K K K K K L L L K f d d f f f f f c c f f c z z z z z z z z z z z z z k x f f f f x d d 8 G L L [ L L L L L L L { L L K K K K K K K K K K K K K K K k D k % a ~ ) ^ / ` O.O.O.) ) O.O.O.O.O.O.{ <.+ ..l.a.,.a.d.h.h.h.h.h.d.f.f.h.d.a.f.K.y m.LXLXKX7X< t t t t t t t t t t t t t t t t t t t t t t 2 O O 0 0 u % % y j k A A A A G G G h h h h j * . b Z J A.C.p.V.V.V.V.C.C.C.B.S.7 6 Z.A.C.C.C.C.C.C.C.C.! A.T M : % h ~ D D ~ ~ D D D ~ ~ ~ ~ ~ m r   O O O O O O O O @ O O O @ @ @ @ O j @.) O.O.O.O.O.{ ) ] ) ) { / ^ ) ^ O.+ [ l.a.#.#.d.h.a.9.h.d.a.d.d.h.h.a.h.c.k + a a a j y * * 5 5 6 r r r r r r t r t t y y y y y y a a a y d d d d d d d d d 6 t d K K K K K K K K L L L L L L L L L L L L L L L L [ [ L L [ } L f 8 x } } ",
"p p p p C b : * u y y j j j j j n k j j t 2 * O u 0 g 0 t * @ . @ @ @ @ @ @ @ @ . j | ` O.O.O.O.O.O.O.` ) ) ) ) / / / { < a g.d.d.d.d.d.f.f.d.d.h.h.f.d.a.d.f.g.s + a k j k j j k k a a k k k k k k a 3 6 d k k k k k k D D D D D D D D K K K D K K K K K K K K K K K K f d d c f f f f f f f f f f c c x x x x x x x x f f k k f f f f x f d 8 z K ....[ [ L L L K L L [ [ [ [ K [ [ [ [ F D D K K K K D D D x < y | ) ) ) ) ) O.{ O.O.) ) { { O.` ` | < a 1.a.d.d.d.d.d.d.d.d.a.a.d.d.f.f.f.g.4 m.KXGXPXFXc 2 t t t t t t t t a a a a a a a a w w w 0 t 2 O + 9 0 9 9 + $ * i t t t 0 0 0 0 t r r * # @ : : : p p p 6 7 7 p p p p p p : : : p p p p p p p p 7 6 7 p p N : : & i g j j j j j m m m n m t 9 $ . . @ . . . . @ O @ @ @ . . . . @ O j { / ) ) O.O.) ) ) ) ) ) ) ) ) ) ) { , t 1.a.d.d.d.d.f.f.d.d.f.f.f.d.d.d.d.g.a + a a a a y 2 * 5 5 r r r r r t t t t t t t t t t t t y y y y t t t t d d d d d 6 6 k K K K K K K K K K K K [ K K L L L L L L L L L L [ { { L } [ K f 8 f [ [ ",
"$ $ $ $ & $ $ $ O O O + + + + + + O O O + + + O + + 0 0 t * . . @ @ @ @ @ @ @ @ . j | ` O.O.O.O.O.O.O.O.) ) ) ) / / / { < a d.a.d.d.d.d.f.f.f.d.h.h.f.d.a.d.d.g.s + a j j j j j k k a a k k k k k k a 3 t d k k k k k k D D D D D D D D K K K D K K K K K K K K K K K K f a d f f f f f f f f f f f c f x x x x x x x x f f k k f f f z z f d 8 z K [ ..[ [ L L K K K K [ [ [ [ K K [ [ K F D D K K K D D D D x < y | ) ) ) ) ) O.| O.O.{ { { ) ` ` ` | < a d.a.d.d.d.d.d.d.d.d.a.a.d.d.f.f.f.g.a m.LXKXGXFXx t t t t t t t t t a a a a a a a q w w w 0 t * O + u 0 4 1 + O O + + + + + % % % + O O O O # r ; * ; ; ; ; & & & & & & X X X X & & X X X X X X X X X & X X & & @ @ O O O O O O + O O O O O + O O O O . .   . . @ O @ @ @ @ . @ . @ O j | ) O.) O.O.) ) ) ) ) ) ) ) ) ) ) { , t 1.a.d.d.d.d.f.f.d.d.f.f.f.d.d.d.d.g.a + a a a a t 2 2 5 5 r r r r r t t t t t t t t t t t t y a y y a t t t d d d y i 6 6 k K K K L F K K K K K K [ K K L L L L L L L L K K [ [ { L } [ K f 8 f [ [ ",
"<.<.<.<.6.6.6.6.6.6.6.x.6.6.6.6.<.@.@.@. .| { |  .w , 4 t * . . @ @ @ @ @ @ @ @ . j | ` O.O.O.O.O.O.O.O.) ) ) ) / / / { < a d.a.d.d.d.d.f.f.d.d.h.h.a.d.a.a.f.g.s + a j a a a a k g a a f k k k f k t 3 6 d k k k k k k D D D D D K D D K K D D K K K K D D K K K K K K f 6 t d d d f f f f f f f f f f k k x x f f f f f f f f f f f z z d 8 8 c x P L L K K K K K K K K K K K K K K K D D D D D D D D D k k k < y | ) ) ) ) ) O.| O.O.{ { { ) ` ` ` | 1 a a.a.d.d.d.d.d.f.d.d.a.a.d.d.f.f.f.g.t m.LXGXGXFX< 2 t t t t t t t t a a u u a u u q w w w t t * O O 2 1 n Y.H.H.K.~.E.E.E.E.~.~.~.~.W./._._./._.W.H.H.H.H.H.6.6.4.4.4.4.4.4.4.4.4.4. . . . . . . . .4.4.<.<.6.6.7.6.x.x.l.l.l.l.l.6.4.4.4.4.| |  . .B r O . . @ @ @ @ @ @ @ @ @ @ @ O j  .) O.O.O.O.) ) ) ) ) ) ) ) ) ) ) { , t 1.a.d.d.f.d.f.f.d.d.f.f.d.d.d.d.f.g.g + a a a a t 2 2 5 5 r r r r r r t t t t t t t y y t t a a a a a d t a d d d y i 6 6 c K K F F F K K K K K K K K K K K K K K K K K K K K K K K [ L K z 8 z [ [ ",
").).).).).!.!.!.^.~.^.'.(.(.(.'.'.'.'.'.'.`.`.`.5XE.~ 4 t * O @ @ @ @ @ @ @ @ @ . j | ` O.O.O.O.O.O.O.O.) ) ) ) / / / { < a d.a.d.d.d.d.f.f.d.d.d.h.a.a.a.a.d.g.s + a j a a a a g g a a d k k k d j t 2 6 d j k k k k k k k D D K K D D D D D D [ [ K K D D K K K x K K d 6 6 d d d f f f f f f f f f f k k x x f f f f f f f f k f f z z d 8 8 c x P [ L L L K K K K K K K K K K K D D D D D D D D D D D k k k < y | ) ) ) ) ) O.O.O.O.{ { { ) ` ` ` | 1 a a.a.f.d.d.d.f.f.d.d.a.a.d.d.f.f.f.g.k 5 FXPXKXS.5 j t t t t t t t t u u u u a u u q w w t t t # . O 1 6._.T.J.K.z.K.K.K.K.z.z.z.l.l.z.z.K.L.z.L.L.z.L.L.L.L.L.L.!.!.!.!.!.!.!.!.).).).^.^.^.^.~.).).^.~.).).).).P.L.^.^.^.^.).^.^.^.~././._.].`.`._.[.W.B O @ @ @ @ @ @ @ o @ @ . @ O j  .) O.O.O.O.) ) ) ) ) ) ) ) ) ) ) { , t 1.a.d.d.f.f.f.f.d.d.d.f.d.d.d.d.d.g.g + a a a a t 2 2 5 5 r 6 6 r r r r r t t t t t y y t t a a a a d d t a d d d y i 5 6 c x K F F K K K K K K K K K K K K K K K K K K K K K K K K [ L K z 8 z [ [ ",
"d.d.d.d.a.d.d.d.a.a.a.a.a.a.d.a.a.a.d.d.d.d.d.d.g.K.H.w t # O O O O . @ @ @ @ @ O y { O./ ) ) ) O.O.O.O.O.O.O.O./ / { { 3 < j.a.a.a.a.a.d.d.d.d.d.a.a.a.d.d.d.g.k % a a a a a a g g g g g g g j x d 5 # 5 p j j k k k k k k A A k k D D F F D D D D D D K K K K k K [ x d t t d j f f k f f f f d d f f f d f f f f f f f f f f f f f c d y 6 6 d c x K x x K K [ [ [ [ F F F D D D D D D D D D D D D k k k k k < a O.O.) ) ) ) O.O.O.O.O.O.O.O.` ` ` | 3 1 d.a.f.d.d.d.f.f.f.d.f.f.f.h.f.f.f.g.n O 9XLX}.7 6 d t u u t t 0 0 0 0 0 0 0 0 0 0 0 0 0 t u t # . O  .J.l.d.d.f.f.f.s.s.s.s.f.d.d.d.d.d.d.d.d.a.a.a.d.d.d.d.a.a.a.a.a.0.0.a.a.a.a.a.0.0.a.a.a.a.a.a.a.a.a.a.a.a.a.a.a.0.0.0.a.a.a.a.d.d.d.d.d.d.g.g.1.H.H.y O @ @ @ @ @ @ @ $ $ . @ O t  .O.) ) ) ) ) ) ) ) ) ) ) ) ) ) ) { 3 < j.a.d.f.f.f.d.d.d.d.d.d.d.d.d.f.f.g.g + a a g j t * * * 5 r r r r r r r r r 6 6 6 6 y y y y y y y y a a a a a a a y d 7 5 d k K D D F D D D K K K ~ [ [ [ [ [ [ K K K K K K K K K K L ..K d 8 d K [ ",
"a.a.a.a.a.a.d.d.a.a.a.a.a.a.a.a.a.a.a.a.a.a.a.a.f.a.2.0 9 O O . O O @ @ @ @ @ @ O y { O./ / ) ) O.O.` ` O.O.O.O./ / { { 3 < j.a.a.a.a.a.d.d.d.d.d.a.a.a.d.d.h.g.k % a a a a a a k k k k k k k j j t 2 # 2 t y j k k k k k k A A k k D D D D D D D D D D K [ K K K K K c y t 6 y d f f f f f f f d d f f f f f f f f f f f f f f f d d c i y 7 7 d c x [ B [ [ [ [ [ [ [ F F D D D D D D D D D D D D k k k k k k % t | ` ) ) ) ) O.O.O.O.O.O.O.O.` ` ` | 3 1 d.a.f.d.d.d.f.f.f.d.f.f.h.h.f.f.f.g.n + sXJXz 5 d 6 t u u t t 0 t t a a a a a a a t w 0 u u * O . O ~ z.z.a.a.f.f.f.s.s.s.s.f.f.f.f.a.a.f.f.f.f.a.a.d.d.d.d.a.a.a.a.a.a.a.a.a.a.a.a.0.0.a.a.a.a.a.a.0.0.0.0.a.a.a.a.0.0.0.0.q.f.0.a.a.a.d.0.a.a.a.a.a.1.<.0 O @ @ @ @ @ @ @ $ . . @ O t  .O.) ) ) ) ) ) ) ) ) ) ) ) ) ) ) { 3 < j.a.d.f.f.f.d.f.d.d.d.d.d.d.d.d.f.g.g + a a a a 2 $ # * 2 2 2 2 r r 3 3 r r 6 6 6 6 t t t t t t t t a t a a a a a y p 7 5 y d k K D F F D D K K F ~ [ [ [ [ [ [ K K K K K K K K K K K K c 8 6 8 z K ",
"a.a.a.a.a.a.a.a.0.0.0.0.0.0.0.0.0.0.0.0.0.0.0.f.f.a.2.0 % O . . O O . . @ @ @ @ O y { O./ ) ) ) O.O.` O.O.O.O.O.) ) { { 3 < j.a.a.a.a.a.h.h.h.h.h.d.a.a.d.d.d.g.k % a a a a a a a a a a g g g g t 5 # # # 5 t j k k k k k k k A k k D D D D D D D D D D D D x x x x c y p 5 5 p d d a d d d d d a d f f f f f f f f f f f f d f d d d d y y 5 5 6 d c x B [ [ [ K K K K K D D D D D D D D D D D D k k k D k k a + 3 ^ ) ) ) ) ) O.O.O.O.| O.O.O.` ` ` | 3 4 d.a.d.d.d.d.d.d.d.d.d.d.d.d.f.f.f.g.n O ZXJXc 2 5 d t u u t t 0 t t a a a a 0 0 0 0 0 0 0 r O @   . s d.k.d.f.f.f.f.s.f.f.f.f.f.f.f.f.f.s.f.f.f.f.f.a.d.d.d.a.a.a.a.a.a.a.a.f.f.f.f.f.f.a.a.a.a.a.a.a.a.a.a.d.d.d.0.0.0.0.0.0.0.0.0.0.0.0.0.0.d.a.a.h.g.2.3 O O @ @ @ @ @ @ . . . @ O t  .O.) ) ) ) ) ) ) ) ) ) ) ) ) ) ) { 3 < g.a.d.d.f.d.f.f.f.f.f.d.d.d.d.d.d.g.k + a a w 0 < $ # # * 2 9 9 r r 3 3 r r 6 6 6 6 r r r r r r r r 6 t t t t t t t 7 = 5 5 d f D K K D D D K K K K K [ [ [ [ [ [ [ K K K K K K K K K x y 6 5 6 d f ",
"d.d.d.d.d.d.d.a.0.q.q.0.0.0.0.0.0.0.0.0.0.0.0.f.a.h.6.2 O O O   O O O . . @ @ @ O y { O.{ { { { O.O.O.` O.O.O.O.) { { ..3 < j.a.a.a.a.a.d.d.d.d.d.d.a.a.d.d.d.2.k % y a a a a a 6 t t t t t t 3 5 2 * # # 2 r d k k k k k k k k k k k k x x x x k k k k k k f d d d y 5 p 5 5 p d d d d d s s s 8 8 d d d d a a d d d d d d d d d d d d y 6 5 5 < 6 y d c c c x x K x K x K x x x x x x x x k k k k k k f a a 3 O 2 ~ ~ { { { { | | | | | | | | O.O.| | 3 < j.a.d.d.d.d.a.d.d.d.d.d.d.d.d.d.d.g.j   SXKXc p y 6 p t u t t t t t 0 0 0 0 2 2 2 9 9 9 * # . @ . . 3 @.j.d.a.f.f.f.q.0.0.q.q.q.q.q.q.q.q.q.s.s.s.f.0.a.d.d.a.a.a.a.f.f.f.f.f.f.f.f.f.f.a.a.f.f.f.a.a.a.a.0.a.a.0.0.0.0.0.0.0.q.q.0.0.0.0.0.0.0.0.a.n.a.<.+ O O @ @ @ @ . . . . @ @ O t  .O.{ { { { { { { { { { { { { { { { 3 < j.a.d.d.d.d.d.d.d.d.d.d.d.d.d.d.d.2.j + t t 3 2 * $ # # * 2 r r r r 5 5 r r 5 5 5 5 5 5 6 6 6 6 5 5 6 6 6 t t t 6 6 # - < < 6 a f k x K K K K K K K K [ [ [ [ [ [ [ K K K K K K K L x c 6 y 6 6 6 d ",
"f.f.f.f.f.f.f.f.f.f.f.f.f.f.0.0.0.0.0.0.0.0.0.0.h.g.~ % O O O O O O O O O O . . O # a h ~ ~ ~ ~ ~ ~ ^ / | | | O.~ D k j % + D g.d.d.g.g.d.d.a.a.1.1.1.1.#.+.O.| d O + + + + $ $ $ % $ $ # # # # # # 2 2 2 2 5 3 3 3 3 3 3 3 3 3 6 5 5 5 5 5 6 t 3 3 3 3 3 5 5 5 5 5 5 5 5 2 2 3 5 6 6 6 5 6 6 6 6 6 5 5 t t 6 6 < 5 5 6 6 6 6 6 6 6 5 5 5 5 5 5 6 6 6 6 6 6 6 6 6 5 5 3 6 5 5 r r r r 5 3 3 3 3 3 < < < < 3 3 2 O % a k ~ ~ ~ { [ { { { | | | | { ~ k j # % ~ l.z.z.z.z.d.d.d.d.#.#.#.#.#.#.+. .r = FXsXO O O # # O O O # $ $ O O O O O O O O O O O O O O . . O 3 h { #.d.f.f.f.0.0.0.0.w.w.q.q.q.q.q.q.f.f.f.q.q.q.w.w.w.w.w.w.w.w.w.w.w.w.w.w.w.w.0.0.0.w.w.0.0.0.0.0.q.q.q.q.0.0.0.0.q.q.q.q.q.q.q.q.f.f.f.f.h.g.k + O O O O O . .   .     O . + a h ~ ~ ~ ~ ~ ~ ^ ^ { { { / ~ D k a $ + ~ 2.l.g.l.g.g.g.g.d.d.d.d.d.1.+.) ~ 6 O # # O O O O # # * # * = = * * * * * # # * * * * * 2 < < 2 * 2 2 2 2 2 2 2 2 5 5 5 5 5 5 6 6 6 6 6 6 a t 6 6 5 5 6 6 6 6 6 6 6 6 6 6 8 8 8 8 6 6 6 6 5 5 5 5 ",
"d.d.d.d.d.d.d.d.f.h.f.a.a.a.a.a.a.a.f.f.d.a.a.d.d.+.g + % < 4 2 < * * * O O O O O # a a g e g g s s s s s s s s g a y p O + h | | O.| | ^ ^ ^ ~ ~ ~ ~ ~ F D A k 5 O @ # < 2 2 2 t t t t t t t t p t t t d d y y a a a a a a a a 6 < # - # = 5 6 y y y y y y y y d d j d d d d d d d d d d d j j d d d 8 6 6 6 6 p y d d j j j j y y y y y y t t t t t t t t 6 6 6 6 5 5 6 * - = = 5 5 5 r r t r r r r 6 t t t t * # r k a g g a a a a a k k k k g a y p O O a | O.O.O.O.O.O.O.O.~ { { { { ~ D k r C SX@   @ @ . & O @ . . . O O # # # $ $ $ $ $ O O O O O O O O 3 D [ F 1.d.d.d.0.0.0.0.a.a.a.a.a.0.d.f.f.f.f.a.0.0.0.0.0.0.0.0.0.0.0.0.0.0.0.0.0.0.0.0.0.0.0.0.0.0.0.0.a.a.a.a.0.0.0.0.a.f.f.a.d.d.f.f.0.0.0.0.#.+.g O 1 < * * O . .     O + % # # a g w a a g g g g s h h h h w a y p O + a |  .|  . .{ ^ { ~ ~ ~ ~ ~ / ~ A h r O @ = @ @ & & # # & & = = = = * * * * # # * * = * = 2 y y p p p p y y y y y y d d d d y y y d d d t t t 6 6 5 5 5 5 5 6 t d j d d d d d d d d 6 6 6 6 6 5 5 5 ",
"^ ^ ^ ^ ^ ^ ^ ^ ^ ) ) ) +.+.+.+.+.+.+.+.#.#.#.+.O.D 3 + 6 0 w w 0 r r r r r r r * @ 5 t a a a a a a a a a a a a k y r = . . 5 y j j k k D D D k k k f k k k k d @ . @ * t t a a j j j j j j j j j j k k k k f f j k k k k k k k d 5 + # # 5 y d f f f f k f f f k k k k D D k k k k K K K K K K K x c c 6 6 6 6 j f x K [ [ [ [ K K K K f f x x x x x x x x x x x x x x a 6 * 5 5 5 t a j k k k k k k f f f f j r O < a a a a a d y y y t t t t d t = &   . 5 a k k k k D D D D k k k k k k k g . V UXU.v   # . & & @ .   . @ $ u u u u u t t t 0 0 0 0 r r 0 0 4 j f f F F ~ ~ { { { { O.O.O.O.O.O.O.X.O.O.O.O.O.O.O.O.O.O.O.O.O.O.O.O.O.O.O.O.O.O.{ { O.O.O.O.O.O.O.O.O.O.O.O.O.` ` ` ` +.+.+.+.+.+.+.a.a.a.1.O.~ t 1 0 0 0 9 * O     . # 2 9 5 O 2 t a a a a a y y t y y y y j y 5 * O O t j B B n ~ D D D k k k k k k k k j * O # = * * * * # # & & = = = = * * * * # # # * * = 6 t k k j j f f f f f f f f f k k f f f f f x k x x K k k d 5 5 5 5 y d c x x x x x K K K x x x x x x x k k ",
"k k k k k k k k k A A A ~ ~ D D ~ ~ D D ~ ^ ^ ~ ~ a 2 * t 0 w w 0 0 0 0 0 t t t = O + + 4 4 1 , < # # % + , + + + + O O   . + + + + + + , , + + + + + + < + + O O   # 5 d a s s a a a a a a a a a a a a s a a d a a f k k k f s f 6 5 5 5 6 d x f k k k k k k k k k k k D D D D D k D D D k D D K K x c 6 6 6 6 f D K K [ K K K K K K K K K K K K D D D D D D x x x D D k a 6 5 6 t j k k k k k k k k k k k k j p . % 4 , 1 , , % # @ O + + + + + + O O   . + + + + + + , , + + , , , , , + + O .   SXsXSX{.. @ & $ @ . . O * r t 0 0 0 0 0 0 0 0 0 0 0 0 t t t * r a k k k D D k k k k k k k k k k ~ ~ ~ ~ ~ D D k k k k k k k k k k k k k k k k k k k k k k k k k k k D D D D D D D D D D ~ ~ ~ ~ ~ ^ ^ ^ ^ ~ h a * + w e w a r # .   O * t y 5 . + , 4 4 1 , # # # # + + + + + + O O . O , , + + + + , , , + , + + + + + + + O @ 5 # * * * * * # & & = = = = * * * = # # # * # 2 t a k k k k f f k k k k k k k k k k k k k k k k k k K D A k 6 5 5 6 c c f k k k k k k k K K D D K K K D D D ",
"< 2 2 2 2 2 2 2 9 0 0 r 9 0 t t t t t t t 0 a t 0 % $ * t w w w w 0 0 0 0 0 0 r * # .... . . . .B O . O n  . .4.5.6.8.7.7.7.6.6.O.{ ~ A s , O . O + < < , 3 < + O @ * t a g e e s g g g g g g a s s s s s s s s s s s s k k k s k d 6 # 5 y x x f h h h k k k k k k A A D D D D D D A A D D D D D D x x c 6 6 c k D D D D D D D D D D D D D D D D D D D D D D D k k D D k k t 2 6 d k f k k k k k k k k k k k k 2 O j .. .| | ..B #   O j  .[ 4.4.4.4.4.4.7.7.5.O.| ^ A h 1 O O O + , , , 3 3 + O m.FXsXPXLXU.O & & & & @ # ; i t w w w 0 0 0 0 t t t t t t t t 2 * % % 2 3 3 3 9 9 9 9 i y y r 2 2 2 2 9 9 9 2 2 2 2 2 2 2 2 2 2 2 2 < < 2 2 2 2 2 2 2 2 2 2 2 2 2 r t 2 2 3 2 2 2 2 2 2 2 2 3 t t t t a a a t 2 % $ 9 w e e 0 y 2 O O 5 r t t * O B  .| | | ..B #   O j  .B >.5.5.6.6.5.6.l.5. .| ~ k g % . . % , < < + , , O O O r # * * * * * * & & * * * * * * * = * * * * # r j k h h h k k k k k k k k k k k k k k k k k k A A A D A D k d 5 2 t c f k D D D K K K D D D D D D D D D D D ",
"O O O O O O O O O O O O . O O O O O O O O O O O < % * r 0 w w 0 0 0 0 0 0 0 0 r + j R.T.W.W.W.E.Q.>.# t /.`./.`.'.`.`.`.4X4X4X4X5X5X4X`.`.R.p # 8.7.Y.Y.Q.Q.Y.7.p O + r a g g e s g g g g g g g a a s s s s s a a a d d k h k k k d 6 # 5 y f k f h h h k k k k k k k A D D D D D D D A D D D D D D D x f 6 6 f k D D D D D D D D D D D D D D D D D D D D D D D k k D D k k t 2 6 d k f k k k k k k k k k k k k < B Y.Q.T.T.T.R.Q.>.$ y /.]./.`.`.`.].].].5X5X4X5X4X4X^.`.T.t # 8.F.R.R.R.R.Y.8.5 U.sXZXPXKXAX  & & & & O # ; r t w w w 0 0 0 0 t t t t t t t t 2 < + + O O + O O O O O O O O O O O O O O $ $ + + O O O O O + + O O O O O O O O O O O O O O O O . O O O O O O O O O O O O O O O O O O O + + + + $ $ * 0 e e e w t 2 O O 5 9 t a O B R.Y.E.E.E.E.Q.3.@ p /.[.W._.4X4X5X5X4X5X5X4X5X].`./._.Y.r # 8.7.Y.R.Y.Y.7.8.r O * * * * * * * * & & * * * * * * * = * * * * # r j k h h h k k k k k k k k k k k k k k k k k A A A A D D D k f r 6 d f k D k D D K K D D D D D D D D D D D D ",
"; ; * * * & & & % % % % O O $ % % % % % ; ; ; * * * * r 0 0 t t t 0 t t 0 0 r r + B 6.2.2.2.2.6.6.4.O k l.z.g.l.d.h.h.h.v.v.v.v.z.z.z.z.).`.B t 7.5.5.@.<.<.5.x.B + , a g g g g g g g g g g g g a a a a s a a a d d d d j j j j k d 6 < 6 j f k h h h f k k k k k k k k k k k k k k D D D D D D D D D k f 3 6 f f k k k D D D D D k k k k k k k k k k k k k k k k k k k k j t 2 6 d x j k k k k k k k k k k k k < ..6.<.1.1.1.1.6.4.+ k z.z.z.z.z.z.z.z.z.z.v.z.z.z.z.z.).`.n t 7.6.2.<.@.@.1.7.V   U.LXGXPXU.  & & & & O # r r t t t t 0 0 0 0 t t t t t t t t 2 2 % + % % % % # # # # O O O O * * * * * * * * * * * * * * * * # # # # # # # # * # # # * * * # O O O $ $ $ $ $ * * * * * * * * # # # $ $ $ $ * # $ * 0 e e w 0 t 2 $ O 2 0 w a + [ 7.<.2.2.2.2.6.>.O k l.z.l.l.z.z.z.v.z.v.K.z.z.l.z.z.).`.k r 7.l.1.@.@.@.6.7.j O @ * * * * * * * & & = = * * * * * * * * * * # t j j h h g g j k k k k k k k k k k k k k k k k A k k k k k k f t 6 d k k D k D D D D D D D D k k f f f f f f ",
"* ; ; ; ; ; ; ; % % % % O O $ % % * * * * * * * % % 2 y t 0 r r t t t t 0 r r r , k ^ ^ / / / / ~ | + h d.h.a.h.a.a.f.s.s.a.a.a.d.d.f.f.+.c.n 3 ~ / { { { F ~ O.k + 3 y a g g g g g g g g g g g a d a a a a d d d d d d j j j j k a 6 < 6 d f f f f f f k k k k k f f k k k k k k k k k D D D D D D D D f 3 6 k k k k k x x x x k k k k k k k k k k k k k k k k f f k k k j t * 5 d j j k k k k k k k k k k k k 1 g [ { { / / { { [ + h d.s.f.a.9.9.a.a.a.f.h.a.d.d.h.h.+.K.n 3 ~ / { O.{ ^ ~  .i . }.KXPX}.. $ & & & & . # r r t t t t 0 0 0 0 t t t t t t t t 1 1 2 % % % % $ # & & # O O .   * * * * # # # # # $ $ # # # # # $ $ $ $ $ $ & & & & & & & & & & O @ & # * * # # # $ $ $ * * * * # # # # # # # # * % 1 0 e e w 0 a 2 O O 2 0 w a 4 g ~ / ^ ^ ^ ~ ~ ~ + a d.a.d.a.a.a.s.s.a.s.f.a.d.d.h.h.+.K.B 3 { / ^ F ^ F ^  .d O # @ * * * * * * & & = = * * * * * * * * * * # t j j g g g g j k k k k k k k k k k k k k f f k k k k k k k k d 3 3 a k D A A D D D D D D D D k k f f f f f f ",
"* * * * * * * * * % % $   . $ * * * * * * * * * % % 9 t 0 t 0 0 0 0 t t t 0 t t + j { | | | / { / ~ + ~ d.f.a.a.f.f.f.f.f.f.f.f.f.f.f.f.d.l.3 < { O.O.O.O.O.O.| t O < r a a a a g g g g g g g g a a a a a a a s k k g g g g g g k s 6 # 5 d k k k k k k h h h k h h h h k k k k k k k k k k k k D D A D f 3 s k k k k k k k k k k k k k k k k k k k k k k k h k f f k k k x t * 5 d f k k k k k h h k k k k k k + k { O.O.O.O.{ O.F + [ d.h.d.a.a.f.f.f.q.q.q.a.a.a.h.h.a.l.3 4 { O.) ) ) O.O.[ t   ZXPXSX@ # ; $ @ @ @ O * 0 t 0 0 0 0 0 0 0 0 t w w a w w w t 2 % % $ * * * * # # % % $ O .   & # # # # * * * # % % # # * * * $ $ $ $ # # # # # # # # # # # &   . O * % % $ $ # # * * # # # # * # # * % % * $ % % 1 2 0 0 0 0 a 2 @ O 2 0 t t + k { { { { / / O.~ + k d.f.h.d.a.a.a.f.f.a.a.a.d.d.f.f.a.l.3 4 | O.{ ^ / { { { 5 O # # # # # # # # & & & & & * * = * * * * * * # t j j d d d d k k k k k k k k k k k k k k k k k k k k k k k k k 6 3 t k k D D D D D D D D D D k k h G G G f f ",
"* * * * # # # % * % % $   . O * * * * * * * * % % 1 9 0 0 0 0 0 0 0 t t 0 0 t t + k [ | | | { { / ~ + ~ d.f.a.a.f.f.f.f.f.f.f.f.f.f.f.f.d.2.4 < { O.O./ / O.O.| r O * p y a a a g g g g g g g g a a a a a a a a k k g g h h h h k d 6 # 5 y k k k k k k h h k k h h h h k k k k k k k k k k k k D D A D f 5 s k k k k k k k k k k k k k k k k k k k k k k k h k f f k k k x 5 # 5 d f k h h k k h k h k k k k k + k { ) ` O.O.{ O.F + [ k.f.a.a.f.f.f.f.f.f.q.q.a.a.d.d.a.j.4 3 { O.) ) ) O.O.[ 2 - FXLX|.  # ; $ O @ @ O * 0 0 0 0 0 0 t 0 0 0 w w w a w w w t 9 % % % * * * * % % 1 1 % O     & # # # # # * * % % % % % * * * $ $ $ $ $ # # # # # # # # # # &   . O * % % % $ # # * * # # # # * # # * % % % $ % 1 2 9 0 0 0 0 a 9 $ O 2 0 t t + k { { { { ^ ^ O.~ + k d.f.f.f.a.a.a.a.a.a.a.a.f.f.f.f.a.g.4 4 | O.{ { / { { { 5 O # # # # # # # # & & & & & * = = * * * * * * # t j k s s s s k k k k k k k k k k k k k k k k k k k k k k k k k 6 3 t k k D D D D D D D D D D k k G G G G f f ",
"* * * * % % $ $ * % % $   . O * * * * * 1 1 % 1 % 1 9 t 0 0 0 0 0 0 0 0 0 0 t t + j { { | | { { { ~ + ~ g.f.a.a.f.f.f.f.f.f.f.f.f.f.d.d.d.,.+ < { O.O.^ O.O.O.{ 2 O 2 u u g a a g g g g g g g g s a a a a a a a k k k k k k h h k d 6 # 5 y k k k k k k f h f f f f f f k k f f h h k k h h k k k A A A f 5 a k h h h h k k k k k k k k h h k k h h h h h h k k f f f f k f 5 # t d f k h h k k h h h h k k k k + k { ) ` O.O.{ O.F + [ g.a.a.d.f.f.f.f.f.q.f.f.a.d.d.d.a.#., 3 | O.) ) ) O.O.[ + m.PXJXc   & $ $ O @ @ O * 0 0 0 0 t t t 0 0 0 w w w w t t t t 0 2 % 1 1 1 1 * % % 1 1 % O     & * # # # # # * % % % % % % % % $ $ $ $ $ $ $ $ $ $ $ $ $ $ $ &   . O 2 % % % $ # # % % # # # # % % % % % % % % 1 2 9 0 0 0 0 0 0 0 # . 2 0 t r + k { { { { ^ ^ O.~ + k d.f.f.f.a.a.a.a.a.a.a.a.f.f.f.f.d.1., 4 | O.^ ^ / { { { 5 O # # # # # & * # & & & & & * = * * * * * * * $ t j s a a a a s s k k k k k k s f s s s s k k k k k k k k k k k t 3 t k k k k k k k k k k k k h h f f f f f f ",
"* % % * % % % % * % % $   . O * * 1 1 1 1 1 1 1 % 1 9 t 0 0 0 0 0 0 0 0 0 0 t t + k { { | | { { { ~ + ~ g.f.a.a.f.f.f.f.f.f.f.f.f.f.d.d.d.+.+ < { O.) ) / O.O.{ 2 O 2 j y a a a g g g g g g g g s a a a a a a a k k k k k k h h k d 6 # 5 y k k k k f f f f f h f f f f k k h f h h k k h h k k k k D D d 5 a f f h k k k k f f h h h h h h k k h h h h h h k k f f f k k j 5 # t d f h h h k k h h h h h h h k + k { ) ` O.O.{ O.F + [ 1.a.d.d.f.f.f.f.f.f.f.q.d.d.d.d.a.+.+ 3 | O.O.) ) O.O.[ O |.LXSXO * $ $ $ O @ O . * 0 0 0 0 0 t 0 0 0 0 w w w w t t t t 0 0 1 1 1 1 1 1 % % 1 1 % O     & * * * * * * * % % % % % % % % % % % % % % % % $ $ $ $ $ $ $ #   . O 2 1 1 % % % % % % % % % $ % % % % % % % % 2 2 0 0 0 0 0 0 0 t * . 2 0 t t + k { { { { ^ ^ O.~ + k d.f.f.f.a.a.a.a.a.a.a.a.f.f.f.f.a.+.+ 3  .O.{ ^ { { { { 5 O # # # # # & * # & & & & & * * * * * * * * * $ t j a a a a a s s k k k k k k s f f f s s k k k k k k k k k k k r 5 t f k k k k k k k h f h k h h h h f f f f ",
"1 1 2 2 2 2 2 2 % 2 * O     O 9 % 1 1 % 1 1 1 1 1 9 0 0 0 0 0 0 0 0 0 0 0 0 t t + k | { { { { { { ~ + ~ g.f.a.d.f.f.f.f.f.f.f.f.f.f.d.d.d.1.+ 3 | O.) ) O.O.O.{ 2 . * y u u a a g g g g g g g g h h g g g g g g g g g h k h h h k j r * * d f s k k k k k k k k k k k k k k k k k k k k k k k k k k D k d 3 t j f k k k k k k k k k k k k k k k k k k k k k k k k k k k k j 5 * 2 y k k h h h h h h h h h h h k + k | ` ` ) O.{ X.F + [ d.f.d.d.f.f.f.f.f.f.f.f.a.a.a.d.a.1.+ 2  .O.O.O./ / ) { + sXIX}.O * $ * $ O @ O O + 3 a 0 0 0 t 0 0 0 0 w w w w w w 0 0 0 0 0 0 4 4 4 1 % % 1 1 % O     # * 2 * % % % % 1 1 1 1 1 1 1 1 2 2 2 2 2 2 2 2 2 2 2 2 % 9 9 *   . & 2 2 2 2 2 2 * * * 2 * * % % % % % % % % % 1 2 0 0 0 0 0 0 0 u * . * 0 y t + k | { { { ^ ^ O.F , [ d.f.h.f.a.a.a.a.a.a.a.a.f.f.f.f.a.1.+ 3  .O.{ { { O.O.| 5 O @ # # # # # * * & & & & * * * * * * # # # # # r a a s s a a h h h h h h h h h h h h h h h h k k k k k k k k k t # # j k f k k k k k k k h h h k k k h h k k ",
"0 0 0 0 0 0 0 9 9 r 9 # . . # t 9 9 9 9 9 9 9 9 9 0 0 0 0 0 0 0 0 0 0 0 0 0 t t + k | { { { { { O.~ + ~ d.f.a.d.f.f.f.f.f.f.f.f.f.f.d.d.d.<.+ 3 { ) ) O.O.O.O.{ 9 O * t u u a a g g g g g g g g h h g g g g g g h g g h h h h h k a 5 * * y j k f f k k k k k k k k k k k k k k k k k k k k k k k k k d d 2 t j f k k k k k k k k k k k k k k k k k k k k k k k k k k k k a 2 * 2 y j k h h h h h h h h h h h g , k | ` ` ) O.{ X.F + [ g.f.d.d.f.f.f.f.f.f.f.f.a.a.a.d.a.+.+ 3  .O.O.) ) / ) { 5 3.UXV $ $ & * # O @ O O O 4 w 0 0 0 0 0 0 0 0 w w w w w w 0 0 0 0 0 0 0 0 0 0 9 9 0 9 % O     * 9 9 9 9 9 9 9 0 0 0 0 0 0 0 0 9 0 0 0 0 9 0 0 0 0 0 0 9 t t *   . & 2 9 0 0 0 0 0 0 0 0 0 0 0 9 0 9 9 9 9 9 9 0 0 0 0 0 0 0 0 0 0 # . % 0 t t + k | { { { ^ ^ O.F , [ d.f.f.f.a.a.a.a.a.a.a.a.f.f.f.f.a.,.+ 3  .O.{ { { O.O.| 5 O @ # # # # # * * & & * & * * * * * * # # # # # 5 y a s s a a h h h h h h h h h h h h h h h h k k k k k k k k d 6 # * a k f k k k k k k k f f h h k k k k h k ",
"t 0 t t 0 0 0 0 t t 9 O   . # t 0 0 0 0 0 0 0 0 0 0 0 0 0 0 0 0 0 0 0 0 0 0 t t + k { { { { { { O.~ + [ d.s.a.d.f.f.f.f.f.f.f.f.f.f.d.d.d.+.+ 3 { ) ) O.O.O.O.{ t O * r t t a a g g g g g g g g g g g g g g g g h h h h h h h h k t < * # 5 a k f s h h k k k k k k k k k k k k k k k k k k k k k f k a 5 + 3 t k k k k k k k k k k k k k k k k k k k k k k k k j j k k a y 2 # * r g h h h k k h h h h h h h j , k | ` ` ` O.{ O.F + [ g.f.d.d.f.f.f.f.f.f.f.f.a.f.a.d.d.O., < | ) / / / / ) { 2 V U.O $ $ & * # O @ O O O , 0 0 0 0 0 0 0 0 0 w w w w w w 0 0 0 0 0 0 w w w t t t t 0 1 O     $ 9 0 t t t t t t w w w t t t t 0 0 0 0 0 0 0 0 0 0 t t 0 t 0 *     & 2 0 0 0 0 t t u t t t t t 0 0 0 0 0 0 0 0 0 0 0 0 0 0 0 0 0 2 O . + 9 r r + h | / { { ^ ^ O.F , [ d.f.f.f.a.a.a.a.a.a.a.a.f.f.f.f.d.O., 4 [ { ~ ~ O.O.O.| 5 O @ @ & & # # * * & & * * * * # # * * & & # # # * r g s s a a h h h h h h h h h h h h k k k k k k k k k k k k t 5 # * 6 d f k k k k k k k h h h h h h k h k k ",
"0 0 0 0 0 0 0 0 r r # .     @ 9 9 0 0 0 0 0 0 0 0 0 0 t r t t t t t t t t t r r $ j ..{ { { { { | ~ + [ g.d.d.d.d.d.d.d.d.d.d.d.d.d.d.d.g.| , 4 { { O.O.O.O.O.{ y O * 2 t t u a a a a a g g g g g g j j g g g g h h j g j k k k k 3 % * O 2 t k s s h h k k k k k k k k k k k k k f f f k k k j k j d a 5 O < 6 j f f f k k k k k k k k k k j j k f f f f k k j d j j j a t * # # r a a j j j j j j j j j j j j + k  .O.` O.{ {  .D + [ g.d.d.a.d.d.d.d.d.d.a.a.d.d.d.d.d.O., < | { / / / { { { 2 m.FX3.$ $ & ; $ $ @ O O O % 9 0 0 0 0 0 0 t t t t t t t t t t 0 0 0 0 0 0 0 0 9 9 9 9 * O     O % 9 t 9 9 9 0 0 0 0 0 0 0 0 0 0 t t r r t t 0 0 0 0 0 9 9 2 O   . & * r 0 0 0 0 0 0 0 0 0 0 0 0 0 0 0 0 0 0 0 r r r r t t t t 9 % .   O 2 r 2 $ j | { { { ^ ^ { F , [ j.h.a.a.a.a.a.a.a.a.a.a.d.d.d.d.g.O., 4 | O.^ ~ O.O.O.| 5 O @ @ & & # # * * & & * * * * # # * * & & & & # # 2 j g g a d j j j j j j j j j j j j j k k k k k k k k k k j 6 2 # = 5 t j j k k k k k k f f f f f f f f f k ",
"* * * * * * * * O O O O . . . . * * * * * * ; 2 2 2 * * & & $ $ & @ @ @ O O O O O p B | | | O.| [ a , l +.#.a.a.,.1.a.a.a.a.a.a.,.+.1.+.~ D 3 , D ~ | @.O. .{ [ < O O O # * 2 2 r r r r r r r 9 2 2 2 5 r r 9 9 t t t t y y y y < * * * * * < < r r 6 6 t t t t t t a y y y y y 5 5 5 5 5 5 2 2 5 5 2 2 # # # # 5 5 5 5 5 5 5 5 5 5 6 6 r t p r y y i y y y i i p p y y 5 * # # # # * 5 r r p p t t t t t t t t O t D ^ ^ / ^ [ k a 1 3 <.<.#.#.#.#.#.1.,.,.<.<.#.+.1.+.~ k 3 , ~ ~ { | @. .| ..O %.KXFX%.. O O ; $ . O O O O O 2 9 9 9 9 2 2 2 % % % $ O O O O * * * * r r r r r r * O O . . . O O & # 9 9 9 9 9 9 r r 2 2 9 9 * * ; r ; r t t r r r r * * $ O . . O O * * * * 9 9 9 * * * * * $ $ O O # % $ $ @ @ @ @ @ @ @ @         O . . O O r k ~ { ) ) { n t 1 3 O.#.+.O.#.#.#.#.#.#.1.1.,.+.a.+./ ~ 3 4 D ~ { @.O.| { [ % O O @ @ O @ @ # & # @ O $ $ $ O @ @ @ O O O O @ # # # # # # # 2 2 2 2 j y y y t t t t j a a a t t t t t t y p # # # # 2 2 5 5 5 5 5 5 6 6 5 6 6 6 6 5 5 5 6 6 ",
"O O O O O O O O O O O O O O O O O O O O O O O O O O O .     . .     . . . O O . . 2 p j B ~ ~ ~ j 3 + 4 D D ^ ^ D D D D ^ ~ ~ ~ ~ D { ~ k j 2 < a h k D ~ k k g 1 O O . O O + % * * * * * % * $ $ + O O O O + + $ $ $ $ $ $ $ $ * * 2 2 2 2 2 2 $ $ + + # # # # # # # # # # # # # # # # # # # # # # # # # # # # # # # # # # # # # < 2 2 # # # = = = = = = = = = = = = = * # # # # # # # * * * * # # # # @ @ @ @ O 2 a s D D k k d 5 + 1 ~ ~ D D D D D D ~ ~ ~ ~ ~ A ~ k k j 2 2 a j k k n k k j $ y JXLXJXm.O . O O @ O O O O O O O O O O O O O O O O O .       . O O O O O O O * $ O O O O O O O O O O O O O O O O O O O O O O O O @ & @ O % % O O O O $ O O O O O O O $ $ $ $ O O O O O O O O O O @ . . O O O   .     . . . . . . . . . . . . O 2 a k k D D k j 5 + 4 k D D A A A A A ~ ~ ~ ~ ~ D { ~ k j 2 % g h k D D k h j * # @ @ O O O O O O O O + + + + O @ @ @ $ O O O # # # # $ # # # # # # * 2 2 * # # # # # < 4 4 3 3 2 2 2 2 2 2 < < # < < < < 2 2 < < < < 2 2 2 2 < 2 5 5 # # < < ",
"0 0 0 0 0 0 0 0 r r r 9 9 2 2 2 9 9 9 9 * * * % 1 % $ # . . . .   . @ # $ $ # # O $ * * 5 5 5 5 * # O + j k k k j j j j d a a a g a j a y r O O 5 6 6 t t r 6 2 % * # # # % < 2 t t r r r r r r < % O O O $ % % 2 2 2 < 2 2 2 2 2 2 2 2 2 2 2 2 2 2 5 5 5 5 5 5 5 5 5 5 # # # < 5 3 3 3 6 6 6 6 6 6 6 6 6 6 r r t t a a d d d d y y d d 5 2 & - - - = = = = = = = = = = * * * * # # # # * * * * # # # # @ @ @ @ @ @ # 2 5 6 3 6 # # . + j k k k d d j j y y a a k g k j j t O . 5 r p p y p t r $ 5 m.JXKXGXZX9X# O # O O O O O O O $ $ $ $ $ $ $ O O O . . . . . O O % 2 2 2 2 0 0 9 9 9 0 0 9 2 9 0 0 1 1 * % % % $ $ $ + O O . . . @ O $ 1 2 2 2 2 2 2 2 9 9 9 9 0 0 0 0 9 9 2 2 2 2 1 1 1 * O O   . . O O $ $ $ O O $ $ $ $ $ $ # # 9 9 2 2 + % 2 2 5 5 5 5 * # O $ j x k d j d d d y y a a j a j y i p O . 5 6 6 t t r 6 2 O * r r # @ O . . O O # r r 0 0 9 9 2 2 2 2 2 2 2 2 2 2 r r r r t t t t t t 3 2 # # # # 2 3 t a a a a a a a a a a a a a d d d d a a a a d d d d 6 2 # # + # < < ",
"0 0 0 0 0 0 0 0 0 0 0 0 0 0 0 0 a a u u 0 0 0 0 0 9 9 9 O O @ O O $ * r 9 9 9 9 r $ O . . . . . O O O O + + , , O O O O O O O + + + + O O O . O O O O O O O O . $ r p t t u u j y y y y t t t t r 2 * O * < 2 2 2 2 2 2 2 2 2 2 5 5 5 5 2 5 2 2 5 5 5 5 r r r 5 5 5 5 5 # # # < d a a a k k k k j j j j k k k k a a a d d d k j j d j j t 5 # @ # # - - # # = = # # # * = * * * * * # # = = = = * * * * * * * * . . . O O O + O O O O O + + , + O O O O O O O + + + + + O + . O O O O + O O O . I.3.. {.KXGXLXLXm.O # @ * * * * * * * * * * * * O O O O O . . . O % 9 t t t t t 0 0 0 0 0 0 0 0 0 0 t a a t t t 0 0 0 0 0 2 % + O O O $ 9 0 t u t 0 0 0 0 0 t a 0 0 0 t t 0 0 0 t t t 0 0 0 0 0 2 $     O + * 9 r 0 0 0 0 0 0 0 t t t t 0 0 r r 2 O O O O O O O O O O O + , , + + O O O O O O + + + % + O . .   O O O O O O O . # 5 p r r 2 # O O O * 2 y y y a t t t y t t t t g g a a a a a a a a a a a a a t % $ $ % 3 t j k k k k k k k k k a a a a a a k k k k k k k k k f j t 5 < + < 6 a ",
"w w w w w w w w 3 3 0 0 0 0 0 0 0 0 0 0 0 0 0 0 0 0 0 0 9 $ O O $ 2 9 0 0 0 0 0 2 % B 3.4.4.6.7.Y.Y.Y.Y.x.5.@.| k ~ n , O O  .~.T.c.5.<.[ [ [ [ k k k f B ..n t % r y t t t t t a a t t t t t t t t < O * 2 2 2 9 9 9 9 2 2 2 2 r r r r 2 2 2 2 r r r r 2 5 r 5 5 5 5 5 # * 5 j j k h g a a a a g g g g k k k h k k h k g g j j j j j j j t * @ * * * * * * * * = = = = * * * * * * * * * * * * * * * * * * * * . . B >.5.5.5.5.H.Y.H.H.x.6.@.{ h ~ k ,   %  .T.T.H.6.5.[ [ ~ n k k k k  .| k 4 ..5 # @ SXPXKXZX7 O @ O # # # # * * * * * * * $ * $ # # O @ . . r 0 0 0 0 0 9 0 0 0 0 0 0 0 0 0 0 0 0 0 0 0 0 0 0 0 0 0 0 0 2 % O O * 9 0 0 0 0 0 0 0 0 0 0 0 0 0 0 0 0 w w w w 0 0 0 0 0 0 0 0 0 2 O O * 9 t t 0 0 0 0 0 0 0 0 t t 0 0 0 0 0 0 3 + k  .4.8.7.7.Y.Y.Y.H.x.5.@.| s k k + + +  .W.W.H.6.5.[ [ k [ f j j j B [ x t + r y y j r * $ O 2 t p t t a a a a a a a a a a a a g a g g g g g g g g g g g a r 2 < < t j j a a s s s s s h h h h h h k k k k h h h h h h h k k j t # < 5 a k ",
"w w w w w w w w 3 3 w w 0 0 w w w 0 0 0 0 0 0 0 0 0 0 0 t * O . 2 0 0 0 0 0 0 0 + 3 /.].^.(.(.`.T.!.!.!.).^.`.`.`.5X].4.O >.[.^.^.`.4X5X5X5X4X].[.[.[._._.[.[.[.1 2 t a a a t t a a a a a a a a t t 2 O * 2 4 2 9 9 9 9 2 2 2 2 2 2 2 2 2 2 2 2 r r r r 2 5 r r 5 5 5 5 # * 5 d j k g g a a a a g g g g k k g g h h g g g j j g g j g h j t 2 @ * * * * * * * * = = = = * * * * * * * * * * * * * * * * * * * * @ 5 W._.^.^.^.^.!.).).!.P.^.(.`.'.].[.4.O ..`.).!.~.'.`.5X4X`.`.`.].].].5X5X]._.% O # O CXKXsX- S.{.- O # # # # * * * * * * * $ * $ # # O @ . . r 0 0 0 0 0 0 0 0 0 0 0 0 0 0 0 0 0 0 0 0 0 0 0 0 0 0 0 0 0 0 2 O O 2 0 0 0 0 0 0 0 0 0 0 0 0 0 0 0 0 0 w w 0 0 0 0 0 0 0 0 0 0 0 2 O O 2 r t t 0 0 0 0 0 0 0 0 0 0 0 0 0 0 0 0 4 3 ~.].^.(.`.`.T.T.T.T.!.~.'.`._.5X`.4.+ ..~.^.).^.4X4X4X4X`.4X[.[.[.[.[.[.[.[.+ 2 t g a t 2 O $ 9 p t t a a a a a a a a a a a a a g a g g g g g g g g g g g a t * % 2 y d a a g s s s s s h h h h h h k k k k h h h h h h h k k k y < < 6 a k ",
"0 0 0 0 0 0 0 0 3 3 0 0 0 0 0 0 0 0 0 0 0 0 0 0 0 0 0 0 a 2 O . 0 0 0 0 w w w 0 , 4 l.0.a.a.#.#.d.a.d.d.+.a.h.z.K.l.J.x.+ B K.h.d.f.f.h.z.z.z.k.L.K.K.c.z.z.J.!.4 2 0 g w a a t a a a a a a a a a t 9 $ * 2 2 2 9 9 9 9 2 2 2 2 2 2 2 2 2 2 2 2 r r 5 r 5 2 2 5 2 2 2 2 # * 5 d j a g a a a a a j j j j g g j j j j j j j j j j g g j j j y 2 O * * * * * * * * = = = = * * * * * * * * * * * * * * * * * * * * . * x.d.h.h.g.d.d.d.f.d.a.f.z.K.K.l.J.c.+ [ c.a.a.d.d.d.z.z.z.z.z.K.z.K.K.z.K.T.g O O # 7 m.sXSXKXPXm.@ # # # # * * # # * * # $ * $ # # O . . . r 0 0 0 0 0 0 0 0 0 0 0 0 0 0 0 0 0 0 0 0 0 0 0 0 0 0 0 0 0 0 0 O O 1 w 0 0 0 0 0 0 0 0 0 0 0 0 0 0 0 0 0 0 0 0 0 0 0 0 0 0 0 0 0 2 O O 9 0 t 0 0 0 0 0 0 0 0 0 0 0 0 0 0 0 0 0 4 4 l.f.f.f.#.#.1.d.d.d.+.1.l.z.K.z.K.x.+ | z.v.a.a.d.d.z.h.h.z.z.z.z.z.z.z.c.T.0 2 3 w a a r O $ 2 t t a a a a a a t t t t a t a a a a g a a a g g g g a a a a y * $ 9 d a a a a a a a a a g g j j j j s h s s g j j g g g g g g k a < < r a k ",
"0 0 0 0 0 0 0 0 3 3 0 0 0 0 0 0 0 0 0 0 0 0 0 0 0 0 0 0 a 9 O . 0 0 0 0 w w w 0 , 3 0.f.h.f.a.#.a.s.a.f.f.f.a.a.a.1.g.{ + j 1.a.a.f.h.h.f.f.a.a.a.a.a.9.d.+.a.g.3 < 0 g w w a t a a a a a a a a a t 9 * * 2 2 2 9 9 9 9 2 2 2 2 2 2 2 2 5 5 2 2 r r r r 2 5 2 2 2 2 2 2 * * 5 d d j j d d a a a j j j g g j j j j j j g j j j j j g h h j y 2 O * * * * * * * * * * = = * * * * * * * * * * * * * * * * * * * * @ 2 <.f.s.s.a.a.a.s.a.a.h.f.f.a.d.a.d.O.+ g g.a.a.a.d.h.d.a.a.a.a.a.a.a.d.a.a.z.0 $ * O . ..PXKXKXHXc O # # # # * * # # * $ # $ # $ # # O .   O 0 0 0 0 0 0 0 0 0 0 0 0 0 0 0 0 0 0 0 0 0 0 0 0 0 0 0 0 0 0 0 0 . O 2 w 0 0 0 0 0 0 0 0 0 0 0 0 0 0 0 0 0 0 0 0 0 0 0 0 0 0 0 0 w 2 $ O 9 0 0 0 0 0 0 0 0 0 0 0 0 0 0 0 0 0 0 0 1 l a.f.b.f.a.#.a.a.a.a.d.a.1.a.d.d.d.O., h d.9.a.a.f.f.0.0.9.a.a.0.0.9.d.9.9.l.3 < 3 g w a r O $ 9 t t a g g a a a t t t t t t a a a a u a a a g g g g g g a a y $ $ r a a a a a a a a a a j j j j j a a a a a a a j j j j j j a j a < 2 r a h ",
"0 0 0 0 0 0 0 0 0 0 0 0 0 0 w w 0 0 0 0 0 0 0 0 0 0 0 0 t * O O 0 0 0 0 0 0 0 0 + a d.f.f.f.a.a.f.f.f.a.a.a.a.a.a.a.d.1.< a d.a.d.f.f.f.a.f.f.f.h.h.h.h.d.a.a.1.0 + a a a a a u u a a a a a a u u u 9 $ * 2 2 2 2 2 2 2 2 2 9 9 2 2 2 2 2 2 2 2 2 2 2 9 9 9 9 9 2 9 9 9 * * a j g g g g g g g g h g g g g g h h h g g g g g g g g g h h h a 2 $ * * * * * * * * * * * = = = * * * = = * * * * * * * * * * * * * O j g.f.f.f.a.a.d.h.d.a.a.a.a.a.a.a.d.#., s a.a.a.a.a.a.d.f.h.h.a.a.a.a.d.d.d.g.a % 9 $ * 7 SXPXKXFX7 O # # # # % % * * * * % $ $ $ # # O @ . O 0 0 0 0 0 0 0 0 0 0 0 0 0 0 0 0 0 0 0 0 0 0 0 0 0 0 0 0 0 0 0 2 . O 2 t 0 0 0 0 0 0 0 0 0 0 0 0 0 0 0 0 0 0 0 0 0 0 0 0 0 0 0 0 0 0 + O 0 0 0 0 0 0 0 0 0 0 0 0 0 0 0 0 0 0 0 0 + s a.a.s.a.a.a.a.a.d.d.a.a.a.a.a.a.a.#., a d.f.d.d.f.f.f.f.f.f.f.f.f.f.d.d.d.2.j $ 6 a a y t O $ 9 t 0 a a a a a a a a a a a a a g g g a a a a a a a a a a a g u $ $ r g a a a g g g g a a a a h s s g a a a a g j j j h h h h h a a 3 % r a h ",
"0 0 0 0 0 0 0 0 0 0 0 0 0 0 0 0 0 0 0 0 0 0 0 0 0 0 0 0 t * O O 0 w 0 0 0 0 0 r + a d.f.f.f.f.f.f.f.a.a.a.a.a.a.f.a.a.1.< 6 d.f.d.d.d.d.a.a.a.a.h.h.d.d.f.f.s.d.a 1 t a q a a u a u t t u u u u u u 9 $ % 2 2 2 2 2 2 2 9 9 9 9 2 2 2 2 2 2 2 2 2 2 2 9 9 9 9 9 9 9 2 9 * * t k g g g g g g g g h h g g h h h h g g h g g g g g g h h h h a 2 $ * * * * * * * * * * * = * * * * * = * * * * * * * * * * * * * * + h g.f.a.a.a.a.d.d.d.a.a.a.a.a.f.f.f.1.1 w d.f.a.a.a.a.d.d.d.d.a.a.a.a.d.d.d.g.h O % 9 # @ sXSXKXJXm.O # # # # % $ * * * * % $ $ $ # # O @ . @ 0 0 0 0 0 0 0 0 0 0 0 0 0 0 0 0 0 0 0 0 0 0 0 0 0 0 0 0 0 0 0 2 . O 2 t 0 0 0 0 t t 0 0 0 0 0 0 0 0 0 0 0 0 0 0 0 0 0 0 0 0 0 0 0 0 + O 0 0 0 0 0 0 0 0 0 0 0 0 0 0 0 0 0 0 0 0 + s d.a.a.a.a.a.f.f.f.f.f.f.f.f.a.a.f.1.1 t d.h.f.d.d.d.f.d.d.d.f.f.f.f.d.d.d.g.k $ 6 t t t p O $ r t 0 g g a a a a a a a a a a a a a a a a a a a a a a a a a g u $ $ r a a g g g g g g a a a a s s a a a a a a h j j j h h h h h a a 3 % 5 a a ",
"0 0 0 0 0 0 0 0 0 0 0 0 0 0 0 0 0 0 0 0 0 0 0 t 0 0 0 0 t * O O 0 w 0 0 0 0 0 r + a d.f.f.f.f.f.f.f.a.a.a.a.a.a.f.a.a.1.3 4 g.f.d.d.d.d.a.a.a.a.a.a.d.d.f.f.f.d.k 1 t a w w a u u u t t u u u u u u 9 $ $ * 2 2 2 2 9 9 * * * * 2 2 2 2 2 2 2 2 2 2 2 2 9 9 9 9 2 2 2 2 * $ t g g g g g g g g g h h g h h h g h h h h g g g j j g h h h g a 2 O * * * * * * * * * * * * * * * * * * * * * * * * * * * * * * * * + h d.f.a.a.a.a.d.d.d.a.a.a.a.a.f.f.f.g.4 4 g.f.a.a.a.a.d.d.d.d.a.a.a.a.d.a.d.g.m O % 9 O O U.sXFXLXsX. + # # # $ $ $ $ $ $ $ $ $ $ # # O @ . O 0 0 0 0 0 0 0 0 0 0 0 0 0 0 0 0 0 0 0 0 0 0 0 0 0 0 0 0 0 0 0 2 . O 2 t w w 0 0 t t 0 0 0 0 0 t 0 0 0 0 0 0 0 0 0 0 0 0 0 0 0 0 0 0 + O 0 0 0 0 0 0 0 0 0 0 0 0 0 0 0 0 0 0 0 0 + s d.a.a.a.a.a.f.f.f.f.f.f.f.f.a.a.f.g.4 4 g.h.d.d.f.d.d.d.d.d.d.d.d.d.d.d.d.g.k $ 6 t t t p O $ r t w g a a a a a a a a a a a a a a a a a a a a a a a a a a a u $ $ r a a g g g g g g a a a a a a a a a a a a h h j j a a a a j a a 3 $ 5 a a ",
"0 0 0 0 0 0 0 0 0 0 0 0 0 0 0 0 0 0 0 0 0 t 0 t 0 0 0 0 t * . O 0 w 0 0 0 0 0 r + a d.f.f.f.f.f.f.f.a.a.a.a.a.a.f.a.a.1.t , d.f.d.d.d.d.a.a.a.a.a.d.d.d.f.f.f.d.k % t a w w a u u u t a t u t t u u 9 $ $ % 2 2 2 2 2 2 2 2 2 * 2 2 2 2 2 2 2 2 2 2 2 2 9 9 9 9 2 2 2 2 # O r a g g g g g g g g g g g h h h h h h h h h g j j j g h h h h g 9 O * * * * * * * * * * * * * * * * * * * * * * * * * * * * * * * * + h d.f.a.a.a.a.d.d.d.a.a.a.a.a.f.f.f.d.3 1 g.f.a.a.a.a.d.d.d.d.a.a.a.a.d.a.d.g.a + 9 % # * c sXsXPXFX7 + # # # $ * $ $ $ $ $ $ $ $ # # O @ . @ 0 0 0 0 0 0 0 0 0 0 0 0 0 0 0 0 0 0 0 0 0 0 0 0 0 0 0 0 0 0 0 < . O 2 t w w 0 0 t 0 0 0 0 0 0 t 0 0 0 0 0 0 0 0 0 0 0 0 0 0 0 0 0 0 + O 0 0 0 0 0 0 0 0 0 0 0 0 0 0 0 0 0 0 0 0 + s d.a.a.a.a.a.f.f.f.f.f.f.f.f.a.a.f.g.3 , g.h.d.d.f.f.d.d.f.d.d.d.d.d.d.d.d.g.k $ 6 t t t p O $ r t w g g a a a a a a a a a a a a a a a a a a a a a a a a a a u * % r a a g g g g g g a a a a a a a a a a a a g h j k a a a a j a j 3 # r a h ",
"0 0 0 0 0 0 0 0 0 0 0 0 0 0 w w 0 0 0 0 0 0 0 0 0 0 0 0 t * O O 0 0 0 0 0 0 0 r + [ d.f.f.f.f.f.f.f.a.a.a.a.a.a.h.a.a.l.< 4 c.f.f.d.d.d.d.d.d.a.a.a.h.h.f.f.f.g.k O t a q w a a u u u u t t t t u 9 * O $ % 2 2 2 2 2 2 * * 2 2 2 2 2 2 9 9 9 9 9 9 9 9 9 9 9 9 9 9 9 9 * * r a g g g g g g g g g g g g g h g g g g g g g g g g g g h h h g 9 O * * * * * * * * * * * * * * * * * * * * * * * * * * # # * & & # + ~ d.f.d.d.d.d.d.d.d.d.d.d.d.d.h.a.s.l.1 4 z.f.d.d.d.d.d.d.d.d.h.h.f.h.d.d.d.g.~ O % * ; @ # AXm.KXPXm.. * 9 * * * * * # # * * * * # # $ @ . O 0 0 0 0 0 0 0 0 0 0 0 0 0 0 0 0 0 0 0 0 0 0 0 0 0 0 0 0 0 0 0 4 . . * 3 0 w 0 0 0 0 0 0 0 0 0 0 0 0 0 0 0 0 0 0 0 0 0 0 0 0 0 0 0 0 O O 9 0 u 0 0 0 0 0 0 0 0 0 0 0 0 0 0 0 0 0 + K g.a.a.a.a.a.f.f.f.f.f.f.f.f.h.a.a.l.4 < z.f.f.d.d.d.d.d.f.f.d.d.d.d.d.d.d.g.k % y t t t y % O < t w w a a a a a a a a a a a a a a a a a a a a a a a a a a a u * % r t a a a a a a a g g g g g g g g g g g g g g g g g g g g k g j 0 * t j h ",
"0 0 0 0 0 0 0 0 0 0 0 0 0 0 0 w 0 0 0 0 0 0 0 0 0 0 0 0 0 # . O 0 0 0 0 0 0 0 r + [ d.a.f.f.f.f.f.f.a.a.a.a.a.a.h.h.d.5.1 1 d.f.f.d.d.d.d.d.d.a.a.a.h.h.f.f.f.g.k + t a q a a a a a u u t t t t t 9 * O $ % 2 2 2 * * * 2 * 2 2 2 2 2 2 2 2 9 9 2 2 9 9 9 9 9 9 9 9 9 9 * $ r a g g g g g g g g g g g g g g g g g g g g g g g g g g h h g a 2 O * * * * * * * * * * * * * * * * * * * * * * * * * * # # & & & # O ~ d.f.d.d.d.d.d.d.d.d.d.d.d.d.h.f.f.d.1 1 d.f.d.d.d.d.d.d.d.d.h.h.f.f.d.d.d.g.~ + % * * * O 9XS.ZXLXsX. * * * * * * * $ # # * # # # # & @ . @ 0 0 0 0 0 0 0 0 0 0 0 0 0 0 0 0 0 0 0 0 0 0 0 0 0 0 0 0 0 0 0 < . . * 3 0 w 0 0 0 0 0 0 0 0 0 0 0 0 0 0 0 0 0 0 0 0 0 0 0 0 0 0 0 0 O O 2 0 t 0 0 0 0 0 0 0 0 0 0 0 0 0 0 0 0 0 + K g.a.a.a.a.a.f.f.f.f.f.f.f.f.z.h.f.g.< , 1.d.f.d.d.d.d.f.f.f.d.f.d.d.d.d.d.g.k + y t t y 0 $ O < t w w a a a a a a a a a a a a a a a a a a a a a a a a a a a y $ $ r t a a a a a a a g g g g g g g g g g g g g g g g g g g g j g j 3 # r g h ",
"0 0 0 0 0 0 0 0 0 0 0 0 0 0 0 0 0 0 0 0 t t 0 0 0 0 0 0 0 # . @ 0 0 0 0 0 0 0 r + [ d.a.f.f.f.f.f.f.a.a.a.a.a.a.f.d.9.O., , +.f.f.d.d.d.d.d.a.a.d.h.h.h.f.f.f.g.k + t a a a a a u a t t t t t t t r * O $ % 2 2 2 * * * 2 2 2 2 2 2 2 2 2 2 2 2 2 2 9 9 9 9 9 9 2 2 2 2 * O 2 t g g g g a g g g g g g g g g g g g g g g g g g g g g h h g a 2 O * * * * * * * * * * & & * * * * * * * * * * * * & & & & & & & # O ~ d.f.d.d.d.a.d.d.d.d.d.d.d.d.f.f.a.+.1 1 +.f.f.d.d.d.d.d.a.a.a.d.d.d.d.d.a.d.D + % * # * O m.sXm.KXFXv @ * * * * $ $ $ $ * * $ $ # # & @ . @ 0 0 0 0 0 0 0 0 0 0 0 0 0 0 0 0 0 0 0 0 0 0 0 0 0 0 0 0 0 0 0 < . . * 3 0 0 0 0 0 0 0 0 0 0 0 0 0 0 0 0 0 0 0 0 0 0 0 0 0 0 0 0 0 0 O O 1 0 0 0 0 0 0 0 0 0 0 0 0 0 0 0 0 0 0 0 + K g.a.a.a.a.a.f.f.f.f.f.f.f.f.h.a.0.O.1 , O.h.f.d.d.d.d.f.f.f.f.f.d.d.d.d.d.g.k + y t t t 2 + O < 0 a a a a a a a a a a a a a a a a a a a a a a a a a a a a a y $ + 2 t a a a a a a a g g g g g g g g g g g g g g g g g g g g g a g 2 $ 9 g g ",
"0 0 0 0 0 0 0 0 0 0 0 0 0 0 0 0 0 0 0 0 t 0 0 0 0 0 0 0 r # . @ 0 0 0 0 0 r r r + [ j.a.a.a.a.a.a.a.a.a.a.a.d.d.+.+.O.A , + O.d.d.d.d.d.d.d.a.d.d.d.d.d.d.d.d.2.k O t a a a a t u u y y t t t p u r * O # * 2 2 * * * * * 2 2 2 2 2 2 2 2 2 2 2 2 2 9 9 9 9 9 9 2 2 2 2 & O 2 r g g a g a a g g g g g g g g g g g g g g g g g g g g g g a t < O * * * * * * * * * * & & & & * * * * * * * * * * * * # & & & & # O ~ g.d.d.d.d.d.g.g.g.g.g.g.g.g.+.+.` A , , O.d.d.d.d.d.d.d.a.a.a.d.d.d.a.a.a.2.x O $ * O * @ = ZX7 FXLXU.. ; * % $ $ $ $ $ * * # # # # & @ . O 9 0 0 0 0 0 0 0 0 0 0 0 0 0 0 0 0 0 0 0 0 0 0 0 0 0 0 0 0 0 0 < . . * 3 0 0 0 0 0 t 0 0 0 0 0 0 0 0 0 0 0 0 0 0 0 0 0 0 0 0 0 0 0 9 O O % 9 0 9 0 0 0 0 0 0 0 0 0 0 0 0 0 0 0 0 + K 5.a.d.d.d.d.d.d.d.d.d.d.d.d.+.+.O.A , + ~ d.d.d.d.d.d.d.d.d.d.d.d.d.d.d.d.2.k + t t t t < O O < r t a a t t a a a a t t t t a a a a a a a a a a a a a a a t t + O 2 y t a a a a a a g g g g g g g g g g g g g g g g g g g g g t a < + 9 t a ",
"r r r r r r r r t t t t r r t 0 t 0 t t t t t t t 0 9 2 $ O .   O * r r r r r r % t D ~ O.O.O.` O.O.O.O.O.O.O.O.D D ~ [ + 4 h O.1.a.a.a.d.d.d.g.g.1.1.1.+.O.) ~ g 2 9 j t t t t r r r r r r r r $ & & & @ & # # * 2 2 2 9 9 9 2 < < < * r r 2 9 2 2 2 < 2 2 2 * * * * * @ @ @ O p p p y y y y y y y y y g g g a g t g g a t a t t t t t 2 2 * * @ @ @ @ & & & * * * * * & & & # # # # # # # # # @ # # # # # # # + w ~ { O.O./ / / / / / / / / / h k ~ ~ + 4 k O.g.d.d.d.d.d.d.d.g.d.d.d.+.+.O.{ r . O O # # O O sX%.7XLXZXO $ O # # # * * * * # O O O O O . . O $ * r u t t t t t t 0 0 0 0 0 0 0 0 0 0 0 0 0 0 9 r r r 9 * $ $ O O O O 9 9 9 9 0 0 0 0 0 0 0 0 t t t t t t 0 0 0 0 9 9 9 9 r r O O O O O O $ # 9 0 0 0 0 0 0 0 0 t 0 a 0 0 0 0 + 3 D { @.O.O.O.O.O.O.X.{ { { { h h k ~ + 4 h  .g.d.d.d.d.d.d.d.1.1.1.1.<.+.O.{ 0 O 3 a r * O . O $ * r y y p y t t a t t y j j y y y y y t t t t t r t t r 9 2 + O O O < r y u y y y y a a a t y t t t a a a a h h h h h h h g p 2 * $ * * * < ",
"O O O O $ $ $ $ + + O O O O + + + + + + 2 2 2 2 1 1 1 % O . .   O . O $ $ $ $ + O 2 j k D D A D A A A k k k k k [ B k j O % a ..[ ^ ~ ~ { { { { [ [ [ [ k D ~ ~ 2 O O 2 * * * * O O O O O O O O O O . . . . @ O * * * * 2 2 * * * * # # * * * < $ $ $ $ $ $ $ $ @ @ @ @ @ O @ @ O O $ $ % * * * * * * * * * * * * * < < < < < < < < 2 2 O O O @ @ @ @ @ @ @ @ @ $ % $ @ @ & & # # # # & # # # @ @ O O O O O O O O 2 j k h h D ~ D k k k D D k k B B c j O % y ..~ ^ ^ ^ | | { ^ { [ [ [ k k A k r   O O @ O O O U.9Xc PXJXc O ; O O O O O O O O @ O . . . . . O . O $ # * 2 2 2 9 2 2 % % % % % % % $ $ $ $ $ $ $ O O O O O O O O O O O O O O O % % % % % % < 2 r r r r 9 2 2 2 + + O O O O O O . . . . O O @ O O + + + + + + + % % % % * * 1 1 + 3 g k k k D F D D D D k k k k B x j j O % y ..{ / ^ ^ ~ ~ ~ ~ [ [ [ [ k k ~ ~ 3 + < < + O . . O O $ * 2 2 2 2 2 2 2 2 % * * * * * * * * * % % * * * < * * $ $ O O O O $ # * r r r r r t t t r r r r r r r 0 0 0 0 0 0 0 0 0 r # @ O # O O O O ",
"O O O O O O O O O . .       . . . . O O O O O O O O O O .   . . $ O . O O O . .   @ = 5 t t t t a a y y y y y y 5 2 2 * O O < y t t t t r r r 6 6 5 5 5 2 2 2 * O . O # O O O O O + + + O O + + $ $ $ $ $ $ % * % % % % % % % $ O O @ @ @ @ O O O O O O O O $ O O @ O O @ @ @ @ O O O O O O O O @ @ @ @ O O O O O O O O O O O O $ $ O O @ @ @ @ @ o o o @ @ @ @ $ % $ O O @ @ # # $ O O O O O O # @ O . O O O O O # 5 2 5 r y a j j j j j j k j r 5 = * . O * p p y y y r r 5 5 5 5 5 5 5 2 2 < O . . . O O . . 7 ZX- ZXLX|.  $ . . . . . . . . . . . . . . . O . O O O O O O O O O O . . . . . . . . . O O O O O O O O O O O O O O O O O O O O . . O O O O O O O O O O O O O $ O O O O O O O O O @ @ @ . . . . O O O O O O O O . . . . . . . . . $ * < 5 r t a j j j j j j j j r 5 * * . O * p p y y y 6 6 5 5 2 2 2 5 2 2 2 2 O O O . O . . . O O O O + + + + O O O O O . .     . . . . . O O O O O O @ O O . O O @ @ O O @ @ @ O O O @ @ @ @ @ @ O O O O + + $ $ $ $ $ $ + O O @ # @ & @ @ @ ",
"$ $ $ $ $ $ $ $ O O . . . . O O O O O O * * * * % 1 9 9 * * r r r r * O % % $ # . @ O . O O O O O O O O O O O O O O O + O O O + O O O O O O O O O . . . . O O O O + + $ O O O O 2 2 3 3 r r r r r r r r 0 0 u u u u u u u u u u # O . . . . O O * * * * * * * * * * * * * * * * * * * * 2 * * * * * * * @ O O O r r r r r r r r r 9 r 5 * * * * * * * * * * = * 2 2 2 2 * $ O O O $ $ O * * * * r * O O % % % % O @ # O + O O O O O O O O O O O O O O O O O O + O . . . O O O . O . . .   . O + + + + O O O O .   sXm.}.LXFX& . * * * * * * * * $ $ $ $ # $ O % * * $ $ 9 9 9 r r 9 ; *                 @ @ @ @ O O $ $ $ $ % % $ # # $ $ $ $ $ O . . . . . . . . . . . * 9 r t r 9 9 r r r r r 9 9 9 9 r 9 * * r 9 9 9 9 9 9 r . . . . # # # # O O + O + O O O O O O O O O O O O . O O O O O O O O O O . . . . O O O O O O O $ O + < O O O O O t r r r 9 9 9 9 2 2 2 5 # @ O . . . . O @ @ @ @ @ @ @ @ @ @ O O O O @ @ O O @ @ @ @ @ @ @ @ & @ @ o @ @ O O O O * * * * * * * # * # * * # # * * ",
"# # $ $ $ $ % % $ O @ . . . O * t t t t 0 0 0 0 0 0 0 0 0 0 2 2 y 0 + n x.x.l.<.7.8.8.8.8.8.8.6.4.4.4.4.4.4.4.4.6.6.8.8.7.7.4.4.4.4.4.4.4.4.4.4.4.4.4.4.4.4.4.4.6.7.F.F.I.8.j 2 t t t t t t t t t t t t w w w t t t t t u u t t r # . . & & * * * < 2 2 2 * < * * * * * * * * * 2 2 2 2 < 2 2 2 2 2 2 2 $ O O 2 y t t t a a a a a a a a a t t t y y y t y y y y y y y y 2 * $ $ $ % 9 p p p p p j y + [ F.H.H.F.G.8.G.I.4.4.4.4.<.<.2.2.2.2.4.4.4.4.4.4.7.6.4.>.4.4.4.4.4.4.4.4.4.4.4.4.4.4.4.8.6.6.x.6.7.F.B O O m.AX7 KXHXU.$ 0 t t t 0 0 0 0 0 0 0 0 t 0 0 0 0 0 0 0 0 0 0 0 0 0 0 9 $ O . . $ $ $ # # # # # $ $ $ $ $ $ % % $ $ $ $ $ $ % $ $ $ $ $ O O O O . . O r r r 0 0 0 0 0 0 0 0 0 0 0 0 0 0 0 0 0 0 0 0 0 0 0 0 0 0 r + O V F.F.6.4.F.7.7.7.4.5.1.1.<.4.4.4.4.4.4.4.4.4.4.4.7.7.4.4.4.4.4.4.4.4.4.4.4.4.4.4.4.4.4.4.6.6.6.6.F.8.m + 3 r r r t t t t t t t t r 9 * O O . . @ & & & & @ @ @ @ @ @ @ @ @ @ @ @ @ @ @ @ & @ @ @ @ @ @ @ @ @ @ O * * 2 2 2 2 2 2 2 2 2 2 2 2 2 2 2 2 * * ",
"# # $ $ $ $ % % $ $ & @ . O O 9 0 0 0 0 0 0 0 0 0 0 0 0 0 0 0 0 1 1 4  .1.+.O.) <.@.<.@.5.5.5.5.5.5.5.5.1.<.2.2.2.2.5.5.4.4.5.6.6.6.6.6.2.2.2.2.<.<.@.<.<.<.<.<.O.<.<.<.@.F.4., 0 0 3 3 t t t 0 w w w w w w w w t t t t u u t t p * @ . & & * 2 < < 2 2 * * < < * * * * * * * 2 2 2 2 2 < < 2 2 2 2 2 2 $ + $ 2 a a a a a a g g g g g a a t a a t a a a a a a a t y t t t 2 # O $ * r p p p p t t t + | <.<.O.|  . .>.>.<.<.2.2.2.2.2.2.2.2.6.6.6.6.6.6.6.6.6.6.6.6.6.6.6.6.5.5.<.<.@.@.@.@.@.<.+.+.<.@.<.8.4.+ # * ZXv ZXLXAXO 9 0 0 0 0 0 0 0 0 0 0 0 w 0 0 w 0 0 0 0 0 0 0 0 0 0 0 0 * O . . $ $ $ $ $ $ $ $ $ $ $ $ $ $ % $ $ $ $ $ $ $ % % $ $ $ $ $ $ $ $ . O # r 0 0 0 0 0 0 0 0 0 0 0 0 0 0 0 0 0 0 0 0 0 0 0 0 0 0 0 0 j 9 1  .<.@.| | <. .@.@.1.1.1.1.2.2.5.5.5.5.5.5.5.5.5.5.6.6.6.6.6.6.6.6.5.5.4.4.<.<.<.<.1.1.1.<.<.<.<.<.6.4.3.1 3 t t 0 t t t w w w w w a t < O O . O @ & & & & @ @ @ @ @ @ @ @ @ @ @ @ @ @ @ @ & & @ @ @ @ @ @ @ @ O O * * 2 2 2 2 2 2 2 2 2 2 2 < 2 2 2 2 * 2 ",
"# # $ # $ $ $ % % % $ # O O * t 0 0 0 0 0 0 0 0 0 0 0 0 0 0 0 0 t 4 + ~  .O.O.O./ ^ ^ ~ | | ^ ^ ~ ^ ~ ~ { { { { / | / | | | | O./ / / / O.O.O.O./ ^ ^ ^ | | | O.^ ) ` / ^  .[ + 0 0 3 3 t t 0 0 w w w w w w w w 0 0 t t u u u t j r @ O & # < < < < 2 2 * * * < 2 < 2 2 < 2 * * 2 2 * * * 2 2 2 2 2 2 2 * $ * r a g g g g g g g g a a a t t t y y t t a a t a t t t a a a t * O % 2 t y t t t t r 0 + ..| / / / ^ ~ ^ ^ / / / / ^ ^ ^ ^ ^ ^ ^ ^ ^ ^ / / / / / / / / ` ` ` ` ` O.~ ~ ~ ~ | | | O.) ) O.^ [ ....O O . }.}.U.LXUXd < 0 0 0 0 0 0 0 0 0 0 0 w 0 0 0 0 0 0 0 0 0 0 0 w 0 0 0 9 O   . $ $ $ % % % % % $ $ $ $ $ $ $ $ $ $ $ $ $ $ $ $ $ $ $ $ % $ $ $ . & ; r 0 0 0 0 0 0 0 0 0 0 0 0 0 0 0 0 0 0 0 0 0 0 0 0 0 0 0 0 u 9 + m  .| | / [ [ [ | | / / / / / ^ ^ ^ ^ ^ ^ / ^ / / ^ ^ ^ / / / / / { { | { / / / / / / / / / / / / | | ..+ 3 0 0 0 t w w w w w w w t t 3 + O O @ @ & & & & & @ @ @ @ @ @ @ @ @ @ @ & & & & & & @ @ @ @ @ @ @ @ @ @ * * 2 2 2 2 2 2 2 2 2 2 * * * * * * * * ",
"# # # # $ $ $ % % % % $ O O 9 0 0 0 0 0 0 0 0 0 0 0 0 0 0 0 0 0 t 1 O k k k ~ [ ~ ~ ~ ~ [ [ | | | {  . .| | | { | { { { @. .^ ~ { / { { { { O.| | | | | | | | | ^ / | | | ..0 + 0 r t t 0 0 0 0 t w w w w t t t 0 0 t t u u u t g p * O # * < < < < < < * * 2 < 2 2 < 2 < < * * 2 2 * * * * * * 2 2 2 2 * $ * t a g g g g g g a a a a a t t t y y t t t t t t t t t a a g t * O < 3 t t t t t t i r O n n n ~ ~ | [ [ ^ ^ / / / ` ` | | | | | | | | | | <.O.| ^ | | | | / / / ^ { { [ [ [ { { | O.O.O.|  .B 0 O O O p ZXV FXPX7X, 2 2 2 0 0 0 0 0 0 0 0 0 0 0 0 0 0 0 0 0 0 0 0 w w 0 0 9 # O   $ $ $ % % % % % $ $ $ $ $ $ $ $ $ $ $ $ $ $ $ $ $ $ $ $ % % $ $ . # r 9 0 0 0 0 0 0 0 0 0 0 0 0 0 0 0 0 0 0 0 0 0 0 0 0 0 0 0 0 i r + g n ~ ~ ~ n [ [ ..[ | | | | | | | | |  . .| |  . .@.| ^ ( { { { { { { { { | | | | | | | | | | | | | [ w O 3 t t 0 t w w w w w w w 0 a 0 % O O @ @ & & & & & @ @ @ @ @ @ @ & @ @ @ @ & & & & @ @ @ @ @ @ @ @ @ @ @ * * 2 2 2 2 2 2 2 2 2 * * * * * * * * * ",
"% % % % $ % $ % % % $ # . . 9 0 0 0 t t 0 0 0 0 0 0 0 0 0 0 0 0 9 $ $ 9 i p r r j g g g j j j g j h h j k n n k k k k k j j k k k k k k x x x n n n n n n n n k k k k h j t < + * * 2 t t t w 0 t t t t t t t t t t t t t t t t g t * O # * * 2 * * 2 2 < < * * 2 2 * 2 2 2 2 2 2 2 2 2 2 2 2 2 2 2 * * * O 2 t a a a a a a a a a a a a a t t t t a a a a t t a t t a a a r * O + t g a a a a t r * $ * u i i u g g g g g g j j j j k j k k k k k k k k k k k k k k k k k k k k B B B B B B B B n m m g m g 9 $ O @ . |.|.dXKXFX7 4 4 j 3 t 0 0 0 3 3 3 3 0 0 0 0 0 0 0 0 0 0 0 w w w 0 0 $     # % $ % % % % % % % $ $ $ $ % % % % % $ % % % % $ $ % % % % $ $   . 9 0 0 0 0 0 0 0 0 0 0 0 0 0 0 0 0 0 0 0 0 0 0 0 0 0 0 0 0 9 2 # * 2 u u a y y y g g g g j h j j m m m m m m j j m j j j k k n n n n n n n n n n n n n n B B n n m j n u 2 O < 5 # r 0 t a t t t w w 0 a 0 $ O @ & & & & & & & & & & & & & & & & & & & & & & & & & & & & & & & @ @ & * * * 2 2 2 9 9 2 2 2 * * * * * * * * * ",
"% % % % $ % % % $ $ $ #   . 9 0 0 0 0 0 0 0 0 t 0 0 0 0 0 a 2 + + O O + 2 % % % % % % + + + + + + + O O + + + + + + + + + + + + + + + + + + , + + + + + + + + + + + < 2 1 1 + + . * + < t t 0 t t t t t t t t t t t t t t t t t g t * . $ * * 2 * * 2 2 < * * * 2 2 * * 2 2 2 2 2 2 2 2 9 9 9 9 2 2 * * # O < t a a a a a a a a a a a a a a a a a a a a t a a a t a a a a r * O + 0 g t a j 0 % % O O O * * # * , 1 , + % + + + + + + + + + + + + + + + , , 1 , , + + + + + + + % % + % % % % % % % 9 2 1 1 , % O $   = ZX9XGXPX7X+ < 3 t t t t t t t t t 0 0 0 0 0 0 0 0 0 0 0 w w 0 0 0 $     # % $ % % % % % % % % $ % $ % % % % % $ % % % % $ $ % % % % $ $   . 9 0 0 0 0 0 0 0 0 0 0 0 0 0 0 0 0 0 0 0 0 0 0 0 0 0 0 g 0 + + + + + 4 4 4 4 1 1 1 1 + + + + + + + + + + + + + + + + + , 1 1 + + + + , , , + + + + + % % % + + + % 1 % % + O O + + 4 3 0 a t t t t w 0 a 0 $ O @ & & & & & & & & & & & & & & & & & & & & & & & & & & & & & & & @ @ $ * * * 2 2 2 9 9 2 2 2 * 2 2 2 2 * * 2 2 ",
"% % % % % % % % $ $ $ #     9 0 0 0 0 0 0 0 t t 0 0 0 0 g 3 4  .7.H.H.x.6.6.5.5.@.@.@.@. . .| | | | { { | | | | { { { { [ [ [ [ D D D D D D D A D k k k k k k k ~ {  .@.x.x.H.H.H.T. .4 2 t t t t w w w w t t t 0 0 t t t t t t g r & . $ * * * * * 2 2 < < * * 2 * * * * 2 2 2 2 2 9 9 9 9 9 9 2 2 * * # O < t a a a a a a a a a a a a a a a a a a a a a a t a t 0 w w a r * O + a g t a 2 4 ..R.E.J.H.<.<.4.4.O.@.@.@. . .| | | | { { { { | | | | | | [ { { { k k k k k k k k h h k k h h h h | | <.>.H.H.H.H.~.T. .O m.ZXJXGXKXCX6 3 t 9 9 9 0 0 0 0 0 0 0 0 0 0 0 0 0 0 0 0 0 w 0 0 0 $     # % $ % % % % % % % $ $ $ $ % % % % $ $ % % % % $ $ % % % % $ $ . . 9 0 0 0 0 0 0 0 0 0 0 0 0 0 0 0 0 0 0 0 0 0 0 0 0 0 0 4 1 [ H.T.T.J.5.5.5.5.@. .@.@.| | | | | | | | | | | | | | | | ~ [ | | h h h h A A k k h h h h k k k k | | | >.7.F.H.Y.x.H. ., 4 3 0 t t t t w 0 a 0 $ O @ & & & & & & & & & & & & & & & & & & & & & & & & & & & & & & & @ @ & * * 2 9 2 2 2 2 * * * * 2 2 2 * * 2 2 2 ",
"% % % % % % $ $ $ $ $ #     9 0 0 0 0 0 0 0 t 0 0 0 0 0 j 3 4 F.J.~.~.L.).!.L.L.!.!.!.!.).).).).~.~.~.~.'.'.'.'.'.'.'.'.(.'.'.(.'.'.`.`.4X4X4X4X4X`.`.`.4X`.4X`.'.'.^.~.`.'.'.~.`.'.~.w 2 2 t t w w w w w w w t t t t t t t t t u r # . $ * * 2 * * < < < < * * 2 2 * * * 2 2 2 2 2 2 2 9 9 9 9 2 2 * * # O < t a a a a a a a a a a a a a a a a a a a a a t t a t 0 w w a 0 * O + a g 0 j 3 4 7.T.'.~.J.L.L.!.!.L.!.!.!.!.!.).^.~.~.~.~.~.~.(.(.^.^.~.~.(.'.`.`.`.`.`.`.`.4X`.`.`.`.`.`.`.`.`.`.].`.`.'.'.'.'.~.P.'.W.6 . AXPXGXPXKX7 O + + O + % % % % 2 9 t t 0 0 0 0 0 0 0 0 0 0 0 0 0 $     # % $ % % % % % % % $ $ $ $ % % % % $ $ $ % % % % % % % % % $ $ . . 9 0 0 0 0 0 0 0 0 0 0 0 0 0 0 0 0 0 0 0 0 0 0 0 0 0 k 3 4 F.J.).).L.L.L.J.J.L.!.!.!.!.!.~.~.~.~.'.'.'.'.'.'._.~././.'.'.`.`.`.`.`.`.4X4X4X4X`.].].].].].].].].`.`._.~.'.'.'.^.`.!.l 4 4 3 3 t t t w 0 a 0 $ O @ & & & & & & & & & & & & & & & & & & & & & & & & & & & & & & & @ @ & * * 2 9 2 2 2 2 * * * * 2 2 2 * 2 2 2 2 ",
"% % % % % % % % $ $ $ #     9 0 0 0 0 0 0 0 0 0 0 0 0 0 0 4 3 <.1.a.d.d.d.d.d.a.a.a.a.a.d.d.d.d.g.g.d.d.g.d.d.d.a.a.a.a.a.a.a.a.z.z.z.z.z.z.z.z.k.d.d.d.d.d.d.d.d.d.d.d.d.d.d.d.a.g.E.0 2 0 t t 0 w w w w w w w w w a a a a a u u r & . $ % * 2 2 2 < < 2 2 2 2 * * * 2 * * * * 2 2 2 2 2 2 2 2 2 2 * * * O 2 t a a a a a a a a a a a a a a a a a a a a a t a a t t w w 0 r O O + a a 0 0 4 2 4.2.d.,.+.d.a.a.a.d.a.a.a.a.a.a.a.a.a.a.a.d.d.d.d.a.a.a.a.a.a.a.d.z.z.z.z.z.z.z.z.z.z.z.l.d.d.d.d.d.d.d.d.g.d.d.d.#.d.x.6 . S.PXHXsXS.m.7X7X}.%.sXAX}.|.SX9X5 * i r 0 0 0 0 0 0 0 0 0 0 0 0 $     # $ $ % % % % % * * * * % % % % % % % % % % % % % % % % % % % # .   $ 0 0 w 0 0 0 0 0 0 0 0 0 0 0 0 0 0 0 0 0 0 0 0 0 0 0 4 0 4.d.9.9.0.a.a.a.a.9.9.9.#.d.d.d.d.d.d.d.d.d.d.d.d.g.g.g.g.d.d.d.d.z.z.z.z.h.h.z.z.z.z.z.z.g.d.d.g.d.d.d.d.d.d.g.g.f.a.K.l 4 0 a 0 r r 0 w 0 t 0 $ O @ O & & & $ $ & & & & $ $ & & & & & & & & & & & & & & & & & & & & @ O * * 2 2 2 * * * * * 2 2 * * * * * * * * ",
"% % % % $ % % % $ $ $ #     9 0 0 0 t 0 0 0 0 0 0 0 0 0 a + 4 <.d.a.0.a.a.a.a.0.0.0.a.a.a.a.d.d.d.d.d.d.d.a.a.d.a.a.a.a.0.0.0.0.a.a.a.a.d.d.d.a.a.a.a.f.d.f.d.d.d.d.d.d.a.a.a.f.f.z.<., 9 r t w w w w w w w w w w w a a a a a t u r & . $ % * 2 * * < * 2 2 2 2 * * * 2 * * 2 2 * * * * 2 2 2 2 2 2 * * * O 2 t a a a a a a a a a a a a a a a a a a a a a a a a t t w w 0 r O O + a a 0 g + 4 <.g.d.d.d.a.a.a.a.a.a.a.a.a.a.a.a.a.a.a.a.a.a.a.a.a.a.a.a.a.a.a.a.a.a.a.a.d.d.d.a.d.d.d.d.a.a.a.a.a.a.a.a.d.d.d.a.d.d.@.+ O - }.}.7Xm.KXPXIXKX|.JXJXsX3.{.%.# 5 5 0 0 0 0 0 0 0 0 0 0 w 0 0 $     # % $ % % % % % * * # # % % % % % % % % % % % % % % % % % % % # .   $ 0 0 w 0 0 0 0 0 0 0 0 0 0 0 0 0 0 0 0 0 0 0 0 0 0 a , 2 <.d.0.q.f.q.f.f.q.0.0.a.a.a.a.d.d.d.a.a.a.a.a.a.a.a.a.a.a.a.a.a.a.d.d.d.f.d.d.a.a.a.a.a.a.a.a.a.a.a.a.a.a.a.a.a.a.s.z.1., 4 0 w 0 r r 0 0 0 t 0 $ O @ O & & & $ $ & & @ @ $ $ & & & & & & & & & & & & & & & & & & & $ @ @ * * 2 2 2 * * * * * 2 2 2 2 * * * * * * ",
"% % % % % % % % $ % $ #     9 0 0 0 t t 0 0 0 0 0 0 0 0 t , 4 | #.0.0.d.0.0.0.0.0.0.q.q.q.f.f.f.a.a.a.a.a.a.a.a.q.q.q.q.0.0.0.0.a.a.f.f.f.f.f.f.f.f.f.f.q.q.q.f.q.q.f.f.f.f.f.a.d.g.~ + r t t w w 0 0 0 0 0 w t t t a t t t t t u r & . $ % * * % * < < 2 2 2 2 2 2 2 2 2 2 2 2 * * * * 2 2 2 2 2 2 * * * O 2 t a a a a a a a a a a a a a a a a a a a a a a t a t t w w 0 r O O + a a 0 a + 4 | <.,.d.d.d.d.d.d.a.0.0.0.0.q.0.0.q.q.q.q.q.q.q.q.q.q.q.0.q.q.q.f.f.f.f.f.f.f.d.a.0.0.0.0.0.a.a.a.a.a.a.a.f.f.f.a.d.#.x O . m.JXJXJX{.JXUXSXsXV c r 0 4 2 2 2 j < 0 0 0 0 0 0 0 0 w w w 0 0 $     # $ $ % % % % % # # # # % % % % % % % % % % % % % % * * * * * * .   $ 0 0 w 0 0 0 0 0 0 0 0 0 0 0 0 0 0 0 0 0 0 0 0 0 0 a , 4 | $.9.0.0.0.0.0.0.0.0.0.a.f.f.f.f.q.q.f.f.f.f.f.f.a.a.a.a.f.f.f.f.f.f.f.f.s.s.a.a.f.f.a.a.a.a.0.0.a.a.a.a.a.a.a.a.a.h.{ + 2 t g 0 t r 0 0 0 t 0 $ O @ O & & & & & & & @ @ $ $ $ & & & & & & & & & & & & & & & & & & $ @ @ * * 2 2 2 * * * 2 2 2 2 2 2 2 2 * * * * ",
"% % % % $ % % % $ % % &   . 9 0 0 0 0 0 0 0 0 t t 0 0 0 2 2 2 k F X.$.#.#.#.#.#.d.d.d.d.d.a.a.a.a.a.d.d.a.a.d.a.d.0.0.a.0.0.0.0.a.a.a.a.d.d.d.d.d.d.d.d.0.0.d.d.0.0.d.d.d.d.d.d.,.O.n + r t w w 0 0 0 0 0 0 0 t t t u t t t t t u r & . $ * * * * * * < 2 2 2 * * * * 2 2 2 2 2 * * * * 2 2 2 2 2 2 * * * O 2 t t a a a a a a a a a a a a a a a a a a a a a a t t t t t t r O O + t t t t + 3 h { O.+.,.d.d.d.d.d.d.0.0.0.0.0.0.0.0.0.0.0.0.0.0.0.0.0.0.a.a.a.a.a.a.a.a.d.d.d.d.d.0.0.0.0.d.d.d.d.d.d.d.d.d.a.d.$.X.d + . p FXFXCXc v c * O O t , 0 g 0 a 0 q 0 0 0 0 0 0 0 0 0 w w 0 0 0 $     # $ $ % % % % % % % % % % * % % % % % % % % % % % % * * * * * * .   $ 0 0 w w 0 0 0 0 0 0 0 0 0 0 0 0 0 0 0 0 0 0 0 0 0 9 9 9 n F O.#.+.#.#.0.0.d.d.d.d.d.d.d.d.d.d.a.a.a.a.a.a.a.d.d.d.a.a.a.a.d.d.d.d.d.a.a.a.a.a.d.d.0.0.0.0.a.a.a.a.a.a.a.a.d.O.~ + 2 a g w t r 0 0 0 t 9 $ O O O & & & & & & & & & $ $ & & & & & & & & & & & & & & & & & & & & @ O * * * 2 2 2 * * * 2 2 2 2 2 2 2 2 * * * ",
"+ + + + O + O O # # # O   O # 2 t a a a a a t t t t t t t 1 0 [ ~ A A ~ ~ ~ ~ ~ ^ ^ ^ ^ ^ ^ ^ ^ D D ~ ~ ^ ^ ^ ^ ~ ~ F F ~ F F F ~ ~ ~ ~ ~ ~ / / / / / / ~ ~ ^ ^ ^ ^ ^ ^ ^ ^ ~ ~ ~ ~ n + 0 t w w w w w w w w t t t t t t t 0 0 r r * & . . O # * # * * % % * * * * * * * * 2 1 1 % % * % * * * * * * * * O O # * y t t a 3 0 t t t t t t 0 a a 0 a a a a t t t t t t t t t 2 $ O O % r j p 2 r B D D ~ ~ ~ ~ ~ ~ ~ ~ ~ ~ | { ~ ~ ~ ^ / ^ / / / / ~ ^ | { A ~ ~ A ~ ~ ~ ~ ~ ~ ~ ~ ~ ~ ~ ~ { { { { F F ~ ~ ~ ~ ~ ~ F A j + . @ # 7 # < < < r t 0 t t w w w a a a a a a 0 3 0 0 0 0 0 0 0 3 + O . . $ $ $ $ * # # $ % % % % % % % % % % $ $ $ # & @ $ $ # * * $ + O @   O < 0 w w w 0 0 0 0 0 0 0 0 0 0 0 0 0 3 3 3 t r r r 2 + 2 B D D ~ ~ D D F F ~ ~ ~ ~ F F ~ ~ ~ ~ ~ ^ ~ ~ ~ ~ ~ ~ ~ ~ ~ ~ ~ ~ ~ ~ ^ ^ ) ^ ^ ^ ~ ~ ~ ~ ~ ~ F ~ ~ ~ F D ~ D D D ^ h h + 0 w w a t t t t y 2 $ O . . . . & & & & & & & & @ * * # @ @ @ @ & & & & & & & & & & X & O @ O O # * ; 9 * * * * 9 * * $ 2 1 2 2 2 * * * ",
"$ $ $ $ $ $ $ $ & @ @ .     O O t t t t t t t t t t t t 9 % 2 j j n n k k k k k ~ ~ ~ ~ n k k k k k k k k k k k k k k k k k k k k k k k k k k k k k k k g g h h k h k k k k k k k n j + 0 t t 0 t t t t t 0 t r r r t t t t p p * & @ . . @ & # ; $ $ * # # # # * * * * * * 2 2 * * * * * * * * * * * * . . O O 2 2 2 2 r r 2 2 9 9 9 9 y 9 0 y r r r r 9 i t O $ $ $ $ O O + O O O $ * # O O 9 a a a a 0 w w 0 0 0 0 0 3 , 1 0 B k h ~ k k k k ~ g g k g k k g g g g g a a a a a a a a 3 3 3 3 t a k k f f f k ~ k j O     O @ r t t t 2 2 2 2 t t t t t t t t t t t 0 0 0 0 0 0 0 2 2 O O . O O O O $ $ $ $ $ % % % % % % % % $ % * # # * & & # * * * $ O O O @   . $ 0 0 0 0 0 r t t r r r r r 9 9 9 0 r r r r r r r * $ * j j k k k k k n n D ~ ~ ~ k k k k k k f k f f k k k k j j j j j j g g s s h h g g j j j k j k k k k k k k k k n n [ k j + 3 0 0 0 0 0 9 r 5 * @ O . . . O O O O @ @ @ @ @ * @ @ & @ @ @ @ $ & & & & & & & $ $ $ . @ O O O @ O O & * * * * * * # # % 1 % $ # # # # ",
"@ @ @ @ @ @ @ @ . .         . . O + + + + + + O O O O O O . . O O O O . O O O O * * * * % % % $ $ $ O O O O O O O O O O . . . . . . O O O O O O . . . . O O O O O O $ $ $ % % % + + O O O O O O O O O O O O O O O O O O O O O O O O O . . @ O O . & & . @ @ @ . @ @ @ @ @ @ O O O O O . . . . . . . . .     . . O O O O O O O O .       # 2 = @ # # # # = # O O O O O O O O O O O . . . O . . O . . . . O O O O O O O O + O O O O * # O O O O O O * $ O O O O O . . . . . . . . . . . . . . . . O O O O # # # # 3 < O .       . @ O O O $ O $ $ O . . . . . . . . O O O O O O O O O O . .       . . . O O O O O O O $ O O O O O O @ & & . . . . . . . . @ O .   . .   O * 2 1 1 * # # # O O O O O O O O O O O O . . . . @ .   . O O O O O O O O % % % % % % % % # @ O . O O O O . . . . . . O O . O O O O O O O O O O O O + + + + + # # $ $ * * * * $   O O O O O O O O       . . O O O O O O O @ @ @ @ & . . .   . . .         . .     . . . . . . . . . . . . @ @ @ @ o o & & $ O O O @ @ @ @ ",
". . . . . . . . . . . . @ @ O O + + + + + + + + + + + $ $ + + $ O . . @   . . . . . O O O O O O . . . . . . O O O O O O O O O O O O O O O O O O O O O O . . . .         . O O O * * % * < 2 2 2 2 2 2 2 2 2 2 2 2 2 * * * * * * + + $ $ $ $ O O O .   .         . . . . O O O O O O O O O O O O O O O O O O O O $ $ $ $ 2 9 t y p p p p O . . O . . O O . O i 3.8.8.8.8.3.3.3.>...V V B V V V V V V V V ........3.3.3.3.>.8.>.j O .     . . . . . O O O i r r i i i i i j j j j B B B B V V V V d y 5 2 $ $ % % % + O   .           . . O O O O . .           . . O O $ r r r r r r r r r r * * 2 2 9 9 + + + O . . . . . . . . . . . . @ @ . O O O O O O O . .   O . O O O O O O O O O O O O O O O O O . . . .         . O O * $ $ $ $ $ $ # # 5 2 5 5 y y y p y r = # O O O O .   . . O O . .                 . . O O O O O O O O O . O O . . . O .   . O O O O O O O . O O O O O O O O O O . . . . .   @ & O $ $ $ $ $ $ $ $ $ $ $ $ $ $ $ @ O O O O O . . . .           @ @ . O O . . . . . ",
"+ 2 j B B n n n  .>.3.8.8.8.8.7.F.F.F.F.F.F.F.F.H.F.F.F.F.Y.Y.F.8...r   . . .   .   . O 0 3 t k h k k n  .>.4.6.7.7.7.7.7.7.7.7.7.7.7.7.Y.Y.Y.H.H.H.F.G...* O .     . . O . 9  .H.H.H.H.H.Y.Y.Y.H.H.H.H.H.H.H.H.Y.Y.Y.Y.Y.Y.Y.Y.H.H.Y.Y.Y.Y.H.F...*   @ . . . . @ O p 3.8.G.H.F.8.8.8.8.4.4.4.4.4.4.4.4.4.<.4.>.7.7.7.7.Y.Y.Y.Y.R.R.R.R...* O O O O O O . B I.W.H.Y.E.E.E.E.E.Y.R.R.Q.Q.Q.Q.Q.W.E.E.E.E.T.T.T.T.R.R.R.R.R.R.R.R. .O . .   o . . O 2  .I.R.Q.Q.R.E.E.E.E.R.R.R.E.E.E.E.E.E.E.E.E.E.E.E.R.7.7.7.x.H.x.4...# .   o     @   O . + . O O O O * 5 d B 6.6.H.H.T.T.T.R.Y.Y.Y.R.R.R.Y.Y.Y.Y.Y.R.R.H.<.a O . .           O O B 8.8.8.G.I.8.8.4.>.4.>. . .>. ...[  . . . .4.4.4.4.7.7.7.7.8.8.8.V # . . . @   O O y >.8.F.H.H.H.H.H.x.x.7.R.R.R.R.R.R.R.R.R.R.R.R.F.7.>...n B B B k y 1 O . .     o . O . r j B B B n B B B B B B .... . . . . . . . . . .3.4.8.8.7.7.G.G.7.>.n O . O . . .     # V 8.I.R.x.x.x.x.F.H.F.F.F.H.7.F.F.F.F.F.8.8.8.8.>.>. ...B B B B j 2 O   @ . . O   . @ . ",
"H.R.E.W.W.W.E.E.T.T.E.W.T.T.E.E.T.T.T.T.H.H.T.T.W.W.W.W.T.W.W.R.R.W.8.r O O .   . O i 8.R.W./.T.H.H.H.H.6.6.6.6.x.x.l.l.H.H.H.H.H.H.H.H.x.x.x.x.,.2.H.T.R.3.5     . . . O r 7.R.T.T.H.H.T.T.T.T.T.T.T.T.T.T.T.H.H.H.H.H.T.T.T.T.T.T.T.W.W.W.T.T.W.G.r   . .   . O B G.W.W.T.T.T.T.T.T.T.H.H.H.H.W.W.W.W.W.T.W.T.T.T.T.T.T.T.T.T.T.T.T.R.Q. .+ O O O O O < Y.R.H.W.T.H.H.J.H.H.H.x.F.H.F.F.H.H.H.H.K.K.K.K.K.K.K.H.H.H.H.T.T.T.T.R.j .   .   . . 4 <.W.E.Y.H.H.H.H.H.H.H.H.H.H.H.H.H.H.H.H.H.H.H.T.H.H.H.H.H.J.J.J.l.x.H.3.i .       .   . 2 ..>.8.8.8.8.7.F.R.W.H.J.L.L.L.L.L.T.T.Y.Y.T.T.T.H.T.T.T.T.W.T.W.J.8.r .   .       . O m F.W.R.R.R.Y.W.W.E.Y.R.R.E.E.E.T.T.T.T.T.T.T.T.T.T.T.T.T.T.T.R.W.Y.Q...O . . O . O j G.W.Y.T.H.J.J.J.H.H.H.H.T.T.T.T.T.T.T.T.H.T.T.~.W.T.T.T.T.T.R.R.W.E.6.[ .   @ . o   . j Y.E.W.Q.T.T.T.T.T.T.Y.Y.W.W.W.W.E.E.W.W.W.W.W.E.R.R.E.W.T.T.T.E.W.W.I.B O O # . .   * 3.Q.Y.W.x.c.c.c.c.c.H.H.H.H.H.H.H.H.H.H.H.W.W.W.W.T.T.T.T.Y.R.R.R.Q.7.n % O @ O . O O O i ",
"W.E.T.H.H.H.H.T.T.T.J.H.T.T.H.H.K.K.K.K.l.l.K.H.H.H.H.H.H.T.T.H.H.R.Q.3.O O   . O B I.W.H.H.H.2.O.O.| / O.| ~ ~ { { { { { { | | | | | | | | | O.O.O.O. .Y.W.>.O     . O 2 >.W.W.T.T.H.T.T.T.T.T.T.T.T.T.T.T.T.T.E.E.E.E.R.Y.T.T.T.T.T.T.T.T.H.H.R.Q.3.* .   . . j 7.E.F.T.T.T.T.H.H.H.H.K.H.H.H.2.2.2.2.g.2.g.2.<.<.<.<.2.2.6.l.l.l.6.6.W.I.j O . . . $ 3.W.H.H.2.2.<.+.+.+.+.O.| | | | | | | | O./ / / O.O.O.O.O.O.O.O.<.<.<.<.H.>.#   o   @ O >.T.T.2.x.6.2.<.^ ^ ^ ^ ^ ~ ^ ~ ^ ^ ^ { | | | |  .| | |  . . . . .^ | <.6.>.#   . . . + B Y.W.H.T.T.T.T.T.T.T.T.T.T.J.J.l.l.x.x.<.<.<.2.2.2.2.2.2.5.2.6.6.H.T.R.>.@   @       . u 8.W.R.H.H.T.T.T.T.H.H.H.6.2.<.6.x.x.H.H.H.H.H.J.J.T.L.H.H.H.H.T.H.7.R.I.i     . O < 3.7.7.<.<.O.O.O.O.@.@.@.@.+.+.+.+.+.+.+.+.O.+.<.1.5.6.l.l.<.<.<.<.<.x.T.W.j O @   .   i 8.H.H.6.5.@.@.O.O.O.O.O.O.2.2.2.2.H.H.H.H.H.H.H.H.Y.Y.H.H.x.H.H.H.H.H.R.I.y . O . O O B R.H.6.2.@.{ { { { { { { { { { { { |  .| | 2.1.1.1.l.l.K.H.H.Y.E.W.E.W.H...O @ O O O + g Q.",
"x.x.x.l.H.K.K.K.H.K.l.l.6.2.<.O./ / ` ` ` +.<.2.K.K.K.K.L.~.!.T.H.T.E.R.u . . O t 7._.H.x.<.) ^ / ` O.+.O.| { { O.O.O.O./ / / / / / / / / / O.O.O.O.O.@.<.R.Y.j .   . O ..Y.2.<.<.<.O.<.<.<.<.<.<.<.<.<.<.<.<.<.6.6.6.6.6.6.6.6.6.6.l.l.2.2.<.<.<.<.7.k O . . O F.E.W.H.H.H.K.K.2.2.2.2.O.O./ / ` ` / / ` ` ` ) ` O.O.O.` ` ` O.` O.O.| >.H.8.$ .   . y Y.4.<.O./ / O.O.O.O.O.^ O.O.O.O.O.O.O.O.O.O.O.O./ / / / / / / / / / / / / | r . . . . 2 6.1.<.O./ / / / / / / | / / / ^ | | | | { { { { { { { ^ ~ ~ ~ ~ ~ | O.^ |  .2 . . @ . 1 R.E.x.T.T.T.T.T.H.H.l.5.2.<.O.O.O.O.O./ | { { | O.` / / ^ ^ ^ ^ ^ | 5.F.R.t O . . . . O 4.E.6.| / +.2.x.6.5.1.<.| | / / ^ ^ ` O.<.<.<.<.<.<.,.,.O.O.O.O.O.@.7.F.I.3.O   O O j 4. .| A / | | | | { { { / ) ` ` ) ) ) ) ) ) ) ) ) O.O./ / / O.{ { / ^ O.x.H.r O   . # I.E.6.<.O.^ ) ) O.O.O.O.O.` ` ` ` ` O.O.O.O.<.<.<.<.<.@.| | / O.O.O./ O. .4...+ O . O 2 4.6.| O.^ ^ O.O.O.O.O.O.O.O.O.O.{ { { { { / ` ` ` ` ^ ) O.+.O.<.6.x.H.T.W.H.2 O O O O k Y.R.",
"/ / / / / ` ` / / / ` ` ) ) ) / ) ) ) ) ) ) ) ) O.O.O.O.g.g.g.2.<.<.<.<.n + . O 7.H.K.1.{ ) ) ) ` ) ) ) ) ) ) ) ) ) ) ) ) ) ) ) ) ) ) ) ) ) ) ) ) ) { { ~ 6.T.7.O . . +  .@.O.{ { ^ ^ / / / / / | | | | { { { { { { { { { { { { { { O.O.O./ / / / | | ..% . . p 6.6.2.2.+.` / ^ ` ` ` ` ` O.O.O.) ) ) ) ) ) ) ) ) ) ) ) ` ` ` ` O.O.O.O.^ | 5.a . . O k | | | O.{ ) ) ) ) ) ) ) ) ) ) ) ) ) ) ) / / / / ) ) ) ) ) ) ) ) ) ) ) ) ^ { j   . O O k | O.O.O.) ) ) ) ) ) ) { { { { { { { { { { { { { { { { { / / / / / / ^ ^ O.{ ~ *     + 6.T.T.T.T.~.J.x.2.#.O.{ { { { { { ) ) ) ) { { { { ` ` ` ` / / / O.| | | | <.>.O   @ O . t 6.,./ ^ ) ) ) ) ` { / / ) ) ) ) ) ) ) ) ` ` ` ` ` ` ` ` ) ) ) ) O.O.| | 1.6.p . . + k | | O.O.O.{ { { { { { { ) ) ) ) ) ) ) ) ) ) ) ) ) ) ) ) ) ) ) ) ) ) ) ) { @.| O O O t 4.{ { ) ) ) ) ) ) ) ) ) ) ) ) ) ) ) ) ) ) ) ` ` ` / { { { { ) ) ) ) O.O.O.| { 1 . . O a { ^ { { ) ) O.O.X.X.O.O.O.O.) ) ) { { { { ) ` ` ` ` ` ` ` / / / / / ^ O.2.6.>.+ . . , 4.6.O.",
"` ` ` ` ` ` ` / / / ` ` ) ) / / ) ) ) ) ) ) ) ) ) ) ) ) / / / / ) ) ) { ~ + O $ <.+.O.O.) ) ) ) ` ) ) ) ) ) ) ) ) ) ) ) ) ) ) ) ) ) ) ) ) ) ) ) ) ) ) ) ) O.2.H.% . . < @.O.) / ^ ^ ^ / / / / / ` ` ` ` ) ) ) ) ) ) ) ) ) ) ) ) ) ) O.O.O.` ` ` ` ` / | * . . u  .O.O.O.` ) ) ) ) ` ` ` ` O.O.O.) ) ) ) ) ) ) ) ) ) ) ) ` ` ` ` O.O.O.O./ O.<.h O . + k | | O.O.) ) ) ) ) ) ) ) ) ) ) ) ) ) ) ) / / / / ) ) ) ) ) ) ) ) ) ) ) ) ^ | k O . O + ~ | O.O.O.) ) ) ) ) ) ) ) ) ) ) ) ) ) ) ) ) ) ) ) ) O.) ) / / / / / / ) ) / { [ 2   . a H.T.H.H.6.2.<.O.O.{ { { { { { { { ) ) ) ) ) ) ) / ` ` ` ` / ` ` O.O.O.O.O.` | * .   . O k 2.+.) ) ] ] ] ) ` ` ) ) ) ) ) ) ) ) ) ) ` ` ` ` ` ` ` ` ) ) ) ) ) ) ) ) <.4.y . . # ~ O.O.O.O.O.) ) ) ) ) ) ) ) ) ) ) ) ) ) ) ) ) ) ) ) ) ) ) ) ) ) ) ) ) ) ) ) +. .% O O g <.{ ) ) ) ) ) ) ) ) ) ) ) ) ) ) ) ) ) ) ) ) ` ` ` / ) ) ) ) ) ) ) ) ) ) ) ) { 3 O . O j { / { { ) ) O.O.X.X.O.O.O.O.) ) ) ) ) ) ) ) ` ` ` ` ` ` ` ` ` ` ` ` ^ ^ / | | % . . 2 <.+./ ",
"` ` ` ` ` ` ` ` / ` ` ` ) ) / / ) ) ) ) ) ) ) ) ) ) ) ) O.O.` ` ) ) / { ~ + . 5  .^ S / ) ) ) ) ) ) ) / ) ) ) ) ) ) ) ) ) ) ) ) ) ) ) ) ) ) ) ) ) ) ) ) O.^ O.5.5 . O 6 { { / / ^ ^ / / / / / / ) ) ` ` ) ) ) ) ) ) ) ) ` ) ) ) ) ) O.O.O.` ` ` ` ` / | 2 . O j | O.+.+.` ` ) ) ` ` ` ` ` ` O.O.) ) ) ) ) ) ) ) ) ) ) ) / ` ` ` ` O.O.O.) O.O.D O O + n | | O.O.) ) ) ) ) ) ) ) ) ) ) ) ) ) ) ) ) ) ) ) ) ) ) ) ) ) ) ) ) ) ) ) ^  .B + O O 4 [ | O.O.O.) ) ) ) ) ) ) ) ) ) ) ) ) ) ) ) ) ) ) ) ) ) ) ) / / / / / ^ ) ) ) {  .t .   [ H.2.<.O.| / / / / / / O.O.{ { { { ) ) ) ) ) ) / / ` ` ` ` ` / ` O.O.O.O.O./ | r .   . O n <.` ^ ) ) ` ) ) ) { / ) ) ) ) ) ) ) ) ) ` ` ` ` ` ` ` ` ) ) ) ) ) ` ) ) +.@.j . . 2 { O.O.O.O.O.) ) ) ) ) ) ) ) ) ) ) ) ) ) ) ) ) ) ) ) ) ) ) ) ) ) ) ) ) ) ) ) O.{ 2 O O n | { ) ) ) ) ) ) ) ) ) ) ) ) ) ) ) ) ) ) ) ) ` ` ` ` ) ) ) ) ) ) ) ) ) ) ) ) / g O O O k  .O.{ { ) ) O.O.O.O.O.O.O.O.) ) ) ) ) ) ) ) ` ` ` ` ` ` ` ` ` ` ` ` / / ^ ^ | 2     a <.^ ^ ",
"` ` ` ` ` ` ` ` ` ` ` ` ) ) ) ) ) ) ) ) ) ) ) ) ) ) ) ) ` ` ` ` ` ` O.| ~ , . y @.O.) / ) ) ) ) ) ) ) / ) ) ) ) ) ) ) ) ) ) ) ) ) ) ) ) ) ) ) ) ) ) ) ) O.O./  .y O O y { / / / / / / / / / / / ) ) ) ) ) ) ) ) ) ) ) ) ) ) ) ) ) ) O.O.O.` ` ` ` ` / | t . O B | / ` ` ` ` ` ` ` ` ` ` O.O.O.O.) ) ) ) ) ) ) ) ) ) ) ) / ` ` ` ` O.O.O.O.O./ ~ O O + ~ | O.O.O.) ) ) ) ) ) ) ) ) ) ) ) ) ) ) ) ) ) ) ) ) ) ) ) ) ) ) ) ) ) ) ) ^  .[ # . . 3 | | O.O.O.) ) ) ) ) ) ) ) ) ) ) ) ) ) ) ) ) ) ) ) ) ) ) ) / / / / / ^ ) ) ) { | t . O | <.^ ^ ^ ^ O.O.O.O.O.O.O.{ O.| { { ) ) ) ) ) ) / / / / ` ` ` / / O.O.O.O.O.` | t   . . O k O./ ^ ` ` ` ) ) ) { { { ) ) ) ) ) ) ) ) ` ` ` ` ` ` ` ` ) ) ) ) ) ) ) ) O. .d . . 5  .O.O.O.O.O.) ) ) ) ) ) ) ` ) ) ) ) ) ) ) ) ) ) ) ) ) ) ) ) ) ) ) ) ) ) ) ) / { r O + [ ~ / ) ) ) ) ) ) ) ) ) ) ) ) ) ) ) ) ) ) ) ) ` ` ` ` ) ) ) ) ) ) ) ) ) ) ) ) ^ k O O O k O.O.{ { ) ) O.O.O.O.O.O.O.O.) ) ) ) ) ) ) ) / ` ` ` ` ` ` ` / ` ` ` ` O.+.O.~ r     k | ^ / ",
") ) ) ) ) ) ) ) ) ) ) ) ) ) ) ) ) ) ) ) ) ) ) ) ) ) ) ) ) ) ) ) ` ` O.| | 4 O j { O.) ) ) ) ) ) ) ) ) ) ) ) ) ) ) ) ) ) ) ) ) ) ) ) ) ) ) ) ) ) ) ) ) ) O.O.O.| y . O y | { / ) ) ) ) ) ) ) ) ) ) ) ) ) ) ) ) ) ) ) ) ) ) ) ) ) ) ) ) ) ) ) ) ) ) ) ) { y . # B { | ` ` ` ` ` ` ` ` O.O.O.O.O.O.) ) ) ) ) ) ) ) ) ) ) ) / / / / O.O.O.O.O.O./ ~ O . < [ { { ) ) ) ) ) ) ) ) ) ) ) ) ) ) ) ) ) ) ) ) ) ) ) ) ) ) ) ) ) ) ) ) ) ) /  ...%   . j { { ) ) ) ) ) ) ) ) ) ) ) ) ) ) ) ) ) ) ) ) ) ) ) ) ) ) ) ) ) ) ) ) ) ) ) ) { | t . O ~ O.` ` ) ) O.O.O.O.O.O.{ { ` ` ` ) ) ) ) ) ) ) ) ) ) ) ) ) ) ) ) ) O.O.O.O./ | y . . . O [ | O.O.O.) ) ) ) ) { { { { { O.O.) ) ) ) ) ) ) ) ) ) ) ) ) ) ) ) ) ) ) ) +.| B .   5  .O.` ` ` ` ) ) ) ) ) ) ) ) ) ) ) ) ) ) ) ) ) ) ) ) ) ) ) ) ) ) ) ) ) ) ) ) ` O.y O + [ ^ / ) ) ) ) ) ) ) ) ) ) ) ) ) ) ) ) ) ) ) ) ) ) ) ) ) ) ) ) ) ) ) ) ) ) ) ) / h . . + B  .O.{ { ) ) O.O.O.O.O.O.O.O.) ) ) ) ) ) ) ) / / ) ) ) ) ) ) / ) ) ) O.O.O.|  .j   O B ~ / / ",
") ) ) ) ) ) ) ) ) ) ) ) ) ) ) ) ) ) ) ) ) ) ) ) ) ) ) ) ) ) ) ) ` ` O.| [ < O d { O.) ) ) ) ) ) ) ) ) ) ) ) ) ) ) ) ) ) ) ) ) ) ) ) ) ) ) ) ) ) ) ) ) ) O.O.O.| y . O y | { / ) ) ) ) ) ) ) ) ) ) ) ) ) ) ) ) ) ) ) ) ) ) ) ) ) ) ) ) ) ) ) ) ) ) ) ) { y O # j { | ) ) ` ` ` ` ` ` O.O.` ` O.O.) ) ) ) ) ) ) ) ) ) ) ) / / ) / O.O.O.O.O.O./ ~ O . < [ { { ) ) ) ) ) ) ) ) ) ) ) ) ) ) ) ) ) ) ) ) ) ) ) ) ) ) ) ) ) ) ) ) ) ) / | ..%   . j { { ) ) ) ) ) ) ) ) ) ) ) ) ) ) ) ) ) ) ) ) ) ) ) ) ) ) ) ) ) ) ) ) ) ) ) ) { [ 3 . O ~ O.` ` ) ) O.O.O.O.O.O.{ { ` ` ) ) ) ) ) ) ) ) ) ) ) ) ) ) ) ) ) ) O.O.O.O./ | y O . . O [ | O.O.O.) ) ) ) ) { { { { { O.O.) ) ) ) ) ) ) ) ) ) ) ) ) ) ) ) ) ) ) ) O. .j . . 2 | O.` ` ` ` ) ) ) ) ) ) ) ) ) ) ) ) ) ) ) ) ) ) ) ) ) ) ) ) ) ) ) ) ) ) ) ) ) | r O + [ ^ / ) ) ) ) ) ) ) ) ) ) ) ) ) ) ) ) ) ) ) ) ) ) ) ) ) ) ) ) ) ) ) ) ) ) ) ) / h O . + B  .{ { { ^ ) O.O.O.O.O.O.O.O.) ) ) ) ) ) ) ) / / ) ) ) ) ) ) ) ) ) ) O.O.` | | d   O k | / ` ",
") / / ) ) ) ) ) ) ) ) ) ) ) ) ) ) ) ) ) ) ) ) ) ) ) ) ) ) ) ) ) ` ` O.| [ , . y { O.) ) ) ) ) ) ) ) ) ) ) ) ) ) ) ) ) ) ) ) ) ) ) ) ) ) ) ) ) ) ) ) ) ) O.O.O.[ y . O y | { / ) ) ) ) ) ) ) ) ) ) ) ) ) ) ) ) ) ) ) ) ) ) ) ) ) ) ) ) ) ) ) ) ) ) ) / { r O @ y [ { { ) O.O.` ` ` ` O.O.` ` O.O.) ) ) ) ) ) ) ) ) ) ) ) ) ) ) ) O.O.O.O.O.O./ ~ O . < [ { { ) ) ) ) ) ) ) ) ) ) ) ) ) ) ) ) ) ) ) ) ) ) ) ) ) ) ) ) ) ) ) ) ) ) / | { %   . j { { ) ) ) ) ) ) ) ) ) ) ) ) ) ) ) ) ) ) ) ) ) ) ) ) ) ) ) ) ) ) ) ) ) ) ) O.^ ~ , . O ~ O.` ` ) ) O.O.{ O.O.O.O.{ ) ) ) ) ) ) ) ) ) ) ) ) ) ) ) ) ) ) ) ) O.O.O.O./ | a O . . O [ | O.O.O.) / ) ) ) { { O.{ ) / / ) ) ) ) ) ) ) ) ) ) ) ) ) ) ) ) ) ) ) ) )  .j . . 2 [ O.` ` ` ` ) ) ) ) ) ) ) ) ) ) ) ) ) ) ) ) ) ) ) ) ) ) ) ) ) ) ) ) ) ) ) ) O.~ 2 O + ..{ O.) ) ) ) ) ) ) ) ) ) ) ) ) ) ) ) ) ) ) ) ) ) ) ) ) ) ) ) ) ) ) ) ) ) ) ) { g O   + [  .{ { { ) ^ O.O.O.O.O.O.O.O.) ) ) ) ) ) ) ) / ) ) ) ) ) ) ) ) ) ) ) O.O.O.| [ y   . a | / O.",
") / ) ) ) ) ) ) ) ) ) ) ) ) ) ) ) ) ) ) ) ) ) ) ) ) ) ) ) ) ) ) ` ` O.| ~ % . y { O.) ) ) ) ) ) ) ) ) ) ) ) ) ) ) ) ) ) ) ) ) ) ) ) ) ) ) ) ) ) ) ) ) ) O.O.O.[ y . O y | { / ) ) ) ) ) ) ) ) ) ) ) ) ) ) ) ) ) ) ) ) ) ) ) ) ) ) ) ) ) ) ) ) ) ) / / { r O O 2 [ { { { O.O.` ` ` ` O.O.` ` O.O.) ) ) ) ) ) ) ) ) ) ) ) ) ) ) ) O.O.O.O.O.O./ ~ O . < [ { { ) ) ) ) ) ) ) ) ) ) ) ) ) ) ) ) ) ) ) ) ) ) ) ) ) ) ) ) ) ) ) ) ) ) / | { ,   . j { { ) ) ) ) ) ) ) ) ) ) ) ) ) ) ) ) ) ) ) ) ) ) ) ) ) ) ) ) ) ) ) ) ) ) ) O.~ k + . O ~ O.` ` ) ) O.O.{ O.O.O.O.{ ) ) ) ) ) ) ) ) ) ) ) ) ) ) ) ) ) ) ) ) O.O.O.O./ | a O . . O [ | O.O.` / / ) ) ) { { O.{ ) / / ) ) ) ) ) ) ) ) ) ) ) ) ) ) ) ) ) ) ) ) /  .y . . # ~ O./ ` ` ` ) ) ) ) ) ) ) ) ) ) ) ) ) ) ) ) ) ) ) ) ) ) ) ) ) ) ) ) ) ) ) ) O.~ < . + ..^ O.) ) ) ) ) ) ) ) ) ) ) ) ) ) ) ) ) ) ) ) ) ) ) ) ) ) ) ) ) ) ) ) { { ) { | w O   + [  .{ / / / / O.O.O.O.O.O.O.O.) ) ) ) ) ) ) ) / / ) ) ) ) ) ) ) ) ) ) O.O.O.| [ t     0 <.O.+.",
") ) ) ) ) ) ) ) ) ) ) ) ) ) ) ) ) ) ) ) ) ) ) ) ) ) ) ) ) ) ) ) ` ` ` | k % O t | O.) ) ) ) ) ) ) ) ) ) ) ) ) ) ) ) ) ) ) ) ) ) ) ) ) ) ) ) ) ) ) ) ) ) O.O.O.[ j . . 2 ~ { ) ) ) ) ) ) ) ) ) ) ) ) ) ) ) ) / / ) ) ) ) ) ) ) ) ) ) ) ) ) ) ) ) ) ) ) { r O O r ~ | { { ` O.O.` O.O.O.O.O.` O.O.) ) ) ) ) ) ) ) ) ) ) ) ) ) ) ) ` O.O.O.O.) / ~ O . 2 [ { { ) ) ) ) ) ) ) ) ) ) ) ) ) ) ) ) ) ) ) ) ) ) ) ) ) ) ) ) ) ) ) ) ) ) / { { 3   . k | { ) ) ) ) ) ) ) ) ) ) ) ) ) ) ) ) ) ) ) ) ) ) ) ) ) ) ) ) ) ) ) ) ) { { O.~ a % . $ [ O.O.` ` ` O.O.O.O.O.O.O.O.) ) ) ) ) ) ) ) ) ) { { ) ) ) ) ) ) ) ) O.O.O.O./ | j .     $ [ | O.O.O.) ) ) ) ) / ) ) { { { { ) ) ) ) ) ) ) ) ) ) ) ) ) ) ) ) ) ) / ) `  .t . . $ ~ +.O.O.O.O.) ) ) ) ) ) ) ) ) ) ) ) ) ) ) ) ) ) ) ) ) ) ) ) ) ) ) ) ) ) ) ) O.~ < . + [  .O.O.O.O.O.O.O.O.O.) ) ) ) ) ) ) ) ) ) ) ) ) ) ) ) ) ) ) ) ` ` ` / | | / /  .a O . , [  ./ ) ) { { O.O.O.O.) ) O.O.) ) ) ) ) ) ) ) ) ) ) ) ) ) / / ) ) ) ) O.O.O.| n r . . 2 ~ | O.",
") ) ) ) ) ) ) ) ) ) ) ) ) ) ) ) ) ) ) ) ) ) ) ) ) ) ) ) ) ) ) / ` ` ` | k # O t | O.) ) ) ) ) ) ) ) ) ) ) ) ) ) ) ) ) ) ) ) ) ) ) ) ) ) ) ) ) ) ) ) ) ) O.O.O.[ j . . 2 ~ { ) ) ) ) ) ) ) ) ) ) ) ) ) ) ) ) ) / ) ) ) ) ) ) ) ) ) ) ) ) ) ) ) ) ) ) ) { t O O 0 ~ | { { ` ` O.` O.O.O.O.` ` O.O.) ) ) ) ) ) ) ) ) ) ) ) ) ) ) ) ` ` O.O.O.) / ~ O . 2 [ { { X.X.) ) ) ) ) ) ) ) ) ) ) ) ) ) ) ) ) ) ) ) ) ) ) ) ) ) ) ) ) ) ) ) / { { 3   . k | { ) ) ) ) ) ) ) ) ) ) ) ) ) ) ) ) ) ) ) ) ) ) ) ) ) ) ) ) ) ) ) ) ) { { O.~ a #   $ [ O.O.O.O.O.O.O.O.O.O.O.O.O.) ) ) ) ) ) ) ) ) ) { { ) ) ) ) ) ) ) ) O.O.O.O./ | j .     $ [ | ` / / ) ) ) ) ) / / O.{ { { { ) ) ) ) ) ) ) ) ) ) ) ) ) ) ) ) ) ) ) ) ` | t . . $ ~ O.O.O.O.O.) ) ) ) ) ) ) ) ) ) ) ) ) ) ) ) ) ) ) ) ) ) ) ) ) ) ) ) ) ) ) ) O.~ < . + [  .O.O.O.O.O.O.O.O.O.) ) ) ) ) ) ) ) ) ) ) ) ) ) ) ) ) ) ) ) ` ` ` / / / / /  .t O . , [ | / ) ) { { O.O.O.O.O.O.O.O.) ) ) ) ) ) ) ) ) ) ) ) ) ) ) / ) ) ) ) O.O.O.| n r . . 2 [ | O.",
") ) ) ) ) ) ) ) ) ) ) ) ) ) ) ) ) ) ) ) ) ) ) ) ) ) ) ) ) ) / / ` ` ` | k # O t | ) ) ) ) ) ) ) ) ) ) ) ) ) ) ) ) ) ) ) ) ) ) ) ) ) ) ) ) ) ) ) ) ) X.X.O.O.O.[ d . . 3 ~ { ) ) ) ) ) ) ) ) ) ) ) ) ) ) ) ) ) / ) ) ) ) ) ) ) ) ) ) ) ) ) ) ) ) ) ) ) { t O O 0 ~ | { { O.O.O.O.O.O.O.O.O.O.O.O.) ) ) ) ) ) ) ) ) ) ) ) ) ) ) ) O.` O.` O.) / ~ O . 2 [ { { X.X.) ) ) ) ) ) ) ) ) ) ) ) ) ) ) ) ) ) ) ) ) ) ) ) ) ) ) ) ) ) ) ) / O.| 3   O k | { ) ) ) ) ) ) ) ) ) ) ) ) ) ) ) ) ) ) ) ) ) ) ) ) ) ) ) ) ) ) ) ) ) { { O.{ a #   @ [ O.O.O.O.O.O.O.O.O.O.O.O.O.) ) ) ) ) ) ) ) ) ) { { ) ) ) ) ) ) ` ` O.O.O.O./ | j .     $ [ | ` ` ` ) ) ) ) ) / O.O.{ { { { ) ) ) ) ) ) ) ) ) ) ) ) ) ) ) ) ) ) ) ) O.| t . . $ ~ O.O.O.O.O./ ) / / ) ) ) ) ) ) ) ) ) ) ) ) ) ) ) ) ) ) ) ) ) ) ) ) ) ) ) ) O.~ < . + [  .O.O.O.O.O.` ` O.O.) ) ) ) ) ) ) ) ) ) ) ) ) ) ) ) ) ) ) ) ` ` ` / / / / /  .t O . , [ | / ) ) { { O.O.O.O.O.O.O.O.) ) ) ) ) ) ) ) ) ) ) ) ) ) / / ) ) ) ) O.O.O.| n r . . 2 [ | O.",
") ) ) ) ) ) ) ) ) ) ) ) ) ) ) ) ) ) ) ) ) ) ) ) ) ) ) ) ) ) / / ) ) ) { k # O t | ) ) ) ) ) ) ) ) ) ) ) ) ) ) ) ) ) ) ) ) ) ) ) ) ) ) ) ) ) ) ) ) ) X.X.O.O.O.[ d . . 2 ~ { ) ) ) ) ) ) ) ) ) ) ) ) ) ) ) ) ) ) ) ) ) ) ) ) ) ) ) ) ) ) ) ) ) ) ) ) ) { t O O 0 ~ | { { O.O.O.O.O.O.O.` O.O.O.O.) ) ) ) ) ) ) ) ) ) ) ) ) ) ) ) O.O.O.O.O.) / ~ O . 2 [ { ) ) ) ) ) ) ) ) ) ) ) ) ) ) ) ) ) ) ) ) ) ) ) ) ) ) ) ) ) ) ) ) ) ) ) / O.| 3   O k | { ) ) ) ) ) ) ) ) ) ) ) ) ) ) ) ) ) ) ) ) ) ) ) ) ) ) ) ) ) ) ) ) ) { { O.{ a #   @ [ { O.O.O.O.O.O.O.O.O.O.O.O.) ) ) ) ) ) ) ) ) ) { { ) ) ) ) ) ) ` ` O.O.O.O./ | j .     $ [ / ` ` ` ) ) ) ) / { O.O.O.| { { ) ) ) ) ) ) ) ) ) ) ) ) ) ) ) ) ) ) ) ) O.| r . . $ ~ O.O.O.O.O./ / / / ) ) ) ) ) ) ) ) ) ) ) ) ) ) ) ) ) ) ) ) ) ) ) ) ) ) ) ) O.~ < . + [  .O.O.O.O.O.` ` ` ` ) ) ) ) ) ) ) ) ) ) ) ) ) ) ) ) ) ) ) ) ` ` ` / / / / / | t . . , [ O.) ) ) { { O.O.O.O.O.O.O.O.) ) ) ) ) ) ) ) ) ) ) ) ) ) / / ) ) ) ) O.O.O.| k r   . < [ | O.",
") ) ) ) ) ) ) ) ) ) ) ) ) ) ) ) ) ) ) ) ) ) ) ) ) ) ) ) ` ` ` / ` ` ` | t + O 2 | ) ) ) ) ) ) ) ) ) ) ) ) ) ) ) ) ) ) ) ) ) ) ) ) ) ) ) ) ) ) ) ) ) ) ) O.O.O.[ j . . 2 ~ / ) ) ) ) ) ) ) ) ) ) ) ) ) ) ` ` ) ) ) ) ) ) ) ) ) ) ) ) ) ) ) ) ) ) ) ) ) { g O O 9 ~ ^ { { O.O.O.O.` ` ` ` O.O.O.O.) ) ) ) ) ) ) ) ) ) ) ) ) ) ) ) O.O.O.O.O.) / ~ O . g [ { ) ) ) ) ) ) ) ) ) ) ) ) ) ) ) ) ) ) ) ) ) ) ) ) ) ) ) ) ) ) ) ) ) ) ) ) /  .a . O k | { ) ) ) ) ) ) ) ) ) ) ) ) ) ) ) ) ) ) ) ) ) ) ) ) ) ) ) ) ) ) ) ) ) { { X.F t O   # | { ` ` ) ) O.O.O.O.O.O.O.O.) ) ) ) ) ) ) ) ) ` / / ` ` ` ` ) ) ) ) ` ` ` ` / | j .     % [ | ` ` ` ) ) ) ) ) ) ) ) ) ) ) ) ) ) ) ) ) ) ) ) ) ) ) ) ) ) ) ) ) ) ) ) O.| r . . $ ~ O.O.O.` ` ` ` ` / ) ) ) ) ) ) ) ) ) ) ) ) ) ) ) ) ) ) ) ) ) ) ) ) ) ) / / ` A < O O B { / ) ) ) ) ` O.O.O.) ) ) ) ) ) ) ) ) ) ) ) ) ) ) ) ) ) ) ) / ` ` / | | / / | t . . 2 | O./ ` O.O.O.` ` O.O.O.O.) ) ) ) ) ) ) ) ) ) ) ) ) ) ` ` ` / ) ) ) ) O.O.` | k $   . 2 n ^ / ",
") ) ) ) ) ) ) ) ) ) ) ) ) ) ) ) ) ) ) ) ) ) ) ) ) ) ) ) ` ` ` / ) ) ) / t + O 4 { ) ) ) ) ) ) ) ) ) ) ) ) ) ) ) ) ) ) ) ) ) ) ) ) ) ) ) ) ) ) ) ) ) ) ) O.O.O.[ j . . 2 ~ / ) ) ) ) ) ) ) ) ) ) ) ) ) ) ` ` ) ) ) ) ) ) ) ) ) ) ) ) ) ) ) ) ) ) ) ) ) { g O O 9 k ^ { { O.O.O.O.O.O.` ` O.O.O.O.) ) ) ) ) ) ) ) ) ) ) ) ) ) ) ) O.O.O.O.O./ / ~ O . g [ { ) ) ) ) ) ) ) ) ) ) ) ) ) ) ) ) ) ) ) ) ) ) ) ) ) ) ) ) ) ) ) ) ) ) ) ) /  .a . O k | { ) ) ) ) ) ) ) ) ) ) ) ) ) ) ) ) ) ) ) ) ) ) ) ) ) ) ) ) ) ) ) ) ) { { X.F t O   # | / ` ` ) ) O.O.O.O.O.O.O.O.) ) ) ) ) ) ) ) ` ` / / ` ` ` ` ) ) ) ) ` ` ` ` / O.j .     % [ | ` ` ` ) ) ) ) ) ) ) ) ) ) ) ) ) ) ) ) ) ) ) ) ) ) ) ) ) ) ) ) ) ) ) ) O.{ r . . $ ~ O.O.O.` ` ` ` ` / ) ) ) ) ) ) ) ) ) ) ) ) ) ) ) ) ) ) ) ) ) ) ) ) ) ) ) ) ` A < O O [ { / ) ) ) ) O.O.O.O.) ) ) ) ) ) ) ) ) ) ) ) ) ) ) ) ) ) ) ) ` ` ` / | | / / | t . . 2 | O./ ` O.O.O.` O.O.O.` O.` ) ) ) ) ) ) ) ) ) ) ) ) ) ` ` ` / ) ) ) ) O.O.` | k $   . 2 n ^ ` ",
") ) ) ) ) ) ) ) ) ) ) ) ) ) ) ) ) ) ) ) ) ) ) ) ) ) ) ) ` ` ` ` ` ` ) ^ t $ O 4 { ) ) ) ) ) ) ) ) ) ) ) ) ) ) ) ) ) ) ) ) ) ) ) ) ) ) ) ) ) ) ) ) ) ) ) O.O.O.[ j . . 2 ~ / ) ) ) ) ) ) ) ) ) ) ) ) ) ) ` ` ) ) ) ) ) ) ) ) ) ) ) ) ) ) ) ) ) ) ) ) ) { g O O 9 k { { { | | O.O.O.O.O.O.O.O.O.O.) ) ) ) ) ) ) ) ) ) ) ) ) ) ) ) ) O.O.O.O.) / ~ O . g | { ) ) ) ) ) ) ) ) ) ) ) ) ) ) ) ) ) ) ) ) ) ) ) ) ) ) ) ) ) ) ) ) ) ) ) ) /  .a . O k | { ) ) ) ) ) ) ) ) ) ) ) ) ) ) ) ) ) ) ) ) ) ) ) ) ) ) ) ) ) ) ) ) ) { { X.F 6 O   # | / ` ` ) ) O.O.O.O.O.O.O.O.) ) ) ) ) ) ) ) / / / / ` ` ` ` ) ) ) ) ` ` ` ` / | j . . . % [ | ` ` ` ) ) ) ) ) ) ) ) ) ) ) ) ) ) ) ) ) ) ) ) ) ) ) ) ) ) ) ) ) ) ) ) O.{ r .   $ ~ O.O.O.` O.` ` ` ` ) ) ) ) ) ) ) ) ) ) ) ) ) ) ) ) ) ) ) ) ) ) ) ) ) ) / ) ` A < O O [ { / ) ) ) ) O.O.O.O.) ) ) ) ) ) ) ) ) ) ) ) ) ) ) ) ) ) ) ) ` / ` / | | / / | t . . 2 | O./ ` O.O.O.` O.O.O.O.O.` O.) ) ) ) ) ) ) ) ) ) ) ) ` ` ` ` ) ) ) ) O.O.` | k $   . * n ^ ` ",
") ) ) ) ) ) ) ) ) ) ) ) ) ) ) ) ) ) ) ) ) ) ) ) ) ) ) ) ` ` ` ` ` ` / { a $ O < { { { { { ) ) ) ) ) ) ) ) ) ) ) ) ) ) ) ) ) ) ) ) ) ) ) ) ) ) ) ) ) ) ) O.O.O.| j O . 2 ~ / { { ) ) ) ) ) ) ) ) ) ) ) ) ` ` ) ) ) ) ) ) ) ) ) ) ) ) ) ) ) ) ) ) ) ) ) { g O O 9 k { | | O.| O.O.O.O.O.O.O.O.O.O.) ) ) ) ) ) ) ) ) ) ) ) ) ) ) ) O.O.O.O.O.{ / ~ O . g | { ) ) ) ) ) ) ) ) ) ) ) ) ) ) ) ) ) ) ) ) ) ) ) ) ) ) ) ) ) ) ) ) ) ) ) ) {  .a . O k | { ) ) ` ) ) ) ) ) ) ) ) ) ) ) ) ) ) ) ) ) ) ) ) ) ) ) ) ) ) ) ) ) ) O.{ X.F 6 O   # | / ` ` ) ) O.O.O.O.O.O.O.O.) ) ) ) ) ) ) ) / / / / / / ` ` ) ) ) ) O.O.O.O./ | j . . . % [ | ` ` ` ) ) ) ) ) ) ) ) ) ) ) ) ) ) ) ) ) ) ) ) ) ) ) ) ) ) ) ) ) ) ) ` O.{ 9 O . % ~ O.O.O.O.O.` ` ` ` ) ) ) ) ) ) ) ) ) ) ) ) ) ) ) ) ) ) ) ) ) ) ) ) ) ) ) ) O.k < O O B { / ) ) ) ) O.O.O.O.) ) ) ) ) ) ) ) ) { { { { ) ) ) ) ) ) ) ` / / / | / / / | t . . 2 | O./ ` O.O.| O.O.O.O.O.O.O.O.) ) ) ) ) ) ) ) ) ) ) ) ` ` ` ` ) ) ` ` O.` O.| k $ . . 1 n ^ / ",
"{ { { { { { { ) ` ` ` ` ) ) ) ` ` ` ` ` ` ` ` ` O.O.O.O.O.O.O.O./ / | | a + O < ~ | { ^ { { { { { { O.{ { { { { ) ) ) ) { { { { O.{ { { { { { { { O.{ { O.O./ [ 2 O . < h | @.| / ` ) ) ` / / ` ` ` ` / ` ` ` ` ` ` ) ) ) ) ) ) ) ) ) ) ` ` ) { { { | [ 2 O O 9 h ^ | | | O.O.O.O.O.O.O.O.O.O.O.O.O.O.O.O.O.O.O.O.O.O.O.O.O.O.O.O.O.O.{ ^  . .j . O y ~ O.) ) +.O.O.| O.O.O.| | O.` ` ` ` ` ` ` ` ` ` ` ` ` ` O.O.O.O.O.O.O.{ O./ | [ g . O w | O.O.) ) ) / / ) O.{ { { { { | | | { { { { O.O.) { { { O.` O.O.) ) ) ) ) ^ k t O O < ~ @.{ ) { { O.O.O.O.O.O.O.O.O.O.O.O.O.O.O.O.O.O.O.O.O.O.O.O.O.O.O.O.O.O.O.O./  .j . O . % [ | ` ` ` ) ) ) ) ) { { { { { O.{ { { { { { { { ` ) ) ) ) ` ` ` ` ` / ` / | m 9 O O + n O.` ` ` O.` / / / { { { { { { { { ) ) ) ) ) ) ) ) ) ) ) ) ) ) { { / / O.| | k * O O k | / / / { { O.O.O.O.O.O.| | | O.O.O.O.| | | | O.O.O.O.O.O.O.O.O.O.O.O./ / <.~ <   . t [ O.+.` O.O.| O.O.O.O.O.O.O.O.{ { { { ` / / / / / / / / / / / { { { / / / / | t + . O 1 n O.` ",
") ) ) ) ) { { ) ) ) ) ` ) ) ) ) ` ` ` ` ` ` ` ` ` O.O.O.O.O.O.O./ / | ~ t + O < h ^ | { { { { { { { O.O.) ) ) ) ) ) ) ) { { { { O.{ { { { { { | { { { { <.O.( h 2 O . 2 a ~ | | / ` ) ) ` ` / / ` ` ` ` ` ` ` ` ` ` ) ) ) ) ) ) ) ) ) ) ` ` ) { { { { ~ 9 O O 9 g ~ | | | O.O.O.O.O.O.O.O.O.O.O.O.O.O.O.O.O.O.O.O.O.O.O.O.O.O.O.O.O.O.{ { | [ a . . r k ^ O.O.O.O.| O.O.O.O.| O.O.` ` ` ` ` ` ` ` ` ` ` ` ` ` O.O.O.O.O.O.O.{ { / | ~ t . O 0 ^ O.O.O.) / / ) { O.O.{ { { { O.O.{ { { { { { O.) { { { { ` ` { ) ) ) ) ) ~ k 3 O O < k  .{ { { { O.O.O.O.O.O.O.O.O.O.O.O.O.O.O.O.O.O.O.O.O.O.O.O.O.O.O.O.O.O.O.| / [ t . . O + k / ` ` ` ) ) ) ) / { { { { { O.O.{ { { / { { { | ) ) ) ) ` ` ` ` / / / / ^ h 9 O O + h ^ O.` ` O.` / / / { { { { { { { ) ) ) ) ) ) ) ) ) ) ) ) ) ) ) ) { / / O.| ~ g * O O g ~ / / / { { O.O.| O.O.O.O.O.O.O.O.| | | | | | | { | | | | O.O.O.O.O.O./ ^ | k 2 . . 1 D O.<.O.O.O.| O.O.O.O.` ` O.O.) ) ) ) ` ` ` ` ` ` ` ` ` ` ` ` ) ) ) ) ` / ^ ^ 0 O O O 1 h | O.",
") ) ) ) ` ` ) ) ) ) ) ) ) ) ) ) O.O.O.O.O.O.` O.` ` ` ` ` ` ` ` O./ ~ h a + O < e ^ O.O./ ) / / ) ) ) ) ) ) ) ) X.{ { { { { { { / ) ) ) ) { { { { { { { | ^ A g 2 O . * t h [  ./ ` ) ) ` ` ` ` ` ` ` ` ` ` ` ` ` ` ) ) ) ) ) ` ` ` ` ` ` ` ) { | [ ~ k 9 O O 9 g ~ ^ / O.O.O.` ` ` O.O.O.) O.O.O.O.O.O.O.O.O.O.O.O.) ) O.O.O.O.O.O.O.O.O.~ D a . . 2 a D ^ | O.O.O.O.O.O.O.O.O.` ` ` ` ` ` ` ` ` ` ` ` ` ` ` ` O.O.O.O.O.O.O.O.| | k 2 . O 0 h ^ O.O.O.{ { { { { { { { { { { | { { { { { { { { { { ) ) ) ) ) ) ) ) ) { ~ h 2 O O # j [ { { { { O.` ` ` O.O.O.O.O.O.O.O.O.O.O.O.` ` ` ` ` ` ` O.O.O.O.O.O.O.O.O./ ~ 2 . . O + a ~ / / / { { { { ) ) ) ) ) ) { O./ / { { { { { { { { O.{ / ` / | | | / | n a 2 . O + g ~ O.` O.O.` ` ` ` ) ) ) ) ) ) ) ) ) ) ` ) ) ) ) ) ) ) ) ) ) ) ) ) ` ` O.| k p # . O t n / / ` ) ) O.O.` O.O.O.O.O.O.O.O.O.O.O.| | O.O.O.O.O.O.O.O.O.O.` O.| | ^ k g 2 . . + h { O.O.O.| | O.` ` ` ` ) ` ` ) ) ) ) ` ` ` ` ` ` ` ` ` ` ` ` ) ) ) ) +.` ^ ~ r O . O % a ~ | ",
") ) ) ) ` ) ) { { { { { { { { { | | | | | | | O.O.` ` ` ` ` ` O.O.^ ~ a t + O 1 e A | +.) ) / ) ) ) ) ) ) ) ) ) ) ) ) ) ) ) ) ) / ) ) { { { { { { { { { A A h g 2 . . * t w k | | / ) / ` ` ` / ` ` ` ` ` ` ` ` ` ` ) ) ) ) ) ) ) ) ) ) ` ` ) {  .[ k a 9 . . 9 e ~ ^ / O.O.O.` ` ` O.O.O.O.O.O.O.O.O.O.O.O.O.O.O.O.) ) O.O.O.O.O.O.O.O.@.~ s 3 .   * t g ~ { ^ O.O.O.O.O.O.O.O.O.O.O.O.O.O.O.O.O.O.O.O.O.O.O.O.O.O.O.O.O.O.O.O.| [ j % . O 0 e A ^ O.| { { { { { { { { { { { { { { { { { { { { { { { ) ) ) ) ) { / { { D a 2 . O # a k { { { { O.` ` ` ` O.O.O.O.O.O.O.O.O.O.O.` ` ` ` ` ` ` ` ` ` ` ` ` ` ` | ^ k < . . O + 3 h / | | { { { { ) ) ) ) ) { { { ` { { { { { { { { { { { | | | | | | | | h t * . O + a h | O.| | / ` ` ` ) ) ) ) ) ) ) ) ) ) ) ) ) ) ) ) ) ) ) ) ) ) ) ) ` ` O.| g r @   O r k ^ / ` ) ) ` ` ` O.O.O.O.O.O.O.O.O.O.O.| | O.O.O.O.O.O.O.O.O.O.O.O.|  .~ g t 5 o . % g ~ A O.O.| | O.` ` ` ` ) ` ` ) ) ) ) ` ` ` ` ` ` ` ` ` ` ` ` ) ) ) ) ,.` ^ A r O . O $ 0 h | ",
"^ / ^ / / / / ^ { [ [ [ [ [ [ [ [ [ ~ ~ ~ ~ [ | / / ` ` ` ` ` / ~ n g a t O O 2 e e h | / / / / / / / / / / ^ ^ ) ) X.) O.O.O.O.O.{ { { { ^ ^ ^ ~ ~ ~ ~ s w w g 2     * t a g g [ ^ ^ ^ ^ ^ { { | | | | | | | | | | | / / | / / | | / | | | | | ~ k a t 9 . . r w h ( | | / { ) ` ) ) ) ) ) ) ) ) ) ) ) ) ) ) ) ) ) ) ) ) ) ) ) ) { { { ~ s w 3 . o # r g h ~ ~ | / ` ` / / / / / ^ ^ ^ ^ ^ ^ ^ / / / / | | | | | { { { { { | { [ k t 2   & r w e s A ^ ^ ^ ~ ~ ~ ~ ~ ~ ~ ~ ~ ~ ~ ( ~ ~ ~ ~ ~ ~ O.O.| O./ / / / | | ^ ^ h a 2 O O # t k | | | | O.O.O.O.O.O.O.O.O.O.O.O.X.X.X.O.O.` ` ` ` / ` ` ` ` O.` ` / / / h a * .   . % a e h ~ | | | | | / / / / / ^ ^ ^ ^ ^ ~ ~ ~ ~ ~ ~ h h h h s s s s s s s s w u ; .   O 0 0 ~ ^ O.O.O.O.O.O./ / / / / / / ` ` ` O.O.O.O.O.` ` ` O.O.` ` ` O.<.O.^ ~ a t *   @ 9 a h ^ / O.O.O./ / ^ ^ / / / O.O.O.| | | | | | | | | | | | O.O.O.O.| ~ h g a r #     $ 0 g h ^ ^ { { / / ` ` ` ` ` ` ` ` ` ` ` ` ` ` / / / / +.+.O.O.O.O.O.O./ ^ A s p @     $ t g s ",
"A A A h h h h s g a a a a a a a a a a a a a a a h h h h h h h h s g w t 9 @ . # 0 w e D ^ ^ ^ ^ ^ ^ { { / / { { { ) X.X.O.O.) { { { [ [ h h h h e e w e e w w a *     & t t a g g s s s s s h h h h h h h h h h h h h h h h h h h h h h h h h h a a w t *   . * t e h ~ ^ { { { / / { { ^ ^ { { ^ ^ ^ ^ { { { { ^ ^ ^ ^ { { { { { { { { s g w r   . O 0 a g s h A A A A A A A A s s s s s s s s s s e e ~ ~ ~ ~ O.O. . . . . . .~ k r #   @ 2 w w l w e s s e e e e e e e e e e e e e e e e e e e s A A { { { { { ^ ~ ~ g t * . O O r g h k ~ | | | | | { { { { { { { { | | | { ^ / ^ ^ ^ ^ ^ ^ A A A A A A A h s t #       O r w e h h ~ ~ ~ ~ A A A A e e e e e e w w w w e w w 0 0 0 0 0 0 0 0 w w w t t #   . O 0 0 e e h A A A A A ^ ^ ^ ^ ^ ^ ^ ^ ^ ^ / / / / / / / / / / / / ^ ^ ^ ~ A h g 9 &   @ * a h ~ ^ / | | / ^ ~ ( A ( ( h h h h h h h h h h h h h h h h h h h h s a w a r # .   $ 0 a s h h h h h h s s s s s s A A A A A A A A ~ ~ ~ ~ ~ ( ( A ^ ^ ^ ^ ~ A h g r @   . $ 9 a g ",
"w w w w w w w 0 a a a a a a a a a a a a a a a a w w w w w w w w w w t t * @ . O 3 w w g g g g g g g g s s s s s A A D D A A k k a a a a w 0 w w w w e w w g e 0 $     @ 9 0 t t 0 0 0 0 0 0 0 0 0 0 0 w w w w w w w w w w w w w w w w w w t t t w w w t $ . . # 0 w w h g g s s s s s s s s s s s s s s s s s s s s s s s s s s s s a g w a 0 2   . O 2 w w e e e w w w w w w w 0 0 0 0 0 0 0 0 w w a w w 0 0 0 h h h k h h h h g g 9 O     * t g e s g w w w w w w w 0 0 0 0 0 0 0 0 0 0 0 0 0 g g 0 3 g g g g k h s g a 0 #   . O r a 0 g k ~ ~ ~ ~ ~ k k h h s s s s s s s s g g g e e w w w e e e w w w w w g 0 O       O < w w w w w w w w w w w w a a w w w w w w w w w w w t a a a a a a g g g g a 9 @   . . 9 w w w w e e e e e g g g g g g e e e e s s s s s s s s s s e e e s s s g g u * .   . * 0 s e g g h h s e w w w w w w w w w w w w w w w w w 0 w w w w w w w w e a a r # . . O 2 0 e w w w w 0 w w l w w w w e e g g g g g g w w w w w w e e e e g g g g e a * .   . O 9 t w ",
"0 0 w w w w a a t t t t t t t t t t 0 0 t 0 0 0 0 w 0 0 0 0 w w w 0 t t $ O . . < t a 3 a a w w w w 0 0 0 w w a a a a a 3 3 3 0 3 3 3 3 0 0 0 0 0 w w w w s s 0 @     . 9 0 t t t 0 0 0 0 0 0 r 0 0 t t 0 0 0 0 t t t t t t t t 0 0 0 0 t t t t t t t t O . . O 2 0 0 a a a a a a a a a w w w a a a w a a a a a a a a a a a a e w w a a a a 9 O     . < 0 0 w w 0 0 0 0 0 0 0 0 0 t t t t t t t 0 0 0 0 0 t t t w w w w w w w w 0 y 2   .   O t 0 w w w g g a a a a w w w w w w w w w w w w w w w a a a a a a a g g e 0 t 5 O     . * p t 0 0 w a a a w a w 0 0 a a a a l l l a w w 0 0 0 0 0 0 w w a w w 0 0 0 t 2 O       . $ g g 0 3 w w w w w w w w 0 0 0 0 0 0 0 0 0 0 0 0 3 3 3 3 t 0 0 0 w w w 0 u r . . . . 2 a 0 w w e w w w w a a a a a a a w w w g g g g g g g g g g g g g g 0 w w t u &       # 9 a a g g g g g w w w w w w a a a a a a a a a a a a a a a a w w w w e e a a r # . . O < 0 0 0 0 w w 0 0 w w w w w w w w w w w w a a a a a a 0 0 0 0 0 w w w w 0 w t * . . @ O * t 0 ",
"a a a a a a a a a a a a a a a a a a a a a a a a a a a a g g g g g a t * O . . . % 9 a g w w w w w 0 t t t w w 0 t t t 0 0 0 0 0 0 0 0 0 0 0 t t a a a a a w 3 < .   . . # 9 t u t a w w w w a a a a a a 0 0 0 0 0 0 t t t t t t t t t t a a a u t t 9 $ O . . . < r t g t t w w w w w w w w w w w w w w w w w w w w w w w w w w e e e a t p 2 O .   . @ r u g g w w w w 0 0 0 0 a a a a a a a a a a a a t t t t t w w w w w w t u r @ o   . . O u w a w w 0 0 0 w w w w a a a w w 0 0 0 w w w w 0 0 0 w w 0 w w w 0 a t 2 @ . . . . @ 2 t a a a a a a a t t t t t t t t 0 t t t t t t t 0 0 t t a a a a a a a g i * @ . . . . O 0 w a a g g a a a a a a a a a a a a a a a a a a a t t t t w w w 0 w g g * # .   .   @ r t a 0 w 0 w 0 w a a a a a a a a a a a a t t t t t t t a a a a a g a a r * & .     @ * t t 0 0 0 0 0 0 0 0 0 0 0 0 0 0 0 w w w w w w w w w w w w w w w w 3 l w 0 O O . . . # r r t t w w 0 0 0 0 0 0 0 0 0 0 0 0 0 0 0 0 0 0 0 0 0 0 0 0 a a a a 0 t a u O . . . . $ r i ",
"t t t t t t a t 0 0 0 0 0 0 t t t t t t a a a a 0 0 0 0 0 0 0 0 a t * O . . . . O $ 2 t t t t w w 0 t t t t t 0 t t t 0 0 0 0 0 0 0 0 0 0 0 0 0 0 0 0 0 t 2 1 O .   . . O $ 2 0 u u t t t y t a a a a a t t t t t t t t t t t t t t t a a a a t t 9 $ O . . . . $ 2 r t t t t t 0 0 0 0 0 0 0 0 0 0 0 0 0 0 0 0 0 0 0 0 0 0 0 0 w e w t r * O . .     O * 9 t a t t t t 0 0 0 0 t t 0 0 t t t t 0 0 0 0 0 0 0 0 t t t t t t t t r & . . . . . O 9 0 0 t t t t t t a a a a a a t t 0 0 0 0 0 0 0 0 0 t a a a a a a g g p * O   . .   . # r t a a a a a a t t t t t t t 0 0 t t t t t t t 0 0 t t 0 t a a t t t t * . .   . . . . + 4 0 g t t t t t t r r t t t t t t t t t t t t t 0 0 0 0 0 0 0 g a t r # @ .   . . . * r u g g 0 0 0 0 0 0 0 0 0 0 0 0 0 0 0 t 0 0 0 0 r r r r 0 0 0 0 g t t r & @ .       @ * u a a a t t t t t t t t t y y a w w 0 w 0 0 w w w 0 0 0 0 0 0 0 w w 0 9 O O . .   @ * r p y a a a a a a a a a a t t t t a a a a u u u u a a t t t t t t u y t r O O O . . @ * r ",
"0 0 0 0 0 0 r r r r r r r r 0 0 r r 0 0 0 0 9 9 t t t t t t t t r * O @ . .     . O O * p p p t a a a a a w w w w w w w w w w w 0 0 0 0 a a a a r r r r 2 $ O O . . . . . O O 2 r r r r r r r r 0 0 0 w a a a a a a t t a a a a t t t t w w w t 9 $ O O . .   . O % 2 r t t a a a a a a a a a a a a a a a a a a a a a a a a a a a a a u 2 O     . .   . O % 2 0 t t t t 0 0 0 0 0 0 0 0 0 0 0 0 0 0 0 0 0 0 0 0 0 0 t t t t t t * .     . . . O $ 1 2 0 y y t t t t r r 2 2 2 2 2 2 2 2 2 2 2 2 2 2 9 r y y y y t y p * O .   . .     O < r t a a a a a w w w w w w w w w w w w w t t 0 0 0 0 0 g g g g u u u u @ .       . . . . O * r t t t r r r r r r r r r r r r r r r r r r r r r r r r r 9 9 * * . .       .   @ * r t g u u u u a a a a a a a a a a a a t t a t t t y y p t t t r 2 * # O O . . . . . O r 0 t t t r r r r r 0 3 r r r r t t t t t t t t t t t t t t t t 0 2 % $ O . . .     @ * r r r 0 t t t t t t t t t t t t t t t t t t t t t t t t p r i i r 9 * # . . . .   . @ # ",
"$ $ $ $ $ $ $ $ $ $ $ $ + + $ $ $ $ * * % % * $ $ $ $ $ $ $ $ $ * O @ . .         . . . O O O + + + + + 2 0 t t t t t t 0 0 0 0 0 0 0 0 < < 4 < O O O O O O O .   . . .   . . O O O O O O O O O 9 9 9 9 0 0 0 0 0 r r r r r 0 0 2 3 2 2 9 9 0 9 $ O O @ . .     . O * 2 t t t t < < 2 2 2 2 2 2 2 2 2 2 2 2 2 2 2 2 2 2 2 2 2 2 2 2 2 * $ .   . . .     . O $ 2 t t t t t t t t 0 9 9 9 9 0 9 9 9 9 9 9 0 0 3 3 0 0 0 t t t t t .     . . . . . O + < 2 $ $ $ $ $ $ $ $ O O O O O O . . . . . O O O O O # # # * 2 2 $ O O     . o     O $ < r t t t t t t t t t t t t t t t t t t t t t t t t t 2 2 2 2 % $ $ $ . .   . . . . . . . @ @ O O O O O O O O O O O O O O O O O O O O O O . . . . . . . O @ @           . . @ @ $ % 2 2 2 2 2 2 2 2 2 2 2 2 2 2 2 2 2 2 2 < < < < 2 * # @ @ @ @ @ O .   . . . . . . . % % < < 2 2 2 2 $ $ $ $ $ $ $ $ $ $ $ $ $ $ $ $ $ $ $ $ % % % % % O O . . . . .       O O $ $ $ < * < 2 2 2 < < < < < < 2 2 2 2 1 2 2 2 2 2 1 * # & & & & @ .   . . . .   .   . ",
"O O O O O O O O O . . O O O . . O O O O O O . . . . . . . . . .     . .     o             . . . . O O O O O O O O O O O O O O O O O . . O O O . . . .           . . . . .   . . . . . . . . . . . O O O O . . . . . . . . . . . . . . . . O O O O . . .     . .   . . O O O . . . . . . . . . . . . . . . . . . . . . . . . O O O O . . . . . .   .     . . . @ O O . . . . . . . . . . . . . . . . . . . . . . . . . . . . . .       . . . . . . . . . . O O . . . . . . . . .   . .       . .     . .     . . O O . . .           . . . O O * $ O O O O O O O O O O O O O O O O . . . . . . . O O O O O . . . . .     . . . .         . . . . . . . . . . . . . . . . . . . . . . .           . . . . . .             . O O O O O O O O O O O O O O O O O O O . . . . . . . .     . . . . . . . . . . . . . . O O O O O . . . . . . . . . . .       . . . . . . . . O . . O O O . . . . . . .       . . . . O O O O O O O O O . . . . . . . . . . . . . . . .         . . . . . . . .         ",
". . . . . O . . . . . . . . . . . . . . . . . . . .             . . . .     o               .     .       .                               .                     . . . . . .     . . . . . . . .         . .         .                       . . . . . . .   .       . .                 . . . .             .               . . . . . . .   . .         . . . . . .                                                                 . . . . . . . . . . . . . . . . . . . . .                       . .       . . . . .             .   . . . . . .                   . . . . . .               . . . . . . . . . .     . . . .             . .         . . . . . . . . . . . . . .             . . . . . .     .       . . . . . . . . . . . . . . . . . . . . .                   . .     . .       . . . . . . . . . . . . . . . . . . . . .         . . . . .   . . . . . . . . . .     . .       . . . . . . . . . . . . .                                     . . . . . . . . . .         "
};
