/* XPM */
static const char *xpm_[] = {
/* columns rows colors chars-per-pixel */
"259 194 133 2 ",
"   c #010101",
".  c #0B0B0B",
"X  c #131313",
"o  c #1B1B1B",
"O  c #242424",
"+  c #2B2B2B",
"@  c #343434",
"#  c #3C3C3C",
"$  c #444444",
"%  c #4C4C4C",
"&  c #535353",
"*  c #5C5C5C",
"=  c #646464",
"-  c #6C6C6C",
";  c #747474",
":  c #7C7C7C",
">  c #848484",
",  c #8C8C8C",
"<  c #939393",
"1  c #9C9C9C",
"2  c #A4A4A4",
"3  c #ACACAC",
"4  c #B1AFB2",
"5  c #B3B3B3",
"6  c #B7B5B8",
"7  c #B8B6B9",
"8  c gray72",
"9  c #B9B9B9",
"0  c gray73",
"q  c #BBBBBB",
"w  c #BCBCBC",
"e  c gray74",
"r  c gray",
"t  c gray75",
"y  c #BDBDBD",
"u  c #C1C1BF",
"i  c #C0C0C0",
"p  c #C1C1C1",
"a  c gray76",
"s  c #C3C3C3",
"d  c #C3C1C4",
"f  c #C4C2C5",
"g  c gray77",
"h  c #C5C5C5",
"j  c #C6C6C6",
"k  c gray78",
"l  c #C3C3C3",
"z  c #C9C9C7",
"x  c #C9C9C7",
"c  c #C8C6C9",
"v  c #C9C7CA",
"b  c #C8C6C9",
"n  c #C8C8C8",
"m  c gray79",
"M  c #CACACA",
"N  c #CBCBCB",
"B  c #CBC9CC",
"V  c #CCCACD",
"C  c #CDCBCE",
"Z  c gray80",
"A  c #CDCDCD",
"S  c #CECCCF",
"D  c #CECECE",
"F  c gray81",
"G  c #CCCBCC",
"H  c #CFCDD0",
"J  c #CFCDD0",
"K  c #D0CED1",
"L  c #D1CFD2",
"P  c #D1CFD2",
"I  c #D0D0D0",
"U  c gray82",
"Y  c #D2D0D3",
"T  c #D2D2D2",
"R  c LightGray",
"E  c #D3D1D4",
"W  c #D4D2D5",
"Q  c #D5D3D6",
"!  c gray83",
"~  c #D5D5D5",
"^  c #D6D4D7",
"/  c gray84",
"(  c #D7D7D7",
")  c #D3D2D3",
"_  c #D7D5D8",
"`  c #D7D5D8",
"'  c #D8D6D9",
"]  c #D8D8D8",
"[  c gray85",
"{  c #DADADA",
"}  c gray86",
"|  c #DCDADD",
" . c gainsboro",
".. c #DDDDDD",
"X. c gray87",
"o. c #DFDFDF",
"O. c gainsboro",
"+. c gray88",
"@. c #E1E1E1",
"#. c #E2E2E2",
"$. c gray89",
"%. c #E4E4E4",
"&. c gray90",
"*. c #E6E6E6",
"=. c #E7E7E7",
"-. c #E4E4E4",
";. c gray91",
":. c #E9E9E9",
">. c #EAEAEA",
",. c gray92",
"<. c #ECECEC",
"1. c gray93",
"2. c #EEEEEE",
"3. c #EFEFEF",
"4. c #EBEBEB",
"5. c gray94",
"6. c #F1F1F1",
"7. c gray95",
"8. c #F3F3F3",
"9. c #F4F4F4",
"0. c gray96",
"q. c #F6F6F6",
"w. c gray97",
"e. c #F4F4F4",
"r. c #F8F8F8",
"t. c #F9F9F9",
"y. c gray98",
"u. c #FBFBFB",
"i. c gray99",
"p. c #FDFDFD",
"a. c #FEFEFE",
"s. c white",
"d. c #FDFDFD",
/* pixels */
"s.s.s.s.s.s.s.s.s.s.s.s.s.s.s.s.s.s.s.s.s.s.s.s.s.s.s.s.s.s.s.s.s.s.s.s.s.s.s.s.s.s.s.s.s.s.s.s.s.s.s.s.s.s.s.s.s.s.s.s.s.s.s.s.s.s.s.s.s.s.s.s.s.s.s.s.s.s.s.s.s.s.s.s.s.s.s.s.s.y.s.y.8.s.s.<                                                   X O O % % $ O + % : 2 n o.,.2.2.&.} T } o.T t 3 1 , : * O   .   + +                                                                   .       o : 3 k 5 *   .     @ > , % O   O . + & : 2 3 9 3 3 < = O     .   . .                         . O .     X o o X     . .       O = : 2 ",
"s.s.s.s.s.s.s.s.s.s.s.s.s.s.s.s.s.s.s.s.s.s.s.s.s.s.s.s.s.s.s.s.s.s.s.s.s.s.s.s.s.s.s.s.s.s.s.s.s.s.s.s.s.s.s.s.s.s.s.s.s.s.s.s.s.s.s.s.s.s.s.s.s.s.s.s.s.s.s.s.s.y.y.s.s.s.s.s.y.s.s.s.s.2.# .                                             .         . O # % ; , : ; = = * % $ % - , > * @ o X       . + = > - = $ X                           .           .     .       .         .     % t &.s.2 *     # & : n q.,.$ + > n $.} o.&.8 - % +     O = < 2 1 : - # X       .       .   .     . .         o X       X * > , > - ; $ $ $ ",
"s.s.s.s.s.s.s.s.s.s.s.s.s.s.s.s.s.s.s.s.s.s.s.s.s.s.s.s.s.s.s.s.s.s.s.s.s.s.s.s.s.s.s.s.s.s.s.s.s.s.s.s.s.s.s.s.s.s.s.s.s.s.s.s.s.s.s.s.s.s.s.s.s.s.s.s.s.s.s.s.s.y.q.s.s.s.y.s.s.q.s.s.k                                           .           . . o o .     $ = ; > , < < < < : = @ o o @ $ # $ & $ + @ O       @ * % O                                             .       .     @ 1 &.s.s & #   + 8 2.o.y.s.1 1 3 } s.s.q.s 1 - - ; & & < 8 5 1 ; % @ $ ; 1 1 1 1 < : & # @               o O % ; * . . * 1 s 2 , : : , > , 3 5 t ",
"s.s.s.s.s.s.s.s.s.s.s.s.s.s.s.s.s.s.s.s.s.s.s.s.s.s.s.s.s.s.s.s.s.s.s.s.s.s.s.s.s.s.s.s.s.s.s.s.s.s.s.s.s.s.s.s.s.s.s.s.s.s.s.s.s.s.s.s.s.s.s.s.s.s.s.s.s.s.s.s.s.s.s.s.s.y.q.y.y.s.8.8       .                                     o                   o o   . O o .     .                     .     X           .                                   .     .       X .       . * k s.} ;   - - % ! s.s.s.8.s.3 s.s.,.s.s 1 2 T T 2 : 2 A 8 -     O & ; ; & o         o % - * # = % o X .   o o         o o   . + $ ; > , , > < < , > ",
"s.s.s.s.s.s.s.s.s.s.s.s.s.s.s.s.s.s.s.s.s.s.s.s.s.s.s.s.s.s.s.s.s.s.s.s.s.s.s.s.s.s.s.s.s.s.s.s.s.s.s.s.s.s.s.s.s.s.s.s.s.s.s.s.s.s.s.s.s.s.s.s.s.s.s.s.s.s.s.s.s.s.s.s.s.y.s.s.y.s.9   .                                           X   . o .       .   o & ; < 3 s ! &.,.2.q.s.$.! s 3 1 > & @   .     O +           X .     X                 . .     .   .             . = ,.s.2 ; @ = < ; } y.q.s.s.s.9 1 k ,.s.s.y.8.s.3 3 8 ,.! 2 ; = > < > - # o .                   . .   . $ - %     X X     .     .   .         .   .   o @ ",
"s.s.s.s.s.s.s.s.s.s.s.s.s.s.s.s.s.s.s.s.s.s.s.s.s.s.s.s.s.s.s.s.s.s.s.s.s.s.s.s.s.s.s.s.s.s.s.s.s.s.s.s.s.s.s.s.s.s.s.s.s.s.s.s.s.s.s.s.s.s.s.s.s.s.s.s.s.s.s.s.s.s.s.y.y.s.s.s.q.3   .       .                                 o             . $ < ! s.2.$.o.y.s.s.s.s.&.n 8 3 1 5 t s A o.2.8.s.q.} 8 1 2 , $                                   .                   . = 2.q.: , s , & : $.T 3 ,.s.&., ; s s.y.s.s T q.,.} 8.s.8.&.5 < < : $ .   . .         .       .             X   # 1 &     . .         .   . O o           X + ",
"s.s.s.s.s.s.s.s.s.s.s.s.s.s.s.s.s.s.s.s.s.s.s.s.s.s.s.s.s.s.s.s.s.s.s.s.s.s.s.s.s.s.s.s.s.s.s.s.s.s.s.s.s.s.s.s.s.s.s.s.s.s.s.s.s.s.s.s.s.s.s.s.s.s.s.s.s.s.s.s.s.s.y.q.s.s.s.&.1         . X                                             . : &.A 2 & ; 2 8 3 < = # .     . .   % = - ; : , 2 3 2 n } $.y.s.s.y.$.9 - o     X                       .     .   .     & ! T 2 3 A -   < 8.o.= T 2.$.- # 2 9 1 8 A * > } s.T 1 8.,.k 8 < #                 . . .   .                       . . & : o         . .             .     . X o ",
"s.s.s.s.s.s.s.s.s.s.s.s.s.s.s.s.s.s.s.s.s.s.s.s.s.s.s.s.s.s.s.s.s.s.s.s.s.s.s.s.s.s.s.s.s.s.s.s.s.s.s.s.s.s.s.s.s.s.s.s.s.s.s.s.s.s.s.s.s.s.s.s.s.s.s.s.s.s.s.s.s.s.s.y.s.s.,.8   o                                                   # 2 s :   ; k ! 3 * . $ ; , 1 3 2 < , < 1 : > : ; - = % @ ; > 1 1 3 } s.s.s.y.s.y.o.5 = X                       . # & .     k 2.3 ! ,.< & : y.,.: ; 8.$.* # = , = $ : $ . 9 y.A = , $.$.2., .   X                                     .   X               $ @ X                     o .   X .   ",
"s.s.s.s.s.s.s.s.s.s.s.s.s.s.s.s.s.s.s.s.s.s.s.s.s.s.s.s.s.s.s.s.s.s.s.s.s.s.s.s.s.s.s.s.s.s.s.s.s.s.s.s.s.s.s.s.s.s.s.s.s.s.s.s.s.s.s.s.s.s.s.s.s.s.s.s.s.s.s.s.s.q.s.s.s.y.s                                                     # < ,     = < *     # * : : # .   .           + O + # % * * % = : 2 5 3 1 , 8 T t s T 8.s.2.s.2.t < > = ; ; - : , 9 k 3 o   : y.2.&.s.3 = $.2 ,.2 X s s.: . > = = . @ * . , s.A # ; $.o.s., .                       . .                                         . & = o                             ",
"s.s.s.s.s.s.s.s.s.s.s.s.s.s.s.s.s.s.s.s.s.s.s.s.s.s.s.s.s.s.s.s.s.s.s.s.s.s.s.s.s.s.s.s.s.s.s.s.s.s.s.s.s.s.s.s.s.s.s.s.s.s.s.s.s.s.s.s.s.s.s.s.y.y.y.y.y.y.s.s.s.q.,.s.s.T . .                                             . . % %     $ $       X o .             X X X o . o . . .       O # o       $ - > 3 A $.2.s 1 > = = : : : , < 1 2 5 ,.8.: .     n 8.! s.k = t 5 * > o . 3 n   - = O O . .   @ A ! @ . < o.: = o             . .                   .                                   .   O - %     . .     .             ",
"s.s.s.s.s.s.s.s.s.s.s.s.s.s.s.s.s.s.s.s.s.s.s.s.s.s.s.s.s.s.s.s.s.s.s.s.s.s.s.s.s.s.s.s.s.s.s.s.s.s.s.s.s.s.s.s.s.s.s.s.s.s.s.s.s.s.s.s.s.s.s.s.s.s.s.s.s.s.s.s.,.s.s.2.y.%   .                         .                                                       .                     . + & ; , } q.s.T 5 1 ; *   o = 5 &.y.q.y.,.s.y.8.y.q.s.q.k %     # &.y.< } 2 1 <   > =     : : $ < o     X o   : 9 *   . 1 ; O *       .                                                                 .         * ;             .           ",
"s.s.s.s.s.s.s.s.s.s.s.s.s.s.s.s.s.s.s.s.s.s.s.s.s.s.s.s.s.s.s.s.s.s.s.s.s.s.s.s.s.s.s.s.s.s.s.s.s.s.s.s.s.s.s.s.s.s.s.s.s.s.s.s.s.s.s.s.s.s.s.s.s.s.s.s.s.s.s.s.s.y.q.s.1   .                   . O # & : , 1 2 3 3 8 t s t 9 t T t A A ! ! &.! &.9 9 t 3 3 2 : < ; = = : : #                     . o o * 3 s 3 > & % # X . % < 9 T ! n t : & .     . - s.&.* o.% > %   ; +   . > # % :   . . O .   @ #     @ < # &                           .                                                       .     # 1 @ o       .   .       ",
"s.s.s.s.s.s.s.s.s.s.s.s.s.s.s.s.s.s.s.s.s.s.s.s.s.s.s.s.s.s.s.s.s.s.s.s.s.s.s.s.s.s.s.s.s.s.s.s.s.s.s.s.s.s.s.s.s.s.s.s.s.s.s.s.s.s.s.s.s.s.s.s.s.s.s.s.s.s.s.s.s.8.s.,.      .   X @ = , 5 n ! } &.&.&.2.&.} o.2.o.} ,.2.&.2.s.} $.! n 2.o.T } &.$.2.&.! 8.s.! } ,.,.$.o.,.y.y.,.! 3 2 3 > # X             . . , 1 3 2 : = - = O           .     o , 8.s @ 3   % . X +     . : . , &   X + +       .     O $ # #           o             o $ = & $ O                                                           > = . .     X         ",
"s.s.s.s.s.s.s.s.s.s.s.s.s.s.s.s.s.s.s.s.s.s.s.s.s.s.s.s.s.s.s.s.s.s.s.s.s.s.s.s.s.s.s.s.s.s.s.s.s.s.s.s.s.s.s.s.s.s.s.s.s.s.s.s.s.s.s.s.s.s.s.s.s.s.s.s.s.s.s.s.s.y.s.=   & > 2 $.$.&.,.,.,.&.$.o.&.&.,.2.,.$.&.2.o.o.&.&.} } &.,.&.,.&.,.&.&.$.T o.! T $.&.o.$.o.,.$.o.$.&.,.} } $.,.2.2.,.o.o.5 : +       .     $ , n ,.q.,.t 8 < , , > ; $     , s.1   ;                 =   - +     . O X     o         $ +           .                     O $ & # o                                                         % t $ .             ",
"s.s.s.s.s.s.s.s.s.s.s.s.s.s.s.s.s.s.s.s.s.s.s.s.s.s.s.s.s.s.s.s.s.s.s.s.s.s.s.s.s.s.s.s.s.s.s.s.s.s.s.s.s.s.s.s.s.s.s.s.s.s.s.s.s.s.s.s.s.s.s.s.s.s.s.s.y.q.8.8.9 s 8 t o.2.2.,.o.o.o.o.o.o.} } &.$.&.,.&.&.&.$.A ! o.$.&.&.$.} o.2.&.$.$.o.A } } o.o.&.,.T A q.o.8.&.} ! o.8.&.,.$.$.&.&.,.,.$.} 2.,.$.s < *               O % $ O .     .   . k y.&                   . $   * O   .     .             O +       .       .   O > 1 9 T o.$.o.} ,.8.8.&.o.9 ; +                                 .             .     X , <     .       ",
"s.s.s.s.s.s.s.s.s.s.s.s.s.s.s.s.s.s.s.s.s.s.s.s.s.s.s.s.s.s.s.s.s.s.s.s.s.s.s.s.s.s.s.s.s.s.s.s.s.s.s.s.s.s.s.s.s.s.s.s.s.s.s.s.s.s.s.s.s.s.s.s.s.y.8.,.o.T n k ,.&.,.$.&.T s.&.2.,.,.&.&.$.$.$.&.o.$.$.} o.&.o.,.q.8.o.} ,.,.o.o.A } q.! ,.8.o.q.$.&.2.$.&.,.} k o.} $.,.2.2.n ! ! $.&.o.o.&.$.n } $.8.,.,.y.o.T : .   .             . .   . s s.#       .                 o     .   .     .   .       .             o         . .       @ ; 2 1 1 ; +   . o O                                   .     . .           . % 3 &         ",
"s.s.s.s.s.s.s.s.s.s.s.s.s.s.s.s.s.s.s.s.s.s.s.s.s.s.s.s.s.s.s.s.s.s.s.s.s.s.s.s.s.s.s.s.s.s.s.s.s.q.s.y.s.q.q.s.s.s.s.s.s.s.s.s.s.s.s.s.s.y.s.s.2.T n 9 o.$.8.,.} $.o.} $.o.! $.o.! &.! &.o.$.$.} $.o.&.8.&.} ,.} } &.} ,.} $.} $.$.$.$.$.o.o.o.} ,.2.$.} } } T ,.} o.8.o.$.s.,.,.&.} &.8.2.,.! $.8.,.&.$.o.&.o.o.2.$.< +         .         t y.@ o                                                             X               o % < k o.} n 9 3 3 2 t 1 &                                                         .     X & , .     ",
"s.s.s.s.s.s.s.s.s.s.s.s.s.s.s.s.s.s.s.s.s.s.s.s.s.s.s.s.s.s.s.s.s.s.s.s.s.s.s.s.s.s.s.s.s.s.s.s.&.s.s.s.&.< q.s.s.s.s.s.s.s.s.s.s.s.s.8.s.s.,.8 k T 2.$.$.T $.,.$.&.$.$.&.$.$.&.o.o.o.o.$.} $.o.o.o.&.&.&.&.&.$.$.o.&.} &.} &.$.o.$.$.&.&.,.2.2.o.&.,.&.&.$.o.o.} o.} &.o.! $.T $.,.o.$.o.} ,.,.$.&.T } &.2.2.! $.y.2.,.2.< o         . . , s.@ o                                                                           .   $ O .       + * - & O o   .                                                                   . > & o ",
"s.s.s.s.s.s.s.s.s.s.s.s.s.s.s.s.s.s.s.s.s.s.s.s.s.s.s.s.s.s.s.s.s.s.s.s.s.s.s.s.s.s.s.s.s.s.s.s.s.s.q.s.$.3 s.s.s.s.s.s.s.s.s.s.s.2.s.y.q.2 8 ,.o.&.2.$.$.! ,.8.o.} o.o.} } o.} o.,.! &.o.} $.} o.o.,.,.} &.8.} ,.$.$.} $.o.&.&.&.&.$.o.o.} } ! $.o.$.&.,.,.&.$.} ,.o.&.2.&.&.&.&.&.! } $.o.&.o.n &.,.&.! T &.&.&.n } &.! q.&.>         * y.@                                                                 .                         X $ & $ $ & = = # # +                                   . .                       .       + - ",
"s.s.s.s.s.s.s.s.s.s.s.s.s.s.s.s.s.s.s.s.s.s.s.s.s.s.s.s.s.s.s.s.s.s.s.s.s.s.s.s.s.s.s.s.s.s.s.s.s.s.s.q.9 $.s.s.s.s.s.s.s.s.s.s.q.s.y.9 s T &.} ,.$.$.$.2.,.&.} &.o.$.&.o.$.&.o.o.8.T ,.o.! $.! $.o.&.&.o.&.,.o.&.&.$.$.$.$.&.&.$.$.$.$.&.&.&.&.} o.} } $.,.$.! o.&.o.o.&.&.,.8.o.o.! o.,.$.$.T $.,.o.o.o.o.$.T &.8.} A ,.o.A ,.} & X . q.&   .                                                                               O $ & = ; > 2 n ,.q.s.s.s.8.s.q.T 9 5 1 ; # X     .                                                   . ",
"s.s.s.s.s.s.s.s.s.s.s.s.s.s.s.s.s.s.s.s.s.s.s.s.s.s.s.s.s.s.s.s.s.s.s.s.s.s.s.s.s.s.s.s.s.s.s.s.8.y.s.y.9 q.y.s.s.s.s.s.s.s.s.s.s.8.9 T &.2.o.$.o.o.o.$.$.$.} ! &.o.$.&.o.$.&.o.o.8.T ,.o.! $.! &.&.o.o.&.o.} &.$.$.$.,.&.&.$.$.$.$.$.$.&.&.&.&.o.$.$.} o.,.$.A 8.&.,.$.} o.$.o.T $.$.&.o.T o.o.2.2.! } ,.2.,.n &.! $.2.&.$.&.&.&.,.> 2 ;                                                                 o + # * - % o     . X . . o # = < 5 s 8 2 > = = % O .               X         . . .     . .     . .       .                 ",
"s.s.s.s.s.s.s.s.s.s.s.s.s.s.s.s.s.s.s.s.s.s.s.s.s.s.s.s.s.s.s.s.s.s.s.s.s.s.s.s.s.s.s.s.s.s.s.s.s.y.s.s.q.s.s.s.s.s.s.s.s.s.s.s.s.s.3 &.&.,.} 2.&.,.$.,.$.&.$.$.o.} o.o.o.o.o.o.$.,.} &.$.} $.} &.,.o.o.,.} T ,.} $.$.,.$.&.o.o.&.$.$.o.o.} } ! $.&.,.$.$.,.&.} ,.o.2.2.$.&.$.} o.&.o.o.} ! &.&.T ,.2.,.o.} ,.,.y.8.,.! T $.,.} $.o.8.- .   X     . .                                                                     . O + @ = > - - , 3 3 o.A 5 , : +         .                                                   . . .         ",
"s.s.s.s.s.s.s.s.s.s.s.s.s.s.s.s.s.s.s.s.s.s.s.s.s.s.s.s.s.s.s.s.s.s.s.s.s.s.s.s.s.s.s.s.s.s.s.s.s.s.s.s.s.8.s.s.s.s.s.s.s.s.s.s.s.s., } o.,.$.$.o.&.&.q.8.q.$.} &.,.&.&.,.&.&.,.$.$.$.o.&.o.&.$.,.&.$.o.o.o.} $.o.$.} &.} &.} o.o.$.$.&.&.,.2.2.$.} $.2.,.$.$.,.! ! $.} $.&.! $.&.&.} o.$.o.,.$.! &.$.$.o.o.,.$.o.} o.8.y.! n 2.8.} &.3       .                                                       .         . o # * ; < 3 5 A o.8.s.s.s.2.o.k 5 8 2 : O                                   .       . .       .                     ",
"s.s.s.s.s.s.s.s.s.s.s.s.s.s.s.s.s.s.s.s.s.s.s.s.s.s.s.s.s.s.s.s.s.s.s.s.s.s.s.s.s.s.s.s.s.s.s.s.s.s.y.s.8.s.q.8.s.s.s.s.s.s.s.s.q.s.> ! o.$.&.! } $.T } n } } ,.o.&.$.o.&.$.o.&.$.} &.} &.$.&.$.,.$.&.$.T o.,.! $.$.! o.T $.} $.$.$.$.$.$.o.o.o.} n ! 2.2.T ! q.2.q.2.! ,.,.A 2.! &.,.2.$.! $.&.$.&.} } o.o.$.A &.$.,.2.$.o.&.,.o.,.A   . .                                                     .         . o + + % ; > < 3 3 , ; > , ; ; > : = % .     .   . .                     .     . @ * = % $ & # .                           ",
"s.s.s.s.s.s.s.s.s.s.s.s.s.s.s.s.s.s.s.s.s.s.s.s.s.s.s.s.s.s.s.s.s.s.s.s.s.s.s.s.s.s.s.s.s.s.s.s.s.s.s.s.s.s.s.s.s.s.s.s.s.s.s.s.s.8.,.: } $.8.A $.o.o.&.2.,.} n $.,.T ! o.! s.,.$.$.o.o.o.o.o.o.T $.,.,.,.,.$.! o.&.&.2.} $.$.,.,.$.o.} ! o.,.&.&.&.o.8.&.&.! $.$.o.} } $.&.$.$.&.&.$.o.o.o.&.,.&.&.o.! ! &.&.o.$.,.$.o.&.o.} 2.,.} O   .                                                                               $ < } y.q.q.&.s , % o     .         .           .     O & = < t ,.} o.! ! o.9 9 3 1 > +     .                 ",
"s.s.s.s.s.s.s.s.s.s.s.s.s.s.s.s.s.s.s.s.s.s.s.s.s.s.s.s.s.s.s.s.s.s.s.s.s.s.s.s.s.s.s.s.s.s.s.s.s.s.s.s.s.s.s.s.s.s.s.s.s.s.s.s.s.s.s.s.= 8 } ,.n &.y.,.} } &.,.$.! o.y.,.&.! &.&.$.} ! } $.2.q.q.$.o.,.,.! ! 2.! } $.o.} } &.$.2.o.$.$.o.,.8.o.&.,.} o.A } ! } q.8.,.,.,.&.$.} $.&.,.,.$.o.} } &.o.$.,.,.o.} o.$.A } &.} 2.q.! : o                                                                                         + * % * O O o   .           . .     .       . * 1 s T $.9 s 5 &.k T T n t k n 9 $.T k 1 - +               ",
"s.s.s.s.s.s.s.s.s.s.s.s.s.s.s.s.s.s.s.s.s.s.s.s.s.s.s.s.s.s.s.s.s.s.s.s.s.s.s.s.s.s.s.s.s.s.s.s.s.s.s.s.s.s.s.s.s.s.s.s.s.s.s.s.8.s.s.s.s.s : 3 q.o.! $.2.&.o.$.n ,.2.A ! $.T ! &.&.,.,.&.$.} ! n } ,.,.2.2.$.T &.$.8.$.o.o.2.} ! 2.o.! 2.2.} $.o.&.} ! A &.&.&.&.$.o.$.&.&.$.o.$.} ! } &.,.&.$.,.$.o.&.$.} o.&.o.&.2.2.,.k - . .       X                                 .     .     O = $         . .                           . .         .       .     .   # , : 8 ! o.} 3 3 = $ $   + X   * - 1 3 8 T A n k n n A 9 1 > & # O o ",
"s.s.s.s.s.s.s.s.s.s.s.s.s.s.s.s.s.s.s.s.s.s.s.s.s.s.s.s.s.s.s.s.s.s.s.s.s.s.s.s.s.s.s.s.s.s.s.s.s.s.s.s.s.s.s.s.s.s.s.s.s.s.s.s.s.s.s.8.2.s.q.k > > 2 T ,.$.$.,.y.! o.s.! k 2.A ! ! T ! } o.&.&.,.! T $.&.! } 2.$.$.8.&.$.,.y.&.$.} $.,.$.o.&.$.o.$.$.o.o.&.&.&.! ! ! o.&.,.&.$.&.$.$.$.&.&.o.} 2.,.$.} $.2.2.$.,.s 2 ; o   .               X                                       $ > 2 3 3 1 @ X                 .               .     .   X   .       o ; 3 n 1 3 3 : - $ o .   % @   X @ @ @         # % 2 t ! 2 , 2 5 8 2 2 & $ ",
"s.s.s.s.s.s.s.s.s.s.s.s.s.s.s.s.s.s.s.s.s.s.s.s.s.s.s.s.s.s.s.s.s.s.s.s.s.s.s.s.s.s.s.s.s.s.s.s.s.s.s.s.s.s.s.s.s.s.s.s.s.s.s.s.s.y.q.s.s.s.s.s.q.s.&.8 , , , > 1 &.$.y.,.8.,.,.,.,.&.$.$.$.$.$.2.$.$.,.&.T n T o.o.o.o.T $.o.T $.&.T ! q.o.n 8.,.$.&.&.&.o.o.$.&.$.&.,.,.,.&.o.} o.$.o.} o.,.8.o.o.} A k 3 : %   . .           X         X                           . . .     * < 1 , 2 < : > : - * # o         .               .             .   = 2 2 s A ! k t ; + X   o X o o + $ + +   o * = * & * - % o   % < ! 2.k 8 5 * - : ",
"s.s.s.s.s.s.s.s.s.s.s.s.s.s.s.s.s.s.s.s.s.s.s.s.s.s.s.s.s.s.s.s.s.s.s.s.s.s.s.s.s.s.s.s.s.s.s.s.s.s.s.s.s.s.s.s.s.s.s.s.s.s.s.s.s.s.s.,.s.y.s.,.s.s.s.y.s.s.y.&.9 > - + * , 2 8 A ! $.,.2.2.,.&.o.2.2.o.$.q.y.,.&.&.} &.o.,.o.$.q.T T &.&.&.&.$.$.! } } $.! $.,.} } o.&.2.8.,.&.2.$.! A k 3 , ; $ O                     .   . % . .   o   .                       . .       $ > 1 : , 1 , > , > 1 , , < > * @ + @ o           .             . o       @ 1 o.n 2 ,           o & & @ % O $ + + @ @ % @ $ - $ < <   @ O + > t T o.% > 3 ",
"s.s.s.s.s.s.s.s.s.s.s.s.s.s.s.s.s.s.s.s.s.s.s.s.s.s.s.s.s.s.s.s.s.s.s.s.s.s.s.s.s.s.s.s.s.s.s.s.s.s.s.s.s.s.s.s.s.s.s.s.s.s.s.s.y.s.2.s.s.s.s.s.s.s.s.s.s.y.y.s.y.s.s.$           . o + $ * - : > > 1 5 s n A ! } } A } 8.,.$.q.o.,.,.&.2.,.&.,.,.$.2.&.8.&.2.,.,.$.! k 8 2 , : = # .                           .   .     # * .   O           .                       o % ; : ; , : > , ; & = < < < 2 2 > = = ; * $ + o o o o + - $ * @ . o   X   + o     . = -   X     O # @ X $ $ . O   : * + , ; $ + * * - & , O % - X . & = 2 < 5 ",
"s.s.s.s.s.s.s.s.s.s.s.s.s.s.s.s.s.s.s.s.s.s.s.s.s.s.s.s.s.s.s.s.s.s.s.s.s.s.s.s.s.s.s.s.s.s.s.s.s.s.s.s.s.s.s.s.s.s.s.s.s.s.s.s.s.s.y.8.y.y.s.q.y.q.q.y.y.s.s.s.s.q.s.q.O             . .         . .   . $ - - = & $ # & + o @ % - , : * * ; = % % * $ $ + O .                               .     .       . .       + ; #   # ,   .                             . + % = : > , * ; 2 5 , > , = = = - ; = & * : , = # # & ; - & = $ % = = * #   % @ @ % = $       o             +             . . . & * $ & X - $ ; - @ % * o   $ 2 A ",
"s.s.s.s.s.s.s.s.8.s.s.s.s.s.s.s.y.y.q.s.s.s.s.s.s.s.s.s.s.s.y.8.s.y.s.s.y.s.y.s.s.s.s.s.s.s.s.y.s.s.s.s.s.s.q.q.s.s.s.s.s.s.q.8.s.s.s.s.s.s.s.s.s.s.s.s.s.s.s.s.s.y.s.s.} *                     . .     - > ! s.y.y.s.s.s.s.8.s.s.} ,.,.! $.T ,.o.T o.} o.$.: ; .       .   .     . .                           @ O @ O   # ; =       X         .   .           o ; 1 1 2 1 1 : - - ; ; ; 1 , : = - - - * $ $ % % = & # $ $ + o + $ # + + $ - - * $ $ # @ * & #       X . o       X   + $ % $ # # $ o           O . : , o + * = =   1 ",
"s.s.s.s.s.s.s.s.y.s.q.s.s.y.s.,.s.s.q.q.s.y.q.s.q.! 2 > > 3 $.s.2.s.q.q.s.s.s.s.s.s.s.s.s.s.s.s.s.y.s.s.s.8.s.s.s.s.q.s.s.s.s.s.s.s.s.s.s.s.s.s.s.s.s.s.s.s.s.s.s.s.q.8.s.s.<                       O = * > > 5 2 ! t 9 A &.s.y.,.s.s.s.s.q.y.T } 2 2 t k ; : # %                                       . . o & + . $ 8 k * .                         .     & > - 3 5 3 : * = < , , 2 1 : = % $ $ $ $ $ O       O + % = = ; : = : < 1 1 , - & # + @ % : $ % o o +   .       . . : 2 5 o.$.} } 2.s.y.$.} A 5 > #   o   & > * 2 , ; 1 + ",
"s.s.s.s.s.s.s.s.s.y.s.s.8.s.2.s.s.,.s.s.y.s.s.t - 1 } s.s.o.5 < 2.$.q.s.s.y.s.s.q.s.s.s.s.y.s.s.s.s.s.s.q.s.s.} y.s.s.s.&.o.s.s.s.s.s.s.s.s.s.s.s.s.s.s.s.s.s.s.s.s.y.8.q.y.s.y.: #     . .     % & * & - * > > # * # & - , } y.s.s.q.y.y.2.- o -   $ # : * + - & #                           . .           X & 3 } s * . . X       . .       . .     o o ; 5 A 3 : & * 2 , : - = @ O O $ $ & - & @ o o @ $ & * - = ; ; * % & $ : = % = > , , > < 2 : # : < < 2 $ = o   . * < 2.2.! < > & o         @ & - < n ,.A 5 , $   + - ; # % 3 ",
"s.s.s.s.s.s.s.s.s.s.s.y.s.q.s.8.8.s.s.s.o.> : k q.y.s.s.s.s.s.y.< n s.s.s.s.2.q.! &.y.s.s.y.s.s.q.y.s.s.s.s.} ; q.s.s.s.$.T y.y.s.s.s.s.s.s.s.s.s.s.s.s.s.s.s.s.s.s.s.s.s.s.s.y.s.2.T 9 1 < 8 o.q.% o # : % * % O     . O % 2 s.s.q.s.s.q.k % +   . . o O < ; 1 8 :   .             . .             + = 3 k 8 3 &     o .   X . .         .       # & = s 1 < * % ; - , , > % % & @ O O & = - : 1 3 n } $.o.$.&.&.8.,.,.8.&.o.8.&.&.&.$.T t 8 9 > ; - > , 1 : = - * # X & > : +   = , 2 3 k 2 > = o           . * = 5 t 1 % + O $ : $ ",
"s.s.s.s.s.s.s.s.8.s.s.s.8.s.s.s.q.8.5 > 8 ,.q.s.s.s.q.q.y.s.s.y.s.s , ,.q.s.s.s.T &.y.s.s.s.s.s.s.8.s.s.y.s.s.y.s.s.y.s.s.s.s.s.s.s.s.s.s.s.s.s.s.s.s.s.s.s.s.s.s.s.s.q.8.y.s.q.s.s.s.y.y.s.s.s.q.  > = 1 1 < . .         # < &.q.y.s.8.! & O .         + # 9 < t ; -     .     .         @ = > 9 T s 1 = O     .     X         .     o     # - : : , > ; * ; > 1 < : # * $ @ O O = , 2 9 T $.q.o.,.2.,.$.$.$.,.n o.} } ,.$.A n n T ! n t s A o.$.y.o.s 5 1 < 3 > : < % .   : A o.y.8.2.,.q.} T n 2 2 ; o     O ; @ @ - , 2 & $ # = # ",
"s.s.s.s.s.s.s.s.s.2.y.s.q.8.< , 1 = , n A &.s.8.y.y.y.s.s.s.s.y.y.s.2.> s.8.s.q.q.s.s.s.s.y.s.s.s.y.s.s.y.q.s.y.s.s.s.s.s.s.y.y.s.s.s.s.s.s.s.s.s.s.s.s.s.s.s.s.y.8.y.s.s.s.s.s.q.s.s.s.s.s.s.s.} O 1 } < 9 =     .       o > 2 s.s.y.s.A , o       .     = 2 2 = } # X   X   .           o @ $ o @ $ = = # o X                       . @ 1 t < 1 - 1 : % * % ; , - @ + @ = * - 2 ! } } A &.2.,.2.&.o.$.2.q.,.! 2.o.&.,.$.,.,.A 2.&.&.} } $.T k s 9 &.o.,.k 3 @ : 5 2 - : n 8.&.q.T 8 n ! ! t } } k k 9 2 < & .   * = > = * , > & @ = ",
"s.s.s.s.s.s.s.s.q.y.s.s.s.1 2.s.y.s.s.s.8.! T ,.&.2.q.8.,.,.y.s.s.s.q.n 5 s.q.s.s.s.s.s.s.s.s.s.s.s.s.q.q.s.s.s.y.s.s.2.8.8.o.y.s.s.s.s.s.s.s.s.s.s.s.s.s.s.s.s.s.s.s.s.q.y.s.s.s.y.y.s.y.y.s.s.8 % < 8 t $.s X   .   .   o ; < s.s.8.s., ,       .     o = 1 9 &.; =   .                   . X $ & $ $ @             . o       X   X $ 1 1 1 3 3 1 =   ; O % * $ # % @ % > s 2.&.&.T o.$.,.2.} ! &.2.$.! } $.&.8.o.o.&.! } &.o.&.o.,.$.o.o.} 2.q.8.T o.} ! $.8.8.5 A 8 o.A &.2 1 s ! ! ! 8.} $.T &.2.,.o.} T 5 , & & . , ; = < < , : ",
"s.s.s.s.s.s.s.s.s.s.y.q.o.s.q.s.s.s.y.q.y.y.y.s.} ,.8.&.T T ,.s.8.y.s.s.2 k s.y.s.s.s.s.s.s.s.y.s.y.q.y.s.s.s.y.s.q.s.$.q.s.&.s.s.s.s.s.s.s.s.s.s.s.s.s.s.s.s.s.s.q.2.s.s.s.s.s.s.q.s.s.s.8.8.s.9 @ 3 8 2 2 2 X     .     O = , s.s.q.s.t ; +     .       5 ,.n 2 A = .           . . . .         o         .       .       % : : , - . = > 2 < : % $ * & + # $ O * 2 3 1 9 A $.$.! $.2.&.k &.&.} 2.8.&.} o.&.,.} o.o.,.q.} T 2.&.A } &.2.,.} ,.! o.$.T 2.! $.5 > 3 5 : 1 1 s $.$.o.$.8.2.2.A 2.,.&.! ,.8.$.&.} 2.$.T 3 o o + * ; 1 < ",
"s.s.s.s.s.s.s.s.s.s.s.2.,.q.y.q.s.s.s.q.s.s.s.s.8.s.s.y.s.8.! } &.} } q.s.< 8.s.s.q.s.s.s.s.s.s.q.s.s.s.s.s.s.y.s.s.s.s.s.s.s.s.s.s.s.s.s.s.y.s.8.s.s.s.q.y.s.y.s.q.s.s.s.y.s.y.s.s.y.s.s.y.q.y.9 . T , 8.$.8.k o     $   ; : 1 q.s.y.$.3 1 * + X       3 &.T s.1 3 > X #     & # o           X             o o % = > 2 t t 1 ; 8 ,.<   # : - & * $ +     # % % , < ; 1 ! } $.,.o.o.o.$.&.&.$.! o.o.&.! 2.T ,.} ,.2.! o.o.! ,.&.o.} ,.! ,.,.o.,.$.&.o.$.$.} $.} ! - < : = ! &.,.o.n k } o.A k T A k 2 > 5 A ,.,.2.T 2.8.2.8 +     $ < ",
"s.s.s.s.s.s.s.s.s.8.s.s.$.3 2 k o.q.q.s.s.y.s.s.s.s.y.s.s.s.s.s.o.o.T 5 2 < : 2.y.s.q.s.8.8.s.y.q.y.s.s.q.y.s.y.s.s.s.s.s.s.s.s.s.s.s.8.2.s.y.s.s.s.y.s.s.y.q.y.s.y.y.y.s.s.s.q.q.s.y.s.s.s.s.2.8 * 2 A n n ,.A 9 % & 2 < 3 9 - 8.8.q.k 3 s < ; % ; - t > s ! 2 T 5     + - 2 1 1 < , , 1 3 1 > - - ; : > , < 1 < < < < < < 2 3 < 2 1 o + & ; @ + o   X   @ - : < n ,.q.2.} $.8.A ,.2.o.} &.,.} o.o.$.} ,.! 2.$.&.,.o.$.$.o.$.$.$.8.o.&.o.$.! o.$.,.o.&.&.$.,.&.! &.t 1 ,.y.A 3 k A o.&.&.$.&.,.&.&.q.&.8 : & ; > ! A o.s.$.&.1 $ * * ",
"s.s.s.s.s.s.s.s.s.s.s.8.q.y.T 1 - 5 T ,.s.y.s.s.q.q.s.s.s.y.s.q.s.y.2.y.y.s.o.= 9 2.s.s.8.s.8.q.s.s.s.8.s.s.s.s.s.s.s.s.s.s.s.s.s.8.8.s.s.s.s.s.y.s.s.s.y.s.s.y.o.n 1 > - - - ; > = * : 3 8 ! s.q.  T n n T 2.,.$.T o.A k 5 8 2 8.8.s.8 < ! t t , y.2 s $.o.k k < <   X         = < 5 1 : : : : < < 1 1 1 2 3 3 3 1 , : = = : 2 3 , ; X o - &   . @ . * : 2 A &.o.o.,.$.! &.$.! } $.&.&.o.o.$.$.&.,.$.&.&.} &.} T T o.$.&.2.,.2.T &.A $.$.$.&.&.! o.! o.o.} &.$.$.$.,.8.} 1 3 5 n o.&.o.! o.} A $.8.} y.8.o.A s < @ O ; : n k s.} , = ",
"s.s.s.s.s.s.s.s.s.s.y.s.s.s.y.$.s.< A ! 2 9 t $.q.q.s.s.s.s.s.s.s.2.s.s.s.y.s.s.: ,.s ; - : 1 t s.8.s.s.s.2.s.s.s.s.s.s.s.s.s.s.s.s.s.8.2.y.s.s.s.s.s.8.y.8 = , < t T ,.,.2.$.8.T 2.2.s 3 < & + #   = , y.,.T o.2.,.k ! 9 k $., ,.s.s.t , } 9 t 8 t &.$.&.o.y.,.9 O .   = ; s 3 2 < = + o @ = , ; ; ; - = & % $ & * ; > , < 3 t } 3 # o % - $ % * . $ 3 A q.k &.,.T ,.&.! ,.$.A &.} } &.,.$.o.$.&.2.o.,.$.$.&.$.&.$.2.o.o.,.! } o.$.o.} &.T $.} o.&.o.&.&.$.,.&.&.o.2.} 2 3 3 o.$.2.,.o.$.8.2.} 2.&.$.k k q.o.$.2.t > = : . * ; A ,.! ",
"s.s.s.s.s.s.s.s.s.y.s.s.s.8.y.s.q.8.1 o.} 3 3 5 A A n A o.,.8.y.y.2.2.s.s.s.s.s.T $ k s.8.o.k n 1 : t T s 8 y.q.s.s.s.s.s.s.s.s.y.q.y.s.s.s.s.s.y.q.$.: = t 8.&.} 8.2.2.$.$.! 2.2.,.T &.&.&.9 o     # T k 5 9 3 3 A 2 } T 2 s.2 &.s.s.5 2 ! n s ! n 2.} k t 9 k ; O     = , & * , 2 8 A $.} 8 < , < 1 2 5 t n A } } } A t 2 : * 1 ,.@ # : = = @ . , n o.2.q.,.&.&.n 2.q.$.&.$.o.$.&.$.} $.,.,.o.! &.! ,.$.2.2.2.} } &.! } 2.&.,.$.! ,.} $.o.o.o.&.,.o.&.&.o.&.$.,.T ! 9 8 8.} $.&.$.} ! o.$.&.o.} ,.o.,.,.T 8.&.,.! &.! * = = , , - ; ",
"s.s.s.s.s.s.s.s.s.s.s.s.s.s.s.y.s.y.,.2 T } k 5 2 8 A T k 9 9 t 1 < , , A s.2.8.y.> 3 , 3 t s < 9 8 8 5 $.$.8.s.y.s.s.s.s.s.s.s.s.s.y.s.s.q.y.s.T - , &.$.! &.,.&.&.} o.$.,.&.,.} } s.&.} ,   $ : @ X = k &.8.y.2.8.2.9 ,.T $.2 ,.q.s.< 5 t $.s.} } n T ,.&.,.T $   . . : 1 k t 2 2 , = = : < < 2 5 k } o.} n s t s t s T o.A 5 1 - . & # @   % t t ! } ! } $.o.s.} ! } } $.&.&.$.$.&.$.$.o.$.2.$.2.} 2.o.$.$.$.,.2.2.} ! $.} T o.T o.$.! 8.o.,.$.&.} $.o.} o.} } 2.s < &.8.! $.} } } } ! T o.,.2.n &.} &.o.} &.$.o.,.$.! 8 * & : 8 s ",
"s.s.s.s.s.s.s.s.q.q.y.s.s.y.s.s.s.s.s.8 2.T n ! $.s t 5 < 5 8.s.s.y.q.s.k < 8.s.s., T 1 > 1 2 5 2 k < : ! s.y.s.s.s.y.8.8.y.s.s.s.s.8.y.s.s.s = > 2.q.} 2.,.} ,.,.} } } &.&.,.$.A A n t & o +     o * X = A > 5 A 3 $.2 , q.s.n q.y.s.2 k k 9 8.t n s t ! < 2 <       . @ # @ # % : 2 9 s t 3 < > ; - * * - : > > > : ; : > > > 1 *   % o @ , A k q.T ,.s.,.,.} $.2.&.&.&.o.&.2.2.o.o.,.&.! o.q.,.8.o.&.o.} } ! T $.$.o.o.,.2.} ,.&.$.2.! &.o.o.&.,.$.,.,.$.,.&.,.2.! 8 k $.y.8 5 8 s T T T } &.$.$.! T k k ,.$.&.&.8.T 8.$.,.2 , ; > ",
"s.s.s.s.s.s.s.s.s.s.y.y.y.s.s.s.q.s.s.s.2 t 9 , > & : 9 t 8.s.} t 1 < 9 T s.2 2.s.- 1 } &.$.,.o.o.,.T 1 1 &.s.q.s.s.8.,.,.8.s.s.s.y.s.s.T ; < ,.&.} A $.&.o.&.T o.! ,.&.&.! ! s t 9 1 + o # o X   O O o % # T 1 t $.1 ! > s.y.2.s.q.s.} y.y.- , A 3 1 2 < * - <     .     * @             . # - 2 2 3 5 5 3 2 1 : > , , > : , 2 3   $   % , 9 T &.&.$.$.n &.k 8.n 8.o.} 2.$.$.$.2.$.o.o.&.&.&.&.! o.! $.$.$.,.&.n &.$.$.&.&.2.T $.o.$.&.,.} y.$.} $.} $.&.$.,.&.o.o.o.2.s 2 2 ! A T } &.2.,.o.T 2.$.$.,.T o.T k 9 &.} ,.o.$.o.2.! k 5 ",
"q.s.s.8.y.s.y.q.s.s.q.s.y.s.y.s.y.q.5 2 8 n , : 1 q.s.s.n s.y.< s.s.! T = @ ; ; s.2 &.} ,.8.,.! 8.$.o.&.2 : s.q.y.s.s.s.t y.y.s.q.s.s.1 ; n $.} s.&.} o.2.&.A ,.q.2.k ! , < $   # $ # o o # @   + & = O : 3 % n 3 s T k ; 8 s.2.s.s.y.q.s.3 > 8.1 n k > , > s $   .     # = - > ; , , > - % & & @ X       X % > > ; : : ; : 1 3 =     + 1 t T 2.$.$.! &.o.&.o.$.&.} o.&.o.,.! ,.s.&.A o.&.,.$.o.T &.,.&.A ,.$.,.o.o.$.&.&.&.$.o.8.&.} &.! &.$.} ,.} } o.} o.$.} A n n t > n n 2 &.,.$.&.T o.$.2.n o.,.$.$.2.$.n ,.9 9 } $.$.T 8.} s 5 ",
"s.s.q.y.s.q.s.s.y.s.s.y.s.s.,.k 8 s s.s.n 3 } s.q.s.q.< s.q.} - y.s.3 : 5 , - + - 2 o.&.3 1 2 2 3 9 k ,.2.T > } s.8.y.y.s.s.y.s.s.2.% 2 &.A o.o.s 2.! } $.} q.2.t 9 , * = : > < : +   o o % * & = & # @ + 2 s % q., k k k O - 8.s.s.s.s.3 o 2 ! 8 3 2 ; > t 5 .             .   . # ; ; : - = * = : : - ; < : % : , 1 3 3 3 3 > +   @ < T &.8.} o.$.&.! &.&.,.} &.! $.$.$.$.} &.$.&.$.2.$.$.o.&.,.$.} &.2.q.$.} &.$.o.o.o.$.&.&.o.o.2.! $.} 8.,.2.$.} o.$.&.&.} A k < n 2 - &.q.$.,.T $.n $.T ! o.} } } ! T o.,.2.,.T : s ! T s t 3 < ",
"8.s.s.s.8.s.q.s.s.y.s.q.A < 9 q.s.s.y.s.s.q.s.,.s.2.n s y.q.1 1 s.q.1 - ; 1 , O   $ 8 t n A A o.$.&.T 8 t o.$.> 3 s.s.&.s.s.y.s.t * T &.y.,.} } &.A $.o.o.! 3 s 5 2 1 2 &.} A n % o % # + X & $ = # O =   1 2 k = 3 8.9 s o.+ ; y.s.s.9 o 1 1 ! T 2 < 1 1 - &       . $ < 2 , > &     . # ; 1 2 2 , - * = ; : : : 3 s A &.s.3     * , A n A } &.2.! } $.8.} o.&.&.! &.o.,.o.o.&.o.&.$.,.} ,.$.&.&.&.&.$.} k $.s.&.$.$.o.o.$.$.&.o.&.,.} o.} $.$.o.,.2.&.o.! $.8.q.,.} 2 , A 8 2 2 8 s 3 5 t o.,.} ,.8.&.} } $.&.n $.T o.: 2 1 n $ 2 q.",
"s.y.s.s.s.y.q.y.y.y.o.3 k s.s.8.2.&.s.2.y.s.,.s.$.1 3 q.s.,.1 9 y.s.> , > 2 @     o > : < 1 5 T ,.&.&.8.T T k &.2 ,.,.s.y.8.s.< , 2.q.&.2.&.o.o.$.y.$.t 2 2 9 9 8 } 2.&.} s.$., @ % : ; # $ & # * * % ; % % t t , & , 8.> 8.& $ o.s.8.# , t 5 t t > s , : ; +           o     @ ; , , % * # .   o % 1 T k < : > 8 9 3 ; & : = . = 8 3 n ! } k A } 2.$.o.! q.,.} &.} $.$.,.o.o.&.$.,.} } T 8.,.&.8.$.$.$.,.9 A n o.$.$.&.&.$.o.o.&.$.! ! o.} A ! ,.,.o.} ,.,.o.&.&.2.,.2.9 3 1 A T &.} 8.o.8.n 8 s T T t t A o.$.8.k 2.} A 2 3 : 2.t 1 ",
",.s.2.s.y.s.s.s.s.! s 8.s.s.&.o.s.s.q.s.s.s.s.,.n 2 ! s.s.A 5 s s.s.; * 1 3 @ .     O } y.A 3 , - 2 3 t &.2.! s A < 8.s.q.s.; 2 } 8.$.o.n 8.s.&.} } t 9 A ,.y.o.,.o.} ,.s 8 > & $ % % % O # * : > 1 ; 1 , o k 2 < 9 : ,.< 2.! ; % 1 * > ; k } 2 2 : 5 , > ; %     X $ * & % $ @ o @ & - : : < > < 2 = . o > 9 2 & O $ #     + < s k T $.! } &.2.,.} A 2.,.$.} ,.$.$.} ,.$.$.o.&.} &.$.} T &.,.2.! o.&.&.,.3 ! A $.$.&.&.&.$.o.} } T n ! ,.} T $.T ,.2.$.} T } 8.T 8.! k ,.T 8.} k ! 8.! o.A 2.2.2.} A n t 2 2 3 A T } o.,.k 5 3 5 3 1 ",
"s.s.s.2.q.s.8.s.5 o.y.s.$.o.&.s.y.s.s.,.s.1 ,.s.y.s.q.s.2.T < o.s.8.,   < 1 1 , ; + X < } y.s.$.5 > s 3 t s 8.$.8 A 1 s.s.= A ,.} n $.8.q.o.! T 5 1 T $.&.2.! ,.} o.s 1 1 > & @ # $ * $ O . + % * % ; * % ; ; @ > 3 > 3 } 8 t 1 ; , - = T 3 &.5 : 8 , 1 * 8.    . X     O = - & , * $ = # + * * ; : > , : : 3 2.q.&.q.} T ,.8 , > 3 ! o.&.$.&.! o.&.,.T $.,.2.} $.&.! 2.$.$.$.&.o.o.$.o.$.&.&.o.&.$.A ! ,.5 &.! ,.&.$.o.} o.o.o.! $.n q.T $.k &.&.$.} ! $.&.o.o.&.$.8.t o.2.! $.! } } 2.,.8.&.$.$.o.$.,.&.! n k 5 < 2 5 q.o.} 3 2 < < ",
"y.s.,.@ < } q.8 q.s.s.&.o.q.s.q.s.q.y.s.> = X t s.s.y.,.8.q.< 2.8.s.t   , , < 2 t 3 , # $ > ! 2.,.2.1 8 8 t T ! $.8 > ,.> n o.q.$.$.} 2.! A 1 t $.8.} &.$.o.2.t 1 3 A 9 2 # o @ X O $ : - > - * < : - 2 =   o.< > < } o T A T &.- - - 2 8.1 5 ; 2 > ; 2 &.8       $ $ + @ o   .   ; , , , ; # &   % 3 $.&.$.$.&.! o.&.,.o.n n } t 5 ; : n ,.8.n ,.} o.$.8.o.$.&.$.&.} ,.&.} &.&.&.} $.} 2.} $.} &.q.,.q.$.> k T ,.&.$.o.} } o.o.T $.T ,.t ! s n &.$.&.$.} o.&.&.T o.T s T 8.! ! $.! ,.! &.k &.q.&.,.&.o.} o.$.$.8 2 9 2 s 5 A , 1 k ,.",
"% 5 - s.2.2 k ,.s.$.$.,.s.s.s.s.8.s.s.&.8 > > o 2 y.s.$.5 s.< s.y.y.k     $ 1 3 : *   & & @ & 1 T $.y.t t } 3 &.$.2.2 ; k $.T 3 ! ! o.k 9 1 A $.,.T $.&.n 8 3 t $.} ,.9 : % = = - + & ; > ; : % % - < 2 < % ; ! $.@ T : @ % % * : 5 < * o > - ; n * s q.! -         . @ @ o X o o       o 1 , * n } ,.,.&.o.} } o.8.9 8 k k o.s o.9 1 A s 2 &.&.$.&.} &.o.2.$.$.&.$.o.$.2.! ,.&.$.o.q.} $.t o.8.2.o.5 ! } < } ,.$.$.&.&.$.o.! ! s 5 $.2 } t &.3 8.$.o.&.$.,.2.o.! 5 5 1 o.} o.$.$.T o.&.,.A A } ! T o.2.&.T } 8.&.T 9 k s ; > T ,.T 9 ",
"q.s.2 s.! A y.s.T $.s.8.s.q.s.s.s.s.y.y.1 y., 3 8.: A 3 s.s., s.s.$.&.      . % , 3 > &     . - 2 T ! &.2.8 2 T } $.&.$ y.8.8 2 $.2.! k &.2.$.,.$.A 9 2 1 n o.s A t , - # : ; % * & * & . & * * $ * , ; * - > t q.1 ; t 2 @       .   % O   % 9 3 = q.< ,.            .   . . o + # @ +   $ t q.&.2.2.! } A o.! 9 5 A A n ,.,.&.&.} : 2 2.s t 2.,.2.! $.A ,.8.o.} q.&.A ! ! n o.T &.o.o.,.&.o.&.o.! ! $.! < n 2.} 8.o.&.&.$.&.9 n ! > % 2 8 t s ! k 2.3 9 A k ,.&.3 k t - 2 s.! o.$.$.2.! 2.2.$.&.o.t } A ,.&.T ! } $.,.2 3 s 9 2 2 2 ",
"q.s.,.3 } s.s.! ,.s.s.y., n &.q.y.q.s.q.8.> s.s.8.s.T , s.,.1 s.s.9 s.  o     o . - 2 k 2 , o   } 2 > A &.8.! 3 < 3 2 = 8 t 5 8 $.A T } ! } 2.2.$.9 3 n $.T t k 9 1 $ @ O < > : ; & o = * : , - ; : - * < > # 9 A A . 1 &.s q., 8.: k 2 2 t 2 } = k 2.! n   .       .       o X + = :   > q.8.T 2.o.o.q.&.&.9 s n o.A 2.q.} 2.&.2.} 8 : } ! , ,.q.&.} o.s.&.! ,.o.! } $.A &.,.} &.$.T &.$.A } } &.5 ! 8.1 , T &.! ,.&.} ,.A 3 5 A ; : : 5 n , 5 2 8 < = 1 1 } 2.5 1 $.} 8.< * ! $.2.T } o.$.! q.$.5 2 , : : > 1 2 8 A s 1 T o.2 > < 2 ",
"k ! 2 2.s.,.T y.s.y.s.= # +   5 3 1 > 3 3 t > s.s.y.s.s.5 9 1 y.s.3 q.        O $ > , , s 8 1 %   k ! < > 8 2.o.$.q.&.o.t 3 k A } n ! $.o.$.$.t 3 ! o.T n 9 3 5 @ # & @ ; * # o < * $ = % % % - & # < 3 , ; @ < 8 ,.# : o.8 y.9 s.3 s.T &.$.k n = $.k 5 = . X       .     .         o 8.8.o.,.&.T $.! } } k o.A } $.$.$.8.$.A $.$.! 5 5 ,.,.1 , : ! o.q.A 2.&.} &.o.&.! ,.$.$.T $.&.2.T 9 T &.! &.3 8.q.- 2 ,.o.s.o.! ,.T , t 3 O $ % - - * = - = : k s $.n &.$.2 - 1 2.,.2.,.- - < s &.$.,.&.&.&., k 2 t < s 1 < 1 < 1 1 k < < } ,.q.",
"5 $., T n s.y.s.s.s.2.. < , * s.s.y.s.8.2.A , - &.y.8.y.t - T y.s.! q.o           o - 8 k 9 , s 2 + ; 8 T 8 3 3 2 < , 3 3 8 $.n ,.o.} o.o.T t 3 o.T s k 9 > * * ; ; o $ @ : & = : < 3 , : 3 > ; > 2 3 < 3 3 # 2 3 $.t + : 2 s.5 y.k s.s ,.o.3 $ 1 ,.} ! X     X   X     .   .   . ; s.&.n &.,.q.s.} o.9 $.s.q.&.,.,.8.! o.8.} ,.2.$., A $.$.n , 9 o T ,.&.$.T } &.,.&.$.2.$.} ! 8.A ,.n 8 T ! s.o.! 8.A % T &.,.} 8.o.o., ! * & X - < % 2 1 $.T 2.A q.$.2.! 3 T s 3 % 2.$.! $.o.k , ; < 1 2 3 3 3 y.5 ,.3 2 3 5 2 3 k 8 , A ! 8.o.o.o.",
"t 1 s.- 2 8 } s.y.s.&.t k T 8.s.8.s.s.2.s.o.2.* 2 ! s.t n 1 &.s.2.2.s.+                 & = 5 2 2 A , $ 5 s T &.$.t 1 5 n } 2.8.2.8.} n n 3 5 $.! 8 1 < > : * + = * # - - - : = = ; - 2 2 , , > , : : , < s : * T t 9 s % $ , 2 s n ,.o.s s   1 A s.n A     . @ + # * ; # + . o k ,.n &.8.,.! 2.o.,.k 2.} A } o.! $.T } T ! 8.} &.T 9 n $.! s ,.3 ! % T o.q.o.A } ! } s.A 2.2.&.o.8.,.2 3 2.,.,.5 2.$.2 : 2.9 ! A $.,.* 2.* . . X ; : 5 s &.o.o.} ,.$.&.8.2 % o.o.9 , < 8.8.o.o.8.,.t 1 3 3 1 < t < T 8 t T 3 8 } s A 2 s.2.T &.n k k ",
"y.8., y.3 s k q.s.&.+ $ & 2 < s ,.s.q.s.s.! 8.8.: 1 s.q.s.} 5 s.8.2.8.    . . . .           X & , 3 5 9 - $ < } 8.$.2 5 8 o.n q.} A ! k 2 s $.n 9 , : : * % = : 1 > : > - % : & , 2 2 , : > , , 3 , ; , ; < ; + 3 n k 2.3 3 = @   o .     X 2 s.&.2.T & & - - = * > : * & # + T } ! 2.} } ! s.! ,.T ! } ,.y.} } &.! o.8.,.&.q.2.T 8 2.&.y.T T y.n 2 } > 2.} o.$.o.! ,.,.&.} ,.,.8.,.5 9 o.} } } 9 &.,.: } A t ! 2.&.; s :     * - * : 1 A k q.} q.s :   o s : A o.3 5 > k ,.$.&.k 8.y.k 5 8 s 8 > 3 2 5 T 3 s 2.T 3 2 } 3 1 * > < 2 9 ",
"s.8.s.8 T 3 ! &.q.1 $ % # ,.q.,.8 1 < y.,.q.s.s.s.$ $.s.s.s.1 8.8.y.k                   .       . . = , 3 < o ; 9 8.8 8 8 s.$.,.8 8.t 1 } } 2 5 < , ; & % = > , < = ; , , 1 2 : 2 > < > : > ; > : ; ; < < , - + , o.s.- 8 $.s.} o.2 k s 2.&.! 2 s.s.s.O ; ; * O $ @ % $ & @ 2.&.,.&.s.! &.$.&.$.k ! o.n o.T 8.o.,.A ,.$.$.,.! ,.$.n $.2.,.T q.o.9 9 ! , &.o.&.o.&.&.,.n y.A ! ,.} k 9 k $.&.A t &.,.o.- } 5 &.2.o.1 2 <   . + % &   % $ : 3 < : $   > * O T : > ,.$.1 2 = o.2.&.s.A $.y.8.k k 8 ,.A 8 o.9 k ! ! < 3 5 1 } &.,.2.&.8.s.",
"s.s.&.s.2.5 1 k q.n > 2 3 s.8.s.s.s.s.2 o.s.q.q.s.} > s.q.s.> s.} s.;           .             .   .     + : 1 & o T } 3 : n } ! q.5 9 } 8 2 3 , & % % ; < > , k ! 2 3 1 , 3 < < < , : : ; ; 2 2 > : , , ; - : * * o.8.o.> T y.5 s.2.! k 8.,.n 2 s.s.3 & : ; 1 - , > - * * &.2.q.} ,.T ,.T &.n s $.o.o.2.&.&.! $.,.s.$.! o.} $.$.&.y.} o.T 2.} } T 9 ,.1 n $.2.,.$.} k &.! 2.o.2.A : k $.&.&.3 A A ,.9 9 3 A $.T 3 1 ,             .               O ,.3 @ A 3 = 8 ! $., t 3 } } o.T k 8 ,.&.} k T 9 2.,.} } &.k < T t ,.n s.} o.,.,.&.",
"2 s.s.s.s.2.k > } s.3 t y.s.8.y.y.s.&.$.A k y.s.2.s.9 q.s.q.k - s.,.O     X     < O                     .     * & . : ! 2 < 5 t 1 s > > < 1 & - < : , < 2 3 : ; > 2 3 2 8 8 < : = : 1 1 < 1 , - : < , % - = : > . ! s.y.t t s.5 s.n 2.3 s.$.8 o.s.s.$ : X   X O & % > $ ,.y.! T 2.,.! ,.} 3 n $.$.o.} o.$.&.$.o.T $.A &.o.} } T 2.o.,.8.A A ! ,.} 9 y.* : q.$.! y.T n o.$.! T $., 9 $.o.} k 9 ,.o.8.= 9 9 8.8.9 > ,   O $ . .     X %   O         < 2.t > A ,.= 3 &.y.2 < 2 n &.&.,.k ! 9 < t t t 2.s 3 t o.q.9 t 5 2 < 2 3 k 2.,.,.,.",
"o.o } s.s.s.s.,., t y.&.2 1 ,.s.q.2.} s.s.n ! y.y.s.s.8 s.q.s.3 } +   . X     * > < 3 ;   .       X         X .   .   + > ! ,.3 2 3 < 5 - & : * , : + , 3 - 9 3 s 9 t 2 - - , , 1 - * ; < 2 1 > = = - = - , , = + , q.s.9 y.y.s.s.,.s.&.s.s < q.y.1     O % - - @ O   $.,.$.$.! $.o.2.! k n A 2.,.8.8.,.o.} &.2.n ! 8.s.n $.,.o.s A y.T T T &.} n A T @ O } &.} t ! 9 } 2.A y.3 < ,.} T T 3 $.8.2.t $ ; 2.o.5 # :   . # o     o   . X   + +   .   9 8.o.- A 8.1 3 o.o.o.2 3 k 9 &.q.2.! ! ! 3 n t 9 n 2 ; & + & & % # $ # @ o O - > 2 ",
"y.k . , s.s.8.s.s.T , $.o.  @ , A s.8.,.s.s.2 $.s.q.8.q.k T ! &       .     . 1 3 5 = < > $ @       .     . .         .   * 9 ; 3 3 s & < , > 2 < , s 2 3 A 3 t > 1 8 9 3 , ; ; 2 t 2 < 3 1 : < ; < : , , : % - & . 2.s.3 8 s.y.q.s.s.s.s.o.1 s.s.$ # * ; % * = : @ A } } ,.o.! 2.T n t ! q.o.! &.o.! ! $.&.$.} $.2.} } s.} $.3 $.&.o.k s q.T s.k q.=   @ k q.! 8 9 T } &.$.A , k &.T s.5 ,.} &.q.:   n o.9 o =     o X                 % . o @ o ! ! &.# k 8.k , } } ! 5 8 2 o., 3 2 q.2.t ! t k < 3 - % 5 &.,.,.&.2.$.q.A s 5 1 2 2 ",
"s.s.> 5 - n s.s.y.s.q.2 > o o X A 8 t s.2.s.s.1 8.s.s.s , A 1 # .   .       : % 2 ; t , 2 > 8 1 $         .       . .       . * : n * = 8 2 A 3 5 n s n t 2 t 9 k 8 < < s n 8 8 5 2 1 < : : , , < - & ; * - * ; : @ 1 $.! 1 s.q.s.s.s.s.s.&.1 2.1 # - 1 > 1 2 < % 2 y.$.T 9 &.} o.T 9 T ,.$.,.! } $.&.&.$.o.$.$.T 8.,.2.n A 1 n T $.8 2 T ,.8.2 ! T # @ 1 5 &.1 t k ! ,.o.$.; 9 8.} k A t k 2.} ,.. * 2.5 o ,   o # X   .   .     . .   > o % o & 8.! 2.o 3 q.&.- 8.! ,.o.1 3 ! s < 8 A T 2.8.9 > t k T y.8.o.} $.2.$.8.} ,.o.2.2.o.n ",
"s.8.8.& o.A < &.s.&.s.s.y.< - 2 8.,.8.A 9 ,.y.s.3 y.2.s.3 > 3       .     @ s < < : = < < t < 3 &.1 .                         o o * : : 8 > > t 8 3 < 8 s 5 k s s 8 9 8 1 2 5 2 < < < 1 < - * ; = & * % + + o     # + &.T 9 s.s.,.y.q.s.s.A 8 s.@ 9 $.$.9 o.o.! : q.$.o.9 } n 2.A T k $.,.} &.} ,.,.,.$.} } o.$.! ,.o.$.t 3 ,.T s.> 1 A $.$.! n q.- # - 1 2 3 % t $.o.$.8.> , y.&.} 2.3 y.&.T y., @ q.1 + , X + $   .         . O . . @ : o + % : y.,.o.  : &.8.s o.o.&.T k 3 8 A 2 8 8 ,.t < 9 ; t 3 3 s k &.2.&.} &.n ! n ,.,.$.$.$.",
"s.s.s.n - o.s.1 , ,.s.8.q.s.8.s n y.s.y.3 2 s.s.y.3 n s.> $ 3   .       . < , , * 1 2 9 ; : t ; k y.A > o         X   .             & 1 = 3 1 8 2 k k s A } ! 3 3 3 5 5 3 5 3 2 2 ; > 3 1 , = o . # : , 3 8 3 A k A 1 8 t 2 s.y.s.s.s.s.s.t 8 3 - ! n T ! n 3 ; o.,.T 2 o.8.s.$.n n $.} o.,.} o.2.o.T T o.&.,.&.,.&.! T 2 $.o.o., , A y.&.&.3 o.s # 1 , - ! * : } o.2.y.< - } y.$.$.: T } ! o.2.@ 9 > O @ O 3 = #   X     X     *     $ , *   # > ,.$.8 o = s } s.8.< k } $.n 2 t 2 } ; > ! t 3 s = * < 1 9 ,.&.,.,.o.,.} 8.&.o.$.$.$.",
"s.s.s.s.9 , o.s.2.: s s.s.s.2.s.&.2 t } 3 3 k y.y.&.5 < 2 % !         . < 3 = 1 > - 1 3 < 2 1 < 1 5 8.! 1 - o     .     .       .     o = 2 k 8 s T } n s n k t 9 ! T 5 < - = < 3 2 ; # $ : 5 ! &.2 T o.T o.o.T ! n 3 % 2.$.s.s.q.s.s.8.y.o.} - 5 o.! s s s k 3 A < , 2 9 3 1 > k k $.} ! o.} 8.! o.,.&.o.o.$.,.$.t 2 3 ,.T } < 2 o.o.$.&.2 $.,.o 2 2 3 $ * - 2 2.&.! } # s } $.o., 1 q.,.&.o.>   # & + % < * @ * @   . .     o   @ # # , :     > $.$.1 = > 3 A &.9 < 5 A } 2 5 3 &.< 2 s.y.} n 3 5 3 : = : 2 &.} T $.} $.$.,.A &.! A ",
"o.y.s.s.y., : 2.s.s.s 2 &.q.s.s.y.s.n 5 A A , y.$.s.2 3 < : 3         * 5 2 9 , < = 2 < , 8 } t $.2 3 ! ! , < ; .                     .   + 9 k 5 n 9 8 t A $.k n < > 3 s s 3 < & , t &.s.s.q.s.n 9 ! T ! $.n ! o.} } < 5 s.s.8.s.y.s.s.s.o.! % k } $.! } < $ = 3 t 2 2.n ,.2.8.,.k 2 A 8.&.2.,.} o.$.&.o.A 8 2 , = 8 $.! < 9 1 &.! y.2 = &.,.> - &.s : o - > o.o.&.} + 3 ! &.} 3 ; $.T } ! } o # # o - > &   @ X O       . . +   - o @ : ;   . * ! $.> > > , T ! < 3 8 , - 2 t < & ; ,.n A } 2.2.! 9 5 3 < , 1 o.$.,.&.T $.,.$.,.&.&.",
": s.y.s.s.,.; * 2 } s.q.A s y.s.s.y.s.,.t 2 , , k s.> < 3 : 3 .   + 5 s 2 n < 5 , , 2 A o.T T k s ,.s 1 > 3 3 s &.- .             .         > 9 t 8 T } 5 9 s 8 n n A n 5 , < A s.s.s.s.s.s.y.8.1 $.$.,.T } s $.T k n s & 8.y.8.s.2.s.s.2.q.& T q.A 1 ; @ > s q.&.&.&.$.o.! T n 9 9 T 8 > , ! &.&.8.A t 2 k 9 8 > A 8.3 , t t ,.y.! 3 % t &.k O 8.8 - $ % ; ,.,.2.! * = } ! ,.3 > t o.&.! 8.@     X # #           . .   % O # O o O o   <   $   # y.9 2 8 < 3 1 t 9 > 2 1 , 9 ,.} > * A &.} 8.k $.A 8.} 2 3 8 3 1 ! ! 8.8.o.y.&.o.$.&.",
"  ! s.y.&.s.8.> > , > 5 q.s.3 } q.s.s.8.y.,.3 - 8 3 2 } , 3 1   - 1 t 8 < 3 8 3 t 3 t t t 5 9 &.n A T k A ! T 5 5 9 , :               . o } ,., 1 9 t 2 &.&.A 3 $.A 2 > 3 8.s.s.s.s.q.q.y.s.s.s.: T o.n ! } ! ! 9 ,.o.k T & o.y.,.s.q.,.s.! ; n - @ : A s.&.,.8.,.o.n t 9 t A ! ,.$.A 2 n } T 2.k s n n ! 9 5 5 ! , 3 A ! $.o.T T < = n ! $.o o., > 5   = s } ,.3 % * 2.o.2.2 < > s.n 8.$.,     O & + $ % o + # #   X $     = + X % : $ @ # %     n T 8 2 > 3 5 > 1 1 - 1 9 2.,.,.&., & 3 } o.o.&.$.} &.s.s > 5 3 T 2.! A $.$.,.$.&.,.",
"  - 2.q.s.,.2.s.2 1 3 3 1 , n < 9 &.y.s.y.s.s.9 , 3 3 s , A & 2 3 T 8 1 - : 2 2 1 : n k t $.$.8 n t } T n 9 T k 9 3 n 9 < @   .       , y.&.T s.! , ,.} T T } 8 : 5 2.s.s.s.s.y.s.s.s.s.s.s.y.8.< A ! } ,.A A } ! A A n A T * 5 s.s.s.s.$.@ $ > k ! s.T T } 2.k 9 9 t k n T T ! A ,.2.2.n &.3 A ! o.t 8 1 1 , 2 t t o.,.8.$.o.k ; & , ,.2.% 3 n > 3 >   : o.q.< = - o.,.8.2 1 ; } &.} 8.&.  X X # . o o #   . % = > : X X - $ +     #   o @ % o   < t 5 s n T = 2.5 < : 8 ! ! q.$.} 2 ; # } 2.$.&.} $.&.&.&.k 3 , : A 2.$.&.o.2.} o.$.",
"    A s.s.q.s.8.s.9 , , > 3 2 1 3 A k } s.s.y.q.} , , 8 , ! & 3 } s k k 9 k 2 3 9 > } 2.T n o.k ,.9 2 8 t t t 9 5 s 2 9 t $.5 O O 2 2.s.o.s.,.8.s.! @ t t 2 1 ,.s.q.y.s.s.s.s.s.s.y.y.s.s.s.s.s., $.$.} A &.} n s $.o.A } } 9 -   # O     < ! 2.,.! } $.t 2 1 2 8 t A } $.&.$.o.8.T o.n o.! 8 > > 8 1 , : 8 s o.! q.$.&.,.t , ; & > $.8.: 1 2.1 2 3 O $ t o.* * $ 2.y.! < % = 8.2.5 &.$.#   & $ O , * % = - o & O     . - O & .   .   o .   O # . 1 2 T t ; # $.$.q.T : < &.&.$.T &.A : 1 * &.} T } T T $.&.} $.1 > > 9 o.$.&.8.$.$.&.",
".   X A q.8.s.s.8.s.8.3 1 9 8 A ! 2 2 8 t $.s.s.s.s.n < , 2 & 5 ! 8 n n k } 3 k s A k 3 A o.A 3 A s t A ! 9 3 s 9 n T t k T 3 ! t 1 } s.,.o.s.2.} # 9 O n s.s.s.y.q.s.s.s.y.s.s.s.s.s.s.s.y.q.q.> s $.$.k n T &.8.n 9 T 3 9 s 1 1 O = A $.&.$.n &.$.s 8 > 2 9 ! 8.,.$.} ! o.&.,.! y.$.o.s 8 5 5 , 3 s s ! o.$.$.$.8.n } 5 1 : = < 2.&.* ; s.1 5 3 *   3 2 *   * &.! o.- . 1 &.$.8 2.y.<   & : + & o , = X $ = ; $ +   O O o .   .     X     O . = $ O % . . 2.! $.o.k 2 o.n $.2.o.2.&.8 2 , > 2.T T $.&.o.$.2.o.o.o.< - 5 &.} T $.$.&.",
"; =     A s.s.y.s.q.s.s.&.1 ! A 2.8.,.9 3 3 2 T s.,.8.s.T : , } A n 9 t 9 n t n 2 8 5 n s 2 3 T t s A A 2.s 8 t n 5 9 t } 5 } t t > . : - - < 3 5 3 3 8 8 2 1 < 2 3 s o.8.s.s.8.s.s.s.s.s.s.s.s.,.< 5 ! s.} n ! n k } n 9 2 < = , } $.y.} o.! ,.2 3 9 } ,.,.o.t 2.,.,.&.$.$.o.o.} o.&.A T 3 ,.n T 5 8 2.y.,.} &.$.$.< 3 , , - > T $.- = s.2 - 2 2   $ :   . & } y.9 $ . k q.&., k } 3   = - * & ; 3 % @ * * & % : o +     X       .       + = < $.o.< +   T 2.&.2.&.1 3 2.&.&.} $.t 2.$.> ! ; 5 $.q.2.$.&.&.$.T $.o.o.1 , T $.! } o.$.",
". O o     , 2 ,.s.q.y.s.q.s.9 8 A } y.y.$.} A 9 5 k $.s.s.q.,.> > 9 s T 5 < 3 A A t 9 k 3 k s s 3 s } n 9 2 5 s 3 8 2 < < > & = & > t 9 2 T n 3 k } } o.8.8.T ,.$.o.A t 3 < < 1 8 A 2.s.s.s.s.s.8.2 2.o.} T ! } $.n T 9 2 - > &.A &.o.} $.o.,.9 5 ! ,.$.&.o.y.,.n ! &.8.8.,.} A o.T s n 3 A q.&.2.s 2 ! 8 k 5 s > < > 2 > ; < s.8.: o 8.3 < - s # o o .   * o.&.,   # ,.o.,.: 3 8.s   # 8 * 8 9 ; & + . O   + * X         .     X   .   - , 9 ,.o.3 9 , , ! k T T o.; 5 A &.o.8.A y.s ,.5 s 1 : s.T } y.} A 2.} o.n 8.o.< < T q.$.&.,.",
"- o .             # - 3 q.s.s.y.n $.o.8.y.q.s.s.8.y.n s s k ,.s.T , % , ! &.9 3 ! s 8 n 9 A 1 A n s 3 t 2 s 3 < > 2 5 > > ; 1 3 5 5 t ! 2.$.,.,.&.8.$.o.&.} &.o.} y.s.y.s.y.y.s.8.} 8 1 < 5 $.s.y., A } A 2.T } s T < $ < T y.} 2.o.A 2.8 t 9 T ,.8.o.! T T &.$.$.$.o.} ! } } o.t } k k $.,.T $.n k T n 8 n ! 5 5 9 n t : 8 o.A =   ! 2 < 1 s &     . @ ; s.8 o   , o.&.k ; 9 2.o.o % 9 - , - < 2 - @ @ o X   .               o     + > 3 ! $.&.5 k 2 # q.! ,.} ,.} > 8 8.8.o.&.$.o.A } A T n 3 3 2.o.n &.,.&.$.,.s.T &.T ; , T o.o.$.",
"9 9 < @     .             & , t ! q.8.} q.s.8.s.s.s.s.y.s.8.! s A ,.,.s - * 2 T 2 n ! t 9 T } s A 3 1 : > 3 k n 3 - % ; 2 8 k } ! o.&.,.2.,.,.&.o.} } } o.$.&.,.2.&.o.! T ! } o.q.8.q.s.s.8.k 1 < , &.&.q.n ! A , * 5 y.&.&.2.! k k s n o.2.&.T } &.&.o.o.&.$.} n y.$.2.! k A s A n A $.2.$.A o.,.2 : 8.k $.$.t 1 < 2 3 T 8.T %   8 , ! # s ,     # . , A % . @ 8 y.s , + s $.s o # $ O ; , k < . # = * #                   o     * 1 $.2.} y.! 8 1 $ A o.$.} o.} } , k 2.,.} &.&.$.! &.2.8 A t < } q.$.} $.$.$.! A o.s.&.T < 2 A } ,.",
"5 5 3 9 < $ . X .   .   .           > A y.q.s.y.q.s.y.s.s.s.s.s.s.8.o.&.$.9 : O % * ; ; = & - > 2 A y.y.o., % - % * , 8 k s k A A n n k n n A T T ! } $.&.2.8.8.,.&.&.$.o.} } } s.,.} ! &.q.y.q.q.8.5 2 < ! > $ ! ,.$.A ,.2.n A t T &.&.! A o.8.! o.$.&.&.&.$.o.q.! o.,.} 2 9 k 9 ,.&.2.n &.q.,.1 - * < 2 < - 9 n 2.o.8.o.3 +   2 : 3 > t 3   o + o : -   @ $ n $., # ; o.q.1   $ % 1 3 ; 9 : @ * - @       . . X     . % # #   * 2 A ,.,.T n 8 9 $ > } $.! 8.&.&.s 1 n &.T ,.,.,.$.&.&.&.9 s k < t } } $.2.2.,.$.,.,.k o.T A < 9 n o.",
"k s 8 8 2 s 1 *   . .     .               + : 9 ,.s.s.y.o.s.8.y.q.s.s.s.s.8.2.&.o.T n } 8.s.s.s.s.y.n ; * < < = ; , 2 2 2 8 s s n ! &.8.q.,.o.T ! ! } } } ! A n s n ! $.2.2.2.2.$.o.o.&.2.q.q.8.q.,.$.s.$.3 : 9 T 2.y.o.n s 8 t $.! ! &.,.$.o.$.$.o.o.$.$.o.$.&.,.o.o.n $.n k &.2.A 2.k 2.$.o.A $ t $.n 2 } q.} ,.&.,.$.> .   ; 2 < 2 n 3 X . . o   o o . > 2.8 .   k &.2.-   * 2 s & > 5 % . o + .     .     . O     + & +   & 2 &.&.o.} q.n 2 ; . ! ,.&.} } o.&.5 1 2.T ! &.,.} T ,.&.o.n k } 3 5 k o.&.,.&.o.! 2.,.$.2.$.2.n 3 9 A ",
", 3 2 3 9 9 2 8 t = .           @ > - * . $ &       * 3 &.q.q.s.s.s.8.q.s.q.s.s.s.s.y.y.s.s.s.y.3 = ; < < 5 A n k } &.$.$.$.n 3 k n T o.,.q.s.s.y.y.q.2.&.o.! T ! } $.,.,.&.$.o.A T ! o.&.,.8.8.&.q.s.,.s.q.y.q.9 2 3 8 3 n 2.&.o.o.$.,.,.$.$.&.&.o.o.&.&.} } $.s.8.2.&.k ,.&.A $.q.,.,.$.$.t @ k } k $.$.A 9 T t 1 : O * : ; > > 1 t 2     @ * + #     = : #   - &.T 3   X = 1 < = < = % @           $ k 2 o   . # X & #   # t 2.! $.} 2.8 3 1 $ < o.q.,.n q.8.$.1 9 &.,.A 2.} } T $.$.$.! T o.k 5 s $.,.$.o.} $.o.A ,.o.} &.y.s s s ",
"< # @ - 1 2 5 2 8 3 2 ; $         + > < < 1 , : - @ .       , , 2 t n q.s.q.8.s.s.s.s.s.s.T 1 : < t ! T ,.,.} q.s.s.s.s.y.y.y.q.s.s.8.&.$.2.s.s.s.s.s.s.y.y.s.s.s.s.y.8.,.$.o.} $.,.8.8.&.} A k } o.,.8.8.y.s.8.s.q.s 1 3 A $.,.T o.,.$.o.$.&.&.! ! $.8.8.$.} } ! $.k o.8.8.$.q.q.&.T ,.,.1 % A o.8 8.1 , t 3 t t > + - & o : < 3 3 % o @ - & = @ X       o o s y.3 O   > 1 - , ; $ @ % . . .     - ! } o.&.8     X -   & % ! $.} 8.2.2.s t 5 - & } $.! T } ! 8.} 3 3 ,.} 2.o.! 8.,.o.&.$.! T n k 3 s &.,.$.&.,.q.o.o.T &.&.o.o.} k 8 ",
"1 3 ; .     $ ; 2 t 9 2 8 8 : .   X   ; s < 2 2 3 < > X   1 2 9 ,.k , : : - > , > < 1 < < 5 A o.! 5 8 k T o.$.2.8.y.s.s.s.y.s.s.y.y.y.s.s.s.s.s.s.y.y.q.q.s.s.s.s.s.s.y.y.y.s.s.y.q.,.$.o.&.2.y.&.o.T ! T 8.s.y.q.s.s.q.s.} t A o.o.! ! &.q.,.T } } } $.&.$.&.,.$.s n $.&.n o.A } } 8.8.2 ; n &.1 o : ; < 2 1 # % , ,   o - : 2 >     . - , % @ # X - : o , ,.1 O   % 2 > 5 1 , # * @ .     . = T &.o.y.q.&.&.@ . o o   ; } o.2.$.&.T s.A t , # 2 s.o.&.2.$.2.o.&.2 s k &.$.,.} 2.2.T $.$.$.} A A s n $.&.o.$.&.$.o.,.2.,.y.! } ,.T 9 ",
"  % 1 < $ .       % > k 9 9 2 , ; .     . 2 5 1 3 2 # . & s s ! T } T ! s 3 1 : t T ! s n o.T 5 s T 3 2 o.T 8 s.s.s.y.q.y.s.s.s.s.s.s.s.s.s.s.s.s.s.s.s.s.s.s.s.s.s.s.s.s.s.s.s.s.s.s.s.s.q.2.&.} &.q.y.q.} q.q.s.y.8.s.s.T 5 1 o.$.&.$.$.$.o.} ,.&.$.! ! o.&.&.A n ! n ,.o.! $.q.s.2.3 = k ! 9 , ; > : , # - 1 > + o   * 1 = . . . . o ; & + < # o o   : * . . = 2 > > < < > 2 >       . & 5 ,.2.$.o.8.o.y.2   O @   * q.n 8.$.$.o.,.2 A 1 ;   ,.! &.n A 2.$.$.,.1 t } T $.$.&.$.o.! $.o.8.$.&.A A n T o.$.o.} ! } T &.A $.} 8.8.,.$.",
"      ; 3 > +           $ : 8 3 3 , > +     : 3 2 : 8 . k } 2 2.s.s.y.y.s.s.s.A : 2 n T k t k ! ! 8 &.,.8 A ,.! q.s.s.s.s.s.s.s.y.s.s.s.s.s.s.s.s.s.s.s.s.s.s.y.s.s.s.s.s.s.s.s.s.s.y.s.s.s.s.y.q.s.2.s.s.y.y.s.s.y.k 2 , 2 $.y.,.&.2.2.&.! ! $.$.8.q.,.$.o.T s 2.} ,.,.} 8.T ,.$.$.3 : k ! s , % , 1 : , s , $ O o + 1 # . .     X O . # $ $ - %     o     : ; 5 3 : 1 : < 3 %         < o.o.8.y.} &.2.&.A . *     * $.} 8.} } } ,.! n 9 3 * = &.o.,.$.} 2.,.} ,., A &.} T &.&.&.} ,.$.T q.T ,.9 s 9 t o.8.,.$.$.&.&.} q.$.8.A o.$.&.",
"        . , 5 > .           . & 1 8 t A : @   @ - 2 n ! 5 1 T s.s.s.s.s.s.s.s.s.s.2 * < n s k k t A s T k } 1 ! s.y.y.s.s.s.s.s.s.s.s.s.s.s.s.s.s.s.s.s.s.s.s.s.s.s.s.s.s.s.s.s.s.s.s.s.s.s.s.s.y.s.s.y.s.s.y.y.: > k } $.8.! o.8.&.! $.y.2.} ! ! A A ! n o.,.,.&.T &.s.8.&.&.o.o.2 : k y.1 < , @ - < , : X   .   % &   o , t T 9 2 * * + o X o O & # < 1 5 3 n t 1 3 : , = O       & T ,.o.8.,.T o.y.T ! % $ % + , k y.} &.o.} $.&.s 3 3 3 + 5 &.&.&.&.&.&.&.&.,.> } } &.T ,.&.2.$.o.$.,.$.n 3 n } t $.! &.&.$.,.o.&.o.&.2.o.$.o.o.o.",
"  X   . .   + , T - .   .           - 2 T ;     < o.k 1 5 s.s.y.s.s.s.s.s.s.s.s.q.y.2.: - 5 8 } 9 3 s n k k 1 3 $.8.s.s.s.s.s.s.s.s.s.s.s.s.s.s.s.s.s.s.s.s.s.s.s.s.s.s.s.s.s.s.s.s.s.s.s.s.s.s.s.s.q.s.8.s.q.= o.8.T 8.2.! s.o.8.A s.2.A &.} ,.! A $.n &.! 8.$.} $.s.! k k 8.A k , n 2.s - 2 + * & @   .     . $ $ & ; 1 3 3 5 ! n ! 8 1 A 9 5 2 < s 2 t ! 2 3 1 1 * - % +     X 2 $.$.} ,.&.! 2.} &.s # - O X * 3 &.} ,.} 8.} o.} A 2 n <   ! $.$.$.$.$.&.$.$.! 1 } o.$.,.$.,.A ! } o.$.$.$.$.A 3 } 3 q.A 2.T ,.,.$.&.,.,.,.&.,.&.&.",
"*               o < t = X         .     + >   o 5 8 s A 9 q.y.s.s.s.s.s.s.s.s.s.y.s.q.s.t : 8 3 k ! 2 9 ! k T T 9 s.8.q.s.y.8.y.s.s.s.s.s.s.s.s.s.s.s.s.s.s.s.s.s.s.s.s.s.s.s.s.s.s.s.s.s.s.s.s.s.2.8.s.s.s.- o.2.$.2.&.! $.&.8.$.o.&.,.T 2 < 2 ! ! 2.n 8.} 2.o.2.$.,.s.q.&.s 3 , $.s.A > 3 @ : @ X   o $ $ > 5 > > , s 9 < 3 k A t 3 2 2 1 1 1 k 5 > T 3 9 8 < , > 2 o O   . + s o.o.&.o.$.o.! } } 9 - ; & o % 1 ! ,.o.&.o.2.&.&.5 k 2 ,.: * q.$.$.$.$.$.$.$.$.k 2 ,.,.! 2.8.o.o.} ! } o.&.,.&.,.A 9 t s 8.$.8.! &.! $.o.T &.} $.$.$.",
"> : + .             @ 2 s - X       .   + &.! 2 ,.9 3 5 1 o.s.s.s.s.s.s.s.s.s.s.s.q.s.q.s.,.1 5 t 2 ! o.k n k 8 o.5 2.s.2.s.s.s.s.s.s.s.s.s.s.s.s.s.s.s.s.s.s.s.s.s.s.s.s.s.s.s.s.s.s.s.s.s.s.s.s.y.s.s.s.; o.q.&.&.&.$.,.,.o.$.o.s.k 1 < 1 n $.o.&.o.$.,.$.} ,.} &.A 2.} } 1 1 $.&.2.; 3 = , @ % 2 , < 2 3 : > < 3 3 5 8 t k t 2 5 3 2 < < n 9 , s s 8 8 9 > = > 1 @       + n 2.} ,.2.! T ,.$.! 9 ; = ,   @ 2 ! ,.} 2.,.o.o.8.} 9 2 9 n $ 3 $.o.o.o.o.o.o.$.$.3 5 2.T q.,.o.&.2.&.o.} o.$.$.o.o.! t T t 2.T $.} &.$.&.o.! &.$.o.o.o.",
". = 2 : o .   o       . * s s >   .     < $.n T 9 o.T 5 3 8 y.q.s.s.s.s.s.s.s.s.s.s.s.q.8.s.s.8 < n n s s s ! k A t 1 n y.s.s.8.s.s.s.s.s.s.s.s.s.s.s.s.s.s.s.s.s.s.s.s.s.s.s.s.s.s.s.s.s.s.s.s.s.s.s.s.2 1 8.T ,.} ,.2.$.&.&.! k < 2 3 8 $.&.$.2.,.T ,.o.&.T q.$.o.o.} s < 2 $.s y.< 1 < ; : % , 1 2 5 = 1 k 2 > 3 8 1 3 k k } > 2 1 1 A 2 & 2 k 3 5 ! , = ; 2 1 o     o - ,.2.$.&.2.A &.,.8.} s $ 1 , &   5 3 &.&.o.&.q.! $.&.3 A 1 $.2 # t q.o.o.o.o.o.o.$.$.3 1 $.&.$.o.,.! } $.,.,.o.} $.,.$.$.} } ! T o.} o.o.,.$.o.o.} &.&.&.&.",
"      - 2 : O   .         + ; 3 1 & .   2 , 5 9 A A n n k 3 s.s.s.s.s.s.s.s.s.s.8.s.y.q.s.s.q.y.! % 1 2 &.3 k T t k o.k t o.&.s.y.y.s.s.s.s.s.s.s.s.s.s.s.s.s.s.s.s.s.s.s.s.s.s.s.s.s.s.s.s.s.s.s.,.q.T , 2.o.&.2.o.n A 8.2.8 2 t 2 3 T 8.8.,.o.2.&.! &.o.o.} q.&.! } 2 - 8 y.n 8.2 3 3 $ > # & < 8 : > n 1 = , 5 1 1 3 n s 1 t 2 3 9 1 ; 1 s 8 , 9 k , + 2 < - O   .   * ! ,.} $.} 2.T } } } 9 = 2 , ;   k , 2.o.,.} &.$.&.$.T 9 1 s ,.2 & o.q.$.$.o.o.$.$.$.$.1 3 n $.,.,.A $.} o.$.&.&.$.o.} ,.y.o.&.! T &.,.o.! &.} } $.! $.&.$.$.",
"        . , 1 &       .     . o , 1 O # ; 1 : , 1 2 n ! 8 3 s.y.s.s.s.s.s.s.s.s.s.y.s.y.2.s.s.s.s.2.; < < o.! n o.y.! A 8.8.,.,.y.y.s.s.s.s.s.s.s.s.s.s.s.s.s.s.s.s.s.s.s.s.s.s.s.s.s.s.s.s.s.s.s.s.q.* y.o.o.,.$.o.,.s.1 ; s : > 2.o.T } ! 8.} $.$.o.$.} $.&.&.8.2.< > s 8.} q.1 2 < + ; o + 2 : > 8 9 : > t 1 3 3 n T 3 , , 2 8 < > 3 t 8 n : 8 t - - 2 % * : @   . ; A ,.q.n $.T ! T &.y.8 = 1 2 2   $ 3 n } } &.! 2.A ,.$.s &.< $.k , ; &.n $.$.$.$.$.&.&.&.3 1 k 8.} 8.&.! 2.$.! o.,.,.} k ! ! &.! &.A o.! ,.&.&.&.,.,.&.&.o.o.o.",
".           $ , k * .             $ & < > ,.s.A 2 - $ * > < T s.s.s.s.s.s.s.s.s.y.s.s.s.s.y.s.s.s.} 5 < 3 1 T t k t $.q.o.} 2.8.y.y.s.s.s.s.s.s.s.s.s.s.s.s.s.s.s.s.s.s.s.s.s.s.s.s.s.s.s.s.s.s.s.s.& q.! } s.n T 2.9 - 2 1 * 5 s.,.&.&.o.$.2.,.! $.$.&.A 8.2.} k ; 1 n o.! ,.3 n , # % % o < : 3 t < 1 3 t s ! t k s 1 - , k < ; > 5 1 s 2 1 3 2 > 2 < , - & % .   < $.8.} o.8.! 8.T o.,.n : 5 2 9 & @ 9 8 } o.&.A $.$.&.n &.t } } o.8 ; 3 ,.8.&.&.$.&.&.&.&.&.3 2 A o.,.8.2.! $.o.} o.$.$.} T &.! } A ! &.o.,.&.,.! $.,.$.,.o.$.&.&.",
"> +             . 1 < %     .   % ! , n A > s.s.s.s.y.s.T 2 = & & , n 8.s.s.y.s.s.q.n T n &.$.y.s.s.,.= : T & , 5 A n t o.y.,.A q.$.s.s.8.y.s.s.s.s.s.s.y.y.y.y.y.y.y.y.s.s.s.s.8.y.y.s.y.s.s.q.q., n ,.} q.8.$.3 , , - % 3 o.&.$.&.o.$.,.$.o.8.} 2.o.$.A &.o.A - ; s &.,.y.k 9 > $ $     - < k 3 1 8 < 8 } 2 t A 5 1 % < 1 , ; 1 3 1 3 2 1 8 < : 2 > 5 * >   .   < y.&.} ,.$.k &.o.o.,.} , 2 T T ;   s > o.T ! $.$.,.T 8.o.t T 3 o.2.9 - A 2.T &.&.o.o.2.o.2.} 1 t s o.&.&.} ,.} $.o.,.} $.$.,.&.o.&.A } o.&.T o.&.$.,.} $.o.&.&.&.$.",
". ; ;       X       X > , #   o 3 ! s t A 2 2 s.8.2.s.s.y.s.s.s.,.&.2 = , o.s.y.8.s.s.s.y.! 2.2.q.8.y.s., 3 } 2 - < 9 o.,.} } q.! } 2.,.s.s.q.q.s.s.s.s.s.s.s.s.s.s.s.s.s.s.s.s.s.s.8.y.s.s.8.s.< 8 ,.,.$.2 & & : = , 2 2.q.! } ! 8.2.T A o.o.A $.&.T &.&.$.1 $ , A o.o.} A 1 < = *   . : t A > 8 2 2 s 8 2 t 8 , - , 1 3 3 : n 1 , 2 ! 3 s = 1 8 < 8 ; &       3 $.o.2.} T $.q.} &.} $.9 2 n k 1 % , 2 k 8.$.,.! o.A o.$.&.k 8 5 o.} 5 < T o.q.&.&.$.$.,.$.&.o.1 t k $.$.T o.,.8.,.o.$.$.&.o.! o.A n y.} n o.2.&.$.! o.$.,.$.} T ! o.",
",.  % > - .     .   . .   $   & $.s ,.s A k > 8.s.y.s.y.s.s.s.s.s.q.s.s.,.< > 9 s.,.k s.2.s.! 8.8.s.s.q.q.2 2 ! 8 5 1 < 5 k A ! ! 2.} A $.2.2.q.s.s.s.s.s.s.s.s.s.s.s.s.s.s.s.s.s.s.s.s.s.s.s.1 > n 2 = #   = > s < ! q.&.n A ! q.} T &.,.$.$.2.} } 8.,.A *   < 9 n 8.2.T : ; - : o   * s 8 1 9 3 t t 3 2 2 < : : 2 2 k 2 2 8 < 2 1 9 1 3 ; 2 2 , k : ; X     : &.! 2.T 2.$.T } &.8.,.9 9 9 t 8.+ = t 3 8.&.2.,.$.,.T ,.! T t , ,.,.n 3 5 o.} o.$.$.&.&.o.&.o.&.3 s 3 } ,.! $.} $.$.,.$.&.$.&.&.&.s.$.3 8 2.T o.o.$.&.o.$.o.$.$.$.&.2.",
"y.,.  . @ ; -   .         :   1 k < 8 t n $.8 3 s.y.q.y.s.s.s.s.s.s.s.s.s.s.2.o.: 9 q.q.s.&.,.s.s.8.8.y.T s - : n T t 2 1 1 3 k k 2.! &.! o.o.&.2.8.y.s.s.s.s.y.s.s.s.s.s.s.s.s.s.s.y.s.s.y.2 O O $ + # @ < : t t } o.T n &.} 8.2.o.&.8.,.$.} A $.q.s , + o > t 2.o.&.} ; , * : X   - 9 9 8 1 k T < 3 9 2 2 > * 1 < T < 2 : 8 < s t 1 9 = 2 1 : n @ % +   o $ 2.! q.n &.$.q.2.A &.$.A 1 A 5 2 2   3 2 A 2.$.} &.} } &.$.o.s k 3 } } o.3 1 } y.,.$.$.,.,.! ,.! ,.s k 1 $.2.$.&.! o.o.2.$.,.o.2.8.} } &.s.$.2 k A o.o.2.o.$.! $.&.&.&.&.",
"y.s.o.X   . & < & .     O s < 8 A &.8.q.k 2 8 , 2.s.q.s.s.y.s.s.s.s.s.s.s.s.s.s.s.k ; 3 s.y.y.s.s.y.3 X     .   , 5 n T n 3 1 2 2 9 A q.&.! o.T ! } $.,.8.y.s.s.s.s.s.s.s.s.s.s.y.s.s.&.y.1   : 2 : 5 1 : 9 ! 8.&.! s T ! o.s T $.$.2.&.} o.2.,.} 2 & % $ = T } n y.o.= < $ ;   + & 1 k 2 2 n 9 1 s 3 2 1 ; > 9 8 T < 5 t s < 9 - A 5 > 5 1 : 3 o $ %   X 1 &.2.8.T 8.T ,.&.$.,.2.} 3 T &.} 3 o = 3 k &.} 8.A ,.,.} ,.o.$.k t ! 8.$.A 1 2 &.2.k $.$.,.,.! ,.! ,.k n 1 8.&.o.$.&.8.&.,.o.2.$.&.} &.,.$.2 n } k ,.&.o.o.! ,.$.&.} ,.,.,.",
"s.s.s.$.      X > < @   3 A t T q.s.,.s.s.2.,.! 3 s.y.s.y.s.s.s.y.y.y.y.s.s.s.q.s.s.y.1 k q.s.s.8.*   .           > A 8 8 ! A 3 5 1 5 8 A s 2.$.$.o.! ! ! o.,.2.y.y.y.y.s.s.s.s.s.s.8.y.= ; 2 > , k 2 A &.T n k 2 3 y.y.t 1 T 2.$.! ! } &.2.,.o.; % : * - T $.! $.o.* = o % .   : n t 5 5 s ! , t 1 ; = : 1 2 2 3 3 , 9 2 1 t ; ! 1 < k = 3 3 @ - % .   2 2.} &.! $.n 8.} } $.$.,.1 ! 3 s.3 - . t < ,.o.o.} 8.} s.,.$.$.T n 5 &.t ! t 2 5 o.$.s.$.$.&.&.o.&.o.&.T t < 2.&.$.$.&.&.$.&.$.&.$.&.$.! ,.o.2.s t } ! $.o.$.o.&.$.$.o.} o.&.",
"q.s.s.y.2..   X   + # . ,.s.s.s.s.s.q.s.s.s.y.s.s &.s.s.s.y.8.8.s.s.s.s.q.y.s.s.8.s.s.2.3 y.q.s.#   X               o < $.n 9 $.! 9 8 1 3 5 A o.o.} ! T A T ! ! &.&.,.2.2.8.q.q.y.q.$.$ o.$.9 9 3 1 8 2 o.A ! s o.o.8 : 2 } y.,.k o.$.} &.$.2 * % : ; ; k o.$.o.$.+ 2 . * O @ & A 5 2 5 9 9 s n 3 - % * < 1 : 2 , 3 8 5 3 2 > T 8 < 9 - 8 1 * $ &     < &.n &.o.,.T &.T o.&.,.&.A s ! } k 1 O < t 8 o.} $.T q.T &.} } &.s t n 2.$.o.3 2 s ,.n &.&.&.$.$.,.o.&.o.! 2 < ! ,.o.$.&.T o.$.&.o.o.&.2.&.$.$.,.$.$.8 s } &.&.&.} } o.,.$.&.2.",
"s.q.2.s.2.A o       t 5 s.s.q.s.s.s.s.s.q.s.s.y.y.t q.s.s.s.y.s.s.y.y.s.s.s.s.8.s.s.q.s.s.1 s.;                   X . o ; A } t n &.o.T 5 9 , 2 9 s A ! o.o.} ! T T ! } $.&.&.,.y.2 - s.$.} q.A T 8.o.&.} ! ,.$.$., , 2.,.o.o.&.$.o.o.,.o.< = = > * , s 2.2.8.8 % 2   $   $ 2 n 1 1 t T 8 s n : * * & < 1 > 8 , k 3 3 9 < 5 ! 3 < 3 * 5 3 : @ - .   = } ! &.,.} q.o.T ,.&.$.o.n 2 T T $.t & * 8 1 ,.n &.o.s.A 2.o.o.8.&.5 < T ! 2.} 9 9 5 ,.! ! &.&.o.o.2.o.2.} n < 2 A &.k o.2.&.&.} $.} &.} } $.! $.o.} T &.A $.$.! $.o.,.o.o.$.o.o.",
"s.y.s.s.y.s.k     o q.y.s.y.s.s.s.s.s.s.s.s.s.s.s.2 y.s.8.s.s.y.s.s.s.s.s.s.s.s.s.y.q.s.q.8.5   .           .           1 = 1 9 k ! T o.$.T A 5 k < 1 < 3 ! ,.&.$.! T ! A ! } 5 @   = > 5 8 } ! &.n $.,.q.&.n > = n ! $.o.A q.o.o.8.o.n = % * * # < s y.T &.: $ : O =   # 8 2 > 1 3 k t 8 2 & = @ ; 5 < 2 8 > k 8 5 5 , n n 3 < 5 = 3 2 : = %   . + $.$.s ,.&.! &.y.,.,.n ,.n 5 T ,.9 &.2 $ < 2 k 8.$.} o.T $.&.,.,.$.&.5 3 o.&.! s 9 n 9 $.k 2.A &.$.} $.} ! 2.k , 3 k T y.q.! $.,.,.o.o.&.$.} o.8.&.! ! T k n T $.2.o.$.,.! o.T $.$.",
"s.s.y.s.8.s.s.o.O . s.s.y.s.s.q.s.s.s.s.s.s.s.s.y.2.5 s.s.8.q.s.s.s.s.s.s.s.s.s.s.s.s.s.s.s.n .           .         .     } s - ; 8 T 9 } o.,.} o.o.s 9 , . $ : , > 1 * - = .     X   o $ ; , 2 : 2 3 < < - > k ,.&.s.n o.,.$.$.y.$.1 - # # $ - 2 k k &.n = ; = o *   - < 8 < 2 s s k 9 < = ; - < < 2 2 1 3 A 9 3 3 < ! ! < : 3 & k 1 : : $ X   . s 8.&.o.,.o.$.$.8.o.! } ,.n 8 A 9 T } - ; 3 9 2.&.2.2.,.2.2.8.$.,.2.T 8 k q.&.$.! n n n q.$.2.2.o.&.,.o.$.,.} 2.5 3 8 2.$.,.k $.&.&.o.o.&.&.o.2.T } ,.o.&.2.T ! $.$.,.,.o.} o.,.} &.",
"q.s.s.s.s.8.s.s.q.A : s.s.s.s.2.s.s.s.s.s.s.s.s.8.s.5 q.q.s.8.s.s.s.s.s.s.s.s.s.y.s.s.s.2.y.s.} . .     X   X               n 2.s + O - , 1 n ! T , <   + * % .         o X   o . . O .   . . % > < * # < k T 2.,.n &.$.2.$.} &.k - $   + # : 3 A $.s.< ; : . * $   < 2 2 8 s ! t s 1 : , , = , = 2 8 1 k t 5 3 < s n T , 3 2 & t 2 , 1 & o .   > y.$.2.,.} ,.&.o.n o.,.! k A k n n T t % 1 8 k } T A k &.&.s o.o.$.$.9 5 ! &.} t ! } s 8 ! $.,.&.! o.$.! } $.T &.n , 8 ,.&.$.$.o.$.$.o.$.&.&.$.} &.2.&.T t A 8.T } T ,.$.n } ! ,.q.A ",
"y.s.s.s.s.s.s.y.s.s.q.< y.8.8.s.s.s.s.s.s.s.s.s.s.s.,.9 s.s.s.q.s.s.s.s.s.s.s.s.y.s.y.s.q.8.s.s.T .   .     .         .       5 s.s.s =       o       # % ; # - = o   o # & + . % @   * T 1 3 9 s s o.q.2.A T &.T o.! &.&.,.$.3 - o . % > - - n ! $.$ > * . $ .   t , 1 t t s 8 k > < 1 : & % 3 3 t 5 s s k 5 , ! t 9 : < 1 - 8 8 > & ; @ @   $ y.! o.2.,.! 2.! n o.$.} } 9 8 } T o.k ; - 2 9 } 8.A } &.o.,.&.} 2.&.$.s 8 $.T &.T ! T 8 n &.8.o.T ,.&.o.&.o.o.8.} n < 9 o.! T &.o.o.$.$.$.&.&.&.! ,.&.&.,.T s T $.o.$.8.&.} ,.$.o.,.* ",
"s.s.s.s.y.s.s.s.8.2.s.q.> y.s.8.s.s.s.s.s.s.s.s.s.s.s.2 s.&.s.y.s.s.s.s.s.s.s.s.q.s.s.s.s.s.s.2.s.n o             o             3 y.2.2 # # .   #   @ : * * = ; % 1 - & o @ - & o > &   2 2.2.2.$.o.2.&.n &.s.o.2.s ,.&.,.! ; $ .   * , ; & k s.2 * 8 @ = @   $ 5 2 8 t 5 9 n t = 5 > & @ : 8 1 5 k 9 n 9 1 k $.5 } < > 3 ; 2 5 : % - o &   $ &.,.} q.&.,.&.o.A } ! $.$.s A T t o.A 3 # 1 3 T 2.! 2.! T &.$.o.$.&.$.&.3 k $.T ,.,.T T 9 o.8.q.$.T ,.&.o.&.o.o.8.! 2 3 5 2.n $.$.o.o.o.$.$.$.&.&.&.! } $.} ,.&.k $.o.8.,.} &.&.$.s.t - ",
"s.2.s.s.y.s.y.2.s.s.s.s.s.> 2.s.s.s.s.s.s.s.s.s.s.s.s.} n s.8.s.s.s.s.s.s.s.s.s.q.s.s.s.s.y.s.s.,.s.&.o               .     .   . $ - : 2 9 >   o o   & % @ .   @ # * ; = #   - & O % &   A ! &.s.&.$.q.$.o.$.8.! } &.o.5 @ O     < > * - &.! ; > , * *   o : 5 3 3 o.5 k k > < 3 < & . : : 3 3 A 8 k t , A 2 9 o.3 3 , ; 2 3 > $ * # >     5 ! } 2.$.,.o.,.$.} o.&.} o.o.k 9 o.&.T * ; < 8 8.$.} $.$.,.! } y.} A ! &., ! } o.&.o.t A 8 T $.o.&.&.} $.&.! } $.T ! 2 2 s 2.,.2.$.$.o.o.&.&.$.$.&.o.2.q.,.} o.,.&.! ! ,.! A $.} } ,.= n ",
"s.2.q.s.s.s.s.s.s.8.s.s.s.s.2 2.s.s.s.s.s.s.s.s.s.s.s.s.1 s.8.s.s.s.s.s.s.s.s.s.s.8.8.s.s.q.2.s.s.s.s.s.$ . .           . .         ; T t 1 k *   o ; = * & & - % * O o & % $ & $ % & * = * ,.,.n $.$.o.A o.! ! 2.} o.- o O   @ - < & * $.9 = 2 $ = $   $ > 9 2 t n s n 9 : 2 2 1 & + , : t 3 &.5 9 &.- ! s t o.t k 2 , 2 9 : & ; = 2     > 8.,.,.$.T &.} &.,.$.&.A &.8.o.9 ! ,.&.3 & 1 1 A 2.! } $.$.o.o.o.$.&.o.o.} , ,.,.&.2.2.8 k 3 T y.} o.8.$.,.2.o.$.,.o.! T < ! ! 2.} T &.$.o.&.&.o.o.&.$.8.o.! ,.&.! &.o.&.&.$.$.$.o.&.s - y.",
"y.y.s.s.s.s.2.s.y.s.8.y.s.s.y.1 s.s.s.s.s.s.s.s.y.s.y.y.2.3 s.s.s.s.s.s.s.s.s.s.s.s.s.s.s.s.s.s.s.s.y.8.s.:           o       X       , &.n ! A   @   $ = O + & 1 ; + . @ O * & o % . > = $ s } 2.} ! 8.&.8.$.T ,.8   $ O + & : 3 # : 9 - - *   @ X X % 3 k 3 k t 9 s 8 > < , < + ; > > k k &.t s o.- ! T t } 9 t 1 : 2 9 > ; >   < @   % 8.,.,.! ! ,.T &.&.T } } $.8.n &.o.2.} $.$ 3 = t q.T q.8.T ,.2.$.,.&.,.,.$.5 1 $.,.k &.} 9 } 8 s 2.A ,.T &.&.o.$.o.} 8.5 T , n ! o.,.&.,.$.o.&.&.} } $.,.3 > : , 5 o.2.o.,.} &.,.! o.,.< t s.",
"s.s.s.s.s.s.s.s.s.s.s.s.s.s.s.s.9 n s.s.y.q.s.s.s.8.s.s.2.< 2.s.y.s.s.s.s.y.s.2.s.s.s.s.s.s.s.s.q.s.s.y.s.s.s o                   .     - t s 8 >   @ + $ o O @ * - & > ; #   o o   o o # $ = 2.8.&.T &.,.2.o.$.-     @ = = > 3 * % = $ + . @ -   # > ! 3 8 n k s s < 3 > = , = 2 , : t 8 k k k k : $.k T } 3 n 2 > 3 5 < - 3 % o &   . n y.! A o.o.o.o.o.o.o.o.n s.! ,.,.o.&.,.t # 3 s 9 } &.,.o.} ,.$.$.&.! o.&.} n k q.} o.8.,.5 A k T &.$.$.$.8.&.2.,.&.8.$.n ! 9 3 o.8.&.$.! 8.8.8.} q.n &     + * , 3 3 5 } $.&.! T o.! n % 8.s.",
"s.s.s.s.s.s.s.s.s.s.s.s.s.s.s.s.8.o.9 s.2.s.s.8.s.s.q.s.s.8.> s.2.s.8.s.y.s.s.y.s.s.s.s.s.s.s.s.y.s.q.s.s.$.s.s.:       .   X .     o     % 9 9 t t &   + ; X % $ @ ; =   % ; = * * % +   @ o $ 1 5 8.2.o.} <       = * < * < # % % @   @ + + X 9 T n > ! k T 8 n 1 2 - - 2 < 9 > < T n t A $.8 1 ,.A n k s n 3 , t 1 3 : 2 & - : o   3 &.2.&.8.$.o.$.o.$.o.$.o.$.o.&.,.&.&.T q.- < 1 3 2.,.! o.o.} &.$.$.&.} o.T ,.A t &.2.2.! $.T A t } s &.T &.$.$.o.o.$.$.&.&.9 k A 2 &.T 2.A } &.} q.>   > n s.y.y.s.< = o.s &.2.$.o.2.T = $.s.q.",
"s.s.s.s.s.s.s.s.s.s.s.s.s.s.s.s.s.q.! 3 s.y.s.o.n s.y.s.s.s.9 s s.q.s.s.s.s.s.s.s.s.s.s.s.s.s.s.s.q.s.y.2.s.s.y.2.% &                     . & 2 , 8 5 < O   # * ; % % $ 2 * O & # # o o     X       + % #     +   X O . O   %   . % O & O   . > o.3 1 } s n 9 n 3 9 * & 1 2 5 , 2 8 } s $.$.3 1 ,.s T ! 8 ! 2 1 k ; 9 : < : : 3 #   , &.n &.2.! &.$.&.o.&.o.&.$.,.T ,.$.$.,.! } $ 5 5 k 2.$.$.} $.o.&.$.$.&.} o.&.A 1 o.y.T ! &.8.9 T 5 o.,.,.8.2.$.q.&.&.,.! } n o.n 1 $.} q.! $.&.o.} < + $.s.s.y.s.s.q.s.$.$ 8 k $.T 9 1 1 q.s.y.y.",
"s.s.s.s.s.s.s.s.s.s.s.s.s.s.s.s.s.s.s.! 3 s.$.,.s.s.2.$.8.8.s.= ,.s.s.y.y.s.s.s.s.s.s.s.s.s.s.s.8.s.y.s.s.s.2.1 $ > 3 > $ .           X .   . $ < 3 > , > & X O * = ; - o ; 2 = % # o & o .   O .   o     . . .   ; = # @ X     . & o o @ % * * : T q.! t A 9 t 5 ; : , s t > ; 1 t T T } 2 2 A 9 ,.n 3 } s < k : k > s ; , 1 # X . n 8.y.T ! ,.&.&.&.&.$.&.$.&.o.&.$.o.$.$.8.< , > 8 } $.2.2.n $.$.&.$.$.$.o.o.&.T < o.,.! o.o.o.5 n n o.o.} k $.8 : # # : 9 &.s.T ! A ! &.! ! ! ! ! 9 # s.s.s.y.s.8.s.s.s.8.o.: s 2 1 s o.s.s.8.2.s.",
"s.s.s.s.s.s.s.s.s.s.s.s.s.s.s.s.y.y.s.s.! 3 s.} s.8.s.s.s.s.s.o.* y.8.s.s.s.s.s.s.s.s.s.s.s.s.s.s.s.y.8.s.o.; , A A ! T k 2 @             .     $ t 2 1 < < n , +   X * % , = - 1 % & # - = + o O o @       . # @   O     . + +   @ = 2 3 - - * # , $.k ! s k 3 > < 5 } , O * # - & & 3 s 1 ,.A q.T 9 } 8 1 t > T ; n ; - 1 ; o   9 } ,.} o.s.2.&.,.o.2.o.2.o.&.} 2.} } $.o.$.= 3 > n o.&.o.$.} &.&.$.$.$.$.$.$.o.! < ! ! o.&.! ,.2 &.3 s 8.q.8.+ > k q.s.o.2 * } $.2.A s } ! q.s.&.$.% s s.y.s.s.s.s.s.q.8.s.q.8.k q.s.s.s.y.y.s.s.s.",
"s.s.s.s.s.s.s.s.s.s.s.s.s.s.s.s.s.2.s.s.s.! t o.s.} 8.s.s.s.q.s.3 3 s.s.s.s.s.q.s.s.s.s.s.s.s.s.q.s.s.s.2 > s n 9 3 < 2 8 5 } <               o   % 2 2 1 1 9 5 1 ,     .   , t $ , , > & % $ & @ * $ % % & # - @ # ; @ * # . + < 1 < k k t 1 * @ $ # 1 n 5 < t < s < O - , : 2 s 3 3 & o t t 2.t 3 ! o.1 8 8 A , k : : < 5 .   * ,.o.q.T A $.8.$.,.o.2.} ,.o.&.,.} o.} ,.$.5 = 1 2 2.2.o.s &.$.&.&.o.$.$.o.&.$.,.t , ,.o.T } &.! n o.8 8.A $.: n q.y.s.s.s.s.o.> q.T A n q.&.8.o.&.1 3 } s.q.s.s.q.y.s.s.s.s.8.q.$.T q.y.s.s.8.s.s.s.",
"s.s.s.s.s.s.s.s.s.s.s.s.s.s.s.s.y.s.s.8.s.s.s s ,.2.s.q.q.q.s.s.s.; 8.s.s.s.s.s.s.s.s.s.s.s.s.s.s.s.1 ; < 2 , 5 5 t 2.s 8 t o.n s @         .       . 1 A T 8 8 9 s T :   o o . < , ; , 2 < < & # o . % o & : * & * @   O - - : < 2 n 5 k 5 k 2 ; & # $ @ % > $ < = % < < + 3 n 5 T , 2 : ; : n 3 y.T 5 s T k 3 < 5 & 3 5 $   . T ! 8.} } $.T o.$.$.$.$.$.$.$.$.2.! $.$.,.$.< , 3 5 ,.&.} o.8.! &.,.o.$.$.o.,.&.! 9 3 &.} o.$.} ,.8 $.5 y.,.2 8 s.s.s.y.y.s.s.s.o.> ! o.8.$.o.T &.2.; s s.y.s.q.s.q.s.q.8.s.s.y.q.y.2.T ,.s.8.s.2.q.s.",
"s.s.s.s.s.s.s.s.s.s.s.s.s.s.s.s.s.y.s.s.2.s.s.2 o.y.q.s.s.,.< %   O = s.s.s.s.8.s.s.s.s.s.s.s.s.s.9 - k $.k t 9 3 t t 1 3 3 3 5 t n ; .         .   .   > s 8 t 9 n 2 3 8 < = $ X   & = @ > - 3 3 ; - % # O =       + 1 ! 1 1 3 8 s t 8 2 2 , > < 2 : : % . $ = % ; 9 = = 1 k t 5 3 n 1 A > ; & } 8.T k } 3 ! , t > 9 2 : ; O < &.&.8.8 3 s o.$.$.} ,.! ,.! &.o.&.$.&.&.&.} < 3 2 k 2.T ! 8.} q.&.2.o.$.$.o.,.&.A 5 8 8.$.$.o.! 8.8 o.s ! A % s.s.2.y.s.s.s.y.s.s.2 < $.2.$.&.2.&.! & 2.s.s.q.s.s.s.s.s.s.s.8.y.s.s.8.&.,.q.s.s.s.s.s.",
"s.s.s.s.s.s.s.s.s.s.s.s.s.s.s.s.s.s.s.s.s.s.s.s.t ! s.s.>   .         3 8.q.q.s.s.s.s.q.s.2.&.$.* , 3 9 s A A s 8 n s s } o.$.$.t 8 8 5           .       > t s 3 3 2 5 5 1 5 3 , ; % % +   o # + = . . # X @   > ,.y.: < 1 9 9 k n 3 3 1 < 1 2 3 1 5 2 = , - 1 ; & * & > 9 n 3 3 s 1 k t 2 > = 3 t ! $.1 k , k 5 t 9 < - - X n T 1 $ $ O = 2 8.2.} 2.&.$.$.n ,.o.&.} o.$.n 1 2 1 A } q.2.! &.} ! o.} T ,.! y.A s 3 T } y.T 2.o.T T 8 t } < T 8.s.y.s.y.s.s.s.s.s.s.5 3 k $.s.2.o.* 5 s.q.s.s.s.s.,.s.s.y.s.s.2.! A o.} y.s.y.y.s.q.s.",
"s.s.s.s.s.s.s.s.s.s.s.s.s.s.s.s.s.s.s.s.s.s.s.s.! < s.*           .   X s.2.s.s.y.s.s.s.2.s.} > > 3 n k t s k t 2 2 n 3 9 8 3 * - > 8 5 T & X               * 2 s 5 2 1 3 t k k A 5 8 2 ; $ X o @ + $ * = 2 : 1 2.s.s.: = s T T 9 8 3 5 2 3 s 5 1 9 $ > ; O % & ; < T < # 8 3 1 3 1 } 9 3 T 3 , * T T < ! 8 1 2 8 2., < - < : A O X   * , $ o * t s.T &.&.} o.&.,.&.! } ,.t 5 2 2 y.} T o.&.! } ,.$.&.&.A 2.n s.T 9 3 &.A &.! ,.&.n o.2 $.  o.s.s.s.s.s.8.s.s.y.s.s.y.s 3 3 3 - ; 2 s.y.8.s.y.y.s.s.q.y.s.2., , A - * < : 2 s.s.s.s.q.",
"s.s.s.s.s.s.s.s.s.s.s.s.s.s.s.s.s.s.s.s.s.s.s.s.2.3 ,           .       : s.s.s.s.s.2.s.s.t : < 3 8 8 8 s A s 3 5 8 s 8 1 < - ; 3 } ! A &.2.>       o   & , #   # o.8 , , < , < 2 , 2 9 A ! 5 3 , 2 8 1 < ; & s.s.s.q.8.@ ; A n s k 2 2 9 5 1 1 5 - < * @ - - 2 &.s.y.s.} # 3 < 2 o.5 n T , k - - s > T s < 5 } } 2 > < n 9 3 X     = k n &.o.- @ A q.8.T ,.} o.! &.8.&.! , 8 8 3 2.,.&.o.,.A 2.8.o.! $.$.8.o.$.n 2 $.T q.} $.} $.,.k 9 2 * s.s.q.s.y.q.s.s.s.s.s.s.s.y.$.9 3 q.q.s.s.s.s.s.,.s.s.s.s.s.} - 3 t t T k 3 T 3 + 3 s.q.s.",
"s.s.s.s.s.s.s.s.s.s.s.s.s.s.s.s.s.s.s.s.s.s.s.s.s.,..   .         .       &.2.s.s.y.8.s.$.o , < 3 8 9 3 2 2 2 2 1 < , < - ; & 5 A T 2.T s } ,.3       3 5 1 # .     2 ! A 3 3 1 : > > 2 9 3 2 > 2 2 t 2 < O 2.q.y.y.s.s.,.* $ t ! 3 } 9 k < k 8 2 s < # * 8 y.s.s.s.s.s.s.8.# 2 A 9 A T > 5 5 s * % 5 8 < 8 5 3 ! = > } k 8     O $ 1 &.s.s.q.s.3 o 5 &.! $.o.,.$.o.,.$.s > 9 5 t &.! n s $.o.$.} q.8.,.o.T y.s 8 3 ,.A ! } $.&.$.! A A % 2 q.y.s.y.s.s.s.s.s.,.s.s.s.s.y.s.s.s.s.s.s.s.s.s.s.s.q.s.s.o.; 8 ! 3 < : 1 k 8 T n , : s.s.",
"s.s.s.s.s.s.s.s.s.s.s.s.s.s.s.s.s.s.s.s.s.s.s.s.s.y.=             .       & s.q.y.s.y.o., 5 1 t 8 3 2 3 t s 3 , , ; 1 < 1 A o.&.2.} o.k 2.t k A } X O 3 s.1 * .       - t t 2 1 > 1 < < , , 3 3 1 3 1 2 # } s.y.s.s.q.s.y.q.:   = t 9 T 2 n , < 2 = @ 1 s.$.s.s.s.y.q.q.s.s.$.$ t k ! : n t n ! > @ 1 3 9 > 8 $.< ; 5 k < + @ . + & ,.s.y.s.s.8.s.8 . &.! o.} 8.&.! &.} 2 1 s n 2.5 # : , - - 9 q.T &.8.} 8.} s 8 8 $.8.} 8.o.8.&.} $.k   T s.s.s.s.8.y.s.s.s.s.s.s.s.o.s.8.s.s.2.2.y.s.8.s.s.8.y.y.} 1 1 T t n A ! 3 1 5 3 t 2 ; + ; ",
"s.s.s.s.s.s.s.s.s.s.s.s.s.s.s.s.s.s.s.s.s.s.s.s.y.s.o.    .         .       t s.s.s.1 1 s n A s ! $.2.,.o.n 8 2 - ; , > 1 T n 9 2 ! t s 9 k 3 T o.8 % & A s <   # & $ . . 5 3 > : : < , , < : > < < > o 2 s.2.s.s.s.8.y.s.,.s.&.1 # + & : , 1 2 @ % ,.s.s.s.y.s.s.s.s.y.q.s.8., 2 T 5 t s s k 1 3 = * @ $ 3 k ! 2 , : + : : #   # : y.s.s.s.y.y.q.s.n $ q.$.! $.$.o.&.! , 3 n } >   n : 9 t 3 ; = $.&.k $.&.8.k s 1 o.,.s.$.o.} T ,.t 2   s.s.2.s.s.2.s.8.q.t 3 ! 8.y.s.s.y.s.s.s.y.2.s.s.s.s.s.s.s.k & t k ! 3 t t ! T A 2 3 A n t < ",
"s.s.s.s.s.s.s.s.s.s.s.s.s.s.s.s.s.s.s.s.s.s.s.s.s.s.,.#           .       . O s.s.3 : 5 3 1 3 2 2 1 2 3 t t 8 3 9 ! k k A $.s ! $.T s A T } A n ! ,.3 o ; $ O % * . = < > O : 3 1 : > > 1 s n o.A 9 # 5 ,.s.s.y.8.s.s.s.s.s.,.s.q.s.2.> & * = : , q.s.y.s.y.s.2.,.s.q.s.,.y.s.} - } k n 8 2 t 9 = 3 < * + + *   = = ; 3 1 % .   ; $.s.2.s.s.s.s.s.y.8.2 : &.o.o.,.$.A T 2 k t , * 9 k T 2.} 9 3 9 @ s ,.o.,.&.! A 5 s n } T } T 8.2.} ; - 2.q.s.s.s.s.} % & < < : @ : ,.s.s.s.8.8.s.s.y.s.s.s.s.s.} A 3 1 3 < t t &.5 k o.3 n &.T s t ",
"s.s.s.s.s.s.s.s.s.s.s.s.s.s.s.s.s.s.s.s.s.s.s.s.s.y.s.! .             .     . 3 > 5 &.8 s s t t n s 5 2 1 < 1 2 , , 5 8 T T 8.! o.,.2.o.! } T t 5 ! n       % A # 1 t 3 1 5 * # k t < , : : 3 s 3 o 2 y.s.y.s.s.s.s.s.s.s.2.s.8.s.2.y.s.s.s.q.y.s.s.s.s.y.s.s.s.s.s.s.s.s.s.s.s.% 1 ! 3 < A 5 : T s = * : : 1 : : : * 3 : #   $ , s.s.s.s.q.s.s.s.s.y.s.: 1 ,.&.T 2.} $.5 3 1 % < $.y.s.y.s.s.2.! s : T &.} o.&.T o.&.} } &.q.T $.$.!   : s.s.s.q.s.s = q.s.s.s.s.s.k   n s.s.y.s.q.s.s.y.s.s.s.8.! 1 s n ! o.t A t A 3 - 1 8 3 t k 9 ",
"s.s.s.s.s.s.s.s.s.s.s.s.s.s.s.s.s.s.s.s.s.s.s.s.q.s.s.y.=             . .       1 = * ; 2 5 s s n 8 s 1 s 5 < < < 5 t n ! A n } o.A A } o.&.$.n T T } 1     # & A 5 1 5 < , - <   : 2 : , 2 1 >   k s.8.s.s.y.s.s.&.t } y.s.s.y.s.s.s.s.s.s.s.s.s.s.s.s.s.s.s.s.s.s.s.s.s.s.s.s., 9 n > &.T : T A T 2 k k 8 8 3 < 3 3 < = %   , A s.s.q.s.s.s.s.s.y.s.8.s., 3 $.2.&.$.! 5 9 @ : 2.q.s.s.s.s.s.y.s.2.< = } ! &.,.&.A ! q.,.&.8.} ,.2.> @ t y.8.y.q.,.1 s.s.2.s.s.s.s.s., & 3 s.y.s.s.s.s.q.8.s.q.t 8.3 ! n s } ! } o.} } 8 n k 9 s k n ",
"s.s.s.s.s.s.s.s.s.s.s.s.s.s.s.s.s.s.s.s.s.s.s.s.y.s.2.s.8.  .             .     % $.o.t 1 9 1 > < > 2 8 1 < = : < 3 n } A s k n A A ! ! A A ! } } o.n ,.-   O 1 3 k 3 < 3 * 9 t > = , n s < + = ,.s.y.y.s.y.y.s.s.2.! 2.s.y.s.s.s.s.s.s.s.s.s.s.s.s.s.s.s.s.s.s.s.s.s.s.s.s.s.s.k 2 > &.t 3 } n $.1 < A A t 8 9 8 : A 1 & # @ < s.2.2.s.s.s.s.s.s.s.q.s.q.q.; 3 ,.&.8.k 2 # = ! q.q.s.s.s.s.s.s.s.s.q.1 % s.8.} $.2.$.,.2.} } &.q.>   1 3 ,.s.2.s.> q.2.s.s.y.s.s.y.s.s.* * > $.y.s.y.q.q.s.s.n } - 9 k t ! 9 ! A A n A 9 A T T n k k ",
"s.s.s.s.s.s.s.s.s.s.s.s.s.s.s.s.s.s.s.s.s.s.s.s.s.s.s.s.s.t                     . > s 2 1 > , 5 t 8 s 9 2 : 2 < 3 2 9 k 9 k } ! ! ! n t 8 3 1 1 2 > 5 A T 2   n t 3 5 t % 2 k < 9 1 ; < > . 2 q.s.s.q.s.s.s.s.q.s.q.8.s.s.y.s.s.s.s.s.s.s.s.s.s.s.s.s.s.s.s.s.s.s.s.s.s.s.s.s.s.y.> t &.! A ! q., , ! s ! n t 2 2 T < 3 # & = + @ : 1 - = 5 s.s.s.y.s.s.y.s.s.: ; , 3 2 * : > s.s.y.s.s.q.y.s.q.s.q.y.s.2 - ,.,.o.,.o.T n $.q.! : o > T } 8.y.s.y.> s.s.s.s.s.s.s.y.s.s.3 > ,   2 t } A n $.T 3 ; n A 2 A 9 t s n t 9 k t A ! o.n k k ",
"s.s.s.s.s.s.s.s.s.s.s.s.s.s.s.s.s.s.s.s.s.s.s.s.s.s.s.q.y.s.:     .     .   X     o s s A 1 1 < , > , > * > ; , < > > > ; > < 1 ; < 3 3 3 3 9 } n T t 3 5 3 % > n s 2 & 9 T 3 5 3 5 t > - &.q.q.q.s.s.s.q.s.s.8.s.s.s.s.s.y.y.s.s.s.s.s.s.s.s.s.s.s.s.s.s.s.s.s.s.s.s.s.s.s.s.s.y., s o.5 &.k T ; 3 $.s ! s 3 s < 5 3 < & @ % 8 y.s.s.s.y.> ; 8.s.q.s.s.s.s.s.s.9 1 : 2 1 , } s.s.y.s.s.y.s.s.s.s.8.s.s.s.1 = s 2.&.$.,.$.! 2 # ; 9 , ! k y.s.y.T $.8.s.s.s.y.s.q.s.s.s.s.- n k ; % - 2 8 > % % A ; , 1 , 2 8 } 1 1 5 ! o.} A k } } T ",
"s.s.s.s.s.s.s.s.s.s.s.s.s.s.s.s.s.s.s.s.s.s.s.s.s.s.y.y.s.8.y.-   .     . .         - 9 9 9 n k 5 5 - < , : > , , 2 5 8 t 8 8 s 8 8 3 3 k A n A 9 n 9 n 9 T q.< = 2 & 3 n 5 s 3 8 5 2 n < q.s.s.s.s.s.s.s.s.y.s.s.s.s.s.s.y.y.s.s.s.s.s.s.s.s.s.s.s.s.s.s.s.s.s.s.s.s.s.s.s.s.s.s.&.% 8 $.5 8.: 1 o.s } k } 5 s n , $., + 9 s.s.s.8.s.q.2.s.T @ s.s.s.q.s.s.2.s.s.&.t 2 8 : q.8.s.s.s.s.s.s.s.s.s.s.,.s.s.s.A * 2 s t 5 > $ & < ; 8 s.T &.&.s.s.5 s.s.2.s.s.y.s.s.s.y.s.s.2 2 8 9 s s < : < < 2 2 k 1 2 3 < 2 > < > : , 3 5 9 s s k A ",
"s.s.s.s.s.s.s.s.s.s.s.s.s.s.s.s.s.s.s.s.s.s.s.s.s.s.q.s.y.s.s.q.=   . .               < A 3 3 5 1 : , : 8 s 8 ! A } A n T 9 < < 3 3 3 2 3 8 k ! 2.5 s 2 3 A A k 3 ; 2 ; 9 s t 3 3 2 3 2 > s.s.q.8.y.s.s.s.s.8.s.s.y.s.y.y.s.y.s.s.s.s.s.s.s.s.s.s.s.s.s.s.s.s.s.s.s.s.s.s.s.s.s.s.s.} - 3 ! A ; t T s ! s 9 A 2 1 s : = s.s.s.s.s.s.s.s.s.s.,.A = s.2.s.8.s.s.s.s.s.s.o.9 9 s.s.s.s.s.s.s.s.s.s.q.s.s.y.s.s.8.,.2 ; % ; 3 3 2 2 $.8.s.A q.q.s.q.< s.s.s.s.s.s.s.s.s.&.y.s.8.; A } s 3 < < 1 1 2 3 : & % , < 5 5 3 2 2 5 T n 9 3 1 2 3 ",
"s.s.s.s.s.s.s.s.s.s.s.s.s.s.s.s.s.s.s.s.s.s.s.s.8.s.y.s.s.s.s.8.3 o       .       .   @ A k t 3 ; , 1 8 9 A 8 5 2 1 , > > > : : > ; : , 1 5 9 5 3 9 A T } n A 8.A t & ; - 9 s 3 t s 5 t - s.,.s.s.s.s.s.s.s.q.s.s.y.s.y.y.s.s.s.s.s.s.s.s.s.s.s.s.s.s.s.s.s.s.s.s.s.s.s.s.s.s.s.y.2.s.s.< , 1 < $.t n $.} , T ! - , < q.,.q.s.8.q.s.s.y.y.s.s.y.n > s.s.q.y.q.2.s.s.$.,.&., s.s.8.s.y.y.s.s.8.y.s.q.8.s.y.s.y.s.y.y.q.y.q.s.s.s.y.s.q.! y.s.s.s.< s.8.s.8.y.s.s.s.q.s.s.s.s.s 1 s A 3 , > < 2 3 2 , s A A T n } ! s 5 2 k s t 3 8 t n ",
"s.s.s.s.s.s.s.s.s.s.s.s.s.s.s.s.s.s.s.s.s.s.s.s.s.s.y.s.s.s.y.8 # ; o   X     .         < 9 2 3 > * 2 < < : ; > : > 1 , - ; 1 9 1 1 5 s 8 8 8 2 8 s 9 k < > < % O = } s.T : 2 k 3 s 3 3 , 8.s.q.s.,.s.s.s.s.q.y.y.y.s.s.s.s.s.s.s.s.s.s.s.s.s.s.s.s.s.s.s.s.s.s.s.s.s.s.s.s.s.s.s.s.s.y.s.,.1 * = , > 3 < - ; : s 8.s.s.s.q.s.s.s.y.s.s.q.y.s.s.s., n y.s.s.s.s.s.8.q.! o.2 s.s.s.s.q.} T 5 , , 9 &.s.q.s.y.s.s.8.s.s.q.s.s.y.s.s.8.s.2.! y.y.s.3 s.s.y.q.q.2.s.y.s.q.y.s.s.s.* 3 8 < 1 9 k ! n 3 3 > 2 2 t 8 s s 3 < : 3 9 s 9 t t s ",
"s.s.s.s.s.s.s.s.s.s.s.s.s.s.s.s.s.q.s.s.q.s.s.q.s.q.y.s.2.s.1 @ ; , > O   .               s 3 < = , - * , 1 3 1 1 2 3 , ; < 1 - * : 1 < : ; , 2 : > * = @ - < T s.s.y.s.s.$.2 ; 3 < : > s.s.q.s.s.s.s.s.s.s.s.y.q.s.s.y.y.s.q.s.,.s.s.s.s.s.q.s.s.s.s.s.s.s.s.s.s.s.s.s.s.s.s.s.s.s.s.s.s.s.s.s.,.! s t T ,.q.y.s.s.s.s.s.s.s.s.s.s.s.s.s.s.s.s.y.s.= ,.s.s.y.s.s.s.$.$.&.> s.s.s.1 * < n k 3 3 2 $ + 5 s.8.s.y.8.s.s.y.q.s.s.y.2.s.s.s.s.y.8.y.3 8.s.q.s.s.y.y.q.s.s.2.q.y.2.2., T 8 , , 1 1 , < 1 8 ! o.n 3 2 < 3 8 1 , 1 t } ,.,.,.",
"s.s.s.s.s.s.s.s.s.s.s.s.s.s.s.s.s.y.s.s.s.s.q.y.s.s.s.q.s.1 o < : 1 - , O     .         . o A $.2 2 9 8 3 5 1 9 2 k k s T n 2 > < > : - = * % # & : 2 } $.y.q.s.s.y.q.s.s.s.s.8.k s o.&.s.y.s.s.&.8.s.s.s.s.s.s.s.8.s.s.s.s.s.y.s.o.} q.s.y.y.s.s.s.s.s.s.s.s.s.s.s.s.s.s.s.s.s.s.s.s.s.s.s.s.s.s.s.s.s.s.s.s.s.s.s.s.s.s.s.s.s.s.s.s.s.s.s.s.s.y.,.8.> s.s.s.8.s.q.A y.&.2 s.s.= 3 ,.s.s.s.s.s.s.s.&.- O $.s.s.s.s.s.s.y.q.s.s.s.q.s.q.s.q.s.k A s.s.y.s.s.s.s.s.s.s.s.s.s.s.s.> A k s < 3 8 , k n n n n k k k o.n 8 5 t T T n 9 9 9 ",
"s.s.s.s.s.s.s.s.s.s.s.s.s.s.s.s.s.y.s.y.s.s.s.s.s.s.2.s.< = = : > 2 > < 2 &             .   - 1 2 1 > = ; > ; : , : 1 3 , : ; $ . $ > 2 3 8 } s.y.q.y.q.s.y.s.s.s.s.s.s.y.y.s.s.8.s.s.A q.s.s.$.s.s.s.8.y.s.s.s.s.y.s.s.q.s.q.s.& = 5 s.s.y.s.s.s.s.s.s.s.s.s.s.s.s.s.s.s.s.s.s.s.s.s.s.s.s.s.s.y.s.s.s.s.s.s.s.s.s.s.s.s.s.s.s.s.s.s.s.s.s.s.s.s.&.q.2 8 8.2.s.y.y.k $.$.s.$.= ! q.s.s.s.s.s.q.y.s.y.,.2.- 5 s.s.s.y.q.s.s.s.q.s.s.s.s.8.s.q., q.s.s.s.y.s.s.s.y.8.y.s.s.s.s.s.,., 1 > , 9 8 > : 1 3 3 3 5 5 3 1 > ; > 2 9 t 9 &.&.,.",
"s.s.s.s.s.s.s.s.s.s.s.s.s.s.s.s.y.s.y.2.q.s.s.y.8.s.q.= 3 T ; > < 3 2 1 < < * o   .         . 3 T t t 1 , - - ; ; , , : - = > 8 q.y.s.s.y.q.q.q.s.y.s.y.s.s.s.y.y.s.s.s.s.y.y.y.s.q.s.y.q.s.,.= 3 ,.s.s.y.s.s.s.y.s.&.s.s.s.s.1 * 2 q.s.s.s.s.s.s.s.s.s.s.s.s.s.s.s.s.s.s.s.s.s.s.s.s.s.s.s.s.s.s.s.q.q.s.s.s.s.s.s.s.s.s.s.s.s.s.s.s.s.s.s.s.s.8.s.s.s.1 3 s.q.y.y.! s.s o.* ! s.y.8.q.s.s.s.s.8.s.s.s.8.2.: t q.s.s.s.s.s.y.8.s.s.8.y.s.s.5 n s.s.s.s.y.s.s.s.q.&.2.s.q.q.s.s.s.> , 3 3 n T k T } ! n k n A A t 5 9 n ! n t 9 2 2 2 ",
"s.s.s.s.s.s.s.s.s.s.s.s.s.s.s.s.s.s.s.s.s.s.y.2.s.8.= < s.8 ; > < 9 8 1 8 < t #   .             2 < 2 , < t t 2 3 , = : A s.s.y.y.s.s.s.y.y.s.s.s.s.s.y.s.y.s.s.s.s.s.s.s.s.s.s.y.q.y.q.s.s.s.o.8.s.s.2.y.s.s.s.s.,.s.s.s.s.n & 2 &.s.y.y.s.s.s.s.s.s.s.s.s.s.s.s.s.s.s.s.s.s.s.s.s.s.s.s.s.s.s.s.s.y.y.s.s.s.y.s.s.s.s.s.s.s.s.s.s.s.s.s.s.s.s.y.8.s.y.y.t ; o.2.y.s.8.8 ; s.2.q.s.s.s.y.y.s.y.s.s.s.s.s.y.A % 8.y.s.s.y.y.s.s.y.q.s.8.s.s., s.s.q.y.s.s.s.s.s.s.8.y.s.s.y.s.s.s.&.: } 1 1 3 2 t 8 8 s n k k k A 3 , , 1 2 3 5 s s s ",
"s.s.s.s.s.s.s.s.s.s.s.s.s.s.s.s.s.y.s.s.s.8.s.s.o.% A s.s.3 > ; , 9 2 n t 3 , : # .       . o   - o.k ! &.n 3 < = 1 2.s.8.8.s.y.s.s.s.s.s.y.q.8.q.s.s.s.s.s.s.s.s.s.q.q.y.s.y.q.s.y.s.s.2.8.s.2.k ,.s.s.y.y.s.s.s.8.y.s.&.q.: < 2.s.s.s.s.s.8.q.s.s.s.s.s.s.s.s.s.s.s.s.s.s.s.s.s.s.s.s.s.s.s.s.} ,.s.s.s.q.8.q.s.s.s.s.s.s.s.s.s.s.s.s.s.s.s.s.s.s.s.s.s.s.&.s 3 8 3 8 &.8.q.s.s.s.y.8.y.s.s.s.y.s.q.s.s.s.y.1 8 2.s.s.q.s.s.s.s.q.s.s.y.- s.s.s.8.y.s.s.s.s.y.s.s.s.s.s.s.s.s.s.s., 1 2 s A k t 3 2 3 9 t k T o.! A ! $.$.o.} } } } ",
"s.s.s.s.s.s.s.s.s.s.s.s.s.s.s.s.s.q.y.s.q.y.s.$.$ T y.s.q.n 2 ; 1 > s s < * - 3 k $   .           > 9 3 1 $ - T q.s.q.&.s.s.q.s.s.s.s.q.q.y.s.s.s.s.s.8.q.q.s.s.q.y.s.s.s.s.s.s.q.s.s.8.y.s.y.y.s.s.s.y.y.s.s.y.y.2.< s.y.2.5 ! s.s.s.y.q.8.y.s.s.s.s.s.s.s.s.s.s.s.s.s.s.s.s.s.s.s.s.s.s.s.s.s.} 2.s.s.s.s.s.s.s.s.s.s.s.s.s.s.s.s.s.s.s.s.s.s.s.y.s.q.s.q.s.s.q.s.s.2.s.s.y.s.s.s.s.s.s.y.y.q.s.s.s.8.y.s.2.y.: 9 q.s.s.s.y.8.s.s.s.k * ,.s.2.s.s.s.s.y.s.s.s.y.s.s.y.s.s.y.y.s.q.8.- 3 A s T T A n s 8 2 < , ; > , < 2 3 9 t k k k ",
"s.s.s.s.s.s.s.s.s.s.s.s.s.s.s.s.q.s.s.s.y.s.8.; $.s.s.y.2.3 * - : 1 1 < 2 $ # > A o.;       .       k & < q.s.s.s.s.y.s.s.s.y.q.s.s.s.s.s.s.s.y.s.y.s.y.s.s.s.s.s.s.s.s.s.s.s.s.s.s.y.s.s.s.s.s.s.q.s.s.y.y.s.y.s.* k s.y.s.q.s.s.y.s.s.s.s.s.y.s.s.s.s.s.s.s.s.s.s.s.s.s.s.s.s.s.s.s.s.s.s.s.s.s.s.s.s.s.s.s.s.s.s.s.s.s.s.s.s.s.s.s.s.s.s.s.s.s.s.y.s.s.s.y.q.s.s.s.y.s.y.s.8.y.s.s.s.s.s.s.y.s.8.s.s.s.s.s.s.8., * 2 8.y.q.s.s.t = 1 s.s.8.s.s.s.s.y.q.y.s.s.q.s.s.q.s.s.s.s.s.y.s.- 8 n s A ! } n 5 2 3 9 t 8 s k 9 5 5 3 1 < 1 1 ",
"s.s.s.s.s.s.s.s.s.y.s.s.q.y.s.s.y.s.s.s.s.2.= y.8.s.s.s.A < 3 9 3 1 < = % 8 5 9 t 3 3 %   X         O s.y.8.s.s.s.s.s.y.s.s.y.s.s.q.s.3 y.q.s.s.s.s.y.s.s.q.8.y.s.s.s.s.s.s.s.s.s.s.s.s.y.y.s.s.s.y.s.s.s.s.y.s.T : ,.s.y.s.q.s.s.s.s.s.s.s.s.s.s.s.s.s.s.s.s.s.y.s.q.s.s.s.y.s.s.q.s.s.s.s.s.y.y.s.s.s.s.s.s.q.s.y.s.s.s.s.y.s.s.s.s.s.s.s.s.s.s.s.s.s.s.s.s.s.y.s.s.s.s.y.s.s.s.s.y.y.s.s.s.s.s.s.s.s.s.s.s.s.s.s.y.s < * * ; = 3 2.s.s.s.s.s.s.s.s.s.s.s.s.s.s.2.s.8.s.s.y.s.q.s.s.,.- o.&.T T s 9 3 < < 2 2 3 2 2 5 5 3 3 5 > < 2 ",
"s.s.s.s.s.s.s.s.2.s.y.s.s.s.s.,.s.s.s.s.T : s.y.s.2.s.2.5 3 9 o.n 1 * - 8 3 5 k n 1 1 3 =             , s.s.8.s.2.y.s.s.y.s.s.y.s.y.s.k 8.s.y.s.s.s.s.s.s.s.s.s.s.s.s.s.s.s.s.s.s.s.s.s.s.s.y.q.s.s.s.s.s.s.s.s.$.n s.s.y.s.s.y.s.s.s.s.s.s.s.s.s.s.s.s.s.s.s.s.s.s.y.s.s.y.q.8.y.s.s.s.s.s.s.q.y.s.y.s.s.y.s.s.s.y.s.s.y.s.y.s.s.s.s.s.s.s.s.s.s.s.s.s.s.s.s.s.y.s.s.s.s.s.s.s.s.s.s.s.s.s.s.s.s.s.s.s.s.s.s.s.s.s.2.q.s.s.s.q.s.s.s.y.q.y.s.s.s.s.s.s.s.s.s.s.s.s.s.s.y.s.s.s.y.s.s.s.> ! s < < 2 9 3 1 8 k t n n 5 ! 9 T 9 n 3 3 3 ",
"s.s.s.s.s.s.s.s.s.q.8.s.s.2.s.s.q.y.2.o.> s.s.y.s.s.q.s.9 9 T t > - > 2 1 ; 2 1 3 ! ! 1 - @   X .     . < q.s.y.s.s.8.s.s.y.s.s.y.y.s.q.y.s.y.y.y.s.s.s.s.s.s.s.s.s.s.s.s.s.s.s.s.y.q.s.s.s.2.} s.s.y.q.q.y.s.s.8.s.s.y.y.s.s.q.s.s.s.s.s.s.s.s.s.s.s.s.s.s.s.s.s.s.y.s.s.q.s.s &.s.s.s.s.s.y.y.s.y.y.s.y.y.s.y.q.q.s.s.y.s.s.s.s.s.s.s.s.s.s.s.s.s.s.s.s.s.s.s.y.s.s.s.s.s.s.s.s.s.s.s.s.s.s.s.s.s.s.s.s.s.s.s.s.q.s.s.q.s.q.s.s.s.y.y.s.s.s.q.s.s.s.s.s.s.s.s.y.8.8 s.s.s.s.s.s.y.s.s.q.- 9 n T s t < : , 2 s 2 1 , , > , < 2 < , , ",
"s.s.s.s.s.s.s.s.s.q.s.y.s.s.s.y.s.s.2 1 s.y.q.s.y.s.s.&.T < 9 ; , , 1 s k 1 > < 2 3 + 3 q.&.          .   3 s.s.y.s.s.s.s.s.s.y.s.q.q.$.T 8.y.s.y.s.s.s.s.s.s.s.s.s.s.s.s.s.s.s.s.y.q.s.s.s.2.} s.s.y.2.2.y.s.s.y.s.q.s.y.s.s.s.s.s.s.s.s.s.s.s.s.s.s.s.s.s.s.s.q.s.s.s.s.s.s.> A q.s.y.s.s.s.s.s.s.s.s.q.s.s.q.s.y.s.s.s.s.s.s.s.s.s.s.s.s.s.s.s.s.s.s.s.s.s.s.s.s.s.s.s.s.s.s.s.s.s.s.s.s.s.s.s.s.s.s.s.s.s.s.s.! 1 } 8.q.s.y.y.s.s.s.s.s.s.s.s.s.s.s.s.s.s.s.q.&.1 y.y.q.y.s.8.s.q.s.s.1 : 5 2 1 3 1 > > ; > 1 < 1 > > ; , < > , < ",
"s.s.s.s.s.s.s.s.y.s.y.s.s.y.y.s.8.> A y.y.s.q.s.s.y.q.} 1 : * ; ; 1 2 1 2 8 k o., = q.y.2.s.9     . % O     2 y.s.2.y.s.y.s.s.q.q.q.s.s.y.s.s.y.s.y.y.s.s.q.q.y.s.s.s.s.s.s.s.s.s.s.y.s.s.s.y.2.s.s.y.2.2.y.s.s.s.y.y.s.q.s.s.s.s.s.s.s.s.s.s.s.s.s.s.s.s.s.s.s.y.s.s.s.s.s.s.> A q.s.y.s.s.s.s.s.s.s.s.q.s.s.y.s.s.s.s.s.s.s.s.s.s.s.s.s.s.s.s.s.s.s.s.s.s.s.s.s.s.s.s.s.s.s.s.s.s.s.s.s.s.s.y.s.s.s.s.s.s.s.s.o.8 $.s.s.s.y.s.s.s.s.s.y.y.s.s.s.s.s.s.s.s.s.s.y.s.,.s.,.8.s.s.q.s.s.s.2.s.- < , , > = = , < 1 > < < 3 2 5 2 3 3 3 3 ",
"s.s.s.s.s.s.s.s.s.s.2.s.2.$.s.&.: 9 s.s.s.s.s.s.s.s.&.y.: & % < 2 , , 2 s 8 8 & o.s.s.s.s.s.s.= o A : = : = + < 2.s.s.8.s.s.2.s.s.q.s.y.q.8.s.s.s.y.y.s.s.8.2.q.y.y.s.s.s.s.s.s.s.s.s.s.s.s.s.s.s.s.y.q.q.y.s.s.s.y.s.s.8.s.s.q.s.s.s.s.s.s.s.s.s.s.s.s.s.s.s.s.s.s.s.s.y.8.q.9 &.s.s.s.s.s.s.y.q.s.s.y.s.s.s.s.s.s.s.s.s.s.s.s.s.s.s.s.s.s.s.s.s.s.s.s.s.s.s.s.s.s.s.s.s.s.y.q.8.q.s.s.s.s.s.y.s.s.s.s.s.s.s.s.s.s.8.2.y.&.s.8.8.8.y.s.s.s.q.q.s.s.s.s.s.s.s.s.s.s.s.s.q.y.s.s.s.8.s.s.s.s.! > 8 8 2 < 2 8 t t 2 1 < < 2 3 3 1 1 2 3 ",
"s.s.s.s.s.s.s.s.s.s.s.q.8.s.q., t s.q.s.s.} s.s.s.s.s.,.> @ > , 1 8 8 5 2 ; 1 y.q.s.s.&.s.8.s.s > 8.n -     X   # T s.q.s.s.8.s.s.s.s.s.s.s.s.s.s.s.y.s.y.y.y.y.s.y.s.s.s.s.s.s.s.s.s.s.s.s.s.s.s.s.s.s.s.s.s.s.s.s.s.y.y.s.s.y.s.s.s.s.s.s.s.s.s.s.s.s.s.s.s.s.s.s.y.s.y.q.2.,.y.s.s.s.s.s.s.q.s.y.y.q.s.y.,.s.y.s.s.s.q.,.y.y.s.s.s.s.s.s.s.s.s.s.s.s.s.s.s.s.s.s.s.s.s.s.8.,.,.2.q.s.s.s.s.y.s.s.s.s.s.s.s.s.s.y.s.2.y.s.y.s.s.s.s.s.s.s.y.y.s.s.s.s.s.s.s.s.s.q.8.s.s.s.s.s.s.s.q.s.s.s.s.= < 1 , 1 3 2 3 5 t 3 3 : < > 1 > , , , ",
"s.s.s.s.s.s.s.s.s.y.s.8.s.,.- T s.q.s.s.q.o.s.y.s.s.2.$.+ - : > > 1 2 : - ,.q.s.s.q.s.s.s.s.y.t * , : % O           > s.s.s.s.s.s.s.q.y.q.y.s.s.y.s.s.y.y.s.s.s.s.s.s.s.s.s.s.s.s.s.s.s.s.s.y.q.s.y.s.s.s.s.y.s.s.y.y.2.s.y.s.s.s.s.s.s.s.s.s.s.s.s.s.s.s.s.s.s.s.s.y.y.s.s.2.q.s.q.s.s.s.s.s.y.s.s.q.y.s.&.k q.2.s.s.s.,.! 2.y.s.s.s.s.s.s.s.s.s.s.s.s.s.s.s.s.s.s.s.s.s.s.2.$.$.,.8.y.s.s.s.y.s.s.s.s.s.s.s.s.s.s.8.s.s.s.y.s.s.y.y.s.s.y.s.s.s.s.s.s.s.s.s.s.y.s.s.s.y.y.s.s.s.q.s.y.y.s.,.q.- 2 1 3 t 5 s 3 , 2 8 5 9 s ! } A 8 1 ",
"q.s.s.8.s.s.s.8.s.s.s.q.$.1 k q.s.s.8.y.$.T s.s.y.s.q.9 $ , 1 > 9 3 & 8 s.y.s.q.s.s.s.s.s.s.s.s.  $             O : +   9 q.8.s.s.y.8.s.s.y.s.s.q.q.s.y.s.s.q.s.s.s.s.s.s.s.s.s.s.s.s.s.s.s.s.s.s.s.s.s.s.s.s.s.s.s.s.s.s.s.s.s.s.s.s.s.s.s.s.s.s.s.s.s.s.s.s.s.s.s.s.s.s.s.s.s.s.s.s.s.s.s.s.s.s.s.s.s.s.2 , s.y.y.s.s.s.s.s.y.s.s.s.s.s.s.s.s.s.s.s.s.s.s.s.s.s.s.s.s.s.s.s.s.s.y.s.y.s.2.s.s.s.s.s.s.s.s.s.s.s.s.q.s.s.s.s.y.s.s.s.s.s.s.s.s.s.s.s.s.s.s.s.s.s.s.s.s.s.s.s.s.s.s.s.s.s.s.s.s.n 2 3 < 1 1 , < = = - = * - : ; % % & ",
"s.s.s.s.s.s.s.s.s.2.s.5 , s.s.s.q.s.y.y.,.8.q.y.s.s.&.3 # 1 < , 2 % s.s.8.s.y.s.s.s.s.s.s.s.y.s.O       , - & * + $ = X . % n y.s.s.s.q.q.s.s.s.s.s.s.q.s.s.s.s.s.s.s.s.s.s.s.s.s.s.s.s.s.s.s.s.s.s.s.s.s.s.s.s.s.s.s.s.s.s.s.s.s.s.s.s.s.s.s.s.s.s.s.s.s.s.s.s.s.s.s.s.s.s.s.s.s.s.s.s.s.s.s.s.s.q.s.s.q.s.s.8.s.s.q.q.y.s.y.q.s.s.s.s.s.s.s.s.s.s.s.s.s.s.s.s.s.s.s.s.s.s.s.s.s.s.s.s.s.2.s.s.s.s.s.s.s.s.s.s.y.&.$.y.s.s.s.s.s.s.s.s.s.s.s.s.s.s.s.s.s.s.s.s.s.s.s.s.s.s.s.s.s.s.s.s.s.s.s.s.s.; 3 2.! k ! 9 k k 9 2 2 s n 9 t t s ",
"s.y.s.s.s.s.y.8.&.s., s q.y.s.q.y.y.s.2.T s.s.y.y.s.T * - ; : * 2 s.,.y.s.2.q.s.s.s.s.s.s.s.y.y.1 X - ,.=       .   X #   O # - ,.s.s.y.y.s.8.s.s.s.s.q.y.s.s.y.s.s.s.s.s.s.s.s.s.s.s.s.s.s.s.s.s.s.s.s.s.s.s.s.s.s.s.s.s.s.s.s.s.s.s.s.s.s.s.s.s.s.s.s.s.s.s.s.s.s.s.s.s.s.s.s.s.s.s.s.s.s.s.s.s.8.s.s.s.&.2.s.q.q.q.q.s.s.s.y.s.s.s.s.s.s.s.s.s.s.s.s.s.s.s.s.s.s.s.s.s.s.s.s.s.s.s.s.s.,.y.s.s.s.s.s.s.s.s.s.q.o.o.y.s.y.y.s.s.s.s.s.s.s.s.s.s.s.s.s.s.s.s.s.s.s.s.s.s.s.s.s.s.s.s.s.s.s.s.s.,.2 > 9 3 1 3 5 3 5 < ; ; , > ; > > , ",
"y.s.y.q.s.y.s.s.y.> k s.y.s.s.q.s.q.q.} 8.s.&.&.9 & X * % , ; 2 s.s.y.s.2.s.s.8.s.s.s.s.s.s.s.s.s.% = 1 - 1 1 < , * o   ; - $ +   &.y.s.y.y.s.s.8.q.s.s.y.y.s.s.s.s.s.s.s.s.s.s.s.s.s.s.s.s.s.s.s.s.s.s.s.s.s.s.s.s.s.s.s.s.s.s.s.s.s.s.s.s.s.s.s.s.s.s.s.s.s.s.s.s.s.s.s.s.s.s.s.s.s.s.s.s.s.s.s.s.s.8.q.s.s.q.T &.s.s.s.y.s.s.s.s.s.s.s.s.s.s.s.s.s.s.s.s.s.s.s.s.s.s.s.s.s.s.s.s.s.s.s.,.y.s.s.s.s.s.s.s.s.s.s.8.8.s.s.s.y.s.s.s.s.s.s.s.s.s.s.s.s.s.s.s.s.s.s.s.s.s.s.s.s.s.s.s.s.s.s.s.s.s.s.o.- 2 = & = > 3 A T t t 8 2 < 2 2 3 ",
"s.s.8.s.s.q.s.s.< 5 s.q.s.s.s.s.s.s.s.&.q.: O # % $ % 5 - 3 * s.s.y.s.s.s.q.s.q.s.s.s.s.s.s.s.s.q.<   < 5 1 , : > 5 & ; 5 , < 1 1 % &.8.s.q.s.s.y.y.y.s.s.q.y.s.s.s.s.s.s.s.s.s.s.s.s.s.s.s.s.s.s.s.s.s.s.s.s.s.s.s.s.s.s.s.s.s.s.s.s.s.s.s.s.s.s.s.s.s.s.s.s.s.s.s.s.s.s.s.s.s.s.s.s.s.s.s.s.s.y.y.s.s.s.s.$.> T &.s.s.s.s.s.s.s.s.s.s.s.s.s.s.s.s.s.s.s.s.s.s.s.s.s.s.s.s.s.s.s.s.y.s.s.2.y.s.s.s.s.s.s.s.s.s.s.s.s.s.s.s.s.y.s.s.s.s.s.s.s.s.s.s.s.s.s.s.s.s.s.s.s.s.s.s.s.s.s.s.s.s.s.s.s.s.s.s.} ; 1 s } 8 1 3 2 1 1 1 2 5 < < 1 ",
"s.y.q.s.s.s.q.< < s.y.&.s.s.s.s.s.s.s.q.! < 2 1 < t s.A = + 9 q.s.2.s.y.s.s.q.s.s.s.s.s.s.s.s.s.s.k - o.9 3 1 t < . 1 1 2 3 s t , ; > s.y.q.s.s.s.s.q.y.s.s.y.s.s.s.s.s.s.s.s.s.s.s.s.s.s.s.s.s.s.s.s.s.s.s.s.s.s.s.s.s.s.s.s.s.s.s.s.s.s.s.s.s.s.s.s.s.s.s.s.s.s.s.s.s.s.s.s.s.s.s.s.s.s.s.s.s.s.q.8.s.s.y.q.s.y.q.q.y.s.s.s.y.s.s.s.s.s.s.s.s.s.s.s.s.s.s.s.s.s.s.s.s.s.s.y.s.s.s.2.s.s.y.y.s.s.s.s.s.s.s.s.s.y.s.s.y.y.s.s.y.s.s.s.s.s.s.s.s.s.s.s.s.s.s.s.s.s.s.s.s.s.s.s.s.s.s.s.s.s.s.s.s.s.s.s.< < k 5 k s k A o.&.T 9 5 2 3 3 ",
"q.y.s.q.s.q.2 ; y.s.A 2.q.8.s.s.s.q.s.s.t 8 t : ,.s.8.,.! % o.s.s.s.q.s.s.s.2.y.s.s.s.s.s.s.s.s.2.s.3 - 2 9 t ; # 1 3 5 8 < < < 2 : , s.s.s.8.&.k s.s.q.s.s.y.s.s.s.s.s.s.s.s.s.s.s.s.s.s.s.s.s.s.s.s.s.s.s.s.s.s.s.s.s.s.s.s.s.s.s.s.s.s.s.s.s.s.s.s.s.s.s.s.s.s.s.s.s.s.s.s.s.s.s.s.s.s.s.s.s.s.s.q.2.s.s.8.y.s.s.q.q.s.s.s.q.s.s.s.s.s.s.s.s.s.s.s.s.s.s.s.s.s.s.s.s.s.s.y.y.y.y.&.s.s.s.s.s.s.s.s.s.s.s.s.s.y.y.s.s.y.s.s.s.s.s.s.s.s.s.s.s.s.s.s.s.s.s.s.s.s.s.s.s.s.s.s.s.s.s.s.s.s.s.s.s.s.s.s.s.& t A k A k k n k 9 3 1 1 1 1 ",
"y.s.s.q.s.t - s.s.n 8.s.s.s.s.8.q.s.y.y.s 3 3 q.s.&.,.&.o., t q.s.s.s.y.s.y.s.s.s.s.s.s.s.s.s.s.s.y.8.&.2 ; $ < & - > > < 5 3 : $ : s.s.s.s.! * : 8.s.s.s.y.y.s.s.s.s.s.s.s.s.s.s.s.s.s.s.s.s.s.s.s.s.s.s.s.s.s.s.s.s.s.s.s.s.s.s.s.s.s.s.s.s.s.s.s.s.s.s.s.s.s.s.s.s.s.s.s.s.s.s.s.s.s.s.s.s.s.s.8.s.s.y.s.s.q.s.s.s.s.s.s.s.s.s.s.s.s.s.s.s.s.s.s.s.s.s.s.s.s.s.s.s.s.s.s.y.y.y.q.o.s.s.s.s.y.s.s.s.s.s.s.s.s.s.s.s.s.s.y.y.s.s.s.s.s.s.s.s.s.s.s.s.s.s.s.s.s.s.s.s.s.s.s.s.s.s.s.s.s.s.s.s.s.s.q.s.q.$.= $.k t t s 9 2 3 8 3 9 t s ",
"s.s.8.s.! : 2.y.! 2.s.q.q.s.s.y.s.s.s.q.s 2 } s.s.y.s.} &.5 3 s.s.s.s.s.s.s.s.s.s.s.s.s.s.s.s.s.s.s.s.s.s.s.s.s.s.T 1 > ; - , t s.s.8.y.s.q.< : T 8 2.s.8.s.y.s.s.s.s.s.s.s.s.s.s.s.s.s.s.s.s.s.s.s.s.s.s.s.s.s.s.s.s.s.s.s.s.s.s.s.s.s.s.s.s.s.s.s.s.s.s.y.y.y.s.s.s.s.s.s.s.s.y.y.s.s.s.s.s.s.s.s.s.s.s.s.s.s.s.y.y.s.s.s.y.y.s.y.q.q.s.s.s.y.s.q.8.y.s.s.s.s.s.s.s.s.s.s.s.s.s.s.s.s.s.s.s.s.s.s.s.s.s.s.s.s.s.s.s.s.s.s.s.s.y.s.s.y.s.2.s.s.s.s.s.q.s.s.s.s.y.q.s.s.s.s.s.s.s.q.s.s.s.s.2.y.y.s.y.s.s.t < s s s 8 3 8 t 9 8 2 3 5 ",
"s.s.s.$.> n s.} ,.2.q.s.s.q.y.s.q.s.s.y.o.! q.y.q.2.s.q.s.5 9 y.s.s.s.s.s.s.s.s.s.s.s.s.s.s.s.s.s.s.s.s.s.s.s.s.s.s.s.s.s.y.q.s.s.s.s.y.s.s.2.y.8.o.s.s.8.s.s.s.s.s.s.s.s.s.s.s.s.s.s.s.s.s.s.s.s.s.s.s.s.s.s.s.s.s.s.s.s.s.s.s.s.s.s.s.s.s.s.s.s.s.s.s.y.y.y.y.s.s.s.s.s.s.s.s.y.y.s.s.s.s.s.s.s.s.s.s.s.s.s.s.y.q.y.s.s.s.y.s.s.s.y.y.s.s.s.y.s.y.q.s.s.s.y.q.8.s.s.q.q.s.s.s.s.s.y.y.s.s.s.y.s.s.s.s.s.s.s.s.s.s.s.s.s.s.s.s.s.q.s.s.q.s.$.2.} n o.$.! 2.&.q.s.s.s.q.s.8.s.y.s.s.,.s.s.8.s.s.y.s.y.y.s.s.8 = ,.T A A 9 9 n A T T A ",
"y.s.s.1 2 s.A 8.8.s.s.y.y.s.s.s.y.s.y.s.y.s.s.s.s.s.y.s.s.> n q.s.s.s.s.s.s.s.s.s.s.s.s.s.s.s.s.s.s.s.s.s.s.s.s.8.y.s.q.y.s.s.s.q.y.s.s.s.y.8.s.q.s.s.s.y.s.s.s.s.s.s.s.s.s.s.s.s.s.s.s.s.s.s.s.s.s.s.s.s.s.s.s.y.y.s.s.s.s.s.s.s.s.s.s.s.s.s.s.s.s.y.y.y.y.y.y.s.s.s.s.s.s.s.s.y.s.s.s.s.s.s.s.s.s.s.s.s.s.s.s.y.y.s.s.s.y.y.s.s.s.s.s.s.s.s.y.y.s.s.s.s.s.2.$.o.2.2.&.,.s.s.8.s.s.s.y.q.q.y.s.s.s.s.s.s.s.s.s.s.s.s.s.s.s.s.s.s.s.q.&.A t A A T 2.T T } A 3 1 1 s n $.s.s.s.y.y.s.s.8.s.s.q.s.s.y.s.s.q.s.s.! % # ; 5 3 3 9 5 9 2 > ",
"s.8.s 3 q.! 8.,.8.s.s.y.y.s.s.s.s.y.2.s.s.s.s.s.s.s.y.s.s.= $.s.s.s.s.s.s.s.s.s.s.s.s.s.s.s.s.s.s.s.s.s.s.s.s.s.s.s.s.q.8.s.s.q.s.8.s.q.y.y.s.s.$.s.y.s.s.y.s.q.s.s.s.s.s.s.s.s.s.s.s.s.s.s.s.s.s.s.s.s.s.s.s.s.y.y.y.s.s.s.s.s.s.s.s.s.s.s.y.y.s.s.y.y.y.y.y.y.y.y.y.y.s.s.s.s.y.y.y.s.y.s.s.s.s.s.s.s.s.s.s.s.s.s.s.s.y.q.y.s.s.s.s.s.s.s.s.y.q.s.s.s.s.s.8.o.8.y.y.y.y.s.s.s.s.s.s.y.8.2.y.s.s.s.y.y.y.s.s.s.s.s.s.y.s.s.y.y.8.s.! : $ 2 T A k } &.! k n ,.q.y.2.} k 2 k s.y.s.2.s.s.&.s.s.8.s.q.s.s.q.s.s.s.s.k - + @ > 9 2 : : : ",
"s.o.1 o.$.q.o.y.s.y.y.s.s.s.s.s.2.8.2.s.s.y.s.s.y.8.2.s.$.; s.q.s.s.s.s.s.s.s.s.s.s.s.s.s.s.s.s.s.s.s.s.s.s.s.s.y.s.s.s.s.s.s.y.s.,.s.q.s.s.s.s.} s.q.q.s.y.s.y.s.s.s.s.s.s.s.s.s.s.s.s.s.s.s.s.s.s.s.s.s.s.s.s.y.y.y.y.s.s.s.s.s.s.s.s.y.y.y.y.s.s.y.y.s.y.y.y.y.y.y.y.y.y.y.y.y.y.y.y.y.y.y.s.s.s.s.s.s.s.s.s.s.s.s.y.q.y.s.s.y.s.s.s.s.s.y.y.s.s.s.s.s.s.s.2.y.8.8.y.y.q.q.s.s.s.s.y.y.y.s.s.y.y.y.y.y.y.y.y.s.y.s.y.y.y.y.y.y.s., s.3 n y.y.s.2.s.2.s.s.! o.> T o.2.s.2.8 $.2.s.y.q.8.,.s.s.s.s.s.y.y.s.q.,.s.y.s.s.$.8 5 n ,.q.s.",
",.A < 2.o.$.8.s.q.y.s.s.s.s.y.8.k 2.q.y.s.s.s.q.q.s.s.s 9 ; s.s.s.s.s.s.s.s.s.s.s.s.s.s.s.s.s.s.s.s.s.s.s.s.s.s.s.s.s.s.s.s.s.s.s.2.s.s.q.y.8.,.8.s.q.q.y.q.s.s.s.s.s.s.s.s.s.s.s.s.s.s.s.s.y.s.s.s.s.s.s.s.s.s.y.y.y.y.y.s.s.s.s.s.s.s.y.y.y.y.s.s.y.y.s.y.y.y.y.y.y.y.y.y.y.y.y.y.y.y.y.y.y.y.y.s.y.y.y.y.y.y.s.s.y.q.y.s.y.2.8.q.s.s.s.s.y.y.s.s.y.y.s.s.s.s.s.y.y.s.s.q.q.s.s.y.8.q.s.s.s.q.y.y.y.y.y.y.y.y.y.y.y.y.y.y.y.y.s.2.8 y.3 $.q.8.2.s.s.8.s.q.s.&.s > 3 $.o.A s.t n y.q.8.s.y.8.s.8.s.s.y.s.s.s.s.y.s.s.q.s.s.s.s.y.s.s.",
"o.; 2.A $.A s.,.8.s.s.y.y.s.8.T k q.s.y.s.s.s.y.s.,.! o.# k s.q.s.s.s.s.s.s.s.s.s.s.s.s.s.s.s.s.s.s.s.s.s.s.s.s.s.s.s.s.s.s.q.2.s.y.s.y.2.s.s.s.s.s.y.y.y.8.y.s.s.s.s.s.s.s.s.s.s.s.s.s.s.s.y.y.s.s.s.s.s.s.s.s.y.y.y.y.y.y.s.s.s.s.s.s.s.y.y.y.s.s.s.s.s.y.y.y.y.y.y.y.y.y.y.y.y.y.y.y.y.y.y.y.s.s.y.y.s.s.s.s.q.y.y.y.s.y.o.s &.2.y.s.s.y.y.s.s.y.q.s.s.s.s.s.s.q.q.s.y.8.2.q.8.8.8.y.s.s.s.q.y.y.y.y.y.y.y.y.y.y.y.y.y.y.y.y.8.5 } &.T 9 } n } T &.s.8.s.s.9 $.5 q.> s.s.t q.$.5 q.s.,.s.s.8.s.y.q.s.s.s.8.y.s.2.q.s.s.q.s.s.q.y.s.",
"> 9 } T n s.$.&.s.s.s.s.s.8.} n &.s.y.s.s.8.y.s.! 2.t % 8 s.y.s.s.s.s.s.s.s.s.s.s.s.s.s.s.s.s.s.s.s.s.s.s.s.s.s.y.s.s.y.s.s.s.s.q.q.s.s.s.s.8.q.q.8.y.s.s.q.8.s.s.s.s.s.s.s.s.s.s.s.s.s.s.s.y.y.s.s.s.s.s.s.s.s.y.y.y.y.y.y.y.s.s.s.s.s.y.y.y.y.s.s.s.s.s.y.y.y.y.y.y.y.y.y.y.y.y.y.y.y.y.y.y.y.s.s.s.y.s.s.s.y.y.y.s.s.s.2.s < o.,.y.s.y.y.y.s.s.q.8.s.s.y.8.q.s.s.s.s.s.s.s.s.} ,.s.s.y.q.y.s.y.y.y.y.y.y.y.y.y.y.y.y.y.y.q.y.s.< s.A o.s.$.} q.8.s.} 8.o.$ 8., s.3 q.> ,.s.$.,.2.k T y.q.y.s.y.q.s.s.s.y.y.y.q.9 k s.y.2.y.s.s.y.y.",
"- o.A 8 q.,.} s.s.s.s.8.s.! 8 ! q.y.s.s.&.! ! o.8 ; ; A s.s.8.s.s.s.s.s.s.s.y.y.s.s.y.y.y.y.y.y.y.s.s.s.s.s.s.s.s.s.s.s.s.s.y.y.y.y.y.y.q.q.q.q.y.y.y.y.s.s.s.s.s.s.s.s.s.s.s.y.y.y.y.y.y.y.y.y.y.y.q.q.q.y.s.s.q.q.q.q.y.y.y.y.y.y.y.q.q.q.8.8.y.y.q.s.q.s.8.q.s.s.8.s.y.q.s.s.q.q.s.q.s.s.8.s.8.8.y.s.s.2.s.y.y.y.y.y.y.y.y.y.y.$.y.8.q.y.&.s.q.q.y.y.y.y.y.y.y.y.y.y.y.y.y.y.5 ,.s.s.q.q.q.s.k o.8.8.s.s.2.2.s.y.y.s.q.q.q.2.&.2 s.3 &.A s.9 k o.2.s.s.; 2 } $.s.3 ,.1 $.s.s.T o.s.5 $.,.y.8.y.y.y.y.q.q.8.8.q.&.2.y.8.2.q.q.s.s.s.",
"9 t 9 &.,.t q.s.y.8.s.s.t 3 n &.2.} k s s 3 ; $ = t s.s.q.s.s.s.s.s.s.s.s.s.y.y.s.y.y.y.y.y.y.y.y.y.s.s.s.s.s.s.s.s.y.y.y.y.y.y.q.y.y.q.q.q.q.q.q.q.q.q.q.q.q.q.q.y.y.s.y.y.q.q.y.y.y.y.y.y.y.y.q.q.q.q.y.y.s.s.q.8.q.q.y.y.y.y.y.y.y.q.q.q.8.8.q.q.s.s.&.8.8.s.q.y.s.s.s.y.2.$.&.s.2.q.2.y.s.q.s.s.,.q.s.s.s.&.y.y.y.y.q.q.y.y.q.$.q.8.q.s.2.s.q.q.q.q.y.y.y.y.q.y.y.y.y.y.y.y.,.s.s.8.2.2.q.s.o.s.s.y.&.$.s.2.y.$.k t s 3 2 t , 2 2 - , ; < s.A 1 9 s = 9 ; s.o.2.! T $.1 s.s.s.} k s.3 y.8.s.s.y.y.y.q.q.q.q.y.2.q.s.y.q.s.s.s.s.s.",
"! t n 8.9 8.8.s.s.s.s.A 5 3 3 $.q.$.3 - = , A 2.q.y.y.y.8.8.y.s.y.y.y.y.y.y.y.y.y.y.y.y.y.y.y.y.y.y.y.y.y.y.y.y.y.y.y.y.y.y.y.y.q.q.q.q.q.q.q.q.8.8.8.q.q.q.q.q.q.q.y.y.y.q.q.8.y.y.y.y.y.y.y.y.q.q.y.y.y.y.y.q.8.8.q.q.q.y.y.y.s.s.y.y.q.q.q.q.y.s.8.y.8.$.s.8.8.,.s.8.,.$.2.s.s.o.o.y.s.q.y.s.q.q.2.y.y.,.2.8.q.q.q.q.q.q.q.q.8.$.q.8.q.s.8.s.q.q.q.q.q.q.y.y.q.q.q.q.q.q.y.y.s.s.y.y.q.8.q.q.2.s.2.&.8.y.! > , 3 } $.} 8.2.9 $.! A s > 8.s.s : 8.2.y.s.2 n 5 2.o.! A T s n 5 A s.2.t A ,.s.s.s.y.y.y.y.y.q.q.y.8.q.s.y.y.s.s.s.s.s.",
"5 n q.8 $.s.s.q.y.s.y.3 : 2 $.2.2 < 3 8.s.s.q.s.s.s.y.s.s.s.y.,.y.y.y.y.y.y.y.y.y.y.y.y.y.y.y.y.y.y.y.y.y.y.y.y.y.y.y.q.y.y.q.q.q.q.q.q.q.q.q.q.q.q.q.q.y.y.y.y.q.y.s.s.s.y.y.q.q.q.q.q.q.q.q.q.8.q.y.y.y.y.q.8.8.8.8.q.q.q.q.y.y.y.y.q.q.q.q.8.s.q.y.q.q.2.s.,.s.,.s.y.s.s.y.2.s.n * s.2.q.&.,.s.s.8.&.8.2.8.,.8.8.8.8.8.8.8.8.8.,.q.8.8.s.8.s.8.8.8.q.q.q.q.q.8.8.q.q.q.q.q.q.s.8.8.y.q.y.s.8.,.&.8.8.s.! 1 2.q.s.s.y.s.,.o.q.q.$.3 } s.s.$.n s $.s.T 3 s.: 2.A s.,.o.o.8 s.t n n s 8.; * &.s.y.y.y.y.y.y.y.y.8.8.8.q.q.q.y.y.s.y.y.",
"2 &.A k s.q.s.s.s.q., 1 T k 2., 3 ,.s.y.2.s.s.q.q.s.s.q.,.q.s.s.y.y.y.y.y.y.y.y.y.y.y.y.y.y.y.y.y.y.y.y.y.y.y.y.q.q.q.q.q.q.q.q.q.q.q.8.8.8.8.8.q.q.q.q.q.q.q.q.q.q.y.y.y.y.q.q.q.q.q.q.q.q.q.q.8.q.q.y.y.q.8.2.8.8.8.8.q.q.q.q.y.y.q.q.q.8.8.8.s.o.s.,.,.y.2.s.,.q.q.s.&.2.y.,.8.! ! q.2.&.q.s.: ! y.q.2.2.8.&.8.8.2.8.8.8.8.8.8.8.q.2.2.8.2.8.2.8.8.8.8.8.8.q.8.8.8.8.8.8.8.8.y.2.8.2.$.8.s.y.s.8.&.} y.$.s s.s.8.y.s.8.2.y.q.2 ,.s.s.s.,.} 2 2.9 s.,.A 2.- 1 A 2 t q.8., &.s.,.T n n = s.1 y.q.q.q.q.q.y.y.y.2.8.8.8.q.y.y.y.y.y.y.",
"s o.9 s.s.s.&.s.s.9 > T A t - s s.s.s.s.s.8.2.y.s.s.s.s.s.y.8.q.y.y.y.y.y.y.y.y.y.y.y.y.y.y.y.y.q.q.y.y.y.y.y.y.q.q.q.q.q.q.q.8.8.8.8.8.8.8.8.8.2.2.2.2.2.2.2.2.2.8.8.8.8.8.2.,.8.8.8.8.8.8.8.8.q.q.q.q.8.8.2.2.2.2.8.8.8.q.q.q.q.8.8.8.2.2.2.2.8.2.o.$.8.2.s.8.&.2 : A 8.y.8.A 8.s.} q.,.$.s.,.2.8.$.2.y.8.q.2.2.2.2.2.2.2.2.2.8.8.8.,.,.2.,.&.2.2.2.2.8.8.8.8.2.2.2.2.2.2.8.8.,.2.q.2.&.,.2.,.&.s.q.2.$.9 ,.&.8.q.} T 8.s.q.y.y.s.q.y.s.s.y.} 3 5 1 2 5 A ,.,.8.q.n ; ; ,.3 8.y.2.o.8 5 n k ,.8.8.8.8.q.q.q.q.2.y.q.8.y.s.y.y.y.y.q.",
"$.9 q.q.s.s.8.s.8.: , 5 3 & 8.s.s.q.8.q.s.s.s.s.2.s.s.8.q.s.s.s.y.y.y.y.y.y.y.y.y.y.y.y.y.y.y.q.q.q.q.q.q.q.q.q.q.q.q.8.8.8.8.8.8.8.8.8.8.2.2.8.2.2.2.2.2.2.2.2.2.2.8.8.8.2.2.,.8.8.8.8.8.8.8.8.q.q.8.8.2.2.2.2.2.2.2.2.8.8.8.q.2.2.2.2.,.,.,.&.,.s.t &.s.&.&.9 < = > $.s.2.$.! 2.&.s.&.2.! o.8.q.o.} y.q.o.8.s.,.,.,.,.,.,.,.,.&.2.2.&.$.,.,.$.2.2.2.2.2.2.2.8.2.2.2.,.2.2.2.2.,.,.2.q.q.&.$.&.,.$.o.s.y.1 y.s.q.} &.s.s.y.y.q.s.s.s.2.n 1 1 2 o.q.,.5 9 s n } s.q.s.q.1 o.s.2 s.y.,.1 ! 1 8.,.2.2.2.2.8.8.8.8.,.y.q.2.q.y.q.y.q.q.q.",
"! n q.s.s.s.s.s.T , 1 > = 8.s.q.s.s.y.y.s.s.s.q.s.y.q.y.s.s.q.8.y.y.y.y.y.y.y.y.y.y.y.y.y.y.q.q.q.q.q.q.q.q.q.q.8.8.8.8.8.8.8.8.8.8.8.8.2.2.2.2.8.8.8.8.8.8.8.8.8.8.q.q.q.8.8.2.8.8.8.8.8.8.8.8.y.q.8.2.,.,.2.2.2.2.2.2.8.8.8.8.2.2.,.,.,.&.&.$.,.,.8.,.q.q.< 1 ; < 2.q.&.,.q.2.$.q.$.y.&.8.o.y.o.} ! $.,.q.s.&.,.,.,.,.,.,.,.,.o.,.&.$.$.,.2.$.,.,.,.,.2.2.2.2.,.,.,.,.2.,.2.2.y.2.o.&.8.&.&.s.o.q.y.! q.9 8.y.! y.s.s.y.s.s.s.s.A 1 2 8.2.s 2 9 5 ! s.,.8.2.2.t k A s.s.k k y.& t ! < q.< q.q.,.,.,.2.2.2.8.8.$.8.2.$.2.q.2.8.q.q.q.",
"3 A s.y.s.s.s.s.k = 3 # ,.s.8.s.y.y.y.y.y.y.y.y.y.y.y.q.q.8.8.8.q.q.8.8.8.2.2.2.8.8.8.q.q.q.q.q.q.q.8.8.8.2.2.2.8.2.2.8.q.q.8.2.o.&.2.2.,.&.&.,.&.} 2.&.2.,.y.&.2.2.,.,.&.&.&.&.2.2.2.2.2.2.2.2.q.8.2.&.$.$.o.$.$.$.,.8.,.$.$.2.&.8.&.} &.; } } } o.2.s.2.T * < < ! 2.o.o.} } 8.,.2.2.,.&.o.$.&.o.,.2.&.$.2.,.o.&.,.,.,.,.,.,.&.$.$.$.$.$.$.$.o.8.,.$.$.,.,.,.&.2.&.,.8.8.&.$.,.$.&.o.&.! ,.n 2.2.$.q.,.2.9 s.&.q.s.s.y.y.s.y.s.3 s s.3 = < 3 1 , : > > 1 5 A &.s.o.9 o.q.y.T A q.5 5 < > : , 1 T } s.T ! y.,.2.y., o.q.8.y.q.o.8.q.q.",
"T o.y.s.s.s.s.8 3 %   &.s.s.s.s.y.y.y.y.y.y.y.y.y.y.q.q.q.8.8.8.q.q.q.q.q.8.8.8.s.y.q.8.8.q.y.s.2.2.2.2.,.,.,.,.$.o.o.$.,.,.&.$.$.&.,.&.&.$.o.o.T ! 2.&.&.} ,.,.$.$.o.o.o.o.} } &.&.&.&.&.&.&.&.2.,.&.$.o.o.o.o.T ! o.$.,.2.2.2.$.o.o.} $.3 &.8.,.&.,.2.2.&.2 ! 2.q.,.&.q.8.o.} o.o.o.&.,.o.o.8.$.o.! $.o.$.&.2.,.,.,.&.&.&.&.&.$.$.o.o.o.o.o.o.} o.o.} ! } o.&.2.$.} o.} ! o.&.! $.&.} ! o.o.,.2.$.! ,.8 &.s.s.y.s.y.s.o.s.$.1 > 1 % 8 < # > , : & @ o o     o * < s o.3 2.s.k o.8 n s.s.s.q.,.t 9 s T o.,.$.&.,.T $.8.8.o.y.$.2.8.8.",
"2.o.8.s.s.s.2.3 : - ! s.8.q.s.&.y.y.y.y.y.y.y.y.y.q.q.q.8.8.8.8.q.q.q.q.q.q.q.q.q.8.,.,.,.2.8.y.q.q.q.8.8.8.8.8.,.&.&.2.8.q.8.2.2.2.2.8.8.8.2.2.$.$.,.&.8.$.} ! &.&.&.&.&.$.$.$.,.,.,.,.,.,.,.,.,.,.&.$.$.$.&.&.,.2.,.&.,.8.,.! 2.o.$.o.} } o.2.&.$.o.o.&.&.! 8.q.,.o.$.,.&.o.! 8.8.,.2.8.} T ,.o.$.o.&.o.,.$.&.,.,.&.&.&.$.$.o.,.,.,.&.&.&.&.&.&.&.,.&.$.$.&.2.,.&.2.q.q.,.&.&.8.} &.8.&.1 t ,.$.2.2.! 3 s.y.s.s.s.s.s.s.<   = : ; 2 -   * , < - @ . < > %     .   + % 2 9 8.s.2 y.s ! s.s.q.q.8.2.9 2.q.2.2.&.,.8.o.&.2.8.! ,.< 2 t ",
"8.T 8.q.s.s.} n : > 8.s.$.$.s.2.y.y.y.y.y.y.y.y.q.q.q.8.8.8.2.2.8.8.8.8.8.8.8.8.,.,.,.,.,.,.,.,.8.2.2.2.,.,.,.,.$.$.$.&.2.2.2.,.} o.$.$.$.$.&.,.y.8.o.o.8.,.&.,.,.,.,.,.,.,.,.&.,.,.,.,.,.,.,.,.$.o.o.o.o.$.$.&.,.,.,.&.,.2.&.} 2.o.} T A o.T } ! } $.o.,.o.$.o.o.o.&.$.! } &.$.o.$.} o.&.} ! &.o.} o.} o.! ! ! &.&.&.$.o.o.o.o.! ! ! ! T T T T ! T A ! o.,.,.,.&.$.o.o.o.o.$.&.! T } o.&.t ,.8.2.o.,.8., s.s.,.q.s.q.9 < > > 3 , ; * .   > 2 : >       1 & 3 @ . & - & % - ; T s.< ,.$.o.8.s.s.s.s.5 o.$.8.8.&.} k q.2 , 1 % = 3 2 2 ",
"q.! 8.y.s.2.A >   q.q.s.q.s.$.s.y.y.y.y.y.y.y.y.q.8.8.8.2.2.2.2.,.,.,.2.2.2.2.2.2.2.8.8.8.8.8.8.2.2.2.2.2.,.,.,.o.} } $.&.&.$.o.! o.&.$.o.} $.2.T } } ,.8.&.o.2.} } } } } } } } $.$.$.$.$.$.$.$.} ! ! ! ! } o.o.o.o.&.,.&.o.o.&.o.o.} T T ! o.} o.$.,.$.2.o.2.} $.$.&.o.A } o.k } &.$.} $.&.o.o.&.! o.T $.A } } $.$.$.o.o.o.} } &.&.&.&.$.$.$.$.&.$.} ! } o.} ! $.$.o.o.o.$.$.&.$.o.k A $.} $.A ! n &.$.8 < n s.y.3 * - > 2 5 = #         O = 9 %   X % :   > 8 < 1 3 1 : 2 , X - n n s.q.A } s.s.q.5 s n o.! T n &.2 &.,.T O T 2 5 k ",
"s.,.q.s.y.o.9 o 8 8.s.q.q.y.s.s.y.y.y.y.y.y.q.q.8.8.8.8.2.2.,.,.&.&.&.,.,.,.2.2.q.8.,.&.&.,.8.q.q.q.8.8.8.8.2.2.,.,.&.,.2.2.,.&.} o.o.} ! T } $.A n k o.$.! t k T T T T ! ! ! ! $.$.$.$.$.$.$.$.$.$.o.o.o.$.&.&.&.&.2.q.2.o.$.2.,.2.,.$.,.} 2.$.&.$.$.! $.} 2.,.o.&.,.} n ! } s &.2.,.o.} &.$.A 3 A &.s ! $.&.9 } } } } } } } o.o.o.o.o.} } } } o.o.o.! n k n A k A ! ! } } ! A ! T 8 k s 8 3 9 2 } 3 n k k & o , } o.s 2 ;               : 3 *   .   * &   @ < 1 ; 1 5 = o 1 % .   . 2.s.s.A $.s.y.A n $.o.A A ! < < s.s.% = A 3 5 t ",
"s.s.s.s.&.} , % q.s.2.y.y.y.s.&.q.q.q.q.q.q.q.q.8.8.8.2.2.2.,.,.&.&.,.,.2.2.2.2.8.2.,.$.&.,.2.8.2.2.,.,.,.&.&.&.2.,.,.,.2.2.&.o.$.} ! } $.,.2.,.8.A 5 n k T k n ! ! ! } } } o.o.&.&.&.&.&.&.&.&.,.,.&.&.&.&.,.,.} o.&.,.2.,.2.2.o.o.! } $.} &.o.$.} } A o.} $.2.} $.&.! k n } } k t k k s T ! t : s T 5 8 &.! 1 T ! ! ! } } o.o.! ! ! ! ! ! T T A T ! } } o.,.8.} o.! A A } &.$.< k s 2 3 k 9 n } 3 2 2 = - n y.s.q.s.y.s.s.#   .     % 1 ; +     .   1 #     > 8 , = 5 o   = >   .   $ s.q.s.8.y.q.T 5 ,.$.$.k 5 < $.8., o , t < 2 9 ",
"q.s.s.2.! o.* T 2.q.y.y.2.s.,.y.q.q.q.q.q.q.q.q.8.8.8.2.2.2.,.,.,.,.,.2.2.8.8.8.8.8.8.q.q.q.q.q.8.8.8.2.2.2.2.,.8.2.,.,.2.,.$.o.k 8 3 9 } ,.,.o.n t s 2.$.&.} o.! ! } } } o.o.o.o.o.o.o.o.o.o.o.$.$.o.} } } o.o.$.&.o.! ! ! A 9 2 1 1 5 s A A ! } ! $.o.,.&.T &.} T k 9 5 5 9 k k 5 8 t 5 9 t 2 9 A t s 5 } T A A T T ! } o.o.$.o.o.o.o.o.o.} } } T n n T T T A t n A k n T T n &.&.T 8 A k < 8 2 5 ; % s s.s.q.y.s.q.y.s.s.3     o , 3 1 . . .     O 8 X   X * = @ $ 2       % #   X   = 8.s.s.s.s.o., ! A o.< y.: s.q.= * , A 3 8 t ",
"y.y.,.A k 3 : s.q.q.q.q.q.q.q.q.s.s.s.s.s.s.s.s.8.8.,.8.$.,.$.&.8.8.8.8.2.2.2.2.s.y.y.q.q.8.8.8.q.2.&.$.&.&.&.$.2.q.2.$.s.2.T A , 8 s 3 ! o.T k 3 t ! o.} A A A A T ! T A A A T A ! } } ! T } o.A T T T ! } } $.! ! ! } o.! 5 , k s s t s k n A } } } } ! ! ! ! A k 2 < 1 3 5 s t 3 3 k 9 t 3 1 < < < 2 t T } o.} A T } ! o.o.A 9 k 5 1 k T } $.! A < t 5 k 1 8 s 3 3 8 9 9 9 9 3 9 9 3 2 5 3 2 % - s y.y.s.s.q.q.s.s.s.2.s.,.. @ 3 < *             & 3   .     :   $ s o ; > < 5 < $ o   2 y.s.s.s.s - : ! 9 , s.2 s.A - - * s 2 8 t ",
"} } t } k   2 t t t t t t t t t 9 9 9 9 9 9 9 9 9 8 8 5 5 3 3 3 2 2 2 3 3 3 3 3 2 2 2 2 1 1 1 1 1 1 < , < < < < , < , > , : - = ; - > 2 > > : ; ; > < 2 1 < < 1 1 1 2 2 2 2 2 3 8 t k k s k n T T n A T n T o.! o.A T o.n 3 3 k o.o.} ! T T T T n n k s t t 9 9 9 9 5 2 2 3 5 s 5 2 2 9 8 5 3 1 1 1 2 3 t k s 9 t 5 9 k t 8 8 5 1 1 , 1 t 8 1 3 t 9 < ; * 1 2 3 2 2 : * - ; > 9 3 : 9 3 1 3 - > o.&.s.s.q.q.s.s.s.s.y.s.y.y.y.< < , @     X         : ,       X -     & < 1 3 1 = > 3 - O   : 2.s.s.t , < , : T s.s q.A * % %     o o ",
"n } 3 3 .                                               .                                                             .               X . X . X . o + @ + + @ @ $ % & & % & & * % & & & & & * * * - * & = * & = * * = - = & & = & & & & & & * * = = = - - - ; ; - ; ; : ; ; ; : ; = ; : : ; ; ; > : ; ; ; : : : - > > ; - > , - ; > ; > : : - , : : < 1 : , > ; - : - * - - * ; % & % % & - o.s.s.s.s.s.y.y.s.s.s.s.y.s.s.y.s.s.,.&               o : -       * *   & % 3 < 2 > & 2 2 8.y.s.1 3 s.s.1 * $ 2 } &.y.5 s.,.& * T 2 9 A 5 ",
"    .         .                                 . . X . o o o o O + + + @ @ @ @ @ @ @ @ @ # # # # # # # # # # $ & & % * % * = = - = ; = - = ; : - ; : : : : > > : > > > : : : > , , , , > > > > < > , < : > < > : : : : : > ; - - - - - = = = = ; ; ; - - - - = ; = - ; - - - * - = - - ; * - - = = = - = = * * & $ $ % & % % & + % % % $ $ # $ @ o o # @ O + @ @ @ # # O O + o + o . 1 &.s.y.s.s.s.s.s.s.s.y.s.s.s.s.y.s.s.s.s.s.2           . . > % ;       - o O 3 , 2 n 3 < s.8.s.2.q.y.y.1 1 # . % &.k ,.&.s., s.8.% & 5 5 5 n 3 ",
"8 n 8 k n 9 9 A k k k k k k k k k k k k k k k k k k k A n T T T s s k n A A T T A A A A T T T T n n A A A A A A s 2 , : * ; : : ; - t T 2 < A ! T T T A n k n A n A T A n k n A } } ! ! ! T T A $.8.o.! &.o.T $.! n 8 2 < < 2 9 5 5 5 3 3 3 2 2 2 2 2 1 < < , , > ; ; ; = = = & - - ; - - & * = - ; ; : : : ; ; ; > > - ; > ; & * & $ + % & * * : > # @ o . .       o # % * - & # 3 2.q.s.s.s.s.s.s.s.y.s.s.y.s.s.y.s.s.y.s.s.y.q.q..     X     & 2 . ,     . * & 8 1 9 2 2 : $.2.s.s.s.s.s.s.s.& + + k $.s } 8.2.> s.8.* : 1 < 3 k 3 ",
"q.y.s.y.,.s.s.q.y.y.y.y.y.y.y.q.8.8.8.8.8.8.8.8.,.2.&.8.$.2.$.&.&.&.&.,.,.2.2.2.2.2.2.2.2.,.,.,.,.&.&.&.2.2.&.$.,.! A n 8 9 8 3 5 k ,.q.8 t o.&.$.o.} T A n A A s n A A A A T } } ! ! } o.$.$.o.8.$.,.2.} $.2.o.$.o.k 2 < 3 n } T T ! ! ! ! ! ! } ! ! T T A A n t 9 9 5 2 2 2 3 ! } } ! T 9 8 s k n A A T ! } $.o.T T $.$.9 1 1 3 2 5 8 A 9 8 8 8 o.3 3 1 < , > : < 2 2 < - = ; 5 < % O > 3 q.s.y.s.y.q.s.s.y.s.s.q.s.s.y.y.s.s.y.y.@ o         8 +   ,   .   - & * 8 3 3 > 2.s.s.s.s.s.s.2.8.s.2., : 8.s 8 $.} y.t $.,.$ ; 1 8 3 k 5 ",
"q.,.&.s.8.2.s.q.2.2.2.2.2.2.2.2.8.8.8.8.8.8.8.8.2.2.2.2.,.,.,.,.2.2.8.8.8.8.8.8.q.q.q.8.8.8.2.2.y.8.,.2.y.y.2.$.s A &.8.8.&.&.} ! 2.o.T A 2.8.8.2.,.$.o.o.} } ! T ! } } } } $.&.o.} } o.&.,.,.&.&.2.$.} &.$.o.&.$.&.A 3 8 } ,.o.o.o.o.} ! A k s n n s t 8 3 3 2 t s t 9 9 9 s A n T n A n 8 2 3 5 t T } } ! T A k ! ! A s 3 < < 5 9 k n s 8 t T n k t 9 9 8 3 8 k < - > 5 s 9 t 5 &.q.y.1 s 9 q.s.s.s.s.s.s.y.s.y.s.s.s.s.y.s.s.s.s.>         > 1   . :   .   -   , 2 2 k s.8.8.q.s.s.o.s.s.s.s.t 8.5 s.8 ,.9 ! s.! s q.% , 1 t 2 8 3 ",
"y.2.s.y.s.$.q.s.2.2.2.2.2.2.2.2.&.&.&.&.&.&.&.&.$.o.,.$.8.,.q.8.q.q.q.8.8.8.8.8.q.q.8.8.2.,.,.,.q.&.o.&.8.8.$.T n } q.8.8.o.&.&.s.o.,.,.&.$.y.&.&.&.o.o.o.} } ! ! } } } ! T ! } &.$.o.$.,.2.,.&.,.&.&.&.$.&.,.&.q.o.s 9 9 t k A A A T T T A k k k k k k s s s s 3 3 2 2 9 s s A t n t A s 9 1 2 t k A T A n A T T ! ! ! k 1 1 s t T } o.n ! T A k 1 ! A } T 2 > 3 > 3 $.&.,.s.s.y.T 2 s.s.< s.q.s.s.y.q.q.y.s.s.8.s.s.8.s.s.s.y.y.q.,.    . @ 5   .   =     & = * 9 < n y.8.s.s.s.y.s.s.8.s.y.1 1 ,.} y.3 8.$.o.8.} T s.$ 2 1 s 5 9 3 ",
"q.q.q.q.8.8.2.2.8.q.q.2.&.$.&.,.,.2.8.8.,.s.&.$.$.,.$.,.,.&.2.&.,.,.2.8.2.,.,.q.8.y.2.$.2.8.,.,.$.,.q.&.,.} T t A o.&.q.8.o.$.&.T ! n } &.! } ,.$.n T n k T T A s k n n T o.} T T T T } &.2.2.2.$.o.,.$.o.$.o.&.&.o.8 $.o.2.! n _ ! W E L H A C E H B C H L C c d 7 d E A C W T | c f B 6 5 1 3 k A A A A A A ! k T A n A 3 t 3 1 3 , ! ! s 8 A A ! o.o.9 8 3 k > s 2.y.q.&.! $.q.2.2.1 q.&.8.q.s.s.s.s.s.s.s.s.8.q.s.s.s.s.y.q.s.&.< - .   : - X % . = o & 2 O 3 3 < 2.s.s.s.y.q.y.s.s.s.y.< < ,.t T y.s.3 } q.$.o.q.s.- 9 3 t u z 2 ",
"q.q.q.q.8.8.2.2.8.q.8.2.&.$.&.,.,.2.2.8.,.s.&.$.$.,.$.&.,.&.2.&.,.,.2.8.2.&.,.q.8.y.2.$.2.8.,.,.&.,.8.$.&.! T s A o.&.q.8.o.$.&.T ! n } &.! } ,.$.n T n k T T A s k n n T o.} T ! T ! } &.2.2.,.$.o.,.$.o.&.o.,.,.! 2 k s } T T _ ! W E L H A C E A B C H L C c d 6 d E A C W T ' n c C 5 3 1 4 n A T A A A T ! k T A n A 3 t 3 1 2 , T T s 8 n t s s t , , ; < 5 n $.2.y.y.8.,.&.&.8.t 8.q.$.,.s.s.s.s.s.s.s.s.s.y.q.,.! s 3 2 > , : 1 = # - o : > - 3 ; 2 1 : 2 3 1 8.s.s.s.s.s.y.s.s.y.T > k s.k 1 s.s.o.T o.&.} q.s.- 9 3 t s z 2 "
};
