/* XPM */
static const char *xpm_[] = {
/* columns rows colors chars-per-pixel */
"643 360 256 2 ",
"   c #08010B",
".  c #170208",
"X  c #010315",
"o  c #0B0314",
"O  c #020619",
"+  c #0B051B",
"@  c #050A1D",
"#  c #0B0E1E",
"$  c #060A15",
"%  c #130C1C",
"&  c #1B0C1C",
"*  c #160516",
"=  c #0E111D",
"-  c #05111D",
";  c #12121E",
":  c #1B151E",
">  c #1B171D",
",  c #0A100E",
"<  c #270308",
"1  c #370608",
"2  c #270A19",
"3  c #360A17",
"4  c #26131C",
"5  c #38141B",
"6  c #34120B",
"7  c #060D21",
"8  c #090E22",
"9  c #080925",
"0  c #130D23",
"q  c #1B0D22",
"w  c #170B27",
"e  c #051223",
"r  c #0C1124",
"t  c #0E1529",
"y  c #0C192A",
"u  c #151322",
"i  c #1A1322",
"p  c #12162A",
"a  c #1B152A",
"s  c #141A2D",
"d  c #1C1A2C",
"f  c #191A24",
"g  c #151C31",
"h  c #1A1D32",
"j  c #191835",
"k  c #0F1932",
"l  c #260D23",
"z  c #231424",
"x  c #2B1424",
"c  c #23152A",
"v  c #2B152A",
"b  c #241A2B",
"n  c #2B1C2C",
"m  c #271A25",
"M  c #331424",
"N  c #331C2C",
"B  c #3B1C2C",
"V  c #381727",
"C  c #231D33",
"Z  c #2C1D32",
"A  c #271936",
"S  c #331D32",
"D  c #3B1D32",
"F  c #371936",
"G  c #350D24",
"H  c #1C2134",
"J  c #192337",
"K  c #18212D",
"L  c #2C212E",
"P  c #25222C",
"I  c #33212D",
"U  c #3B222D",
"Y  c #392528",
"T  c #242234",
"R  c #2D2233",
"E  c #27263A",
"W  c #342233",
"Q  c #3C2333",
"!  c #3C253A",
"~  c #3C2A3B",
"^  c #362739",
"/  c #39323C",
"(  c #382617",
")  c #48151A",
"_  c #571719",
"`  c #4C0E0E",
"'  c #671919",
"]  c #6E170F",
"[  c #552318",
"{  c #712718",
"}  c #431C2C",
"|  c #481927",
" . c #561B27",
".. c #461D33",
"X. c #521A31",
"o. c #661C26",
"O. c #6F1D2C",
"+. c #47232C",
"@. c #58242B",
"#. c #432434",
"$. c #4B2434",
"%. c #442935",
"&. c #4B2A35",
"*. c #44253A",
"=. c #4C2639",
"-. c #442A3B",
";. c #4B2A3B",
":. c #532434",
">. c #5B2533",
",. c #542A35",
"<. c #5B2B35",
"1. c #53253A",
"2. c #542B3B",
"3. c #5B2C3B",
"4. c #5B253A",
"5. c #59323B",
"6. c #4B3139",
"7. c #67262A",
"8. c #772829",
"9. c #642B34",
"0. c #642C3B",
"q. c #6B2D3B",
"w. c #682835",
"e. c #742D3B",
"r. c #782C36",
"t. c #6C323C",
"y. c #66333A",
"u. c #74323C",
"i. c #7B333C",
"p. c #793637",
"a. c #72342B",
"s. c #774336",
"d. c #382B42",
"f. c #322E44",
"g. c #202143",
"h. c #482B42",
"j. c #582C42",
"k. c #493446",
"l. c #583546",
"z. c #503B52",
"x. c #672C43",
"c. c #643343",
"v. c #6B3443",
"b. c #683949",
"n. c #733443",
"m. c #793946",
"M. c #71384F",
"N. c #532447",
"B. c #574454",
"V. c #79434A",
"C. c #694556",
"Z. c #784756",
"A. c #6E484F",
"S. c #755165",
"D. c #5F5266",
"F. c #8D2F16",
"G. c #862B29",
"H. c #89352A",
"J. c #97362A",
"K. c #852D37",
"L. c #83343B",
"P. c #8C3B3C",
"I. c #883638",
"U. c #963939",
"Y. c #942C2C",
"T. c #A53C38",
"R. c #AB3A2C",
"E. c #9D2D15",
"W. c #98443B",
"Q. c #8D4736",
"!. c #A8453A",
"~. c #B7483A",
"^. c #B34F32",
"/. c #B15C1F",
"(. c #C64B39",
"). c #C8553A",
"_. c #D75739",
"`. c #D0512C",
"'. c #E85935",
"]. c #D56B35",
"[. c #EC6F36",
"{. c #CC5C1A",
"}. c #843B43",
"|. c #8B3C43",
" X c #873846",
".X c #953B44",
"XX c #89374C",
"oX c #A63D44",
"OX c #884449",
"+X c #984547",
"@X c #884856",
"#X c #974A55",
"$X c #995559",
"%X c #8E5354",
"&X c #A84746",
"*X c #B64B46",
"=X c #A9544A",
"-X c #B85448",
";X c #A64B54",
":X c #A85757",
">X c #B75856",
",X c #B54B53",
"<X c #B56656",
"1X c #915666",
"2X c #AB5964",
"3X c #966771",
"4X c #B86766",
"5X c #AF6C6F",
"6X c #9A6458",
"7X c #C75747",
"8X c #D65A47",
"9X c #C65A55",
"0X c #C95048",
"qX c #D96549",
"wX c #C86658",
"eX c #D76857",
"rX c #D07050",
"tX c #E56748",
"yX c #EE744F",
"uX c #C76965",
"iX c #D87768",
"pX c #CE746E",
"aX c #E77968",
"sX c #DF5C4C",
"dX c #C33D25",
"fX c #F18E38",
"gX c #E09C34",
"hX c #F98847",
"jX c #FA9847",
"kX c #FC9857",
"lX c #F08A53",
"zX c #FAA649",
"xX c #FCA856",
"cX c #F7B450",
"vX c #D68873",
"bX c #F08F70",
"nX c #FBAC6F",
"mX c #D68951",
"MX c #FACE57",
"NX c #FED16D",
"BX c #FDE868",
"VX c #FCF978",
"CX c #FCF16E",
"ZX c #FAE75B",
"AX c #B8845E",
"SX c #A97485",
"DX c #CD7A83",
"FX c #D38E8B",
"GX c #ED9587",
"HX c #F6AC8B",
"JX c #E8AEA2",
"KX c #FFCF89",
"LX c #FDFC87",
"PX c #FDFA95",
"IX c #FCF5A9",
"UX c #B98A8D",
/* pixels */
"s p p r @ r 7 r p r O X # r 7 r # # # r r r r r @ # - @ - @ # - # @ O @ r p r r r r r r r r r r r O X O 7 # @ @ @ O X X X O @ r O X X X O @ @ O 7 s t X O p p r @ @ # # 7 r t t t y t r r r r r e e e e r r r r r r r p r 7 O @ - = f b k.z.v % = - : n D B L R ^ N W W W n i c ^ S S S Q Q U Q #.#.#.#.#.#.Q Q Q %.%.U %.#.B 2.V.<.< m W ! h...X.$.+.Y ~ %.1.1.4.1.1.$.&.%.%.%.#.&.&.=.-.h.q & D h.N n R b P T R Z S S S W Q W W I I I Q -.-.-.;.;.2.2.3.3.4.4.3.2.1.2.j.l.;.-.Q Q %.U V #.2.;.D Q Q U %.Q U %.Q Q ! Q Q Q Q Q Q I n L P f i i ^ R c z n n d d d d d a u 0 # # # # # # = = = = # # # # # # # # # # # # # # # # # # # # # # # # # # # # # # # # # # # # # # # # # # # # # # # # # # # # # # # # # # # # # # # # # # # # # # # # # # # # # # # # u # # u b R L n I n n W W S S S S S S n z z b R E R L R W W I N Q Q Q U Q +.%.+.| Z.Z.| 2 l q v %.%.%.%.%.%.%.&.&.%.%.+.#.#.+.Q ~ n n W n z z n R P T P d h d b a n & * U -.%.=.-.-.-.-.;.;.;.=.&.%.&.%.%.%.&.&.=.%.*.-.h.h.S * +.%Xc.3 B -.-.-.%.%.&.#.$.$.%.=.=.;.V N k.d.R T u i W k.;.....l.;.Q I U U I I W W I W R c a a q k.z.a @ e y @ O @ 9 9 9 9 9 e e e r r e e e e e e e r r r r 7 7 7 @ 7 @ @ 7 8 T h 8 r r r r 7 @ O O @ @ O O X X O X O @ X X @ p @ X O r r 7 7 @ @ # 7 r r r r r r r r # O X @ # - # # # 7 7 7 7 @ @ @ @ 7 r r r 7 # 7 @ 7 r @ 7 X X O ",
"p t p r 7 r # r p r O X 7 r 7 7 # # r r r - @ @ # # - - @ @ r - 7 # O @ r p r r r r r r r r r r r @ X @ # @ @ @ @ O X X O O 7 p O X X X O @ @ O @ s t O @ p s r @ # - # 7 r r t r r r r r r r r r e e r r r r r r r 7 r r 7 @ @ - = d n k.z.N % $ - : n B N n R W S W L R n i c ^ F S S Q Q U U Q #.#.%.#.Q Q Q Q %.%.U %.#.B 2.V.<.< m ^ d.*...X.$.+.Q Y %.=.1.1.1.$.$.%.%.%.#.&.+.$.;.Q h.n 2 -.j.Q n E b P R n n S W Q Q W W ^ I n n W Q -.*.=.=.=.2.2.1.1.1.2.2.1.2.2.l.;.-.-.%.! U V #.=.=.Q Q Q Q Q U U Q U Q Q Q Q W I I Q N n L P d f f ^ R v z b c u i i a a u i 0 % % # # # # - - = = # # # # # # # # # # # # # # # # # # # # # # # # # # # # # # # # # # # # # # # # # # # # # # # # # # # # # # # # # # # # # # # # # # # # # # # # # # # # # # # # 8 8 # i f b L L L L n n S S S Z S S Z n b b n n W E R W W W W I Q Q Q U Y Q +.+.@.Z.Z.G 2 2 q I k.;.&.&.&.&.&.&.%.%.#.#.#.#.#.Q ^ R L R n v n n n R T P b C C T b P & & I -.%.=.=.=.=.=.=.=.;.;.%.%.%.%.%.%.$.$.=.%.-.-.-.^ v * | 1Xb.2 V -.-.-.%.%.%.%.$.%.&.=.*.%.v N k.h.W Z a % W h.-.....j.-.Q I I U I I I I L W n a i a c h.z.c p r e O @ @ + 9 9 t t e e 7 r r r r r r e r r r r r 7 7 7 7 @ 7 7 7 7 r T h r t r 7 r 7 7 O O O O X X X X X X O 7 O X @ p 7 O O r 7 7 7 # # 7 7 7 r r r r - - - @ O X @ # - - # # 7 7 7 7 r r r # 7 r r r @ @ 7 @ 7 r @ r X O O ",
"r r p r 7 r # 7 r 8 O X 7 7 @ 7 @ # r r - # # # # # # # r 7 r r 7 # O @ r r r r r r r r r r r r r O X O @ @ @ @ @ O X X O O @ r @ @ X X O @ @ @ @ s s # 7 r r r # # # # r r r r r r r r r r r r r e e r r r r r r r r r r r 7 @ - # d b ! h.l o ; f n W D S R L n S W L L n i c ^ F S S Q Q U U Q #.Q Q Q Q Q Q Q Q Q U %.#.B 2.Z.y.2 z T E d.=.$.$.#.+.%.-.=.=.=.=.=.&.$.$.$.$.:.$.=.=.#.Q z & *.j.Q N R L L n n v v N S ^ ^ W W n m m S ! -.-.-.=.=.;.2.2.2.2.2.2.2.;.;.=.*.Q W I I N N Q ;.-.N N Q Q Q Q Q Q Q Q Q Q Q Q I I Q N n L L P b n R Z v c n n d b b b d i u % # # # # # # - - - - # # # # # # # # # # # # # # # # # # # # # # # # # # # # # # # # # # # # # # # # # # # # # # # # # # # # # # # # # # # # # # # # # # # # # # # # # # # # # # # # # 8 u ; ; a n W L L L L W ^ W S R Z Z n n n n n R R W R N N I I N U Q Q Q Q #.+.:.Z.Z.2.#.x % n ;.#.} } $.2.2.$.;.=.=.$.$.%.#.%.L n n v v n n v Z n n c c c c c d h 0 * S h.-.%.=.=.&.&.&.,.,.,.;.=.=.=.1.1.=.=.=.=.;.-.! W v * $.1Xb.2 V -.-.-.-.%.%.%.%.%.%.-.-.Q v N h.h.D N x 2 D k.-.Q #.-.%.U I I U I I I I L W n i i b b ^ ~ % + r p @ O @ + + 0 p t e 7 @ 7 7 r r r r 7 r r r r 8 8 8 8 8 @ 7 7 7 8 7 H h r t r @ 7 @ 7 @ @ O O X X O O X X 7 r @ O 7 p 7 O O 7 7 # 7 @ # 7 7 7 7 7 7 7 # @ @ O O @ @ # # # # # # # # - # r - @ @ @ @ @ @ @ 7 @ @ 7 O @ O O O ",
"e r p r 7 r # r r 7 O X # 7 @ 7 @ # r r # # @ # # # @ @ - 7 7 7 7 7 O @ 7 r 7 7 r 7 r r r r r r 7 O X O @ @ @ @ 7 @ X X O O @ 7 7 # O X O @ @ O @ s s r r r @ @ # @ @ # r r r r r r r r r r r r r r r r r r r r r r r r r r r 7 - # b c l l * o d T ^ W W W R L R n R W W n q c R S S S W Q Q U Q Q Q Q Q Q Q Q Q Q Q B %.#.B 2.@Xc.2 i s h ^ *.=.$.#.%.%.-.;.;.*.*.%.-.*.=.$.$...1.:.$.=.Q & & #.2.#.N I W W S S N v v N Q ^ ^ W n m m N Q ! -.*.-.-.=.;.;.;.;.&.;.;.=.%.#.N N v m m v N Q -.%.N x N Q Q Q ! Q Q Q Q Q ^ Q W W Q N n L L P P L W Z c c Z Z b T T T d i u ; # # # # # # - - - - # # # # # # # # # # # # # # # # # # # # # # # # # # # # # # # # # # # # # # # # # # # # # # # # # # # # # # # # # # # # # # # # # # # # # # # # # # # # # # # # # 8 u % # ; z L n L R n W ~ ^ W Z Z R R R R R R n S W N n n N S N N Q Q ^ Q U #.,.b.Z.Z.C.! % W -...B } =.j.j.2.=.$.=.$.*.%.Q Q n b b z x n S n R n i z b c v z a C a q S k.;.%.=.&.&.&.&.&.,.&.;.=.=.=.=.=.=.=.*.*.*.! Z Z b 2 <.%Xc.3 } %.%.-.-.%.%.%.%.%.%.-.*.Q S N *.;.D V G 2 D k.*.Q Q U Q I I I W I I I W R R L a a C Z n W * o u T u O + + + 0 p r 8 7 7 7 8 r r r r 7 r r r r 0 0 0 8 8 @ 7 @ 7 7 7 H h 8 8 7 @ @ @ 7 @ @ @ O O O @ @ X O r s 7 @ 7 p @ O O 7 @ @ @ @ @ 7 7 7 r r 7 7 - @ O O @ @ # # # # # # - # - - # - # @ O O O O 7 @ @ O 7 7 X O O O @ ",
"r r p r @ 7 @ r r 7 O X @ 7 @ r @ @ - - - - # # r - @ @ # # # # 7 7 O O 7 7 @ 7 r 7 @ @ @ @ 7 7 @ O O O @ @ @ # 7 @ X O O @ @ 7 7 @ O X X O O X O r p r r r @ @ @ $ O # r r r r t t r r r r r r r r r r r r r 7 7 r t r r y r r r % ~ ^ & & % a b T E n b n L n W n n W ^ n & c ^ S S S W Q Q Q Q Q Q Q Q Q Q Q Q Q Q B %.#.B j.@Xv.2 i s g E ! *.$.#.%.%.-.-.-.*.! ! ! -.*.=.=.$.1.1.$.} B U B 2.2.;.B B Q B B B D D D S Z Z W W n n n S S W Q Q Q %.-.-.%.-.;.%.-.%.Q Q Q W I L n L L n W Q N v v Q ! W W Q N S N N N W W W W W I n n n L L R ~ W z z b c d d d d u u u % = = # # # # # # - - # # # # # # # # # # # # # # # # # # # # # # # # # # # # # # # # # # # # # # # # # # # # # # # # # # # # # # # # # # # # # # # # # # # # # # # # # # # # # # # # # # = # # % i i z n L n R W W n n P R R R R W W W Q Q W S n n N Q N N N I I U U #.$.=.;.h.W i R Q Q S Q *.*.*.#.#.Q Q Q Q W W W W n c n n S Q W W n q c S S Q n Z Z Z N S N D =.%.$.%.%.&.&.&.%.-.*.-.-.-.-.*.! -.~ W n a d d 4 <.1Xv.3 } =.=.=.=.$.$.$.$.=.*.*.D Q -.*.-.-.S N x * D j.*.Q U N Q W I I I I I L W L R P b b C Z b W & * n f.d + % 8 u p r 7 7 r r r 8 7 r r r r r r r 8 8 0 0 8 @ @ 7 @ @ @ r T h 7 @ @ @ 7 @ @ O O O O O O @ @ X O r p 7 O 7 r O X O 7 7 7 7 @ @ # 7 7 r r r r r @ O O @ # # @ # # # # # # # - r r # @ @ O O @ r 7 7 @ r r O X 7 7 7 ",
"r r p r @ 7 @ 7 7 # O X @ @ @ 7 @ @ @ - - - # 7 r - - @ - # # # @ 7 O O @ @ O @ 7 @ O O X X O O @ @ @ @ @ @ @ @ 7 O X O @ 7 r r # @ O X X X X X @ r p p p r @ @ # X X @ r r r r t t y r r r r r r r r r r r r 7 @ t g t e y y r r i z.k.l * i b n Z n c f b n n W v n W W n q v W R ^ ^ Q Q Q Q Q Q Q Q Q Q Q Q Q Q Q B #.Q B j.@Xv.2 c H g C Z -.=.%.-.-.-.-.-.-.-.-.-.-.-.h.;.j.1.b.j.3 2 5.5.j.3.,.} B B V V } D #.-.^ n z c n v z n n n v N ! -.-.-.;.;.;.;.6.-.Q N N N I W L L L R L R W v v N ~ ~ N v v v v v v v n R W W W I I I n L L n ~ W c z c c f d d i i u u % = # # # # # # # - - # # # # # # # # # # # # # # # # # # # # # # # # # # # # # # # # # # # # # # # # # # # # # # # # # # # # # # # # # # # # # # # # # # # # # # # # # # # # # # # # # # # # # % % % z n L n n n n z d b T R R Z S W Q Q Q W S N n N N N n n I N N N M 2 2 * l n c b n n n S W Q D D Q Q Q W W W W R W n b Z S Q ~ ~ ~ W l v Q B *.B D v B *.V 2 5 ;.=.=.-.-.-.-.-.h.h.h.h.h.-.! ! ! ~ ^ W n i d d & >.1Xn.1 G 1.j.=.=.$.$.$.=.=.*.#.N Q z.k.k.k.S S v & S h.-.Q U U W W W W I I L L R n P n b C C b R R % % d.D.^ + u u r r 7 @ 8 p p r r r r r r r r r r r r r 7 7 O O 7 7 7 7 r E h @ O @ @ 7 @ @ X O O @ @ @ @ @ X O r t @ O @ @ O X O 7 7 7 7 @ # @ 7 7 7 7 7 7 r @ O O @ # # @ # # # # # # # # r # # r 7 @ O @ @ @ @ 7 p p O O r r r ",
"r r p r 7 7 O O @ @ O X @ @ O @ @ @ @ @ - - r 7 r r @ @ # # # # @ @ O X @ O O O @ O O X X X X X O @ @ @ @ @ @ @ 7 O X O @ @ @ @ @ @ O X X X X X @ r r r p 7 O @ # X X @ r r r r r r r r r r r r r r = 8 r r 7 7 O t g t r r t r r % z.z.v % i C Z n n c d b n n n S W W N v l z v Z ^ ! ^ Q Q Q Q Q Q Q Q Q Q Q Q Q #.B #.#.B 2.@Xc.2 c d p a n D B B U U U D D D Q Q W W W W Q Q *.2.:.| | m.V.y.,.5.3.2.2.$.;.=.D B ! W c z n W v v Z W W N v Q Q Q #.#.#.#.#.! ^ W N v N N I L n n L n R W W N W N W ^ W S n S n n v b n R W W I I I N n n v W W n z z a i d d u u u u = # # # # # # # # # # # # # # # # # # # # # # # # # # # # # # # # # # # # # # # # # # # # # # # # # # # # # # # # # # # # # # # # # # # # # # # # # # # # # # # # # # # # # # # # # # - - - = = # # # f b n L n n b c d d b P n n N N D N N D S W W W N n n L n n N Q %.M M l z W ^ P b n n n N S S S N N N n n L L L n b n n S ~ ~ W W W 4 N Q U j.2.,.@.,.5.2.+.} B D D Q ^ ^ ^ E E ^ ^ ~ ~ W W W Q W I n m z n c 2 >.1Xm.) | ....=.*.%.%.%.*.*.*.Q v N z.k.~ ~ v v z & v Q Q N N Q Q Q W W I I W R R n n n b b T b R n % % ^ B.T % p r r r r 7 8 p s r e e e e e e e e e e e r e r O O @ @ r 7 7 h p O O O @ 7 @ @ O O O @ @ @ @ @ O @ 7 r @ O O O O X O O @ 7 r @ # 7 7 7 7 7 # @ @ O X O @ # # # # # # # # 7 # # # @ @ # 7 @ O O O O 7 r p p O O r r r ",
"e r p r 7 7 X X X O X O @ @ O O O @ @ @ - r r r r r @ @ # # # # @ @ O X O O X O X X X X X O O O O @ @ @ @ @ @ @ 7 O X X O O X X X X X X X X X X X O O 7 r 7 @ r 8 X X @ r r r r r r r r r r u u u 0 % % 8 r 7 7 O p H p 8 r t r p + k.z.v i T ^ W S n b d d b n n ^ -.N x x 4 2 q v R ! ! Q Q Q Q #.Q Q Q Q Q Q Q #.#.B #.#.B 2.@Xc.2 4 z i z v 2 2 2 2 2 2 3 3 2 2 2 l l l z z & v < 3 @X%X@X@X0.<.A.Z.Z.Z.A.C.l.B x x c i b / z.-.W ~ -.Q N x 2 2 4 5 5 5 5 5 x v v N N Q Q W W n L R R R ^ W ~ W z v k.z.h.W W W Z b z z b n W Q Q W S n v v W W Z c i + + i % # + # # = = # # # # # # # # # # # # # # # # # # # # # # # # # # # # # # # # # # # # # # # # # # # # # # # # # # # # # # # # # # # # # # # # # # # # # # # # # # # # # # # # # # # # # # # # # - r = = = = # # u f b L n b b n d f f n n N N N V v N D Q -.-.~ W W n z z m ! z.z.N v S z c n b i : : 4 2 2 2 2 2 2 2 2 & : : i z n Z n S h.h.Z z c & N %.-.C.Z.V.V.V.V.Z.S.l.2 2 2 l q a p p p i z v x 2 2 2 2 x 4 4 x x N x 2 <.%XV.:.$.M l *.*.%.%.%.-.-.Q Q v v k.W x v & & 4 * 2 v m v x W W Q Q W I I W R R L R R c c T T T T d % 0 b + d p e e r t r 8 p y r e e e e e e e e e e e e e r @ O O @ r 7 O 7 7 X O O O @ O O X X O X X O O O O O @ 7 O X X X O X X X X @ 7 @ 7 7 7 7 @ @ @ O X X X O @ # r # # # # # 7 # # # r @ @ r r @ O X O @ p p s t O O 7 7 7 ",
"e r r r 7 @ O O X X O @ @ O O X @ @ @ 7 r r r 7 7 7 7 7 7 r r r r @ @ @ @ @ O X O X X X O O O X O O O @ @ @ @ @ @ @ @ O O @ @ @ O O O O O O O O O O 7 r r 7 @ @ @ X X @ 7 r r r r r r 8 8 u u 0 % % i u + p p @ @ p s p p 8 8 u % i k.k.c i b R n N n b b b n n n ^ ! Q N v x x v S Z ^ ^ N Q %.#.#.#.#.#.#.#.Q #.#.#.B } #.#...V.0.| 5 M N B B V V M 5 V } | | V 4 2 x x v z v v x B $.m.@X@XV.<.<.c.A.A.b.b.C.l.N x v Z z i ~ h.! Q ! -.Q N M V V $.......| } Q 4 N N M ;.%.U N I R L R W W R ~ L m n ~ k.~ W W W Z c z n n b N Q Q Q Q S v v S W R a i + + i # # # # # # # # # # # # # # # # # # # # # # # # # # # # # # # # # # # # # # # # # # # # # # # # # # # # # # # # # # # # # # # # # # # # # # # # # # # # # # # # # # # # # # # # # # # # # # # # - - - = = = r = % u c Z R n v b b f f n n N N D B D D D Q Q Q ~ W n Z Z c b ~ k.k.^ N z b R a R n N * x =.B M } M B B N V N N x n L Z n W ~ ^ W z c z x B 2.l.c.v.u.y.t.V.A.5.V M 2 v l c j j p x Q %.B V V V | ..| | | X.X.} ) 0.Z.A.&.#.N v W Q Q Q ! -.^ Q ~ z m Q N Q V B V M V V B N x n ^ W Q W N N N I L R n n n n n n P T T # + d a u r t @ e y 7 7 p r r r @ @ r r @ r r r r - r r r r @ @ 7 r 7 7 7 r 7 8 7 O X @ 7 @ O O @ @ @ @ @ @ @ @ 7 7 @ @ O O X @ @ @ O @ @ 7 # r r @ O O O O X X X @ @ # # # # # # @ # # # # # r # # r @ X O O @ r p p r @ O 7 7 7 ",
"O @ @ @ O X X X X X X X X O O O @ @ @ 7 r r r 7 7 7 @ @ 7 7 7 r r @ @ @ @ @ O X O O O O O O O O O X X O O X O O 7 r r p s s s p s h h h h h h h h s r @ X X X O # $ X O @ @ 7 r r r r r u u +   % % % % + 8 0 8 8 u 0 8 0 0 i i c c ^ ^ c a R W Q D S R T P b v v Q -.-.=.=.%.*.k.d.Z v v x D =.$.&.$.&.=.=.=.&.=.&.=.&.=.$.1.:.<.9.c.b.c.l.l.j.;.;.&.6.5.b.m.Z.C.%.V V x x x V . 2.S.V.<. . . .| ) | | | | V V V x v W ~ n q n N N U Q %.%.;.j.$.2.b.Z.A.Z.Z.1Xz.v v x B C.C.#.N N I n Z R Z n n L L L n n Z S S W Z b b n n b z k.z.Q v N N v ^ n i i T T i + # # # # # # # # # # # # # # # # # # # # # # # # # # # # # # # # # # # # # # # # # # # # # # # # # # # # # # # # # # # # # # # # # # # # # # # # # # # # # # # # # # # # # # # # # # # # # # # # - - - = - = = = # % i n n b n W R P b L n v N Q k.j.h.-.-.Q v v c z Z ~ ^ Z n c z W ~ v i b c W C.6.2 V C.Z.Z.C.b.b.b.l.b.b.j.%.Q L v n n n Z ^ k.n & m N B B | |  .@.@.| | ,.b.c.V V G l & c W v l.C.b.3.3.c.v.@XV.V.m.@X@Xm.n.t.0.,.V #.C.B.2 2 2 2 2 2 2 2 4 4 & 2 2 $.j.Z.Z.Z.C.C.C.l.Q W W N N N v v v n v v b b b c c c d d J r @ u p p p t r k k y s t X X X O + 8 @ O O 8 # # 8 u p r 8 7 7 p h H h h h g J h 7 @ s H p s s s s g g H H p s s s s s p p s r r p r O X @ @ @ @ O O @ @ @ X O O @ @ # - - # # # # # # # # @ # @ @ 7 @ X O X @ r p s p 7 @ 7 7 7 ",
"O @ @ @ O O X X X X X X X O O O O @ @ @ 7 r 7 7 7 7 @ @ 7 7 7 7 7 @ @ @ 7 @ @ O O O O O O @ O O O X X X O O @ @ r r t p s s s p p p p p s p s s h s r @ X X X @ @ O X O @ @ 7 r p p 0 0 i i i % % % % ; 0 + + p 0 0 0 0 i z i z n c Z R a a Z S S D S R R T n n v Q ;.;.j.2.;.;.h.-.n v z x #.2.$.$.:.:.1.&.;.&.:.:.:.:.:.:.:.:. .<.y.n.v.c.c.j.5.6.6.5.c.V.}.m.B.Y M B V G V 3 3 c.Z.b.@.@.@.@.+.+.| | +.+.} M M x n ^ ^ Z i n Q #.%.%.#.#.$.2.2.j.M.Z.V.Z.Z.Z.l.v N B B C.S.} V B N S S Z S n v L ^ W v v v W n S Z n Z R Z b & -.k.! Q S v N W n i u d b i # # # # # # # # # # # # # # # # # # # # # # # # # # # # # # # # # # # # # # # # # # # # # # # # # # # # # # # # # # # # # # # # # # # # # # # # # # # # # # # # # # # # # # # # # # # # # # # # # = = - - - = r = u % i R R b v W n L L n m N Q Q k.h.*.Q ! Q v v c c R d.~ W b q & Z ~ n z z z N B.;.2 B b.C.b.b.b.b.l.l.b.l.2.%.! W I W v v n W k.b & n Q B B } :.$.$.%.B V ,.A.y.| | 5 3 3 V 2 V b.Z.b.y.y.t.v.OX}.XXXXXX}.m.n.n.t.0.| ..b.l.G 3 G G 5 G M M M V 5 V | 3.v.M.M.Z.M.Z.Z.b.$.} #.Q Q U N N N N v n n n n n n n n s H r @ p u u p 8 r r r r r 8 O X o % % % % % * q 0 q q + % 0 0 p r p g h s s s p s p 7 @ p s r s s s s s s s s r t p s p t t r p r r s p @ X O @ @ O O O @ @ O O O @ @ @ # - - # # # # # # # # # - @ @ 7 @ O @ @ @ 7 r p p r 7 @ 7 7 ",
"7 7 @ @ @ @ @ # X X O @ @ @ O X O O @ @ @ 7 @ @ 7 7 @ @ 7 7 @ @ 7 @ @ 7 r r @ @ O O O O O O O O O O O O @ @ r r r r r 7 @ 7 7 7 r r 7 7 7 7 r r # 7 8 r r r # @ X O @ r p p p p C E E E R ^ d.k.d.d.^ ^ E a 0 C A R R ^ ~ ~ S N v Z R E d q v v N N S W R R n N v %.;.2.2.1.$.$.B N v v v x =.l.3.3.3.3.3.3.3.5.3.3.3.3.3.3.3.3.0.9.9.9.q.q.0.0.5.5.5.5.y.y.w.9.6.4 M b.Z.Z.@Xm.M.M.3.3.<.y.<.<.,.<.,.,.3.5.$.V N x n W W n z Q #.} } $.2.2.:.:.1.:.4.4.3.3.X...Q 4 N j.=.2.l.} V B U Q W W S S W W W W W W W W Z W R Z R R Z b v m x -.z.*.l N R R f ; % # # ; # # # # # # # # # # # # # # # # # # # # # # # # # # # # # # # # # # # # # # # # # # # # # # # # # # # # # # # # # # # # # # # # # # # # # # # # # # # # # # # # # # # # # # # # # # # # # # # # = = # - - = r r u u i R R n v n m W I x v -.k.-.-.Q v x S Q S W c i b b z z b n Z n c b S n v N U U V V V V 5 5 +.#.} B B B V V B Q %.W N n n n n n W ^ -.=.;.;.2.=.*.;.;.;.5.A.V.m.m.n.M.Z.Z.5 < } ,.,.3.v.t.q.q.q.e.e.e.e.e.e.w.e.q.x.4.} ..M.Z.M.V.Z.Z.Z.M.M.b.b.M.b.v.0.0.9.3.4.3.c.3.1.1.3.;.;.-.Q Q Q Q S Q W W W W W W W i d # @ u u u 0 a p 0 a u + p E R Z R Z v R d.d.d.^ d.^ q q A R d p r 7 7 7 7 7 r 7 7 p p r 7 p 7 7 7 7 7 7 7 7 r r t p t r r r @ 7 7 7 7 r 7 O O O O X X O O X @ @ @ @ # - - - @ # # # # # r r # r @ @ 7 @ @ r p r 7 @ 7 r r 7 7 7 7 ",
"@ @ @ @ @ @ # # O O @ @ # # @ O @ @ @ @ @ 7 7 @ 7 7 7 7 @ @ @ @ @ @ 7 7 r 7 7 @ @ @ O O O O O X X O O @ @ @ r r p r r @ @ @ 7 r r 7 7 r 7 7 7 7 # # r p s p 7 O X O # r r p p p T E d.d.d.~ h.k.h.d.~ / ^ c i R Z ^ ~ h.k.;.Q B D S n P f % v v D D W W W N n N N *.;.2.3.3.,.2.V v v v 2 x 2.b.c.y.c.c.c.c.y.y.c.c.c.c.c.c.x.0.0.0.9.q.e.n.q.0.x.b.b.v.t.q.w.9.6.2 3 A.%X@X@X@X%Xm.>.0.3.c.,.,.,.3.3.<.<.2.$.V N 4 n ^ ~ v 2 ..:.| | :.3.c.3.:.3.:.,.:.,.,.| B N z M l.b.2.2.$.} B Q Q W S S S W L L I ^ ^ W N W W W R R R R n W z 2 Q z.-.v N W n ; # = ; # # # = = = # # # # # # # # # # # # # # # # # # # # # # # # # # # # # # # # # # # # # # # # # # # # # # # # # # # # # # # # # # # # # # # # # # # # # # # # # # # # # # # # # # # # # # # # # # # # # = # = r r r r 8 0 u d n W n v N I N x N -.h.-.-.Q x x N S N S b c c c q i n Z n n z v W W S Q B Q %.Q x x x x B B B B V V V B B %.;.#.B N n v b W ~ ! -.;.;.$.=.;.-.-.%.%.5.A.v.m.}.%X$XV.V.| 5 V } :.c.b.v.t.t.t.t.t.u.u.u.n.e.e.w.x.x.| X.M.@XZ.@X@X@X@XM.XXXXXXm.m.c.3.<.3.3.3.3.3.3.4.0.x.2.;.=.%.%.*.*.Q Q Q Q Q Q Q Q ^ z c % % 0 % a c l l q l q + 0 C ^ R R Z v ^ h.h.d.d.d.~ q q R E h s r @ @ 7 r r 7 @ 7 s h r 7 r 7 7 7 7 @ @ @ @ r r p p t r r r # r 7 @ 7 r r O X O O X X X O O @ @ # # # # - - # - - - # - - # # r @ @ 7 @ @ r s p 7 @ 7 7 7 7 7 r r ",
"@ @ @ @ @ @ 7 # @ @ O O @ # 7 r @ @ @ @ 7 7 @ @ 7 7 7 @ @ @ @ @ @ 7 7 7 r 7 7 7 7 @ @ @ @ O O X X @ 7 7 @ 7 7 @ r r r r r r r r @ @ @ @ 7 7 7 7 r 7 # 8 r r @ O X X O O O O @ @ C b c c c z z l & & & i i % % i q l v S %.%.#.$.;.! % = u i Q ..#.D Q Q Q W W W Q =.2.:.<.3.4.2.=.*.*.Q x 2 ;.c.0.0.0.0.0.0.0.0.0.0.0.0.0.0.0.0.9.0.t.t.q.q.q.0.0.x.x.q.q.q.y.y.5.5 5 Z.%Xu.e.w.w.0.<.3.,.5.3.3.3.3.3.<.3.3.2.%.Q x n ^ -.N x 2.b.t.0.0.0.0.3.3.1.:.3.2.,.2.$.&.W v N %.j.2.:.:.+.} B N I W W W I I I I W W W W W W W R R R Z n b W I x B -.-.Q z i # # u u # # # - = = # # # # # # # # # # # # # # # # # # # # # # # # # # # # # # # # # # # # # # # # # # # # # # # # # # # # # # # # # # # # # # # # # # # # # # # # # # # # # # # # # # # # # # # # # # # # # # # = r r r r 8 0 % % c W ~ Q Q N B ;.h.Q N N N N x x N S N S b a b R W W n q & W W W S N Q D B #.l.k.N N Q ! Q Q %.-.;.;.=.=.2.&.;.;.%.B N W W W W Q -.=.=.=.j.j.j.;.%.%.,.<.0.7.i.5X5X .@.,.5.5.3.c.b.y.0.q.t.t.q.q.q.t.t.t.m.w.q.9.X.4.x.X.>. . .w.q.q.w.w.w.0.9.0.<.3.,.,.<.,.<.3.3.4.4.4.2.;.$.%.$.;.;.-.Q Q Q Q Q Q Q Q S S b z % o b k.*.-.=.*.*.! S i % % * * + * q q q % q q + + 0 + d s p 7 7 r r 8 @ 7 7 7 7 7 7 @ r r r r r r r r r r r r 7 7 @ @ r 7 @ 7 7 7 @ 7 @ 7 7 @ X X X O @ @ # # # - - # # - 7 @ # # # @ @ # @ @ @ @ @ r s p r r r r 7 7 # # # ",
"@ @ @ @ 7 7 7 7 7 @ @ @ @ 7 r r r r r r 7 7 r r 7 7 7 @ @ @ @ @ @ 7 e r 7 r 7 7 7 @ @ @ @ O O X O 7 r r r 7 7 @ @ @ 7 7 r r 7 7 r r r r r r r r r 7 @ @ @ # @ @ X O @ O O O O + C c i l l l 2 2 z : i & % q q * q l l B =.2.2.l.j.-.% # u a *.h.*.Q Q ! %.Q Q ! Q ;.2.,.3.<.<.3.2.k.k.k.N 2 =.j.0.t.t.t.t.t.t.y.q.0.q.0.q.q.q.q.t.v.n.v.q.9.q.n.x.x.x.x.q.t.y.<.+.1 3 @X1Xe.7.7.9.9.<.,.,.3.3.3.<.3.3.3.3.j.j.;.%.v v W Q B } c.v.u.n.n.v.v.c.c.,.:.2.&.$.&.%.&.Q v B B } 2.2.3.2.#.U I W W W W I I I I I I W W W W W W W R R Z i I Q x l #.k.Q & i ; # - - # = # - - - - - # # # # # # # # # # # # # # # # # # # # # # # # # # # # # # # # # # # # # # # # # # # # # # # # # # # # # # # # # # # # # # # # # # # # # # # # # # # # # # # # # # # # # # # # # # # # # = r r r r u 0 % % i n W Q %.#.=.l.l.-.N v 4 v v v W Q S W c a c Z Z S v & q ~ ~ ^ Q N Q ..V $.C.l.V V Q %.U Q %.;.j.2.2.3.j.2.2.l.2.*.Q ^ W n n W -.;.2.2.$.$.$.%.&.&.:.@.>. .w.FXUX) 3 3.c.v.v.x.v.q.q.n.u.e.e.e.q.t.q.q.9.3.3.$.#.l.b...V | |  . .>.<.3.<.3.:.5.<.y.,.,.,.,.,.3.5.3.3.2.2.;.&.%.=.;.;.;.Q Q Q Q Q Q Q Q %.#.W R %   n z.j.j.j.1.=.h.Q * + @ @ + 0 + o + + + + + # # + X r p r 7 7 7 7 7 r r r 7 7 r r 7 @ @ @ @ @ 7 7 7 r r r r r 7 7 r 7 @ @ 7 7 @ 7 7 r r r @ O O O X @ @ # # # # # # 7 7 @ # @ @ @ @ @ # @ @ @ @ @ r s p p r r 7 7 7 r # # ",
"O O O @ 7 7 7 @ 7 @ @ @ 7 r r r r r r r r r r r 7 7 7 7 @ @ @ @ @ 7 7 r 7 7 7 7 @ @ O O O O X X O @ r 7 7 r r r r r r 7 7 7 7 7 7 7 7 r 7 7 7 7 7 7 r r 8 7 @ @ X - p p r r t p 0 q v S S v v v z i c c b ^ ~ Z v v v D ;.;.$.=.=.h.i u i z =.j.j.;.-.;.=.#.Q %.#.2.3.3.q.t.0.0.2.2.l.k.M 2 2.b.0.0.0.0.0.0.0.0.q.0.q.q.q.q.q.q.q.q.q.q.q.q.q.v.x.q.e.e.n.n.y.,.,.5 ) 1X5Xi.w.t.9.<.3.3.c.3.c.0.0.3.3.3.j.3.=.#.N x v N #.#...c.n.u.n.m.v.0.3.,.3.,.,.&.&.2.&.%.h.& N %.$.b.b.b.b.5.&.#.Q I n n n n n L I I W W W N W W W W R L L m n N x N Q v n d u # = = # = # - - - - - # # # # # # # # # # # # # # # # # # # # # # # # # # # # # # # # # # # # # # # # # # # # # # # # # # # # # # # # # # # # # # # # # # # # # # # # # # # # # # # # # # # # # # # # # # # # # = r r r r 8 + + % % & c N D #.Q N N N v m v N N N W W N W R n b c z n R R Z W N ! h.%.;.=.1.2.C.j.M B -.-.#.%.2.2.$...:.j.,.3.3.2.2.j.;.D N S W Q *.=.2.$.2.,.&.&.%.%.&.3. . .o.5XUX) 5 5.v.n.v.q.n.n.n.n.u.e.q.e.n.n.t.q.0.A.y.$.;.;.#.#.#.5.5.+.| <.y.3.5.5.,.5.:.3.,.3.3.<.,.2.2.2.2.2.5.2.&.#.$.=.=.%.Q Q Q %.Q Q Q #.%.B N W &   v l.j.X.1.1...#.D q i a i d T d 0 u u u u p p u 8 r 7 r r 7 7 7 t t 7 @ @ 7 8 7 7 r @ @ 7 7 7 7 7 7 7 r 7 7 7 7 7 7 O r r @ @ r r @ @ @ @ O @ @ @ @ @ @ # # # r r r 7 7 # @ @ @ @ @ @ - @ @ @ @ @ r s s p r 7 @ 7 7 r = r ",
"O @ @ @ # @ @ @ # - 7 r r r t t 7 @ @ 7 r r r r r 7 7 7 7 @ @ 7 7 @ # # 7 7 7 7 7 # @ @ O O O O O @ 7 @ @ r r @ 7 7 @ @ 7 7 r r r r r r 7 @ r r r 7 @ @ 7 7 @ @ X = f p y y y p o * v W W S S v i R R i Z k.z.W N v x *.h.;.j.*.h.d.d i b N X.4.c.l.l.=.=.=.Q #.X.>.<.0.n.n.t.t.<.>.c.l.x 2 j.c.0.0.0.0.0.0.0.0.q.0.0.q.q.q.v.n.u.q.9.9.q.n.v.q.9.w.e.m.i.u.<.+.#.} ) 2X4XP.t.t.w.0.3.3.0.3.3.0.3.<.<.3.j.l.#.M 2 M V x B #.$.c.m.n.n.n.b.y.,.$.c.3.:.:.:.$.$.=.~ c ^ #.$.V.@XOX@Xw.9.,.#.N m b n b R L L ^ n W W W W W I L L L L n n n L W R n P d p = # # 8 # # # # # # # # # # # # # # # # # # # # # # # # # # # # # # # # # # # # # # # # # # # # # # # # # # # # # # # # # # # # # # # # # # # # # # # # # # # # # # # # # # # # # # # # # # # # # # # # # # # # # # # # # # # r u # + i R ~ h.~ S v c v b z n W Q Q I N I R R c i z n n R W W B ;.j.2.0.3.j.l.C.l.N N -.-.=.;.2.2...} ..2.,.3.,.3.2.j.j.%.N n n Q ;.;.=.2.;.=.&.&.;.;.;.;.| ) o.5X5X) V j.v.n.t.t.t.e.e.e.u.u.u.q.t.q.q.t.y.0.y.y.3.$.} +.#.C.C.$.3 :.v.<.0.5.3.3.3.3.3.3.,.<.3.3.3.3.3.3.2.&.&.%.#.%.&.#.%.%.%.%.Q Q Q #.#.#.W R i o S l.j.l.j.=.Q N x v z z z W d.R i i u d a p a u % 0 @ @ @ 7 7 7 r t 8 8 8 8 8 7 7 7 7 7 7 7 r 7 7 7 @ @ r r 7 O @ 7 @ 7 7 @ @ @ 7 7 7 X X @ @ r r r @ @ 7 7 7 7 7 7 7 7 7 # @ O O @ @ r 7 @ 7 7 @ t h p p p r 7 7 @ r r r ",
"$ @ @ - r r @ @ r - 7 r r r r r r r r r r r 7 7 7 7 7 7 7 @ 7 7 7 # # # 7 7 7 7 7 # @ @ @ O O @ @ 7 7 @ @ r r @ 7 7 7 7 r r r r 7 7 7 7 7 7 7 7 r @ @ r r @ @ # $ = s s y y y s a v N Q S S W S n c z n W ^ ! -.-.Q v D #.#.h.-.-.^ a i N } 4.x.j.1.2.=.$.#.Q 2.3.9.0.q.q.u.y.q.w.0.b.l.4 4 j.x.0.0.0.0.0.0.0.0.0.0.0.q.q.q.q.q.q.q.q.q.v.n.n.t.t.t.r.r.i.}.y.+.Q B ) :X4XL.w.t.x.x.3.3.3.0.0.t.0.0.<.3.2.l.j.2.=.V M M B 2.l.3.w.q.q.y.y.3.,.:.2.,.1.3.3.3.2.2.h.v W Q } <.0.m.}.i.}.0.+.#.I L b z L n R W n W W W I I I L L L W W L n b n b f u i = # # 8 8 8 # # # # # # # # # # # # # # # # # # # # # # # # # # # # # # # # # # # # # # # # # # # # # # # # # # # # # # # # # # # # # # # # # # # # # # # # # # # # # # # # # # # # # # # # # # # # # # # # # # # # # # # # r # # r = # u d z n b a i c n n b n N S W W I I L R b : z R R N W N B 2.3.3.v.<.:.=.j.-.v m Q N =.;.2.3.1.:.1.3.,.<.<.3.3.2.l.#.N N N Q ;.;.$.2.;.;.=.=.-.-.-.*.:. .7.5X5X) 5 5.v.u.t.t.q.t.q.q.t.t.t.t.t.q.q.t.t.y.y.y.0.<.:.$.+.&.l.2.:.4.x.x.0.3.3.3.2.3.2.2.,.2.3.3.3.3.3.3.2.&.&.&.$.=.;.#.#.#.Q Q Q Q Q #.#.Q n n % o l *.....D Q W n n Q Q W N N S S n b i a a a b c c b u r r # 7 @ 7 r 8 8 8 8 7 7 7 7 7 @ @ @ 7 7 @ @ s r @ @ 7 r r r 7 7 @ @ 7 r r 7 7 @ @ @ @ r r 7 O @ 7 7 7 7 7 7 7 7 7 # @ @ O O @ 7 @ @ r 7 @ r H r @ @ O @ r r r r r ",
"@ @ - r r r - @ r # @ r r r r @ r r r r t r 7 7 7 7 7 7 7 7 7 7 7 # # # 7 7 7 7 7 7 @ @ @ @ @ @ @ r r @ @ 7 7 @ 7 r 7 7 r 7 r 7 7 7 @ 7 r r r 7 @ @ 7 p p r @ @ # - p s y y y s c v N N v v N S n & & v N l M *.;.#.V M M V $.#.*.! z & D =.x.M.x.$...B B V N l.b.v.t.t.t.u.t.t.q.q.b.l.4 4 3.c.0.0.0.0.0.0.q.0.0.0.0.0.q.q.q.q.w.q.t.n.n.n.n.u.u.u.r.r.L.@Xb.B Q B ) :X4XI.w.t.n.x.4.3.0.9.q.n.v.t.0.3.3.3.b.C.l.M G M V l.b.:.>.w.0.0.0.3.3.3.| :.3.j.c.j.2.=.-.v S Q Q U +.b.@X}.@Xm.y.#.v m n b P P L E R W W W W I I I I I L W R n z i i u # # # # 8 8 8 # # # # # # # # # # # # # # # # # # # # # # # # # # # # # # # # # # # # # # # # # # # # # # # # # # # # # # # # # # # # # # # # # # # # # # # # # # # # # # # # # # # # # # # # # # # # # # # # # # # # # # # # # r # # r u = # u % & q % u d C R Z n v v W W I L L R m : b W Q Q Q M M $.1.c.M.>.....%.Q v v N x -.;.2.2.3.3.3.3.,.<.,.3.2.2.l.#.N N N Q -.=.$.2.=.=.;.;.=.;.;.;.,.@.a.5X5X) 5 5.v.t.t.t.t.t.t.t.t.t.t.t.t.t.q.t.t.y.q.0.y.y.3.$.} +.+.$.j.c.x.x.3.3.,.2.2.2.2.2.,.2.,.2.2.3.3.3.2.,.,.,.;.2.2.&.#.#.#.Q Q Q Q Q Q W b f % o l S V V M N N c v ! ! -.Q x z N W Z % i 0 0 a c v n d p r r 7 @ 7 r 8 8 8 8 7 7 7 r 7 @ O @ 7 7 7 @ s p r @ @ 7 r p r r 7 @ r t r r 7 7 r r 7 r r @ O @ @ 7 7 7 7 7 7 7 7 7 # @ @ O @ @ @ 7 r 7 @ r h 7 O X X @ r t r r r ",
"- - r r r r # @ r @ @ 7 r r 7 @ 7 7 r r r r 7 7 7 7 7 7 7 7 7 7 7 # # # 7 7 7 7 7 7 # # 7 7 7 7 7 7 r 7 7 7 7 r 7 7 @ 7 7 r r r r r 7 r r r r r r r r r r r r r r # @ p k y y d n N #.%.Q Q *.#.Q N N B B B #.;.2.1.$...} ..1.1.*.#.& & D 1.x.M.x.$...#.#.B D l.c.y.y.y.t.u.t.t.u.t.b.5.4 4 2.x.0.0.0.0.0.q.t.t.q.q.q.q.q.q.q.q.w.e.u.n.n.n.e.e.t.u.L.L. X#Xb.V Q B ) :X4XI.a.u.n.x.0.y.t.q.q.q.n.v.v.0.3.3.j.b.l.} } } } l.b.0.0.q.0.0.0.3.3.3.X.,.3.j.l.l.2.#...V N Q ~ I N c.v.n.XX}.v.:.#.N n n L L L L R W W W Q I I I N I n R R n c a u i # % # = 8 8 # # # # # # # # # # # # # # # # # # # # # # # # # # # # # # # # # # # # # # # # # # # # # # # # # # # # # # # # # # # # # # # # # # # # # # # # # # # # # # # # # # # # # # # # # # # # # # # # # # # # # # # # # # r # # r u = # # % i i % = u d b R b z v n W I L L W v 4 v Q Q D D #.$.j.c.c.v.3.1.$.%.Q v n N x -.;.2.2.2.3.2.:.,.<.,.3.2.2.j.#.N N N U -.;.$.2.=.;.2.,.;.;.;.2.:.@.8.5X5X) 5 5.t.t.t.t.t.t.t.t.t.t.t.t.t.t.q.q.q.q.q.0.0.y.3.$.:.#.} 2.b.x.>.9.3.3.2.2.2.2.2.2.2.,.,.2.2.3.2.2.2.,.2.2.2.2.5.&.} #.#.#.Q Q Q Q Q W b f r + c D D B N N I W W ~ Q Q -.N x Q -.W n Z b b Z S S W d p r r r r r t r r 8 8 7 8 r r r @ O @ r r r r r p t 7 @ 7 r r r r r r r t r r @ r r r @ r r @ X O @ 7 7 7 7 r 7 7 7 7 7 7 @ O @ @ @ 7 r 7 7 r s r @ @ O @ 7 7 r r r ",
"- r r r r # - # r 7 @ 7 r r r @ 7 7 r r r r 7 r 7 7 7 7 7 7 7 # 7 # # # 7 7 7 7 7 7 7 7 7 7 7 7 7 7 7 r r 7 r r @ @ 7 r r r r r r r r r r t p p s s r @ @ r s p s # O 8 s y s d W ..;.j.k.k.j.2.;.2.;.#.$.2.l.3.2.3.3.2.:.3.3.1.#.Q & * Q 2.x.v.4.:.1.2.j.2.=.l.3.<.<.0.q.t.t.t.u.u.v.5.m 4 2.c.0.0.0.0.q.t.n.t.n.n.n.n.n.n.n.n.e.e.u.u.n.n.e.e.w.u.}. X.XOXy.} U V ` :XuXJ.a.u.n.n.v.v.u.t.w.w.n.n.v.q.0.>.4.1.2.2.j.1.3.c.c.b.v.q.0.9.3.3.<.,.3.0.c.j.l.l.;.} ..} D Q ^ L x &.| M.@Xm.w.<.3.;.B Q W L n m L W W W S S S N N S W R R R R n f u % % = = # # 8 8 # # # # # # # # # # # # # # # # # # # # # # # # # # # # # # # # # # # # # # # # # # # # # # # # # # # # # # # # # # # # # # # # # # # # # # # # # # # # # # # # # # # # # # # # # # # # # # # # # # # # # # # # r # # = = # # r ; u ; = - - p u b b b v L I I L W W v l x B D D } b.C.Z.Z.3.>.3.2.=.%.B v v v x -.;.2.2.2.2.2.,.,.<.,.3.2.2.j.#.N N N U =.2.$.:.1.:.:.:.$.$.$.$.@. .7.4X5X) 5 5.v.t.t.t.t.t.t.t.t.t.t.t.t.t.q.q.q.q.q.q.0.3.4.:.3.} } A.S.3.| 4.c.3.3.<.,.,.,.2.2.2.2.3.3.3.2.3.3.2.2.2.2.2.2.=...#.#.#.#.#.Q Q ! ^ P f # o c -.*.;.%.Q ! k.k.h.Q Q -.-.Q -.h.^ ~ d.~ ~ -.-.-.h.d p p p p p t k t t t r r r r r t 7 O 7 t s p t s r 7 @ t s r X 7 r r r r t r r @ 7 r 7 @ r p r O @ @ 7 7 7 7 7 7 7 7 r r 7 # @ @ @ @ 7 7 7 r r p r r 7 @ @ 7 @ # # # ",
"r r - - # # # # 7 7 7 r r t r r r r r t r 7 7 7 7 r r 7 7 7 7 # 7 # # # 7 7 7 7 7 7 7 7 7 7 7 7 7 @ r r r r r r @ @ r r r r r r r r r r r t p p p s p r r t p t H r @ r g s s d *.$.,.2.;.2.2.2.2.2.2.$.:.2.3.3.3.3.c.3.>.3.4.,.=.=.& * -.l.x.x.4.1.$.} ..$...2.3.3.3.y.t.u.u.e.e.u.v.5.I M 2.0.0.q.t.q.q.n.n.n.n.n.n.n.n.n.n.n.m.m.u.u.e.e.e.e.e.r.L.|.|. Xt.+.U V ` >XuXU.p.i. Xm.n.t.u.u.w.w.n.n.q.q.w.9.>.X.1.j.j.3.c.3...c.v.t.0.0.0.0.3.>.x.c.c.3.2.;.%.B } $.#.Q ~ W N U } c.M.v.q.0.v.c.2.2.*.Q v m L W I I I N N N N n R n n n T b u # # # # # # # 8 u # # # # # # # # # # # # # # # # # # # # # # # # # # # # # # # # # # # # # # # # # # # # # # # # # # # # # # # # # # # # # # # # # # # # # # # # # # # # # # # # # # # # # # # # # # # # # # # # # # # # # # # # # = = = # # r u # = - - - - r u d c b n L L I L n W N x N D *.j.1.b.j.b.M.j.,.3.2.;.%.D N N N N %.=.2.2.2.2.2.3.,.<.,.3.2.2.j.#.N I U Q ;.2.:.:.1.,.:.:.,.,.2.<.9.7.r.5X5X) 5 5.t.t.t.t.t.t.t.t.t.t.t.t.t.q.q.q.q.q.q.t.q.<.>.1.2.| } l.M.3.:.0.v.0.0.<.<.<.3.<.3.3.3.j.3.3.3.3.3.3.3.3.2.2.2.$.} B #.#.#.Q Q Q W R d s @ o n k.=.l.=.B Q 6.-.Q *.Q #.-.*.*.*.*.! -.! Q ;.;.=.;.b s p p s s s k s s p t r r p r t 7 @ 7 t s s s s t r r r p r @ 7 r p t t t r r 7 7 r @ @ r p r @ @ @ # 7 7 7 7 7 7 r r 7 7 7 # @ @ 7 @ O 7 p r r r r 7 O O 7 7 # # # ",
"# # - - # # 7 r 7 7 7 r r t t t t r t t r 7 7 7 7 r r 7 @ @ @ @ 7 # # # 7 7 7 7 7 7 7 7 7 7 7 7 r 7 r r r r 7 7 7 7 r r r r t t 7 r r r t p p p r t s g s r r r s p p p g s d c l.j.3.5.2.2.5.3.5.2.2.3.3.3.3.0.0.c.M.c.>.3.3.3.4.3.2 2 l.M.v.x.j.1.#.M 4 M N ;.l.y.y.t.u.u.e.e.e.e.t.5.Q N $.>.q.u.u.q.t.n.n.u.u.u.u.e.u.u.u.u.}.}.m.m.e.e.i.i.p.p.L.P..X|.t.+.#.V ` 4XpX!.I.}.XX Xu.u.u.r.r.r.i.e.q.w.w.v.0.:.>.3.j.3.j...G 1.M.v.t.y.0.0.0.0.0.0.3.3.2.#.U U #.&.%.%.-.%.%.%.%...V 3.Z.m.m.m.M.M.1.$.B x W W L L R L R R R R n z i a c i ; # + # # # # # = u # # # # # # # # # # # # # # # # # # # # # # # # # # # # # # # # # # # # # # # # # # # # # # # # # # # # # # # # # # # # # # # # # # # # # # # # # # # # # # # # # # # # # # # # # # # # # # # # # # # # # # # # # # = # # = r r = = - - r r r u d c b v W W I I v n N B #.#.j.M.b...G ..2.3.l.2.=.=.*.*.*.Q Q Q U B %.2.2.2.,.,.<.<.,.2.2.2.j.#.M Q %.=.2.2.:.,.>.>.@.>.0.y.c.v.u.8.I.pXpX_ ) 5.t.q.t.t.t.t.t.t.t.t.t.t.t.q.t.q.q.w.q.n.q.<.,.3.2.$.} } $.3.c.c.v.q.q.w.9.9.9.9.4.4.c.c.x.4.4.3.3.3.3.3.2.2.2.$.B B Q Q Q Q Q Q c a u s # o n z.2.j.$.V V U B B %.%.#.#.$.#.#.%.*.-.%.%.2.j.2.j.b s p p s s p p s s p p p p p p p r 7 r t s s p t p s p r 7 r s r t p t t p t r r 7 7 r 7 r p r r 7 # @ 7 7 7 # 7 7 7 7 7 7 7 7 7 7 7 @ X r g r 7 7 r 7 O @ 7 7 # # # ",
"# # @ @ # # 7 r 7 7 r r r r t t r r r r r 7 7 7 7 r p 7 @ @ @ @ 7 # # # 7 7 7 7 7 7 7 7 7 7 7 7 r 7 r r r 7 @ @ r r r r r r r t @ r r p p p p p g r r s p 7 7 s y p d d g s d c l.j.0.3.,.,.3.<.3.2.2.3.3.<.<.3.>.c.Z.c.X.>.>.3.4.3.2 2 l.M.x.x.1.$.&.U V V B l.c.y.y.y.e.e.e.e.e.e.q.y.%.N $.X.t.n.n.u.u.n.n.e.i.u.e.e.u.u.i.m.}.}.}.}.i.r.i.}.i.i.I.U..X#Xu.| #.V ` 4XiX!.P.OX.X Xi.p.p.p.p.i.e.e.w.7.w.v.q.X.4.4.c.b.2.} V 3.b.n.v.t.0.0.0.0.0.0.c.j.2.#.B Q #.&.=.=.$.#.=.=.;.%.V &.A.M.n.n.XXM.4.:.} V Q n n L L L P P T T n a i i i u u u # # u u = # # # # # # # # # # # # # # # # # # # # # # # # # # # # # # # # # # # # # # # # # # # # # # # # # # # # # # # # # # # # # # # # # # # # # # # # # # # # # # # # # # # # # # # # # # # # # # # # # # # # # # # # # # # # # # # = r = # = = - - r - = u b c c v S Q I N v n N Q #.} 2.C.b.} | 2.$.$.l.=.#.*.*.-.h.*.D D B B #.2.5.2.,.,.<.<.,.2.2.2.j.Q M %.;.2.2.,.,.3.4.>.>.>.9.y.b.v.i.8.H.pXvX_ ) 5.t.t.t.t.q.t.t.t.t.t.t.t.q.q.q.y.q.w.q.n.v.<.>.3.3.+.} #...2.c.b.q.q.9.w.w.w.w.9.9.0.x.v.x.4.4.j.3.2.2.2.2.2.;.#.B B U Q Q Q Q W c a u d 8 o v l.j.c.,.} B B ..$.#.;.$...$.$.#.=.%.%.#.$.2.3.0.l.b s p p p p s s t t p p p p p p s r r r p s p p s t t p t r t g s s t r t s p r s 7 7 r r r r r p r # @ 7 7 7 @ @ 7 7 7 @ @ 7 7 7 r r O X r h r 7 7 7 7 @ @ 7 @ # # - ",
"- - r r r r r r @ r r r r r r t t p 7 O X X @ r r r r 7 O O @ 7 @ # # # 7 7 7 # r @ 7 p r r r 7 7 r r r t r @ 7 @ r s s s p p p p p t t p s p p t t p p s s s s s s j p s d u n C.Z.y.<.<.,.3.3.2.2.2.2.3.3.3.3.3.3.3.>.>.3.3.3.2.2.4 & 6.l.3.4.1.G $.l.2.c.c...| 3.b.v.q.e.u.e.r.e.m.c.M 5 c.M.n.n.u.e.u.i.e.r.e.e.e.r.r.u.u.i.r.r.i.}.#X#X Xi.L.P.U..X.X#XV.+.%.+._ 4XiX!.H.Q..X.X}.OXOXP.p.r.e.e.e.u.u.u.v.v.v.0.3.:.2.G M c.@Xm.q.9.9.0.t.0.0.x.c.2.=.#.B Q #.%.;.2.2.1.1.=.=.#.V V B | +.@.n.w.M.M...V Q W W n b c n P d i % % % % % % % r # # # # # # # # # # # # # # # # # # # # # # # # # # # # # # # # # # # # # # # # # # # # # # = = # # # # # # # # # # # # # # # # # # # # # # # # # # # # # # # # # # # # # # # # # # # # # # # # # # # # # # # # # # # # # # # # # # # # # # r = = = - - - - = % % q c z Q Q x x n ~ ^ N ;.C.b.$.$.$.$.=.2.#.B U B #.%.=.;.=.-.*.B M V V $.5.,.,.<.<.,.2.;.#.B B M #.2.2.,.3.v.n.v.v.t.u.u.n.v.t.i.8.I.vXpX_ ) 3.w.u.m.u.e.t.u.q.t.t.t.t.t.t.t.t.u.w.q.m.m.v.b.A.Z.$.} $.:.3.b.b.v.n.q.q.q.0.x.<.M.M.c.x.4.3 | j.2.V V } %.#.V ;.l.-.Q Q Q W v z z a u d % o v j.3.>.>.c.c.,.,.3.3.1.1.b.b.j.=.$.$.$.+.:.3.y.v.c.n u s p s p p p s s s s s s p p s r r r s s s p p p p p t t t t t t t t t t t t r r t r t r r 7 7 8 r r 7 @ 7 7 @ 7 7 7 @ @ 7 8 r 7 7 O O r s t 7 8 t 8 O O 7 7 # # # ",
"# # # # 7 7 7 7 7 7 @ @ r t r r t t r @ @ O O r r t r 7 @ @ @ @ @ # # # 7 7 @ @ @ O 7 p r r r 7 7 t t t t r @ 7 r r r p s s s p p t t t p s s p t p p s s s s s s s g p s d i v C.Z.0.<.3.<.0.3.2.2.2.3.3.3.3.3.3.3.3.>.>.>.>.,.2.;.& * -.l.3.4.$.M } 2.j.c.4.>.X.>.0.y.q.e.e.e.r.e.n.c.V 5 0.n.u.m.u.w.u.i.i.i.i.i.i.i.i.i.i.i.L.p.r.i.#X#X Xr.L.I.U..X+X;XV.| +.+._ 4XiX!.H.Q..X.X|.}.|.P.L.p.i.i.e.e.e.e.t.t.t.0.3.$.1.M V c.V.n.u.y.9.0.0.9.0.0.c.3.2.%.B U #.$.;.2.1.1.1.1.1...B B B +.+.+.0.x.Z.C.$.B Q W v n n z z b d i % i i i ; # # # # # # # # # # # # # # # # # # # # # # # # # # # # # # # # # # # # # # # # # # # # # # # # # = = # # # # # # # # # # # # # # # # # # # # # # # # # # # # # # # # # # # # # # # # # # # # # # # # # # # # # # # # # # # # # # # # # # # # # # r = = = = - - - = % * & v x Q N x 2 N ~ ~ N h.C.b.} =.1.$.$.=.#.U Q #.#.=.;.;.;.=.*.B B V M } 2.2.3.<.,.,.&.&.%.U N M #.2.2.4.0.v.v.n.u.u.u.u.u.u.u.r.8.H.pXpX_ ) 3.u.m.m.u.e.e.u.u.u.t.q.q.q.t.q.q.w.w.u.m.m.m.b.b.A.$.} &.2.5.c.c.y.v.y.v.v.y.c.<.b.A.M.c.:.G } 1.$.} } B B B B ;.l.-.Q Q ^ I m z c c i d +   V c.X.w.9.y.v.0.0.>.3.3.3.c.b.j.:.$.$.+.$.:.<.0.q.c.n u s p s p p p t t s s p p p p p r 7 r p s p p p p p p t t t t t t t t p t t t t t t t t r r r 7 7 8 8 7 7 7 7 @ 7 7 @ @ @ @ 7 7 7 7 O O r s r 7 7 r 8 @ @ 7 @ # # @ ",
"7 7 7 7 7 7 7 7 r 7 O O r t r r r r r r 7 O O r r t r r 7 7 @ @ @ @ # # 7 7 @ @ @ O 7 p p t t r r p p t p r 7 r s r 7 7 t s p r t t t p s s s s p p s s s s s s y k g p s d i v b.M.0.<.<.<.3.3.2.2.2.3.3.3.3.3.3.0.0.3.0.y.c.c.M.l.2 & *.l.1.:.} B Q #.$.B G 3.0.>.>.t.m.u.u.m.e.e.n.c.B V x.n.n.m.m.e.e.m.}. X XL.}.L.L.L.L.i.L.L.p.i.}.L.L.K.L.I..X.X&X;XOX| +.| _ 4XiX!.U.U..X.X|.|.|.|.|.P.}.}.i.r.e.e.u.t.t.t.y.:.:.M M 2.n.u.n.n.0.9.0.0.c.3.4.$.$.#.%.%.$.$.1.2.2.2.2.2.1.:.$.$.%.+.Y U ..$.1.=.-.6.Q & S ! ~ S N W W b a d d d i u = # # # # # # # # # # # # # # # # # # # # # # # # # # # # # # # # # # # # # # # # # # # # # # # = = # # # # # # # # # # # # # # # # # # # # # # # # # # # # # # # # # # # # # # # # # # # # # # # # # # # # # # # # # # # # # # # # # # # # # # = = = = = = = = % % % l ~ -.h.-.%.Q n z Q -.%.-.#.B } #.} B #.%.%.-.%.=.=.;.2.;.=.=.#.%.B M #.l.3.3.2.3.2.$.%.-.%.Q V $.c.c.0.t.n.n.n.n.u.u.u.u.u.u.r.G.H.pXpX_ ) c.m.}.}.i.e.u.i.m.i.u.u.q.q.q.q.w.u.u.u.w.9.0.y.y.5.,.+.+.$.:.:.@.$.+.+.:.<.5.b.A.:.} } } $.2.&.+.+.l.l.j.=.#.U N U N v N N m z z c c a d %   V b.n.@X@XOXV.OXm.q.<.>.<.v.b.v.c.3.3.3.3.0.y.t.m.A.n u s p s p p p t t t t p p p p p r 7 r t s p p p p y y t t t t t t p p p p p p p t t t p t t r r 7 7 7 7 8 7 @ 7 @ @ @ @ @ 7 7 @ r r O X r s r 7 7 8 7 @ 7 r @ @ @ @ ",
"7 7 7 r 7 7 7 7 r r @ O 7 r r r r r r r r O O t r r r r 7 7 @ O @ @ @ # 7 7 @ @ @ O r p p p t r r p p t p t r r g r 7 7 t s p r p p p s s s s s s s s s s s s s y k g p s d i v b.M.0.<.<.<.3.3.3.3.3.3.3.3.0.0.>.<.9.9.q.t.n.v.M.l.x & Q =.....B B B V V 5 5 2.x.>. .0.v.q.q.q.e.e.q.5.B V x.m.m.m.i.e.i.i.}.|. X X X}.L.L.L.L.K.P.P.i.r.r.r.L.L.I.U..X&X;XOX .+.| _ <XiX!.U.U..X.X.XOX|.|..X|.|.|.L.p.p.i.u.u.u.n.v.:.:.V G $.u.u.m.n.q.9.0.0.0.>.:...} } %.;.$.1.1.;.2.2.2.2.3.1.1.2.;.%.Q U B } V U k.B.! & S ! -.! S S S n C T b d i u = # # # # # # # # # # # # # # # # # # # # # # # # # # # # # # # # # # # # # # # # # # # # # # # = = # # # # # # # # # # # # # # # # # # # # # # # # # # # # # # # # # # # # # # # # # # # # # # # # # # # # # # # # # # # # # # # # # # # # # # = = % = = = r = % % * q h.h.-.*.;.-.W z Q k.Q N V } V B B V #.-.-.;.=.;.;.2.2.2.;.=.%.%.B M &.l.2.3.1.3.2.%.%.-.-.Q V 2.b.M.n.n.m.u.n.n.u.u.u.u.u.i.r.G.J.pXpX_ ) b.m.}.}.i.r.i.m.m.m.m.u.e.e.e.e.w.m.m.e.7. .>.9.<.@.<.,.+.| | | | +.+.+.+.&.5.C.S.2.V B B &.l.;.V #.b.l.b.l.#.B x x 4 x x v m z c n n c b % . } M.}.$X#XOXOXOXXXq.9.>.<.q.n.n.b.b.0.0.0.y.q.t.m.Z.n u s p p p p p k s s s p p p p s r r r p s s s p p y y t t t t t t p p p p p p p p t p p p t t t r 7 7 r r 7 O 7 @ @ @ @ @ @ @ @ r r O X r g r 7 @ 7 7 @ 7 r 7 @ @ @ ",
"r r r 7 7 7 7 r 7 r 7 @ @ @ 7 t r 7 7 r 7 O O t r r 7 7 7 7 @ @ @ @ @ @ 7 7 7 7 @ @ r p p r r 7 r p p p s p r p g s t t s g s p s s s s p p p s s s s s s s s s y k g p s d i v b.M.0.<.3.,.3.3.3.3.3.3.0.q.v.t.t.u.n.u.u.u.u.v.2.-.& % n S ..=.;.B #.#.3.M.b.v.v.0.3.0.v.v.t.y.v.q.0.,.N V x.m.e.e.e.e.i.r.i.|. X X XI. XI.I.I.P.L.p.L.OX+XP.K.P.P..XoX&X;XOX_ +.| _ <XiX!.J.U..X.X.X|..X.X.X.X|.|.P.L.L.L.L.r.u.u.t.@.,.| B 3.m.}.m.u.w.9.y.y.>.>.4.3.$...$.=.1.1.;.2.;.;.2.2.2.1.1.2.2.=.%.%.U %.Q U ! -.Q Q Q Q *.-.! S n n C C d a u = # # # - # # # # # # # # # # # # # # # # # # # # # # # # # # # # # # # # # # # # # # # # # # # # = = # # # # # # # # # # # # # # # # # # # # # # # # # # # # # # # # # # # # # # # # # # # # # # # # # # # # # # # # # # # # # # # # # # # # # # = = % = = = r r 0 0 % z k.-.Q N N I N x W Q U ;.%.V B #.%.#.%.;.;.;.;.;.2.2.2.1.1.=.*.Q N M V ....3.1.2.;.Q I Q Q N V 2.b.n.u.u.i.e.e.u.u.u.u.u.u.i.p.8.G.pXpX_  .v.}.|.}.L.L.L.}.}.}.m.i.i.u.u.u.u.i.i.i.}.i.w.w.9.@.>.<.y.v.9.@.@.+.%.5.2.$.+.$.3.$.V $.+.} $.#.$.$.;.#.=.=.V Q Q *.Q Q W Q W S S Z Z b b i * } m.i.|.|.L.L.}. Xe.t.0.w.0.q.q.0.t.0.0.0.0.q.q.m.Z.n u s p p p s s s s s s y p p p s t r r p s s s p p p p t t t t t t p p p p p p p t t t p p t t p r 8 8 r r 7 @ @ @ O O @ @ @ @ @ r t O X r s r @ @ 7 @ X @ r r @ O @ ",
"7 7 7 7 7 7 7 7 7 r 7 @ O O @ t 7 7 @ @ 7 O O r r 7 7 @ @ @ @ @ @ @ @ # 7 7 7 7 7 @ r p r r r 7 r p p p s p t s s s s s s s s p p s s p t t t p s s s s s s s s y k g p s d i v b.M.0.<.,.,.2.,.>.<.9.9.0.v.n.u.m.}.}.}.}.}.L.n.#.Q i ; c n D *.h.Q k.l.b.@X@XM.v.b.b.c.b.b.b.c.t.0.<.$.N V x.m.w.w.w.i.m.i.i. X|.|.P.P.|.I.|.P.P.P.L.|.#X;X|.r.+X+X+X&X&X;XOX) +.| _ <XiX!.J.U..X.X.XP.P.U..X|.P..X.XP.P.|.L.r.i.u.q. .<.....b.XX}.m.u.w.9.t.y.| | 3.j.$...$.$.=.=.;.2.2.;.;.&.2.&.&.2.2.2.=.=.B Q Q N v x N -.-.*.-.h.h.W n Z n d d u u # # = - - # # # # # # # # # # # # # # # # # # # # # # # # # # # # # # # # # # # # # # # # # # # # = = # # # # # # # # # # # # # # # # # # # # # # # # # # # # # # # # # # # # # # # # # # # # # # # # # # # # # # # # # # # # # # # # # # # # # # = = # # = - - - # % % z h.-.Q N N N N x N Q B %.#.V #.&.=.$.;.;.=.;.;.&.2.2.1.1.1.=.=.D Q V G V } j.2.2.=.Q N I I N V 2.M.n.e.e.i.e.e.e.u.i.u.u.u.i.K.G.Y.uXuX'  .t. X|.P.P.P.}.}.}. X}.m.i.i.i.i.i.i.i. X#XOXe.7.w.0.@.>.M.V.t.9.>.+.$.5.,.+.| | | ) | $.+.} | $.5.$.#.V V } V ..=.k.-.-.! ! ! Q Q W Z b b i * ..m.i.L.K.L.L.p.}.i.u.q.9.w.w.w.9.0.0.0.y.y.w.q.m.Z.N u s p p p s s k k s s y p t t s t r r p p p p p p p p t t t t t t p p p p p p p t t t p p p t t t r r r 7 7 @ @ @ O O @ @ @ @ @ r r O X r s 8 @ 7 7 @ X O r p O O O ",
"7 7 7 7 7 7 7 7 r r @ O 7 7 7 r @ 7 @ @ 7 @ O 7 7 @ @ @ @ @ @ @ @ @ # # 7 7 7 7 7 @ r p t r t r t s s p s s t g p p p s p p p p s s s s t t p s s s s s g g g s y k g p s d i v b.M.0.>.2.,.2.,.9.q.q.q.q.n.i.i.i.i.L.L.L.L.L.u.} S i i c v D ..D N -.&.$.3.0.>.:.1.2.:.:.:.,.:.,.<.$.+.Y B x.m.u.u.u.e.i.}.}. X|.|.|.|.P.|.P.P.P.P.P.|.+X|.L.L.Q.W.&X&X&X:XOX) +.+._ <XiX~.U.+X&X.X.XP.P.U..X.XP..XU.U.U..XP.r.L.i.u.9.0.X.} c. X X Xi.q.y.v.c.X.| 3.c.1.$.1.$.*.*.=.;.2.2.&.%.&.%.%.;.2.1.4.j.=.*.*.Q Q N Q Q Q Q Q Q W b f f d d d u p r r r - - # # # # # # # # # # # # # # # # # # # # # # # # # # # # # # # # # # # # # # # # # # # # = = # # # # # # # # # # # # # # # # # # # # # # # # # # # # # # # # # # # # # # # # # # # # # # # # # # # # # # # # # # # # # # # # # # # # # # = = = = - - - - # # % & n v Q W N N Q N *.-.-.Q B ;.#.#.$.$.=.=...=.;.&.,.1.1.1.1.1.#.B ;.k.*.=.1.=.1.=.%.Q W I I U V 3.M.m.e.i.i.r.u.e.e.i.i.u.e.r.P.>X*XuXpX' | n.|.P.I.P.P.|.|.P.}.L.L.i.i.i.i.i.L.i.}.OX Xr.7.w.u.q.n.n.u.u.m.q.X.,.c.0.0.v.>.:.0.v.3.>.3.3.3.<.2.2.2.} } } B %.*.*.*.%.Q Q Q ! ^ R b b & . ..m.i.L.r.p.p.r.L.r.u.u.q.e.e.q.q.t.0.9.0.0.w.q.i.Z.N u s r p p s s k s s s s s s s g t r r t p p p p p p p t t t t t t t t p p t t p t t t p p p p r t p t 8 7 7 7 @ O O O O @ 7 7 7 7 7 O X 7 t 7 7 7 7 @ O @ r r O O O ",
"7 7 7 7 7 7 7 7 t r O O r t r r @ 7 @ @ 7 @ @ @ @ @ @ @ 7 @ 7 @ # # - # 7 7 7 # 7 @ r s p t s s t s s p s p t s s s s s s s s s s s g g s s s g p p s s g g s s s k s p s d i n C.C.l.2.l.j.l.j.c.n.M.b.b.m.m.u.m.}.}.}.}.}.}.m.G v % i b v D #.#.N B V V | ) | | } | | | | } | } | | B N V j.m.}.OX}.r.r.|.|. X|.|..X.X|.|.P.P.I.P.P.H.K.K.P.+XI.U.!.&X&X:XOX_ +.| _ 4XiX~.W.&X,X&X.X.X.X.X.X.X|..X.XU..X.XP.r.r.u.m.u.n.>.| 0.i.L.L.i.u.t.b.b.| ..c.Z.b.j.3.} #.#.$.1.2.2.,.&.%.%.%.=.2.1.4.4.=.;.k.;.Q B N 2 N Q Q n c a i u u p u u u 8 # # # # # # # # # # # # # # # # # # # # # # # # # # # # # # # # # # # # # # # # # # # # # # # # = = # # # # # # # # # # # # # # # # # # # # # # # # # # # # # # # # # # # # # # # # # # # # # # # # # # # # # # # # # # # # # # # # # # # # # # = = = - - - - - - # i q i & W ^ Q Q Q Q %.Q ;.k.%.%.=.;.=.=.=.} B #.;.&.,.:.1.1.1.1.} M j.C.C.C.l.G } } D D W N I Q V j.m.m.i.i.i.r.u.u.r.p.i.p.r.8.+XGXiXpXpX_ ) V.OX|.I.I. XI.P.L.P.L.L.i.i.i.i.i.r.p.}.+XOXi.e.u.u.@X#Xu.o.OX1X@X|  .v.b.Z.Z.0.| m.@Xv.0.b.M.b.<.j.b.b.} G ..} #.$.;.;.=.#.#.#.*.! ^ R b *   } A.m.m.m.m.m.m.}.m.m.b.n.M.M.M.b.b.b.b.b.b.v.b.V.Z.Z u s r p p s s s g g g g g H H H p r r p p p p p p p p t t t t t t t t t t t t p p t p p s s s 8 t p t 7 O @ 7 O O O O O @ @ @ 7 @ @ O X @ 7 @ 7 7 7 7 @ 7 r r 7 7 7 ",
"@ @ @ @ @ @ @ O @ @ O O 7 r 7 7 @ @ @ @ @ @ @ @ @ @ @ @ @ 7 @ @ 7 # 7 # @ @ @ @ r r r r r r r r r r r r r r r r r r r r r r r r r r t r t t r 7 r r p t 7 t s 7 r r r r p p p p d.^ W R W W W S } $.2.;.;.;.;.;.,.y.3.,.:.,.2.$.c a C i m N B #.B V +.,.,.>.>.>.>.:.$.:.:.:.X.+.+.$.| ,.B V b.m.L.+XL.p.P.L.|. X XXXXXXX|.I.I.P.P.P.I.P.Q.Q.W.U.U.!.&X&X&X+XQ.[ ,.| ' 4XeX*X!.!.T.oX.X.X.X|.OX|. XL.P.|.P.I.L.r.L.r.u.t.t.>.9.q.i.i. Xi.r.p.t.b.$...2.l.j.x.q.9.3.| ..2.:.2.3.&.&.&.&.&.,.,.,.2.;.;.-.%.Q B N N N S Q Z R c c i i u r = = = u = 8 8 8 8 # # # # # # # # # # = = # # # # # # # # # # # # # # # # # # # # # # # # # # # # # # # # # # # # # # # # # # # # # # # # # # # # # # # # # # # # # # # # # # # # # # # # = = = - = = = = # # # # # # # # # # # # # # # # # # # # # # # # # # - - - - = = i i i i W S Q Q N Q %.*.*.-.=.2.1.=.$.1.;.B N Q &.&.,.:.1.:.1.1.:...4.M.b.>.3.:.:...D D N N U U V j.M.n.i.r.u.u.t.r.p.i.p.K.P.U.&X>X*XuXpX .) 5.y.m.XX|.I. X}.L.L.L.L.L.i.i.i.L.p.I.p.p.p.a.w.p.i.L. Xr.w.u.t.m.>.>.0.y.m.V.<.| v.c.3.3.0.b.c.,.j.l.j.} } ..$...2.1.1.=.=.$.$.*.h.d.c a 4 * m k.j.1.j.j.=.=.j.1.j.#.#.j.2.=.=.%.-.%.*.#.*.*.h.k.a p 8 7 8 r p t r r r p p r r t r r 7 @ r t r r r r r r r r r r r r r r r r r r r r r r r r r r 7 7 7 7 @ @ O O @ @ O O O O @ @ @ @ O X X @ 7 @ @ @ @ O O @ 7 r 7 7 7 ",
"@ O O X O O O O O O X X @ @ @ 7 O O O O O O @ @ @ @ @ @ @ 7 @ @ @ # @ # @ # # # @ @ O O O O X X O O O O O O O O @ @ @ @ @ @ @ @ @ 7 r 7 7 7 7 r @ X @ 7 O X @ @ X X O O O O @ @ O O X X o o o o * 2 4 & % 0 i 4 2 < 2 2 l l 4 & a i Z z v M B #.} } 2.b.M.m.m.m.m.c.3.2.3.3.>.:.6.5.3.c.B 5 c.n.L.+XP.P.|.P.|. X X|.|.|..XP.I.P.I.I.P.Q.+X+XW.U.&X&X&X&X=X:XOX@.@.@.o.>XwX7X7X*XY.T..X.X.X.XOXL.i.r.r.i.r.i.i.r.r.r.u.u.m.q.0.n.m.r. XL.r.i.n.b...} } } ..x.m.@X0.} } ..} $.2.$.$.$.$.,.,.,.:.,.=.-.k.6.Q B Q ! ^ S W W W i i i u u r # # = = = 8 8 8 8 # # # # # # # # # # = = # # # # # # # # # # # # # # # # # # # # # # # # # # # # # # # # # # # # # # # # # # # # # # # # # # # # # # # # # # # # # # # # # # # # # # # # = = = - = = = = # # # # # # # # # # # # # # # # # # # # # # # # # # - - - - = = ; % ; & W W W S D D Q %.%.%.%.;.$.1.1.1.=.U I Q ;.2.&.$...} } } j.3.M.Z.>.3 | b.A.B *.! N Q 4 M V c.@XXXL.8.u.u.p.a.a.r.8.8.;XGX*X` ] pX5X .5 +.+.w. X.X|.|.i.p.}.|.|.}.}.m.i.i.L.OXi.w.9.y.t.u.e. X Xi.e.@.) @.t.u.n.9.9.9.@.,.>.>.2.2.3.4.,.:.$.=.#.} ..1.c.b.b.c.3.2.2.=.$.$.h.*.a i v 4 ; a q * q q * & 2 * * & & * & * o o o o o o o o o o + @ O O O O O O O O O O O O O O O O @ @ @ @ @ O @ @ @ @ @ @ @ @ @ @ O @ @ @ @ O O O O O O O O O @ O O O O O O O O O O O O O @ @ @ @ @ X X @ 7 @ O O X X X O @ 7 @ @ @ ",
"7 @ @ O @ @ @ @ X X X X @ @ @ 7 O @ @ @ O O O @ O O O @ @ @ @ @ @ @ @ @ @ # # # - - # # # @ @ @ # @ @ @ O O O O O O O O O O O O r r r r @ O @ r r @ 7 r r @ 7 7 O @ @ @ @ @ 8 8 # # % % % 0 0 0 q c C a j j C c v x x v c a a a a i W N B B #.$.+.} 2.c.c.v.v.t.v.3.,.,.3.3.3.3.&.2.c.v.} V b.m. X.X|..X+XP.P.P.P.P.P.P.+XU.U.U.U.U.U.+X+X+XU.U.&X&X&X;X#XOXm.>.,.<.7.>XeX7X7X~.!.!.U.U.U..XOXP.}.m.m.m.n.m.m.i.e.XX}.q.v.0.x.v.u.i. X Xp.p.w.0.:.$.$.$.1.j.q.m.c.:...:.$.1.2.1.1.$.$.:.,.,.,.&.&.U #.%.N N Q W W v Z W ^ i 0 i u u = # # = # # # # 8 8 # # # # # # # # # # # # # # # # # # # # # # # # # # # # # # # # # # # # # # # # # # # # # # # # # # # # # # # # # # # # # # # # # # # # # # # # # # # # # # # # # # # # = = - - = # = = # # # # # # # # # # # # # # # # # # # # # # # # # # - - - - - = ; % ; : W W W N D D Q -.-.Q #.#.$.2.2.1.$.Q U Q &.%.$.$.$.$.$.$.2.:.b.c.>.@. .y.l.B ! S W ~ 4 U M j.XXK.K.G.L.i.i.m.i.i.L.+X;X<X-XY.J.uX4X[ ) @.@.t.|. XL.L.V.u.i.i.L. Xm.m.m.n.i.}.m.q.0.t.v.n.m.m.e.m.@X0.5 3.t.e.t.w.u.n.<.,.>.4.1.2.3.,.:.2.=.*.#.} #.=.2.3.b.j.2.1.2.2.1.=.=.*.d u a : = @ z & l l z c a i : c q * z & % i % % + + + + + + O @ @ @ @ O O @ @ @ 7 @ @ @ @ @ X @ 7 r 7 @ @ O O O @ @ @ 7 7 7 7 7 @ 7 7 7 7 @ @ @ @ @ @ O O O @ @ O O O O @ @ O O O O @ @ @ @ @ @ @ X X O @ O @ @ O O O O @ @ 7 7 7 ",
"O O O O O O O O X X X O @ 7 @ 7 @ @ @ @ O O O @ O O O @ @ @ @ @ O O O @ @ # # # p p p p p p p p p p r r 7 @ @ @ @ @ @ @ @ @ @ @ t p g g r O 7 s g g s s g H s 7 O O O O @ 7 @ 8 + + % % q q q q q a a a a a l l 2 G V l l c a d a c ~ Q =.$.&.2.,.$.$.:.X.| | | | @.,.3.3.<.3.3.5.5.n.n.| 5 y.u. X|..X+X+XU.H.U.H.H.H.J.W.!.T.!.&XoXT.U.U.J.H.Y.Y.U.oX;X.Xw.w.9.@.@.8.uXaX8X8X7XwX!.H.H.J.H.H.I.L.i.r.r.r.r.r.8.r.$X#Xo. . . .w.w.@X@X X}.7.` | M.b.,.+...X.>.v.b.j.j.l.j.j.j.2.l.2.=.$.$.,.,.&.3 4 x V N Q Q ! v q b R E i i u u ; = # # # # # # # 8 8 # # # # # # # # # # # # # # # # # # # # # # # # # # # # # # # # # # # # # # # # # # # # # # # # # # # # # # # # # # # # # # # # # # # # # # # # # # # # # # # # # # # # = = # # # # - - # # # # # # # # # # # # # # # # # # # # # # # # # # - - - - = - = % ; ; R Z W W D B Q -.-.Q B B #.2.j.=.$.%.Q #.#.#.#.&.2.l.l.l.=.| ..} c.1Xv.) M %.S N W n 4 U } >.e.8.G.G.G.8.P.+X+X+X:X4X&X] Y.aXuXuX5X@. .@.@.y.m.r.7.w.y.y.w.w.8.r.r.i.L.L.O.O.7.w.w.w.7.w.8.O.O.#XDX@X) 9.r.7.w.t.OXOX<.+.>.4.1.1.j.3.$.$.Q B B %.;.2.2.2.3.1.:.:.2.2.2.2.j.*.a ; i i y u & 2 2 2 4 : % : : : * & z i & i i ; # # # # # # O O O O O O @ @ 8 8 r r r r 8 7 O r s s r r r r O O @ 7 r r t t t t t t p t t r r r r r r 7 @ @ r 7 @ O O @ @ O O @ @ @ @ @ O O O O O X X O O X O O X X X X X X X X X ",
"O @ @ @ @ @ @ @ O @ O X O O O @ @ @ O O @ 7 @ @ @ @ @ 7 7 7 7 # X X O @ @ # # # r r r r r p p p p r r 7 @ @ O @ @ @ @ @ @ @ @ @ t p H H r @ 7 s p g g s g g t @ r @ O @ 8 7 @ + % % & & i z c c v v v N N V V | | | ) 3 } B & z l v h.;.2.,.,.3.j.1.,.:.X.X.@. . .:.5.3.3.<.3.3.5.5.m.m.| | q.e.i.p.P.&X!.R.R.R.J.J.!.^.^.^.^.~.~.~.~.~.!.R.R.T.T.T.T.oXU.r.8.w.7.' { eXyX'._._.qX^.!.!.!.!.J.J.J.Y.J.J.J.J.J.Y.U.>X>XG.G.{ { 8.L.m.m.m.i.7. . .b.b.,.} ..X.>.v.3.5.c.c.j.2.2.2.j.2.;.&.;.2.$.$.V Q V M D N N -.n c b a b u p p u = # # # # # # # # # # # # # # # # # # # # # # # # # # # # # # # # # # # # # # # # # # # # # # # # # # # # # # # # # # # # # # # # # # # # # # # # # # # # # # # # # # # # # # # # # # # # # # = # # = = = = = # # # # # # # # # # # # # # # # # # # # # # # # # # # # - = - - = = u % c c n W S B Q -.-.Q N B B ;.2.$.$.$.%.%.%.#.%.&.;.j.j.j.$.} $.} 3.Z.c.,.&.%.D *.%.U Y U } <.r.G.U.J.H.H.!.!.!.!.>XwX~.F.R.iXwX<X4X@.@.,.,.y.m.e.9.0.y.0.r.r.K.K.U.U.U.U.Y.G.G.H.H.H.G.G.G.G.G.,XpX+X` ' .XL.p.a.}.m.<.,.>.4.2.2.j.j.=.} Q B U &.5.2.2.3.2.2.2.2.2.1.2.2.j.$.v c z q f z 5 @.| 3 5 5 4 4 z : m m & v v & i i u r r r 8 # @ O O O @ @ @ O @ 7 r r r r 7 @ O r s s t r r r O O @ 7 r t p p p t t t p p t r r r r r r @ @ @ p 7 @ O O O O O O O @ @ @ @ @ @ @ # @ @ @ @ @ O O O O O O O O O O O O ",
"r p s s s s s s p r @ X X X O 7 @ O X O 7 r 7 @ 7 7 7 r r r r 7 X O @ @ # # # # r r r # - # # # 7 7 @ @ @ @ @ @ @ @ @ @ @ @ @ O p s s s r X X O 7 t s g p @ O r H p r p s p r + b v v v N W ^ Q -.=.l.A.Z.V.OX@XOX#X:X5XFX3XV v l x -.=.2.,.>.<.3.4.3.3.3.3.3.<.3.<.<.<.3.0.0.<.<.<.e.w._ ) o.o. . .p.+X&X-X-X7XeXrXrXvXbXiXrXeXeXaXaXaXaXaXaXaXiXuX&XY.I.P.i.7.7.{ { wXyXsXsXqXqXiXbXbXvXvXrXwXwXwXiXiXiXiXiXiXiXiXiXpXiX>X=X>X5Xu. . ._ 8.@Xm.X.:.,.3.j.1.@.@.:.,.2.1.$.$.=.;.;.;.;.;.2.2.2.&.l.l.V 2 M x x Q ^ W Z % u u p r u = # # = = # # # # # # # # # # # # # # # # # # # # # # # # # # # # # # # # # # # # # # # # # = = = = = # # # # # # # # # # # # # # # # # # # # # # # # # # # # # # # # # # # # # # # # # # # # = # - - = = = = # # # # # # # # # # # # # # # # # # # # # # # # # # # # - = - - # = ; + i i c n W D N N I I I U N #.$.#.$.;.;.;.;.&.$.%.%.%.%.#.#.B $.$.| | <.1XS.3 } ..B 6.5.5.,.Z.2X4XpXuXpXuXeXeXeXeXiXiXuX<X<XwX&X'  .) | $.} ..X.| } | $.:.@X#X2X9XuXeXeXeXeXeXiXeXuXpXuX>X9X9X9XiXbX>XJ.=XuX:XOX}.}.m.@. .X.>.,.:.X.X.1.;.;.%.#.&.2.,.,.,.:.,.2.3.2.:.1.2.>.,.h.k.v * z v V.FX4X+X@X@X@Xl.l.6.z.%.4 -.B.h.W W R R T T d a p t r t s p 7 O O @ 7 r r 7 @ O X @ p s t 7 @ O 7 @ @ 7 r t t t p t t t t t t r r r r r r @ O @ p 7 O O @ @ @ O @ @ @ 7 r r r t p p p p p p p r r r r p p s s s g g h ",
"r r p p p p p s s p @ X X X O 7 @ O O @ 7 r r 7 7 7 r r r r r 7 O @ @ - r r # # r r - # # # # # 7 @ @ @ @ # 7 7 @ @ @ @ @ @ @ @ s s s p r @ O O r s s s s 7 7 s H p p s s t # + n v N M v N W #.| >.y.n.OX+X&X&X=X&X!.wXGX6X6 +.M N =.$.<.>.<.0.4.>.4.3.2.3.<.>.<.<.>.>.<.0.q.9.9.9.8.o.7.@.' o.@.| t.XX#X:X>X>XuXpXiXvXvXiXuXuXeXiXaXvXvXvXvXvXpXuX+XG.K.}.i.w.9.7.{ uXaXeXeXwX<XpXFXvXvXvXpXwXwXwXuXpXpXpXpXpXpXpXpXpXpX4X>X2X5Xu.)  .o.r.@Xm.>.:.<.3.1.=.:.@.:.:.$.$.$.$.$.;.$.=.=.=.;.;.;.;.l.=.V M M M N W W Z b + 0 8 p r u = = = = = = # # # # # # # # # # # # # # # # # # # # # # # # # # # # # # # # # # # # # # # = = r = = = = # # # # # # # # # # # # # # # # # # # # # # # # # # # # # # # # # # # # # # # # # # # = = - = = = = = # # # # # # # # # # # # # # # # # # # # # # # # # # # # - = = = - = = + i % i z N N N N N W Q I B #.#...$.1.=.2.;.=.$.#.#.#.#.#.} } } $.X.| <.1XZ. .>.X.| 5.6.5.5.Z.2X5X5X5X5XpXuXpXpXuXpXpX4X:X:X5X$X .:.j...h.;.+.} } B Q ! ;.S.$X2X4XuXwXwXwXwXuXpXpXpXpXpX>X-X7XwXuXuX>XW.&XuX:XOXL.}.u.@.| >. .>.0.X. .4.2.&.&.$.,.,.,.<.3.:.:.:.,.2.,.2.2.@.<.l.k.F l v 5 u.FX9X&X&X.X#Xw.c.5.2.#.V ;.b.l.*.D W R T n b c a p p p s p r @ @ O O 7 7 O X X O r t p t r @ O r 7 7 r r t t r s p p p p p t t t r r t r 7 @ 7 p 7 O O @ 7 7 @ 7 7 7 7 r r p p p p s s s p p p r r r r p p s p s s s ",
"@ # r r r r r p r r @ X O O O 7 @ @ # @ 7 7 r r 7 7 7 r r r 7 7 @ @ - r r r r # # # # # - - r r @ @ O O @ @ @ @ @ @ @ @ @ @ @ @ s s p p s g g s p H s t g H s s s r p s s r # % h.2.2.=.%.Q h.l.3.t.t.7.8.U.!.T.T.*X~.7XbX=X< 5 #...2.:.<.<.0.q.0.0.3.3.>.3.0.<.>.9.0.<.9.w.w.e.y.t.L.I.#X:X:X:Xq.X.4.9.9.q.w.8.8.8.8.H.H.G.8.H.H.H.H.H.H.H.H.H.G.U.H.I.OXp.p.m.p.7.{ pXiX!.J.H.H.8.8.8.8.8.' { { ' { { ' ' { ' ' ' 7._ ' ' ' _ 7.@.) y.:X+Xi.}.3.,.<.3.1.1.3.<.,.,.:.$.:.1.$.$.%.%.#.B B #.%.=...$.C.C.V 2 l & l q i + p r p r u = = = ; ; = # # # # # # # # # # # # # # # # # # # # # # # # # # # # # # # # # # # # # # # = = r r = = = # # # # # # # # # # # # # # # # # # # # # # # # # # # # # # # # # # # # # # # # # # # = = = = = = = = # # # # # # # # # # # # # # # # # # # # # # # # # # # # = = = = = = = + u ; u i v N Q N I Q Q N Q %.#.#.=.=.$.1.$.$.$.$.#.#.$.$.+.5.,.@.3.0.0.9.w.$X$XXXm.3.+.+.| |  ._ @.[ [ _ ' ' ' ' ' ' o._ o. . .X.x.1.j.j.5.@.+.,.;.%.Q Q B | o.' ] ] ] { 8.] { G.{ 8.G.G.Y.Y.Y.Y.H.U.H.G.8.8.8.7.7.q.v.@Xu.o.m.3X#Xm.n.0.<.3.3.3.3.0.<.>.3.<.,.,.2.2.2.,.<.@.B S F F S < p.aX9X0X9X,X2Xm.0.X.| 3.b.c.j.j.j.h.! W W W ! ^ a p p p t p t r p 7 7 p p @ O 7 t t t t r r r r 7 @ @ 7 r t t r p t t t t t r r r 7 7 r r @ O @ p 7 O O @ 7 @ O 7 @ @ @ @ 7 7 7 7 7 7 r r 7 # # r 7 7 7 r r r r r r r ",
"- - - r r r 7 7 r r 7 O X O @ @ @ @ 7 7 7 7 7 7 7 7 7 7 7 7 7 7 r # # # r r r r # # # # # # # # @ @ O O O 7 r @ 7 @ @ @ @ # 7 7 s s s s g H H g H g s s s H H s y y p s s p = o l.2.3.j.B V j.l.3.y.t.7.8.U.&XU.&X&X-X9XvX=X< 2 #.=.$.:.9.9.9.q.9.9.0.3.4.3.3.9.9.9.>.@.w.e.r.r.t.p.K.U.2X4X4X>X8. . . .3.:.| >. .7.8.' ] { F.F.F.F.F.{ F.F.{ G.G.G.G.H.J.I.P.I.L.{ { pXGX&XY.F.] { ' ' o.' _ ' _ _ _ _ _ _ _  ._ _  ._ ) | |  . .) ) y.2X+X}.m.>.3.0.<.1.1.,.3.:.:.X.:.2.$.} $.#.#.} B #.%.=.$.$.$.S.S.B 2 2 * 4 * q o u r 8 r = = = = = = = = = # # # # # # # # # # # # # # # # # # # # # # # # # # # # # # # # # # # # # # # # # # # # # = = # # # # # # # # # # # # # # # # # # # # # # # # # # # # # # # # # # # # # # # # = = = = = = = = # # # # # # # # # # # # # # # # # # # # # # # # # # # # = = = = = = = # # # ; % z N N N I Q Q U Q -.;.=.$.2.2.1.$.$...} $.$.$.$.,.@.>.>.>.9.w. .r.2X>XoX X>.| +.| | ) ) ) ) ) ` ) ) ` ` ` ` ) _ _ _ ' o. .r.w.w.7.' ' @.y.,.V #.B |  ._ _ _ _ _ ' ' ' { 8.{ { G.G.J.H.G.8.8.G.{ ' ' 8.7.7.w.V.1Xi.o.}.5X2XOXOX .w.q.q.q.w.w.9.9.<.@.:.3.2.&.;.&.@.&.Y n ! h.n < a.pX9X0X9X>X5Xe.9.| | c.Z.b.x.4.x.j.N W ~ S *.D C p p p r t r r r r r p p 8 O 8 g r r r r r t r @ r @ @ r t r t t t t r t p t r r r 7 r r 7 O O p r X X @ 7 7 @ 7 7 @ @ @ 7 7 r 7 - - - - - 7 r r r r - - - r r r r r ",
"- - - r r r 7 7 7 7 r 7 @ @ @ @ @ @ # 7 7 7 7 7 7 7 7 7 7 7 7 7 # @ @ @ r r r # # # # # # # # # 7 @ @ @ @ 7 r 7 # @ @ 7 7 @ O X g s s s s g s s g s s p s H H s r y s p @ @ ; z 2.4.v.b.$.V 2.j.c.b.v.9.r.;X>XU.K.K.J.-XvX:X< x %.1.:.>.t.u.u.m.q.9.4.4.4.<.0.n.m.u.q.u.i.r.r.i.a.L.;X&XU.I.&X,X9XpX:Xm.v.,.3.@.7.+X;X,X9X9XT.!.!.!.~.~.-X-X~.*X*X-X-X-X!.!.!.*X-X*X!.W.!.>XwX9X-X-X>X>X>X:XI.P.OXOXOX}.m.m.m.m.u.9.9.X.9.m.m.m.m.9.) 9.:X+XL.n.<.,.>.9.x.j.,.@.:.3.y.5.3.$.$.j.j.;.$.#...#.#.#...} b.Z.b.b.;.v x * & % a p p p = = = = = = = = = = # # # # # # # # # # # # # # # # # # # # # # # # # # # # # # # # # # # # # # # # # # # # = = # # # # # # # # # # # # # # # # # # # # # # # # # # # # # # # # # # # # # # # # = = = = = = = = # # # # # # # # # # # # # # # = # # # # # # # # # # # # = = = = - = = = u ; = + W -.-.Q -.-.%.Q Q Q #.$.=.1.1.:.$.1.3.3.j.3.,.:.>.@.m.@XV.V.m.o.8.>X,XU. Xn.5.3.3.v.v.9.X.@.7.9.0.q.n.m.m.m.OXOXP..X+X.X.X>X>X>X>X-X>X;X#Xu.| | ..:.m.}..X|.OXQ.&X>X;XG.U.*X&X>XwX!.Y.&XwX<X>X=XU.G.8.w.e.n.0.>.|.:XOX8.L.+X|.r.e.i.i.e.e.u.u.n.m.0.>.>.:.,.2.&.@.&.Y v *.h.n . 7.GXwX0X-XG.r.u.w.9.>.3.y.3.0.x.4.j.Q Q S N j.z.c 8 p p t p r p t r 7 r 8 O O r s r r p t t t r t r @ O r t t p t t t r t t r r @ @ O O 7 7 7 t p p r r p t 7 @ @ @ @ @ 7 7 7 7 7 - - - r r 7 7 r r r # - r r r r r r ",
"- - r r r r 7 7 @ 7 r r r 7 7 @ @ @ @ @ 7 7 7 7 7 7 7 7 7 7 7 7 # @ @ @ @ r # @ # # # # # # # # 7 @ # r p r 7 7 @ @ @ @ 7 @ O X s s g g g g g g s s s t t H H p e y p 8 X O u n j.0.n.M.$.V 2.l.3.c.c.9.i.:X>XI.r.8.8.!.bX6X. v =.:.:.>.t.n.n.m.v.9.>.0.9.9.q.m.}.u.w.e.i.i.r.K.L.P.>X>XI.G.;X*XeXbXuX+Xi. .7.7.O.>X9X0XeXsX(.8X0X7X8X8X7X8X8X8XeX8X8X8X8X).0X8X8X8XqXE.F.qXaXeXaXeXaXaXiXuXT.Y.&X+X+X+X+X.X.X|.|.}.r.7.e.#X#X#X#X9.5 @.:X&XK.m.<.,.>.0.b.c.<.@.<.y.v.c.5.2.1.l.l.l.l.2.=.$.%.$.:.X.3.b.Z.S.b.%.v * * o i # # - = = = = = = = = = = = = # # # # # # # # # # # # # # # # # # # # # # # # # # # # # # # # # # # # # # # # # # = = # # # # # # # # # # # # # # # # # # # # # # # # # # # # # # # # # # # # # # # # = # # - - - = # # # # # # # # # # # # # # # = = # # # # # # # # # # # # # # # # = = = = ; = # $ W ~ -.-.-.;.=.%.Q N B %.2.2.$.:...1.j.c.b.v.0.9.9.>.@X3X@X@X@Xo.8.<X-XU.+Xm.b.c.v.m.m.q.>.w.e.i.r.i.OX+X+XW.W.&X,X>X>X*X*XiXaXeXaXiXpXuX,X X_ ) )  .#X:X;X&X=X&X>XaX9XR.~.8X0XeXeXR.E.(.eXqX8X7X!.U.8.r.m.m.9.) |.uXP.` G.;X+X|. X Xi.i.}.n.m.m.}.t.>.>.:.,.2.$.@.@.B v h.h.n . y.vXwX-X=X' @.0.0.t.c.,.$.1.3.x.4.;.N W W Q b.C.c 8 p p p p r t p r r r r O O 8 s t p p r r t t p r @ O 7 t t t t t t t t t r @ O @ O O 7 r r g r p g g s p 7 @ @ @ @ 7 7 r 7 7 7 - r r r r r 7 r r # # - - r r r r r ",
"- - r r r r 7 7 7 @ @ 7 7 r 8 7 O @ @ @ 7 7 7 7 7 7 7 7 7 7 7 7 # # @ # # r # # # # # # # # # # r @ # p s r O 7 7 @ O O @ @ @ @ 7 r s g g H H H s s p r r s H t e r 0 8 7 - u m 3.q.m.m.$.5 2.b.c.b.M.q.r.+X;Xr.e.e.{ &XGX6X. m $.:.X.>.9.q.q.q.0.<.9.q.q.w.w.e.e.}.OXi.r.L.|.L.I.K.&X&XK.K.,X*X7XeX^.8.I.r.i.K.G.wXeX(.0X(.R.).7X(.8X).0X8X8X8X8X8X8X8X8X_._.8X_.(.qX^.R.).(.(.8X(.~.~.~.-X*X,X&X&XU.U..X.X.X.X.X|.|.r.8.K. X.X#X9.6 <.4X;XK.m.<.<.9.q.v.c.y.9.9.y.y.0.c.y.2.1.$.=.2.l.2.=.#.$.:.0.0.3.c.c.j.;.*.v v q a i r u = = = = = = = = = = = = = = = = # # # # # # # # # # # # # # # # # # # # # # # # # # # # # # # # # # # # # # = = # # # # # # # # # # # # # # # # # # # # # # # # # # # # # # # # # # # # # # # # # # - - - # # # # # # # # # # # # # # # # = = = r # # # # # # # # # # # # # # = ; ; = # # = u i n N Q -.=.=.=.%.*.#.#.=.2.2.:.$...:.:.3.b.v.q.q.q.w.m.@Xm.m.m.o.a.wXwX-X:X7.+.c.m.n.q.q.x.n. XL.I.P.W.W.U.J.W.&X&X!.T.Y.Y.*X*X~.*XT.T.oX,X;X Xi.` _ #X:X*X*X*X~.~.0X0XR.(.8X(.tXtX_.`.tXyXtXtXqXR.&X+X+X}.n.7._ +X2X+X8.I.I.L.OX+X}.i.i. Xi.i.m.m.t.9.0.<.<.2.$.@.,.B B j.j.S . @.<X&X=X=X7.y.3.y.t.y.,.&.2.3.4.j.$.x n n Q M.C.Z p p s p p r r t r r g d @ X 8 t r t t 7 7 r r r t r 7 t p r r t t t t t t r @ O 7 r r r r 7 r r p s p 7 @ @ @ @ @ @ 7 7 r 7 7 7 r r r r r r r r r # # # - r r 7 7 7 ",
"# # # # # # 7 7 r @ O @ r t r 7 O @ @ @ # - # # - # # # # # # 7 # # # # r r r # # # # - # # # # 7 @ @ s H 7 X # r @ O O @ 7 7 7 X @ r s g g g g g s p 7 @ p g t y r 0 u r y ; & 3.w.m.@X,.5 ,.x.q.v.m.m.K.U..Xr.w.u.8.!.GX<X. v $.:.:.>.>.>.>.@.>.<.0.q.q.q.e.r.o.#X2XOXr.L.+X|.i.K.oX.XH.G.&X*X~.-XJ.` 8.+X.XU.T.eXeX0X~.~.~.~.7X).7X7X8XeXsX0X8X8XeXeX0X0X0X8X8X7X7X7X-X!.J.R.0X~.J.J.J.!.9XeX*X&X&X.X.X.X.X.X.X|..XL.r.r.r.I.#Xw.3 y.pX,XK.i.<.<.t.u.x.v.t.u.t.t.y.y.v.c.3.:...$.2.l.j.;.$.$.0.t.9.>.<.:.$.l.h.-.~ z a f s u = = = = = = = = = = = = = = = = # # # # # # # # # # # # # # # # # # # # # # # # # # # # # # # # # # # # # # = = # # # # # # # # # # # # # # # # # # # # # # # # # # # # # # # # # # # # # # # # = = = = = = = = # # # # # # # # # # # # # = = = = = = # # # # # # # # # = = # # # % ; ; # u P R z m Q h.;.=.1.$.=.;.=.=.=.2.2.=.....| >.x.m.u.e.u.i.i.u.u.t.w.7.H.pXiXeXuX' ) 3.OXe.O.e.m.XX|..X+X+X+XW.U.H.U.=X+XP.I.8.8.I.U.K.I.8.8.K.;X2X2X$X) ) OX;X*X0X0X0X~.R.0X8X8X8X_.yXtXyXyXyXtXtXyXtXR.-X>X>X.XL.7._ #X>X&X+XU.8.p.$X+XL.i.i.L.i.i.i.i.u.n.v.0.3.3.:.@.@.} ..x.x.D . @.$X&X>X:X7.@.0.t.y.5.6.;.2.2.1.j.=.4 : 4 V M.S.W s d s s s r r t r p H h 7 O @ r r r r O O r r r s t r s s t t t p p t t t r @ O r t t r 7 O O r r s t O X @ @ 7 @ @ 7 7 7 7 7 8 r r r 7 r r r r - - # r 7 7 r r r r ",
"# # # # # # 7 7 r @ @ 7 t p r @ @ @ @ @ # # # # - # # # # - # 7 - # # # - - # # 7 # - # # # # # 7 @ @ s H r X @ r 7 @ @ 7 7 7 7 O 7 t s h g s s g g p @ @ t g y e y p p r r ; 4 M.m.XX@X,.5 3.v.n.q.q.m.L.I.I.e.4.v.{ !.bX=X< v =.>.0.y.>.>.>.@.@.<.0.q.e.e.i.i.r.}.OXL.8.L.+X+Xi.L.U.I.I.K.+X-X-X-X*XH.I.I.K.oX*XeXeX8X~.~.0X~.7X7XaXeX8X8X8X0X8X8X8X8X8X8X0X0X0XeX-X-X>X!.T.*X*X*X!.!.!.!.9X9X*X!.T.U.U..X.X.X+X|.|.P.I.I.K..X#Xr.6 y.pX>XK.i.<.<.9.u.n.M.n.t.w.u.u.y.y.3.,.3.2.:.1.2.2.=.$.1.m.m.>.>.b.0.:.$.%.*.! q % u u # = = = = = = = = ; ; = = = = r r # # # # # # # # # # # # # # # # = = = = = = = = = = = = # # # # # # # # # # = = # # # # # # # # # # # # # # # # = = = = # # = = # # # # # # # # # # # # # # # # = = = = = = = = # # # # # # # # # # # # = = = r = = = = # # # # # # # # = = # = + ; u ; ; ; f b z 4 Q l.j.=.1.=.$.2.;.=.$.2.2.2.:.:.:.>.v.m.n.e.e.m.i.e.u.u.9.7.a.iXeXeXiX7.3 <.i.r.8.m.}.m.I.U..X.X+X+XU.H.U.,X;X|. XL.}.|.|.OXQ.L.r.|.oX;X;X#X` ` OX&X*X0X(.(.0XR.0X8X_._._.yXyXyXtXyXtXyXyX'.(.7X-X,X.X|.7._ .X>X+XJ.U.P.L.#X}.i.i.i.i.i.i.i.i.m.m.u.9.9.0.3.@.,.$.X.x.x.#.<  .a.P.uX:Xo.@.0.q.u.y.6.&.$.1.j.j.=.2 4 Q ,.M.@XW s d g s s t t r t r s d 8 + 8 r r r 7 O O r r r t r 7 r p t p t p p t t t r @ O r t r r r @ @ r r s s @ O 7 @ 7 7 @ 7 7 7 7 7 7 r r r 7 r r r r r # # - - r 7 r r r ",
"# # # # # # 7 7 7 7 7 7 t t 8 @ @ @ @ # - - # # # # # # - - # # # # # # # # # 7 7 7 - # # # 7 # @ 7 7 p H r X # 7 7 7 7 r 7 7 7 r t s g H H g s s s p @ O t g r e y p u r r ; 4 @XXXXXXX@.5 c.Z.}.e.n.m.p.8.r.9.c.b.o.W.bX=X< v =.3.b.b.9.>.9.9.<.<.0.q.e.e.L. X}.r.8.8.8.P.+X+Xp.r.K.K.L.H.+X&X7X9XeXuX>X{ G.-X-XeXtX).(.(.8X8X).qXbXaX8X_.8X8X8X).(.0XqXeX8X).~.7X~.~.*X*X*X0X-X~.W.W.W.!.8XeX~.!.T.T.!.&X+X+X+XP.P.P..X.XU..X+X8.1 y.vX9XK.p.@.,.9.e.n.n.u.w.w.u.u.t.0.>.>.3.3.:...$.$...$.:.@X@X9.9.M.b.3.} $.#.! : i i i ; ; ; ; ; ; ; ; ; ; ; ; ; = = ; = = = # # # # # # # # # # # # = = = = = = = = = = r = = = = # # # # # # # # # = = # # # # # # # # # # # # # # # # = = = = = # = = # # # # # # # # # # # # # # # # = = - - # # = = # # # # # # # # # # # = = = r r = = = = = # # # # # # = = = % % % ; ; ; % % % ; i & Q l.j.=.1.$.$.=.;.=.=.;.2.2.2.2.2.0.v.n.e.r.r.i.i.p.p.u.9.7.8.iXeXeXvXo.` @.p.p.L. X}.}.I.U.|.|..X+XU.U.U.>X.XI.|.L.P.I.P.P.I.p.8.U.oXoX,X+X) _ +X&X*X0X(.0X0X~.0X0X(._._.tXtX[.'.[.[.[.tX'.tXtX-X*XU.P.7._ +X4X+XG..X+Xm.w.p.p.p.p.p.p.i.i.i.i.m.q.9.9.0.0.&.6.$.$.x.x.Q 2 3 ` 8.4X;Xo.t.t.e.e.c.5.%.%.2.3.3.;.2 x l.b.XX@XS p d g s g t t r t r r p r 8 8 r r r 7 O @ r r r r O O r p t t t t t r r t r @ O r r r t t r t r r s h 7 7 r @ 7 7 7 7 7 8 7 7 7 - - - 7 7 r r - - # # - - - - r r r ",
"# - # # # # 7 7 7 7 7 7 8 7 8 7 7 @ # # - - 7 7 7 # # # - # - # r r r r # # # r 7 7 # - # # # 7 @ r 7 p H r X 7 7 7 7 7 7 7 r r p p p s s s s s p s p 7 @ p g r y e 8 0 r u ; 4 Z. XXXXX@.) y.V.t.w.n.m.p.p.i.n.b.v.' !.bX=X< N =.j.M.b.9.@.9.y.9.9.w.e.e.r.r.L.L.p.P.P.p.|.#X+XOXH.U.U.I.K.&X*X0X7X7XeX>XF.J.~.).qXqX_.).).).).`._.yXyXtX8X8X_._.8X_.).8XqXqX8X7X~.~.-X-X*X*X*X0X~.!.!.!.~.0X7X*X!.!.!.!.&XW.U.U.U.+XU.U.+XU.U.+Xr.6 p.GXwXY.8.@.<.t.u.e.q.q.u.u.u.t.t.t.>.@.3.c.4.:.,.1.:.2.0.@X@Xw.7.t.c.3...%.N W q i i i ; ; ; ; ; ; ; ; ; ; ; ; ; ; = ; = = = # # # # # # # # # # # # = = r = r = r = r = r = = = = = # # # # # # # # = = # # # # # # # # # # # # # # # # = = = = = = = = # # # # # # # # # # # # # # # # = = - # # = = = # # # # # # # # # = # = = = r = = = = = = = # = = = = = = = % % ; % % ; ; ; ; ; i & Q z.j.=.1.:.1.$.$.2.2.$.:.2.2.3.3.0.t.u.e.i.i.r.i.i.w.t.t.7.H.iXyXaXbX' 1 <.a.p.}.}.}.|.P.I.|. X|.+XU.Y.U.,X&XU.+XP.P.P.P.H.Q.H.8.U.T.oX,X+X` _ OX&X*X0X(.0X0X7X8X8X8X_._.yX[.yXhXhXhX[.yXyX'.tX).7XT.U.8.o.|.;X+XI.U.+XOXr.r.p.i.i.p.i.i.i.i.i.n.q.9.w.v.c.&.6.=.$.x.x.Q 2 _ p..X4X2X7. .0.w.e.y.,.&.5.2.:.2.2.2 4 2.y.m.@XW a d g s g t y r t t r p p r r 7 r t r @ @ r r t r O O t g p r t t r r r r r @ O r r r r t r r r 7 s g 7 7 r @ @ @ @ 7 r r r 7 - - - - - - r r - - - - - - - - # # # ",
"# - # # 7 7 7 7 @ 7 r 7 7 7 7 7 @ # # # r r - # # # # - - - # # # # # # # # # # # # - # # # - # @ 7 7 r p r r r r r r r 8 r r r s s s t r t s H s s t @ @ r s r e e r p r r ; : ,.9. XXX@.5 <.y.9.9.q.m.L.L.p.$X3Xm.' &XGX6X6 N 2.4.0.<.9.7.m.$Xm.7.w.e.r.L.P.8.] +X;X;X:X+XK.U.U.!.&X*X&X*X*X*X8X8X8XqX*XY.Y.-X(.8XtXtXqX].].].]._.'.'.tXtX8X8X8X_.].qX_._._.qX).).).~.~.0X0X0X0X*X*X-X-X*X*X7X*X*X*X*X!.U.U.W.U.U.U.U.U.U.U..X+Xi.` s.bXqXR.J.w.v.n.q.q.n.t.y.t.v.v.t.t.t.q.w.X.0.M.M.>.0.Z.m. XL.i.m.n.M.l.%.Q n b b i ; ; ; ; ; ; ; ; ; = = = = = = = = = = = = = = = = - = = = = = = = = = = = = = = = = = = = = = = = = = = = = = # # # # # # # # # # 8 8 # # # # # = = = = r r r u = = # # # # # # # # # # # # # # # # # # # # = = = = = = = = = = = = = # # # = = = ; ; = = = = = = = = = = = = = = = = = = ; u u u ; ; i c n ! ;.l.l.....3.:.:.3.:.| y.b.0.9.q.u.n.i.i.i.m.i.e.}.}.e.8.H.aXyXyXbX{ 3 y.OX}.}. X X|.P.P.|. XL.L.K.I.U.Y.T.wX>XI.P.P.I.U.P.8.G.U.&X&X,X+X) | +X&X0X8X0X(.7XqXqXtXtXyXyX[.].xXNXNXNXxXxXfX`._.`._.qXeXI.7.p.r.}..XU.U.&X+X#XP.i.L.i.i.m.i.i.i.i.i.u.q.0.3.0.,.$...j.b.*.< a.bXuXuX4Xo.9.v.w.t.y.,.&.5.;.;.j.-.& 2 | | m.Z.W a h s p t r r t p p p s p r r 7 s s s s 7 X O r r O O t s r t r r r r r r 7 @ @ r r r r r r r r r s s r 7 r 7 7 7 7 7 7 - 7 # 7 7 - - - 7 7 7 # # # # r r - - # # @ ",
"- - - - 7 7 # 7 7 r r 7 @ 7 @ @ @ # # # r r # # # # - - # - 7 7 # # # # # # # # # # @ @ @ # # - @ 7 7 r p r r t r r r r r r t t p p p t t t t t t p r O O r p r r r r u r = ; : 5.0. X X .5 ,.5.y.@.q.m.r.OXP.OX%Xp.] &XGX6X6 Y &.1.0.<.q.7.u.OXm.e.e.i.i.|.W.G.8.W.&X&X;XoXU.T.T.!.!.!.!.*X*XT.)._._.qX-XH.H.-X(.tXtXqX].].rX].].'.'.'.tXyXtXsXtXqX_.].tXtX_._._.).(.).).).7X0X0X0X*X*X0X*X*X7X*X*X*X*X!.U.T.!.U.U.T..X.XU.U..X#Xi.` p.vXqX~.!.r.t.t.q.n.n.t.y.t.v.v.t.v.u.e.q.w.q.m.n.9.q.M.n.}.L.i.m.9.2.#.N n d d d i i ; ; ; ; ; ; ; ; = = = = = = = = = = = = = = = = = - = = = = = = = = = = = = = = = = = = = # = = = = = = = = # # # # # # # # # # 8 8 # # # # # = = = = r r r u = = # # # # # # # # # # # # # # # # r # # = = = = = = = = = = = = = = # # = = = = ; ; = = = = = = = = = = = = = = = = = = ; ; u u u u i i v ! ;.j.l.$.X.>.<.3.0.3.>.>.v.q.w.q.e.u.e.i.e.i.n.n. X Xr.8.Y.aXlXbXvX' 3 3.m.}.}.XX|.P.P.I. X}.P.L.L.I.U.T.&X-X=XI.Q.P.P..X|.K.G.U.&X&X&X+X|  .+X!.7X8X0X(.8XqX8X_.'.tX[.hXjXMXNXMXNXcXjXfX].[.`.].tXeXH.7.p.}. X XU.J.U.&X+XK.r.i.i.i.}.i.L.i.i.i.u.t.0.<.9.>.:.$.2.l.! < { iX9X,X;X8.q.9.n.y.y.,.,.5.=.-.h.! % & :.>.v.A.L p d s t t r t t p p p s r @ r r t r t s r @ r r r O O t s r t r r r r r r 7 @ @ r t r r r r r r r s s r 7 r 7 7 7 7 7 - - # # # 7 - # # # # 7 # # # # r r - r # # @ ",
"- - - - # # # # 7 r r 7 @ @ @ O @ @ # # r r # # 7 7 7 7 # # 7 7 # # # # # # # # # @ @ @ @ @ # # 7 7 7 r p r 7 t t t t r t t t t p t t p s s t r r r 7 O O r t r r r p p r r u i k.3.n.n.| M 2.b.5.<.t.m.L.:X#Xi.r.8.] !.GX6X< B :.,.<.@.w.7.7.w.r.i.m.i.|.+X;XW.W.&X*X&X,X&X&X*X&X&X!.!.!.*X*X~.).8X_.qX-XY.Y.-X(.8X8X_.`.kXKXkX`.tXtXtXtXtX_._._.8X_._.yXbXbX)._.7X).).(.(.(.0X0X~.*X*X*X*X*X*X~.~.*X*X!.!.!.*X&X&X&X;X&X+XU..X+Xe.` I.aXtXqX9Xr.t.q.n.n.n.y.y.t.t.t.t.u.u.n.u.e.e.q.9.9.0.q.q.i.i.i.t.| B M v z i u d f i ; ; ; ; ; ; ; ; ; ; = = = = = = = = = = = = = = = - = = = = = = = = = = = = = = = = = = = = = = = = = = = = - # # # # # # # # # # # # # # # = = = = = u r r r = = # # # # # # # # # # # # # # # = = # # = = = = = = = # # # # # = = = = = = = ; ; ; = = = = = = = = = = = = = = = = = = = ; u u u u u o z ! %.=.j.2.4.>.0.<.>.v.M.c.n.u.t.u.e.e.e.i.r.i. X X}.}.L.8.R.aXaXbXbX{ ) X.w.r.m. X|.P.P.|.#XOXL.p.K.I.&XpX*XT.U.P.P.L.U.I.|.|.I.&X,X&XJ.8.|  .+X!.7X8X0X(.(.8X_._.'.yXhXNXNXCXCXBXCXcXfXzXkXkXhXhXyXeXH.7.OX#X|.r.J.U..X;X+XL.r.L.i.i.i.i.i.i.i.i.u.t.0.>.>.:.2.;.2.j.W < 8.uX,XG.K.#X$Xn.w.7.t.y.$.+.;.j.B N i m M.m.<.6.n u p p r t t s p s p s d r @ r r 7 O @ t t r r p t O O t s r r r t r r 7 r 7 @ 7 r r r r r r r t t s s r 7 7 @ 7 7 7 7 # # # # # # # # # # # # # # # # r r r r - - - ",
"- - - - # # # # r r r 7 @ @ @ O @ @ # # - r # # 7 7 7 7 # # 7 7 # # # # # # # # # @ @ @ @ @ # r 7 r r t p r 7 r s p p t t t t t t r r r t t r r 7 7 @ @ @ r r r r r 0 p r r u i 6.2.e.n.+.M -.5.,.<.q.m.}.;X#XL.7.a.8.!.bX:X< U 2.>.>. .e.e.e.o.e.}.}.i.|.+X+X;X*X&X&X&X&X&X&X&X&X&X&X&X!.&X!.~.0XqX8X7X*XY.H.*X).8XtX_.`.nXKXjX{.[.].tXtX'.'.tX_.tX_._.yXbXlX).qX8X_.).).(.(.(.0X0X~.*X7X7X*X~.*X*X*X~.!.!.!.*X*X&X&X=X&X+XU.U.+Xw.` Q.aXtXeXeXp.q.q.n.n.q.y.y.y.t.t.t.u.u.m.i.m.u.w.w.9.9.9.9.u.i.u.y.} V x n i % u f u u ; ; ; = ; ; ; ; ; = = = = = = = = = = = = = = = = = = = = = = = = = = = = = = = = = = = # = = = = = = = = = - - - # # # # # # # # # # # # # = = u u = r r r r = = # # # # # # # # # # # # # # = = = # = = = = = = = = = # # # # = = = = = = = = ; ; = = = = = = = = = = = = = = = = = = = ; u u u i 0 o b ! D #.2.3.3.9.0.9.<.b.V.M.n.u.u.u.e.e.e.e.i.i. X|.L.P.|.G.R.bXaXaXvX{ ) ..w.r.}. XP.P.|..X+X+XL.K.K.G.T.pX,XY.H.I.P.P.+XK.}.|..X&X:X&XU.8. . .+X!.7X8X8X).).8X_._.tXyXfXNXCXCXCXBXBXcXgXjXkXkXkXlXhXyXH.8.+X;X.XK.U.W.+X+X.XK.r.L.}.L.i.i.i.i.i.r.e.q.0.0.:.,.2.2.2.2.W < 7.pX>X] K.2X2Xm.e.w.t.<.+.2.j.*...N i & b.V.<.5.n u p r r t t s p p p s d r @ r r 7 O @ r t r t p p O X r s r r r r 7 7 7 7 7 7 r r r r t t t t p p g s r 7 7 7 7 7 7 7 # # # # # # # # # # # # # # # # r r r r - - - ",
"- - e e - # # # 7 r r r 7 7 @ O @ @ @ # - r # # - - - 7 # # # # 7 # # # # # # # r # @ @ @ # # r r r r t p 7 O r s s p t t t t t r r 7 @ O @ 7 7 7 7 7 @ 7 r r r r 8 0 p p r p i k.l.x.v.#.m I U +.<.9.m.L.L.r.p.r.+X!.9XGX:X1 B 3.<.9.7.m.OX Xi.i. XL.i.P.I.P.&X*X!.!.*X!.!.&X!.&X*X*X&XT.U.T.!.7XeX8X7X*XY.J.*X(.yXyXyXyX[.].hXNXnX].[.tXtXtXtX'._._.].].).qXlXyXyXtXtXqXqXqX8X8X7X7X7X7X7X7X~.0X*X*X*X*X~.!.&X!.T.T.T.U.U.U.U.+Xr.` P.aXqXeXwXr.e.e.e.q.0.9.y.t.t.u.t.e.u.i.i.m.m.u.q.q.w.>.7.m.u.y.3.B V N W f ; = u u ; ; ; ; ; ; ; ; ; = = = = = = = = = = = = = = = = = = = = = = = = = = = = = = = = = = = = = = = = = = = = = - - - = = # # # # # # # # # # # = = = = = = ; = = = = = # # # # # # # # # # # # # # = = = # = = = = = = = = = = = = = = = = = = = = = = = = = = = = = = = = = = = = = ; ; = = ; ; u u i d i + Z ! *.;.2.3.>.9.0.v.n.y.<.0.u.u.u.e.u.u.i.e.i.r.}.|.L.L.K.G.J.bXbXrXiX' ) j.m.}.}. X|.P.I.P..X.XL.I.P.K.&XiX,XY.I.I.P.+X;XK.r. Xr.K..XU.U.|.X. .+X!.7X8X8X8X8XtXsXtXyXyXmXBXVXCXVXCXCXBXNXcXfXfXyXhXjXlXH.8.U..XoXoX&X&X.XG.8.8.8.r.}.L.i.i.i.i.i.e.w.w.0.v.4.<.<.>.>.2.W . a.vX4X{ 7.7.@.m. X XV.<.| :.j.....S i % b.Z.@.5.n p p r r t r t r 7 7 p s @ X r p r r r t t p t p p O X r s r 7 @ @ @ @ @ r r r r r r r t t t p p p g s r 7 r 7 7 7 7 7 # # # # # - - - # - - # # # # # r r r r r r r ",
"- - r e - # @ # 7 r 7 7 7 7 @ O @ @ # # - r # # - - # # # # # # 7 # # - # # # 7 r # @ @ # # r r r r r t p @ O r s s s p p t t t r r 7 @ O O @ 7 7 7 7 r r r r r t r 0 0 t r r u h.l.x.v.-.m n N } <.9.m.L.K.8.K.a.+X>XwXbX:X3 } 3.9.7.7.}.OXOXL.}. XL.L.I.K.I.+X&X&X*X*X~.~.~.!.&X&X&X!.T.T.!.~.7X7X7X8X*XY.J.*X(.yXyXyXhXhX{.zXNXxXfX[.[.[.tXtX'.'.'.'.].].].lXyXyXyXtXtXtXqXeXqX7X7X7X7X7X7X~.0X~.*X*X-X*X~.!.!.!.T.U.U.U.U.U.#Xr.` I.aXqXeXwXK.i.e.e.q.0.9.y.w.t.u.t.e.u.i.i.u.u.m.n.t.9.>.>.n.y.<.3.B B N W b ; = u = = ; ; = = ; ; ; ; = = = = = = = = = = = = = = = = = = = = = = = = = = = = = = = = = = = = = = = = = = = = = = = = = = # # # # # # # # # # = = = = = = = ; = = = = = # # # # # # # # # # # # # = = = r = = ; = = = = = = = = = = = = = = = = = = = = = = = = = = = = = = = = = ; ; ; ; = ; u ; ; i f d a + b Q ;.2.:.y.0.9.9.n.m.0.>.0.u.u.e.e.e.u.u.e.i.r.}.+XP.K.K.H.J.bXaXqXrX' ) c.}.}.}.}.I.P.I.P.U.U.I.I.U.U.,XiX*XT.U.I.P.+X;XK.8.i.r.K.I.U.+X+XX. .+X!.7X8X8XqX8X8XtXtXyXhXgXCXVXCXVXCXBXBXBXcXfXfX[.[.xXnXH.' U.U.oX,X&X;XW.8.8.G.r.K.L.L.i.i.i.i.i.e.w.9.0.v.3.>.<.<.<.1.N * 9.FX4X' _ _ _ }.|.XXZ.<.3 V $.j.B S i : C.Z.<.5.L u p r r t r r 8 7 @ p p @ X r s r r t r r t r p p @ X r s 7 O O O O @ @ 7 r r r r r r t t t p p p g s r @ r 7 7 7 7 7 # # # # # - - # - - 7 # # # # # r r r r r r r ",
"- - - e 7 # @ @ 7 7 7 7 7 7 @ X @ @ @ # r r # # - - # # 7 7 # # 7 7 # - # # # 7 # # # # # # r r r r r s s @ O r s s g g g p t t r r r r t t r 7 r 7 7 t p t t p s p 0 0 t r r u ~ j.x.x.%.m n N } <.0.m.}.+X+XP.8.+X9X7XiX+X3 +.0.9.7.7.}.}.L.r.L.}.}.L.P.I.P.+XU.&X&X!.!.!.!.!.*X&XT.T.R.T.*X9X-X~.(.eX-XY.J.7X).yXyX[.].hXfXzXNXNXMXnX[.yX[.tX[.yX[.[.yXlXyX`.qX8X_._._.8X8X0X7X0X(.0X7X7X*X~.0X(.*X-X-X*X*X*X*X*X&XT.U.U.U.U.OXr.` I.bXyXeXwXOX}.L.e.q.q.9.9.9.t.u.t.e.u.i.i.p.u.u.u.9.0.v.v.9.>.<.2.B N N ^ b ; = ; = = ; ; ; ; ; ; ; ; ; = = = = = = = = = = = = = = = = = = = = = = = = = = = = = = = = = = = = = = = = = = = = = = = = = = = # # # # # # # # = = = = = = = ; ; = = = = # # # # # # # # # # # # = = = r r = = = = ; = = = = = = = ; ; = ; ; ; ; ; ; = = = ; ; ; ; ; ; ; ; = = = = ; ; ; ; ; ; ; ; ; i f d u o z W Q } | @X@Xq.w.q.q.q.q.n.u.u.u.w.w.e.e.e.u.i.}.+X+XP.W.-X-XiXrXqXwX8.) j.i.i.i.i.K.I.I.P.U.U.U.U.U.J.J.T.!.!.&XI.P.W.+XI. XXX.X+X&X;X,X+X . .&X~.8X8X8XqXqX8XsX'.[.].].NXBXBXCXCXCXBXBXcX{.[.'.'.nXKXQ.{ .X&X&X&X&X&X!.U.U.+X.XL.L.L.i.i.i.i.i.e.w.9.9.3.,.&.,.<.<.:.N * @.FX4X8.K.+X+X.X;Xw.| +.2.2.} ....D % o b.Z.n.A.n p p r r t r r 8 @ @ p s @ X r s 7 7 r @ r t r p p @ O t s 7 O O O O @ 7 7 7 r r r r r p t t p p p s s r @ r 7 7 7 7 7 # # # # 7 7 # # # # 7 7 # # # # r - r r 7 7 7 ",
"- - e e 7 # @ @ 7 7 7 @ 7 7 @ X @ @ # # r - # # # # # # # 7 # # 7 7 - # - # # # # # # # # # # # r r r s s 7 @ t t p s g g g p t O @ r s H H s r r 7 r s s s s s J s r 8 r r r u h.j.w.w.U x v M } <.0.m.L.:X>XH.I.&X9X7X9XW.) $.0.w.w.r.OX|.L.r.L.}. X}.L.I.I.I.U.&X=X&X!.~.*X*X*X&XT.Y.Y.R.7XeX~.R.~.aX9XY.U.7X(.yX[.[.].fXfXzXMXMXNXNXfXhX[.[.[.[.'.[.lXnXkX_._._._._._._.).0X0X(.(.0X*X*X*X*X(.(.7X~.~.~.*X*X*X*X*XT.U.W.W.U.|.r.` Q.bXaXqX9X;X#X|.r.e.u.9.@.9.w.u.u.e.u.i.i.m.r.u.q.>.v.@X@X . .>.2.B V N ^ c ; # ; ; ; ; ; ; ; ; ; ; ; ; ; = = = = = = = = = = = = = = = = = = = = = = = = = = = = = = = = = = = = = = = = = = = = = = = = = = # # # # # # # = = = = = = = = ; = = = = = # # # # # # # # # # # # = = = r = = = = = ; ; = = = = = = = ; ; ; ; ; ; ; ; = = = ; ; ; ; ; ; ; ; = = = = ; ; ; ; ; ; u ; ; i f d u + b I M < | 5X3Xu.w.w.o.w.u.9.e.u.u.w.w.w.e.u.u.i.i.|..XP.;XpXwXwXrXrXwX{ | j.u.r.r.r.r.K.I.P.U.U.I.J.H.U.T.J.T.*X=XU.U.P..X.X.X.XU.+X&X=X>X;X .o.&X~.8X8X8X8XqX8XtX'.'.[.].NXMXBXBXCXVXBXNXcX{.[.`.`.NXKXQ.{ .X,X*XT.*X*X!.*X=X>X;XI.L.L.i.m.i.i.i.u.q.w.>. .$.+.,.<.9.,.S 2 9.FX4X8.K.#X>X;X:X .1 ,.C.l.V } ..S % % b.Z.m.Z.n p p r r t r r 8 O @ p p O X r s @ O @ @ r s t p s @ O p s 7 O O O O @ 7 7 @ 7 r 7 r r p t t t p p s s r @ r 7 7 7 7 7 # # - - 7 7 # # # # 7 7 # # # # - - r r 7 7 7 ",
"- r r r r r r r 7 7 @ @ 7 7 O X @ @ # - # # # # r r r r # # # # 7 # # - # # # # # 7 7 # - - - # 7 r r s g 7 X r p s g g s t p g r r p s s s s 7 r r r r t p t t r r r r r r r ; m 3 m.@X} M N V | 0.q.i.L.:X>XU.H.=X9X*X9X+X) :.v.t.w.r.|.OXP.L.L.L.}. X XP.I.I.I.U.U.U.U.U.J.U.T.T.*XT.*XR.0X7X~.R.0XaX7XF.R.7X_.[.[.hXkXhX[.zXNXMXMXMXfXfXfXfXyXkX[.'.yXhXyX'.'.tXtX_._._.).0X0X0X~.0X0X*X7X7X(.(.7X~.~.*X*X*X-X*X*XT.&XU.J.P.OX7._ P.bXeX).-X+X+X+X|.i.w.u.m.n.q.u.w.u.}.i.}.}.}.@Xn.9.9.0.v.0.0.3.2.$.%.Q N c i ; u ; ; ; % ; ; ; ; ; ; = = = = = = = = = = = = = = = = = = = = = = = = = = = = = = = = = ; = = = = = = = = = = = = = = = = = = = = = = # # # # = = = = = = = = = = = = = = = = = = = = = = = = = = = = = = = = = = = = = = = = = = = = = = = = = = = = = = = = = = = = = = = = = = = = ; ; ; ; ; ; ; i d b u a z x } A.t.7.r.2X$Xi.e.e.n.n.e.m.u.u.u.w.u.e.n.i.i.L.P.H.+XFXvXJ.J.-XwX8.| c.m.P.}.L.I.I.I.I.U.U.W.&X!.!.*X*X*X-X&XU.U.U.U..X.XU.U.!.*X-X-X=Xo.O.>X0X8X8X8X8X8XtXtXyXyX'.].nXMXBXCXBXCXBXNXzX'.[.'.].NXKXQ.' +X&X~.~.~.~.~.~.*X&X&XI.L.L.m.i.i.i.i.u.q.q.0.0.9.>.0.q.q.9.D < 7.FX4Xr.p.7.8.+X2X .5 &.6.#.B B *.N + & 1.q.OXZ.n 0 p 7 t r t t r r 8 r p @ X @ s @ O @ @ 7 t p p p O X p g 7 X X O O O @ 7 7 @ O 7 r r t p p p t p p t r 7 7 r 7 7 7 7 # # # # # # # # # # # # # # # # # 7 7 # r r r ",
"- - - - - - # # 7 7 7 @ 7 7 @ X @ @ @ # # - # # r r r r # # # # 7 # - - # - # # # 7 # # # # - - 7 r r s g 7 X r s s p s g p p p r r p s s s s 7 7 7 7 r r t r r e e 8 r r r r ; * 2 @X2X,.M V M +.y.u.i.I.,X>XU.H.*X9X0X9X&X) :.n.t.w.e.L.|.P.L.L.L.L.L.I.P.I.I.I.P.I.K.J.J.J.J.Y.R.*X0X8X0X8X8X0XR.).yX7XE.R.).`.[.[.kXnXjXfXzXMXMXZXMXgXfXfXfXkXkX[.'.[.[.[.[.'.tX_._._._.).0X0X0X~.0X0X0X0X~.(.(.(.~.~.-X-X*X*X-X*XT.T.H.G.8.p.7._ |.bXqX^.!.;X+XU.|.i.w.m.@XV.e.e.w.i.}.L.|.|.OX$X}.>.X.>.>.m.v.4.:.$.%.Q n b i i i i i : ; ; ; ; ; ; ; = = = = = = = = = = = = = = = = = = = = = = = = = = = = = = = = = ; = = = = = = = = = = = = = = = = = = = = = = # = # = = = = = = = = = = = = = = = = = = = = = = = = = = = = = = = = = = = = = = = = = = = = = = = = = = = = = = = = = = = = = = = = = = = = = ; ; ; ; ; ; ; i f b C T z 2 l.SX%X_ o.4X4XL.r.}.}.i.r.r.7.7.n.m.n.e.e.e.i.r.8.G.&XGXGXF.] ^.uX' ) x.}.|.|.|.P.P.I.U.Y.U.&X-X-X-X-X*X*X7X*XU.U.U.U.U.U.J.J.!.-X-X7X-XO.O.9X8XsXsXsX_._._.tXbXyX`.{.nXNXNXBXBXBXBXBXzX'.[.yXyXNXKXW.{ +X&X!.~.~.~.~.~.*X&X&XI.L.L.i.i.i.m.m.u.q.q.q.v.9.9.q.n.w.w...< 7.GX4XG.8.` ` +X2X .1 V +.#.B D ! S % * |  .u.Z.n 0 p r p t t t t t 8 r r @ O @ s 7 O O X @ t s r p @ O p s 7 X O X X O @ @ @ @ O @ r r p p p p t t t r r 7 7 r @ @ @ @ # # # # @ # # # @ # # # # # # # # # # # @ 7 7 ",
"- - r - - - - r 7 7 7 7 7 7 @ X O @ @ @ # - - r # # # # # # # # # # - - # # # 7 - # 7 - # # # 7 r r r s h 7 X r g p r t g g p t p p s s s g s 7 r 7 r r r r r e @ - 8 r r r r ; & 2 @X2X$.4 V B +.t.n.}.I.,X>XW.H.*XeX7XeX&X_ ,.t.q.w.w.i.L.L.L.i.i.L.L.I.I.I.I.I.I.I.K.I.I.J.U.*X~.0X(.0X(.8X8X(.~.(.yX8XR.~.).`.[.[.hXjXhX[.zXBXZXBXZXcXcXcXcXzXxXfX[.[.[.'.[.'.tXtX'._.sX8X8X8X0X(.0X0X0X7X8X7X7X7X~.*X-X~.~.!.*X*XT.&XU.U.P.OXt._ L.iX).7X-XU..X+X+Xi.w.n.m.m.i.L.i.L.|.|.|.|.OX$X}.7.w.q.0.n.q.3.3.l.l.%.x v i i a i i i ; ; ; ; ; ; ; ; ; = = = = = = = = = = = = = = = = = = = = = = = = = = = = = = = ; = = = = = = = = = = = = = = = = = = = = = = = = = = = = = = = ; = = = = = = = = = = = = = = = = = = = = = = = = = = = = = = = = = = = = = = = = = = = = = = = = = = = = = = = = = = = = = = ; ; ; ; i i i i i f b n v x $.Z.e.' { 4X4X.XK.L.}.}.p.P.#X#Xi.i.n.e.i.i.L.r.P.+X&XwXwX7X^.rXvX8.| c.}.L.L.I.P.U.I.U.U.T.&X*X-X-X*X0X~.7X-X!.!.&X&X&X&X!.~.~.~.-X7X9X8.G.eX8XsXsXsXsX'.'.tXyXyX'.{.[.].NXBXBXBXcXzXfX'.'.`.].NXKXQ.' +X&X&X~.~.~.~.~.~.&X=XU.L.L.i.i.m.u.e.q.w.9.0.9.@.>.y.v.w.4.D < { HXpXJ.&XH.G..X%X@.) +.&.B x Q ! W % 2 v.n.u.A.n u p r p t t t t t p 7 # 7 @ @ r 7 r r 7 r t r 7 r @ O t s @ X O X X @ @ O O O O @ 7 p p p t r r r r r r 7 @ 7 @ @ @ @ @ @ @ @ @ @ @ # # # # # # # - - # # 7 # O @ @ ",
"- - - - - - - r 7 7 7 @ 7 7 @ O O O O @ @ - - - # # # # # # # # # - - - # # # 7 # - # - # # # 7 r r r s H 7 X r s r 7 r p g s t s p s s s s s 7 r r r r r r 7 @ - - r r r y r ; : 2 @X5X5.U U V | n.m.}.I.,X>X!.U.-XeX8XeX=X_ ,.4.9.7.w.i.i.i.i.i.i.L.L.L.I.I.I.I.P.I.I.P.I.U.U.wX7X(.~.(._.sXsX(.(._.yXqX~.(._.'.hX[.[.[.fXfXzXBXZXCXCXMXMXNXNXcXfX[.[.[.'.'.'.'.yXtX'.tXtX8X_.(.).(.(.~.(.0XeXeX8X7X~.*X*X~.T.T.T.T.&X=X+X+X+X#Xm. .p.wX7XaXaXG.Y.U.+Xp.7.7.o.r.}.OXP.I.P.P.I.I.L.OXL.o.w.m.m.q.0.0.c.b.l.%.x z : i i i i : ; ; ; ; ; ; ; ; ; = = = = = = = = = = = = = = = = = = = = = = = = = = = = = = = ; = = ; ; ; ; ; ; = = = = = = = = = = = = = = = = = = = = = = ; ; ; ; ; ; ; ; = = = = = = = = = = = = = = = = = = ; ; ; ; ; ; ; ; ; ; ; ; ; ; ; ; ; ; ; ; ; ; ; ; = = = = = = = = = = = = = = ; ; ; ; i i i u i i a c v M 3 ` ` 8.G.4XuXU.K.I.I.I.K.U.pX4X8.o.i.e.r.i.r.8.+X>XW.F.J.bXHXbXGXK.| v.}.r.8.K.I.U.U.U.,X-X-X*X*X*X*X0X(.0X-X-X>X-X-X9X-X9X7X~.^.).qX9XG.G.eXsX_._._.'.'.'.'.'.'.yX[.{./.nXKXNXNXgX{.'.'.'.E./.KXIX=X' +X&X&X&X~.~.~.~.*X&X=XU.P.L.i.i.m.w.7.7.w.9.>. .@.@.3.c.4.1.B < a.HXbX~.>X4X>X|.u.y.y.<.<.} 4 N z.^ o 2 @X#XV.Z.n u p r p t t t t t r @ @ r r - O 7 p p r p p r O @ X X r s @ X O X O r r O X O @ @ 7 r p p t r r r r r 7 7 7 @ O O @ @ @ @ @ @ @ @ @ @ # # # # # 7 7 # # # 7 - O O @ ",
"- - r - - - # r 7 r 7 7 7 7 # O X X O O @ # - # # @ # - - - # # # # # # # - # # - # # # # - 7 7 r r r g H 7 X r s t r t p s s s s p s s p s p @ 7 7 r r r r r r r r r p y r r r i 2 M.1X#.x N M +.m.m.L.U.*X-X!.&X9XeX8XeX=X_ ,.3.0.>.w.u.m.r.r.i.i.i.L.L.I.I.U.I.I.I.I.|.I.I.U.7X).qXqX_._._._._._._.yXsX(.(._.'.yX[.hXhXfX[.zXBXBXCXCXBXBXBXBXMXcXgXjXfX'.'.'.[.yXtX'.'.tXtXqXqXqX_._.).).8XqX7X7X7X7X7X~.~.!.!.T.T.T.&X+X+XP.i.u. .i.<X^.rX7X&X&XT.&XL.7.u.r.L..X+X+X+XU.U.U.&XU.+XI.r.}.XX}.9.9.3.3.3.;.#.N z : : i ; ; i ; ; ; ; ; ; ; ; ; ; ; = = = = = = = = = = = = = = = = = = = = = = = = = = = = = ; ; ; ; ; ; ; ; ; = = = = = = = = = = = = = = = = = = = = = ; = ; ; ; ; ; ; ; ; = = = = = = = = = = = = = = = = = ; ; ; ; = = ; ; ; ; ; = ; ; ; ; = = = ; ; ; ; ; = = = = = = = = = = = = = ; ; ; ; i i i i i : : n R N 5 | u.8.I.U.>X>XU.U..X.XU.U.W.4X:XP.I.L.r.L.|.I.G.W.>X*X!.^.wX7XiXbX8.| M.}.L.K.I.U.U.U.U.*X,X*X!.*X-X0X0X8X0X~.-X-X*X*X0X7X7X~.~.^.).qX7XG.Y.eXtXtX'.'.'.'.'.'.'.'.tX[.`.{.lXxXnXNXhX[.[.'.'.yX].mXbXU.G.U.+X&X&X~.~.~.~.*X!.&XU.U.}.i.u.e.w.w.w.9.0.0.9.w.9.0.x.x.j.D < Q.bXbXrXwX=X#Xe.w.u.u.y.t.3.N n ~ W o 2 @X#Xy.A.n u p r s t p p t r 8 @ O r s r 7 r t r 7 r s t 7 7 X X t s @ O O X O 7 7 O O @ @ @ @ r p p p p r r 7 7 7 r 7 @ @ @ @ @ @ @ @ @ @ @ @ @ # # # # # # 7 7 7 7 - - O @ @ ",
"@ @ @ @ @ @ @ # 7 r r r 7 7 7 @ O X X O @ # # @ @ @ # # - - # r 7 7 # # - - # # # # # 7 # # 7 # r r r g H @ X r h s t t p p p s s p p s p s t O O @ r r r t p p t t p p y y r r i * x.x.2 o z x +.m.m.L.U.*X-X*X*X9XeX8XeX&X_ 4.c.x.9.w.e.i.r.r.i.i.L.L.I.P.I.I.K.I.I.|..XI.U.U.^.).kXkX_.`.R.R._._.'.yX'.(.`._.'.yXyXhXhXfX[.fXBXBXBXBXCXCXBXBXMXMXMXNXjX[.[.[.[.[.'.'.[.'.tXyXbXlXqXqXqX8XtXqX(.7X7X8X9X*X~.!.T.&X&XY.U.+X+Xr.7.7. .r.>XJ.J.F.iXpX9X>XP.7.i.:XU.I.U.>XwX*X&X*X*X&X&X&X+X#X#XOX .@.>.:.&.%.U v m : : i u u u ; ; ; ; ; ; ; ; ; ; ; = = = = = = = = = = = = = = = = = = = = = = = = = = = = = ; ; = ; ; ; ; ; ; = = = = = = = = = = = = = = = = = = = = ; ; ; ; ; ; ; ; ; ; = = = = = = = = = = = = = = = = = = ; ; ; ; = = ; ; ; ; ; ; ; ; ; ; = = = = ; ; ; ; = = = = = = = = = = = = ; ; ; u u i i i i i : i b W N V v.5X:X=X&X*X*X*X,X&X.X;X-X-X&X&X>X>XI.r.+X;XU.U.&X-X9XbXiX] ] 7XiX' | v.XXI.I.|.U.U.U.U.*X*XT.J.!.~.7XeXsX0X~.~.-X~.~.0X9X~.R.~.(.).qX7XH.J.eXyXyXyX[.`._.'.'.'.'.'.'.`.`.{.{.jXKXxXjXhX'.tXKXnXF.F.Y.G.Y.U.&X;X*X~.*X*X*XT.&XU.P.L.i.e.7.9.w.w.9.9.x.n.t.9.c.x.j.j.*.1 F.mXyXbXiX+XOXw.o.u.}.m.m.v.U I m z * 3 @X#X<.&.n 0 s r s t p p p 7 7 @ O r s r p p s p r r p t s p @ O r p 7 @ 7 @ O @ @ O O 7 7 O O 7 p p t p r r 7 7 r r r @ 7 7 7 7 # @ @ @ @ @ @ # # # - # # # 7 # # # - - @ @ 7 ",
"@ @ @ @ @ @ @ # 7 7 r 7 7 7 7 @ X X X X @ @ @ @ @ @ @ # - # # r 7 7 # # # # 7 # # # # 7 - # # # r 7 r g H @ X r g p t t s s p p s p s s s s t O O @ r r t t p p p p p p y y y r i & j.j.v a c v +.m.i.L.U.*X*X~.!.7XeXqXeX*X_ ,.c.c.0.w.q.e.e.i.i.n.}.}.I.P.I.I.U.U.P..X.X|.U.!.).].nXnX].`.(.`._.tX[.yXtX`._.'.'.yXfXhXhXfX[.fXVXBXCXCXVXVXCXCXZXZXZXNXjX'.[.yX[.[.[.[.'.'.tXyXbXyXqX_.8X_.8X8X).0X7X8X9X-X~.*XT.&X*XU.U..X+Xr.7.>. .i.uX^.!.J.eXuX-X!.I.8.L.#XU.U.!.>X9X*X~.!.!.T.!.&X;X;XI.}.9.<.@.:.,.&.U x m : i f u u u u ; ; ; ; ; ; ; ; ; ; ; ; = = = = = = = = = = = = = = = = = = = = = = = = = = = ; ; ; ; ; ; ; ; ; = = = = = = = = = = = = = = = = = = = = ; ; ; ; = ; ; ; ; ; ; ; = = = = = = = = = = = = = = = = = ; ; ; = = ; ; ; ; = = ; ; ; ; ; = ; ; ; ; ; ; = = = = = = = = = r = = ; u u i u u ; i i i i i z W N 5 9.$X#X>X>X*X*X&X*X&X&X9X-X-XT.T.-X&XU.U.:X>XU.Y.*X-X7XbXiXF.F.wXiX8.| x. XI.|..XU.U.U.T.,X7X!.R.~.-X7XyX8X8X7X7X7X~.0X8XwX*X~.).(.qXyXrXF.J.yXyXyX[.[.[.].[.tX'.'.yXyX'._.'.{.yXnXkXfXhX'.[.KXnXE.E.T.Y.U.U..XoXT.R.oX&X*XT.&XU.P.L.i.u.7.w.q.w.9.9.0.q.9.@.2.j.=.j.-.5 F.lXyXbXvXH.r.e.r.i.|..XXXt.B I n z * 2 XX#Xy.6.b 0 s r s t p s p 7 @ @ O r s r s t p p r r r t s s @ X 7 7 7 r r r 8 @ @ O @ @ @ O O 7 p p r r r 7 7 r r r r @ 7 7 7 7 # # @ @ @ @ @ # # # - # # # # - # # # # @ @ @ ",
"@ @ # # @ @ @ @ @ r r r 7 r 7 @ O X X X O @ @ @ @ @ @ # # - 7 r 7 7 # # # # # # 7 # 7 7 - # - # r 7 r g H @ X r p r 8 t s g g s s p s s s g t O @ 7 r t r r r t s p p t y r t p a 2 } } z P R N @.}.i.8.G.J.R.J.R.7XyXyXaX-X_ ,.:.4.0.9.w.w.w.e.i.L.I.P.U.U.U.I.J.U.I.I.P.I.J.!.lXlXnXnX].[.tXtXtXyXyXyXtX_._.'.'.[.[.hXjX[.].zXLXBXVXVXVXVXCXVXCXZXCXCXzX[.[.[.[.kXkX[.[.[.yXtXtXtX[.tXtX8X_.).(.^.^.).).~.~.~.-X~.*X!.J.G.H.8.7.7.7.OXGXiXiXvX>X&X] ] OX2X$XOX>XwX9X-X~.R.~.~.*X*X&X&X&XU.8.8.%Xm.<.+.&.%.U m m : : i u u u u ; ; ; ; ; ; ; ; ; ; ; ; = = = = = = = = = = = = = = = = = = = = = = = = = = = ; ; ; = = ; ; ; ; = = = = = = = = = = = = = = = = = = = = = ; ; ; ; ; ; ; ; ; ; ; = = = = = = = = = = = = = = = = = ; ; ; ; = ; ; ; ; = = ; ; ; ; ; ; ; ; ; ; ; ; = = = = = = = = = = = ; ; u u u i u ; ; i i i : n W 2 . ) @X+X&X&X,X*XG.G.&X,X,X7X~.R.!.J.J.wXuX>XuX;XU.,X9X-XiXiXwXwXiXvX8.` q.r.I.I.Y.Y.T.*X-X*X7X~.~.^.^.^.~.).8XqXqX7X7X0X0X8X8X8X).^.tXbXbXF.J.yXyXyXhXkXnXnXnXkX[.tX'.tX'.'.tX[.'.'.`.[.].{.].NXnXE.R.Y.Y.U.U.U.K.Y.Y.U.oX*X!.&XU.U.I.H.K.p.r.r.w.w.w.>. . . .$.......;.) !.nXyXyX7X` `  X:X.XK.P..Xe.| N m v x V @X#X9.&.b 8 s r s t p t p @ @ @ O r s r s r @ @ O @ r s r p @ X O @ @ p r p p r 8 # @ O @ X X 7 p p 8 7 r r 7 r t p r @ @ @ @ @ @ @ @ @ @ @ @ @ @ # # # # # # - # # 7 7 X O @ ",
"@ @ @ @ @ @ @ @ # 7 7 7 7 7 7 7 X @ X X O @ @ @ # @ @ @ 7 8 7 7 # # # # # # # # r # @ # # # # @ 7 @ @ s J @ X r p r 8 r p p p p p s s s p s t O @ 7 r 7 r p s t t r r r p p u q x v G ..x R W N  ..XK.8.F.J.~.R.R.0XyXyXaX<X_ :.>.3.9.w.w.w.e.r.L..XY.Y.Y.Y..XU.U.I.H.U.U.J.R.^.lXfXMXcX].[.[.yXtXyXyXyXyX'.`.'.'.[.[.fXfXfX[.jXNXNXLXLXVXLXVXVXCXCXCXCXcX].[.[.[.hXfX[.[.yXyXtXtX'.[.]._.8X_.{./././.`.).(.(.).).^.).^.~.J.Y.H.a.7._ Q.pXpXuX4X=XOX7.7.m.1X%Xi.!.eX7X~.0X~.R.~.~.*X*XoX&XU.r.r.$X}.@.,.+.~ W z 4 z z z i i u u i ; i i i i i ; ; ; ; % ; ; ; = = = = = = = = = = = = = = ; ; ; = = = = = = = = = = = = = = = = = = ; ; ; ; = = = = = ; ; ; = = = = = = = = = = = = = = = = = = = = = = = = = = ; ; ; ; ; ; ; ; = = = = = = = = = = = = = = = = = = = = = = = = = = = = = = = ; ; ; ; ; ; ; ; ; i i i i i i : : m W m   U V.}.:X,X,X,XY.F.!.=X-X-X7XE.^.R.!.wX<X>X4X#X#X2X>X4X4XuX>X4X5XvXw._ w.8.J.R.E.R.R.(.).7X(.).).).).^.).].].tXqXeX(.7X8X8XqX_.].).tXbXlXE.E.yXhX[.fXxXMXMXNXjX[.[.[.yX'.'.[.[.[.'.yX'.[.{.fXnXnX^.R.Y.T.Y.Y.Y.H.H.J.T.oX&X&X;XU.J.T.Y.J.H.G.G.8.G.G.O.o.o.7. .@.4....._ &XbXyXyXqX] ] &X,X*XT.T.&Xr. .5 m L v G 1X;Xw.<.v u a p r s y t r 7 O O @ r p p s r 7 @ @ 7 r p p t @ X O @ 7 s r r r r r 7 @ O @ X O 7 r r 7 7 7 7 7 r p p r 7 # 7 7 7 @ @ # 7 @ @ @ @ 7 7 7 7 r 7 7 @ @ # 7 7 O O O ",
"@ @ @ @ @ @ @ @ # 7 7 7 7 7 7 7 r u r O O O O O O @ O @ @ 8 8 @ 7 r r r r r r r r # # # # # # @ 7 @ @ s H 7 X 7 s t r r t r r p p p s p p s p @ 7 r 7 7 7 p s t y r r p d C C n h.k.j.j.B N N }  .|.|.=X<XuXiX7X~.eXaXyXbX<X` :.X.>.9.w.u.u.n.m.$XpX9X&X&XoX.X.X+X+XW.&X-XeXeXyXlXjXMXMXcXnXyX'.'.`.'.yX[.'.'.'.'.yXyXfXfXfXfXjXgXgXCXLXLXLXVXVXCXCXCXCXcXgXfXfX[.hXjXfX[.yXyXtX`._.{.].0X0XbXnXnXnXkXlXlXkXbXbXbXbXbXlXbXrXwXuXpXOX_ _ 8.{ 8.8.8.a.w.w.7.>. .` G.iXeXwX9X&X-XJ.U.&X;X;X;X+XOXOX+X+Xt.,.4 : i f i z z z z i u u u ; i i i i u ; ; ; ; % ; ; ; ; = = = = = = = = = = = = = ; ; ; = = = = = = = = = = = = = = = = = = ; ; ; ; = = = = ; ; ; ; = ; = = = = = = = = = = = = = = = = = = = = = = = = ; ; ; ; ; ; ; ; = = = = = = = = = = = = = = = = = = = = = = = = = = = = = = = ; ; ; ; ; ; ; ; ; : i i i i i : : N N I ^ Q 2 ) #X&X&X*X&X!.&X+X=XuX9XtXyXeXiX&X+X8.7.o.O.r.O.o.{ ' 8.7.@.9. ._ r.Q.=XwXqXsXsXtXeXeXrXlXkXkXnXbXnXkXlXkXbXbX~.^.).)._.].yXlXlXbXtXR.R.yXkXhXfXzXMXMXMXcXxXkX[.[.[.yX[.yXyX'.'.'.yXNXxX]._.R.T.oXT.oXT.U.U.W.&X*X0X*XJ.+X>X>X-X~.7X9X9X9X9X9X>X:X#X;X+Xt.>.3.j.,.) Q.GXaXyXiXwXuXpXiXeXaXpX>X+XOXy.4 n N } 1X2Xm.b.S u p s s s y s s H s O X r s s s t r r r r p s s s 7 O @ 7 r s s p p p p p r @ O X X 7 p p r p r r r r p p r @ 7 7 7 7 @ @ @ @ # @ # @ 7 @ @ # @ @ @ @ @ 7 @ @ @ @ @ ",
"@ O O @ O @ @ @ # # 7 7 7 7 7 7 r p r O X X X O O O O O @ @ @ @ @ # # # # # # # # @ @ @ # # # @ @ @ @ t g 7 X 7 r 7 7 r t p p s s p p p p s s 7 r r 7 @ @ r p t y r r s h C C Z z.B.z.h...B G | w.XX@X6X<XvXvXuX,XpXaXiXvX<X_ $.:.>.9.w.u.u.n.n.2XpX4X&X=XU.L.#X+X&X!.&X7XeXyXyXlXjXMXMXMXNX[.'.`.{.].yXyX'.'.'.'.yXyXfXfXjXjXjXgXcXLXLXLXVXVXVXVXVXBXCXcXfXfX[.fXfXfXfXyXhXyXtX_._.{.`.(.sXnXnXnXnXnXbXbXbXbXbXnXbXbXbXbXiXrXpXFX@X .7.7.7.w.8.8.O.8.8.o. . ._ U.pXuXpX5X$X2Xm.m.@X$X#XOX+X+X+X+X#Xt.,.x : ; f : : 4 4 i i u u u ; i i i ; ; ; ; ; ; ; ; ; ; ; = = = = = = = = = = = = = ; ; ; = = = = = = = = = = = = = = = = = = ; ; ; ; = = ; ; ; ; ; ; ; ; = = = = = = = = = = = = = = = = = = = = = = = = ; ; ; ; ; ; ; ; = = = = = = = = = = = = = = = = = = = = = = = = = = = = = = = ; ; ; ; ; ; u ; ; : : i i i i : : I I W -.I < | @X#X2X;X&X;X+XOX2XuX9XaXaXpXDXOX%X9.@. . .o.' ' { ' o. .| X.X.X.m.@X:XpXpXiXiXaXiXiXiXbXnXnXnXbXnXbXnXnXbXbX-X^.wXeXeXwXiXbXbXbXeXE.!.yXlXkXfXcXMXMXMXMXnXxX[.yXyXyXyXyXyX'.'.'.yXKXxX{.).R.Y.oXoXT.T.Y.Y.U.&X,X,X,XU..X>X>X-X7X*X9XuXuXpXpXwX:X:X:X$Xn.<.3.l.,.) OXFXGXiXpXvXvXvXvXpXvXpX2X$X$Xy.5 2 2 | @X1XZ.B.R a a d s H s s p h s @ O r s p p r r r t r t p p r @ O 7 r r p p p r r p p r @ O X O 7 p p p p r r r r r r 7 7 # 7 7 7 @ @ @ O @ @ @ @ @ # 7 7 7 @ @ @ @ 7 @ @ @ @ @ ",
"O O O O @ @ @ @ # # # 7 7 7 7 7 @ # @ X X O O O O O O O @ @ @ @ @ @ @ @ # # # # # @ @ @ # # # 7 @ 7 @ 7 p 7 O 7 7 @ @ 7 p s s s r 7 7 r t s s r r 7 @ O @ 7 r 7 r @ @ 8 0 0 0 0 % & * 2 +.c.t.m.w. . .9.[ 7.7.8.8.8.G.8.a.a.@.$.:.@.@.7.7.7.w.9.w.L.8.{ G.a.t.}.K.U.J.Y.J.R.R.).lXjXNXMXMXnX[.'.kXnX[.dXdX`.`.'.'.'.'.[.[.fXfXzXgXgXBXVXLXVXVXVXZXCXZXBXcXfXfX[.[.[.[.[.'.[.[.'.`.].nXlXR.R././.F.J.J.J.J.J.J.J.J.J.F.F.a.{ { r.m.>. .n.OX}.|..X;X.X&X;X+X+X|.r.K.I.p.9.9.:.:...X.X.:. . .e.|.|.OXm.) 3 4 m ; u i i : : : i u u ; ; u i i ; ; ; ; ; ; ; ; ; ; ; = = = = = = = = = = = = = = ; ; = = = = = = = = = = = = = = = = = = ; ; ; ; = = ; ; ; ; ; ; ; ; = = = = = = = = = = = = = = = = = = = = = = = = = = = ; ; ; ; ; = = = = = = = = = = = = = = = = = = = = = = = = = = = = = = = ; ; ; ; ; u u ; ; i i i i i i : : v Q Q -.I 2 V | ) @X+X|. X7. . .w.O.' ' O.x.>.>.@.@.u.i.I.&XW.W.+X#XOXm.b.X.X.4.>.q.i.8.G.8.G.8.8.{ F.F.F.F.Q.H.F.H.F.F.W.H.H.H.J.J.H.J.J.J.J.J.J.J.^.dX[.fXcXMXMXMXMXxXjX[.[.`.`.'.'.'.'.'.'.[.NXnX].qX8X0X*XoX0X9XT.Y.T.T.T.T.J.Y.K.U.U.*XwXT.G.H.G.Y.Y.G.8.r.8.i.y.<.3.3.,.| [ _ ' ' a.[ { { { { { ' [  .7.9.y.l.j.X. .) 2 4 % 8 0 @ @ s t O 7 O O 7 t t t t t r r r r 7 @ @ O @ X X @ @ 7 r 7 @ @ @ @ @ @ O @ O @ 7 r r r r 7 7 r r r r 7 7 @ # 7 r 7 7 # @ O @ @ @ O O @ @ p r @ O O @ @ 7 O O O ",
"O @ @ @ @ @ @ @ @ # # @ 7 7 7 7 # r @ X X @ O X O O O O O O O O @ @ 7 7 r 7 7 7 7 @ @ @ 7 7 7 7 7 7 @ @ 7 @ @ 7 r @ O 7 p s s p @ O @ r r p s p r 7 7 @ 7 7 7 7 @ @ @ @ + + + 8 u % * 2 @.n.r.L.e.| ) | 1 ` ` ` ' ' ' _ _ [ +.:.>. .o.7.o.o.7. . .7.' { 8.8.t.w.a.G.G.G.F.F.E.^.kXlXNXMXMXNX[.{.xXPXlXE.dX`.`.`.`.`.'.[.[.fXfXzXBXBXVXVXLXVXVXCXCXVXBXMXzXgXfXfXfX[.[.[.{.{.{.{./.rXKXbXR.R.E.F.{ ] ] ] { { { { { { { 8.7.8.7. .X.<.X.e.#X+X&X&X,X&X*X-X=X,X&XG.I.L.e.) | M ..=...} B V ) >.m.i.}.t.3 < & f ; u f : : : : i u u ; ; u u i i i i ; ; ; ; ; ; ; ; = = = = = = = = = = = = = = = = = = = = = = = = = = = = = = = = = = ; ; ; ; = = ; ; ; ; ; ; ; ; = = = = = = = = = = = = = = = = = = = = = = = = = = = = ; ; ; ; = = = = = = = = = = = = = = = = = = = = = = = = = = = = = = = ; ; ; ; ; ; ; ; ; i : : : f f i : v U Q k.N * 2 < 3 Z.@XXXXXw.| G 5 5 ` ` | ..X.| @.7.P.U.T.-X*X!.!.&X&X8.r.o.w. .X.>.>. .8.o.' ' ' ' ] ] ] ] { ] { ] ' 8.8.8.G.8.] G.F.F.F.{ F.F.F.F.E.E.[.hXNXMXMXMXcXjXhXyXtX`.`.`.`.`.`.'.{.hXNXcX{.`.).0XT.R.0X0XT.Y.Y.Y.Y.Y.G.Y.G.G.G.=XuXJ.{ 8.] ] ] ] 8.8.8.p.9.y.y.<.@.+.&.5 | ) ) 1 1 1 1 < 1 1 ` )  .w.t.t.n.9.` 1 < 4 + + 8 O @ s r X @ X O r s p r r t r r r r @ O O X O O O @ @ @ r @ @ @ @ O O @ @ r 7 7 r r r r 7 7 r r r r 7 7 @ 7 7 r r r r 7 7 @ @ @ X O O O O r 7 O O O @ @ 7 @ @ O ",
"O O O O O O O O @ @ @ @ # 7 7 7 # # O X O @ O X O O O O O X O O O @ @ @ 7 7 7 7 O O O O @ @ @ @ @ O X O O O @ @ r @ X @ p g s p r 7 r s p r t t p p p p p p p p s p p a h h h T u % v 5 9.OX.X+X+XOXXX . .1X$X+X.X>X>X=X:XOX .4.n.i.|.OXL.r.i.e.}.r.P.>X+X8.p.OX+X+XU.T.!.R.R.^._.].nXMXMXcX[.{.zXNXjX].].`.`.yX[.[.[.[.[.fXjXcXBXBXBXBXCXCXVXVXcXgXgXfXjXzXcXcXcX[.[.yXhXkXjXzXxXmXrX).(.8XrX].rXwXwXwXwX*X*X>X&XU.U.P.}.i.n.w.| 0.9.e.#X&X&X,X>X*X*X*X-X-X!.F.H.I.p.OX@X| ........$...| | @.7.@.<.| B z > u f f : : : : : ; u u ; u u i i i i u ; ; ; ; ; ; ; = = = = = = = = = = = = = = = = = = = = = = = = = = = = = = = = = = ; ; ; ; = = ; ; ; ; ; ; ; ; = = = = = = = = = = = = = = = = = = = = = = = = = = = = = ; = = = = = = = = = = = = = = = = = = = = = = = = = = = = = = = = = ; ; ; ; u ; ; u u i i : : f f i : I U Q *.B x I U V 3.>. .w.X.} Q n %.@Xm.x.x.x.u.P.P.+X&X*X-X-X9X-X!.=XI.P.e.m.q.:.4.w.i.:X+XI.I.4X9X-X-X&XT.U.Y.U.>X>XG.L..XU.wXiXwX7X-X-X-X7X7X7X).)._.[.[.zXMXMXMXzX[.[.'.[.'.'.[.yX[.[.[.`.fXNXcXlXyXtXyX~.R.0X8X0X~.*X*X*X*X*XT.U.+XU.U.&XK.G..X,X,X-X,XW.P.+XOXu.t.i.u.5.&.B #.$.| ) 6X<X<XAX6X5Xa.6 y.%Xi.OX}.}.m.e.0.%.W c 0 u s s s y r 7 r p p p p t r p t r t t r r 7 @ r r 7 r 7 8 p r r r r 7 7 r r r r r r p r r r r r r r r r # O 7 7 7 7 r 7 @ O O @ O X O 7 7 @ O @ @ 7 7 7 7 7 7 7 7 ",
"O O O O O O O O @ @ @ @ # 7 7 7 @ # O X @ 7 @ O X O O O O O O O O O @ @ 7 7 7 @ O O O O @ @ @ @ @ X X O O O O @ 7 O O @ p s s s p t s H s r r r s g h H h h h h T s p h E f.f.f.a z ;.:.m.#X&X&X!.-X;X' o.pXpXiXqXyXlX].rX=X' e..X+X:X>X+X.X|.}. XG.W.pX<X8.r.:X;X>X,X*X-X-X~.(.E.dXnXNXNXNX].{.zXNXnXnXkX`.`.yXyXyX[.[.[.fXcXMXZXZXBXBXVXBXCXBXcXgXfXfXzXMXMXNXMX].[.hXnXNXNXCXPXxX/.(.8X_.lXfXlXkXkXkXlXqXqXrXrX^.!.W.W.8.r.e.@.y.u.OX$X;X:X>XwX9X9XwXwX>X!.H.J.J.U.=X4Xo.) | ) | | | | ) 5 ) ) | +.-.m ; ; ; > : : : : : ; ; u u u u u u i i u u ; ; ; ; ; ; = = = = = = = = = = = = = = = = = = = = = = = = = = = = = = = = = = ; ; ; ; = = = = = = ; ; ; ; = = = = = = = = = = = = = = = = = = = = = = = = = = = = = = = = = = = = = = = = = = = = = = = = = = = = = = = = = = = = = = = ; ; ; ; ; ; u i i : : : i i i i 4 N B %.#.#.%.B B } |  . . .| B B x ,.5X:X X.X.X&X!.~.&X,X>X>X>X2X4X=X$XOXOX X Xe.7.w.8.+XvXrX^.^.lXlXyXqX7X^.^.E.~.GXbXG.J.~.^.nXHXlXtXtXrXyXyXyXyXyXyXtX[.'.kXNXcXMXfX{.].`.`.`.`.[.yX[.yX[.'.fXNXcXzXkXhXlX`.E._._._.0X8X7X).~.7X~.&X;X&XU.K.U.G.&XpXpXiXuX&XU.;X;XL.i.P.L.p.<.;.B G 3 _ vXGXHXKXJXJXs.<  .#X@X|.OX+X+XXXXXb.B.R u p s p p r p p s s p p p p p s t t p p t t p r p p t p t r p p p p p p r p p p p r r r r r r p p p p p r @ O 7 @ # 7 7 7 @ @ O O X X @ p p r X @ r p p t t t r r r ",
"7 7 7 7 r 7 7 7 @ @ @ @ @ 7 7 7 # p - @ @ # @ O X O O O O O @ @ @ @ 7 r r r r r 7 @ @ @ 7 r r r r O @ 7 7 @ 7 7 r 7 @ 7 r r r p @ @ p h s r r p p s h h h s g h H r 7 r J g.H a b x j.q.OX;X&XJ.!.!.&XO.' +X!.rXlXlXkXrX].=Xo.O.|..X,X,XU.K..XI..X&X-X9X-XG.8.P.I.=X0X(.~.7X7X7X_.`.lXgXNXNX].{.zXNXkX[.yX`.`.yXyX[.[.hXjXcXMXZXBXBXBXBXCXBXCXBXgXfXfXfXfXzXzXMXMXgXfXjXjXzXzXcXBXcX/._._.`.hXhXjXfXfXfXfXhXyX].].R.^.wXuXI.8.7.7.7.7.a.a.a.I.H.r.H.U.P.I.H.Q.=X-X-XwX*X-XG.' OXOXV.y.q.m.t.:.,.:.:.#.%.z i f f > : : : : : : : u u u u u i i i ; ; ; ; ; ; ; ; = = = = = = = = = = = = = = = = = = = = = = = = = = = = = = = = = = ; ; ; ; = = = = = ; ; ; ; = = = = = = = = = = = = = = = = = = = = = = = = = = = = = = = = = = = = = = = = = = = = = = = = = = = = = = = = = = = = = = = = ; ; ; ; ; ; u i i : : : i z z i 4 U N Q Q #.#.$.A.v.w.n.q.>.0.2.&.4 @.4X-XT.*X*XR.~.wXW.8.r.r.i.i.r.r.a.7.7.#X:XL.7.7.' U.bXlX].tXhXhXyXhXtX].qX).qXqXeXE.E.^./.lXnXfX[.hXhXfX[.[.tXyXyXyX[.'.[.fXcXNXjX{.fXjXxXkXkX[.[.[.hX[.{.fXNXcXzXjX[.yX`._._.`._.qXqXqX8X).~.*X,XoXU.U.G.I.Y.&XiX9X-XwX!.&XoX;XP.K.U..Xi.>.;.V ,.p.a.<X-XvXbX=X+Xa.9.t.m. XOXP.H.P.|.XXc.h.W h h s r s p p s 7 @ s H s p s s t r r t t t p 7 r r r p p r p r r r r r p r r r r r r r r r r r r r p p r # O 7 7 7 r r r r 7 # @ O X @ r r @ X @ r r r r t p r r r ",
"p p p s s p p p @ @ @ O O @ 7 r r p p p p r @ O O X X 7 r r r r p r 7 r p s p r p p p p s s s p t @ @ 7 r r r r p r g r X O 7 t X O r h s r t h g h h h H h h H T r @ e J g t a l V M.}.$X>X+XG.J.=X+Xo.' ' ` mXxXnXnXmX<X=X_ w.P.U.,X,XU.U..XU.&XuX9X9X*XF.] G.8.,XwX0X(.7XeX8X_.`./.E.NXKX[.{.zXKXlX{._._.`.yXhX[.[.nXNXNXMXZXZXZXZXCXBXCXCXCXgXgXfXfXfXfXgXMXcXgXfXfXfXgXgXgXLXzXdX`.dXdXkXjXjXfX[.[.[.kXhXtXtX^.~.bXGXU.K.' ' ` _ _ ` ` ` ` ) `  .@._ 1 V.FXvXbXiX7X*XJ.G.<XvX6X%X2X5X1X9.0.3.,.=.Q m i f : > > 4 > : : : : ; ; u u u u u u i i i u ; ; ; ; = = = = = = = = = = = = = = = = = = = = = = = = = = = = = = = = ; ; ; ; ; = = = ; ; ; ; ; ; = = = = = = = = = = = = = = = = = = = = = = = = = = = = = = = = = = ; ; ; ; ; ; ; ; = = = = = = = = = = = = = = = = = = = = = ; ; ; ; ; ; ; i i : : : i f f z > : 4 I Q Q N #.2.v.1X$X#X$X%X@X@XZ.y.3 a.eX8XsX0X0X0XiXbXL.`  .` ` ) ` ` ) ` _ 2XpXr._ 7.' !.nXkXkXkXhXhXkXkXkXlXyXlXyXqX7XF.J.-X^.kXxXjXfXjXxXjX[.[.[.[.yXhX[.'.[.{.xXPXnX{.fXKXKXNXKX].{.fXxX[.`.hXNXMXfXjX[.[.yXyX'.`._.yXyXyXtX).0X0X*XT.T.U.G.U.] !.bXeX*X*X!.&X&X&XI.G.oX,X Xw.j.3 9.vX<X/.^.7X7XF.] L.%XV.w.r.P.L.8.H.+X#Xx.j.d.E T s r p y s s O O h J s t p g p t t t t t t r r t t t t r r r r r r r r r r r r r r r r r r r 7 r r r p 7 7 @ # 7 r r p p p p - @ X X r p 7 X @ r r p p p r r r r ",
"r r r r r r r r @ @ @ O @ @ 7 r r r r r r 7 @ @ @ X O @ @ 7 r r r r 7 r r p p r r r r r p p p r t 7 @ 7 r r r r p 7 s t @ 7 7 7 @ 7 t s p r r s p s p p s s p h T r O e k k p c V | m. X+X+XW.I.Q.=X+XOXW.=X/.mXxXxXnXxXmX4X_ q.I.U.-X-XU.U.U.U.U.-X*X~.~.*X&X8.8.+X*X~.).7X8X0X(.`.tX].kXxX[.{.hXxXlXtXtX`.'.lXyX[.[.kXzXMXZXZXZXZXZXZXBXBXMXMXgXgXfXfXfXfXfXMXcXgXfXjXfXfXgXcXBXgXdX_.lXhXjXhXhXjXfX[.hXkXyX[.[.`.).aXaXY.O..X+XJ.H.H.I.s.p.y.@.@.>.@.:...b.%X;XuX9X!.!.!.J.<X4XW.7.p.OX}.n.n.,.$.&.Q v i i i : 4 4 4 : : : : ; ; u u u u u u i i u u ; ; ; ; ; = = = = = = = = = = = = = = = = = = = = = = = = = = = = = = = ; ; ; ; ; = = = ; ; ; ; ; ; = = = = = = = = = = = = = = = = = = = = = = = = = = = = = = = = = = = = = = = = = = = = = = = = = = = = = = = = = = = = = = = ; ; ; ; ; ; ; i i : : : i f f > > : 4 n N I N #.:.q.#X;X+X+Xr.7.y.V.9.1 w.wX0X0X0X0X7X&X;Xu.| >.q.w.8.8.L.r.p.K.+X=X=X%Xp.` W.kXjXhXhXjXjXjXjXhXyXyXlXyXqXeXY.Y.7X].xXnXfXfXfXfXfXfX[.[.[.hXhX[.'.[.[.jXxXhX{.fXNXMXBXNXgXjXjXkX[.`.[.xXzXxXxX{.'.'.yX'.'._._.8XqX8X_.).0X0XT.U.U.G.U.~.*XeX7X!.!.T.T.&X&XI.G.oX,X|.w.1.< a.bXmX].qX(.7XJ.8.p.V.m.i.|.+XW.8.r.|.XX3.j.W C h p t s y s s O O h J s p s s p r r t r r r r r r r r r r r r r r r r r r r r r r r r r r r r 7 r r r r @ @ # 7 7 r r r r r r # # @ O r p @ X @ r r r p r r r r r ",
"r r r r r r r r 7 @ @ @ @ 7 7 r r r r r r 7 7 7 7 @ @ O O @ r r r r 7 7 r r r r r r r r r r r 7 r 7 7 r r 8 r r r @ r r 7 7 O X r p p t r r r r r r r r t r r s T r O e y y p c j.4.XX XL.K.8.H.U.&X;XuXrXnXnXxXzXxXnXnXnXvX_ w.I.J.=X-XU.U.U.I.+X*X*X~.7XaXiXG.r.8.{ J.^.~.(.)._.sXbXkX`.{.`.'.].].yXkXyX`.'.kXkXhX[.fXgXcXZXZXBXZXMXMXCXBXgXgXcXMXcXfXzXfXfXMXcXfXfXjXjXfXgXcXCXcXdX_.nXnXjXjXjXkXkXhXkXkXhX[.yXtXyXeXaXJ.] 4XHXvXiXiXaXiXpX4Xo. .| | ..2.$.| w.#X|.G.G.!.*XwXpXU.` ` 1  .2X@XX.#.%.Q v z z i : 4 4 4 4 : : i : ; u u u u u u u u i u ; ; ; ; ; ; ; = = = = = = = = = = = = = = = = = = = = = = = = = = = = = ; ; ; ; ; = = = ; ; ; ; ; ; ; ; = = = = = = = = = = = = = = = = = = = = = = = = = = = = = = = = = = = = = = = = = = = = = = = = = = = = = = = = = = = = = ; ; ; ; ; ; ; : f : : : i : > > > : 4 4 4 n U #.| o.|..X;X:X_ 1 7.@X<.2 y.uX0X*X,X4XuXO._  .X.e.2X;X&X>XpXiXiXiX~.^.rXJX:X_ H.lXfXyXlXnXxXfX[.[.yXhXkXyX).8XY.Y.iXmXxXnXfXfXfX[.jXxXkXfX[.fXhXfXfXhXfX].[.'.'.[.zXcXBXBXMXNXcXxXhX'.[.{.[.nXnX[.[.'.'.'.'._.(.(.8X_._.).8X8XR.U.U.G.&XiX0X(.R.R.T.J.T.&X&XI.8.&X,X.Xn.2.6 s.NXxXnXHX*X!.U.L.a.9.t.}.+X;X+Xr.7.7.e.,.l.b p a p p s y s h O O h J g s g s t r r r r r r r r r r r r r r r r r r r r r r r r r r r r r r r 7 r 7 r r O O @ 7 7 7 7 7 7 7 r @ r - @ p s @ X O 7 r r r r r r r r ",
"r r r r r r r r r 7 @ @ 7 7 7 7 - # # # 7 7 r r 7 7 7 O X @ t r r r r r r r r r r r r r r r r 7 r r 7 r r 7 8 r r 7 p r r 7 X X r p p r 7 r p r r r r r t r t s T r O - y y p c j.>. X X}.L.p.P.U.&X&XwXrXkXxXjXxXxXxXnXKXvX` 7.I.H.=X=XU.H.I.I.+X&X~.~.~.eXiXG.8.8.H.^.).).8X8X8X8XyXkX'.{.'.'.'.{.yXkXyX`.'.hXhXfXfXjXgXcXZXZXZXZXZXMXBXZXgXgXzXcXzXfXzXjXzXMXcXfXfXjXzXfXfXzXMXjXdX`.NXxXfXjXhXhXhXhXhXkXyX[.[.tXyXqXiXH.` wXnXyXrXeXeXeX9X*XG.8.w.q.3.j.$.} 3.M.n.i.K.;X&X9XiXU.{ 7.) 9.$XZ.| } #.Q v z z : : 4 4 4 : : i i : ; u u u u u u u i i i ; ; ; ; ; ; ; ; = = = = = = = = = = = = = = = = = = = = = = = = = = = = = ; ; ; ; = = = ; ; ; ; ; ; ; ; = = = = = = = = = = = = = = = = = = = = = = = = = = = = ; ; ; ; = = = = = = = = = = = = = = = = = = = = = = = = = = = = ; ; ; ; ; ; ; ; : : : : i i : > > > : 4 : 4 n Q #.| o..X.X.X+X' ` 9.V.@.V y.4X,X.X#X#X1Xe. .4.4.e.#X&X*X~.7X-X7XeX).dXrXGX:X_ W.lXfXhXlXxXjXfX[.hXhXkXjXhX].7XF.J.aXlXxXxXjXjXhX[.hXxXxXjXfXfXhXfXfXhXhXfXhX[.[.[.cXMXBXBXMXMXzXjX[.[.'.[.[.xXkX[.[.'.'.'._.8X(.).8X_.(._.8X8XR.Y.H.G.*XaX).~.R.R.T.J.!.!.!.I.a.&X>X.Xn.5.< { NXxXmXbX!.U.U.P.a.@.u.+X&X;X+XL.r.w.t.,.l.b p a p p s p g h O @ h H s s g s t r r r r r r r r r r r r r r r r r r r r r r r r r r r r r r r 7 r r r r O X @ 7 7 7 7 7 7 7 - @ r r 7 p s @ X O 7 r r r r r r r r ",
"7 r r r r r r r r 7 @ @ 7 r 7 @ # # r r 7 7 7 7 @ r r O X @ p r r r r r 7 7 r r r r r r r r r r r r r r r 7 8 r r t s p r 7 O O r p t r r p p r r p r r p p p h H r O - y y u c j.>.m. X X|.}.|.#X;X,XwXqXkXxXkXxXnXnXnXKXvX` w.I.H.=X=XU.J.P.I.+X&X!.~.~.-X>XG.8.;X-X~.(.qXyXyX8X(.`._.].`.kXnXyX[.yXhX[.{.`.[.[.jXjXfXfXcXBXBXBXBXBXZXZXMXMXMXzXzXfXfXzXgXzXcXzXfXfXjXzXzXzXjXgX].dX`.nXcXfXjX[.[.].[.[.yXtX].[.tXtXqXiXF.] <XnXtX_.).).0X~.T.oXoX;X;Xm.y.&.%.B } | | _ .XoX9XpX&Xr.V.1Xy.1 ) } B #.Q v z z : : > > > : : i i : ; u u u u u u u u u i ; ; ; ; ; ; ; ; ; = = = = = = = = = = = = = = = = = = = = = = = = = = = = = ; ; ; = = = = = ; ; ; ; ; ; = = = = = = = = = = = = = = = = = = = = = = = = = = = ; ; ; ; ; = = = = = = = = = = = = = = = = = = = = = = = = = = = ; ; ; ; ; ; ; ; ; : : : : : : : : : : 4 4 m 4 m Y B X.n.2X2Xr.7.r.m.v.m.3.M @.+XK. . .| | m.n.M.n.e.O.G.=X&X-X*X7XeXyXyXlXbX&X] J.hXfXkXxXfXhX[.[.kXxXjXhXhXyXyXE.E.rX].zXnXxXxXjXfXfXjXgXfXjXjXfXfXgXfXhXjXxXhX[.fXNXBXBXBXgXgX{.{.[.yXyX[.[.].`.`.'.yXyX`.^.(.(.(.sXsX8X0X8X8XR.U.U.G.,XaX8X(.~.!.&X&X!.!.!.I.r.&X>X.Xm.c.< { KXlXF.F.U.U.|.OXp.7.p.&X&X&X+X#X%XOXV.5.k.n p p p p s p H h @ @ j H p t s s t r r r r r r r r r r r r r r r r r r r r r r r r r r r r r r r 7 r r r p O X @ # 7 7 7 7 7 7 # @ r r @ p s @ X @ 7 r r r r r r r r ",
"7 r r r r r r r r 7 @ @ 7 7 7 # # r r r r 7 7 7 @ 7 7 O X 7 p r r r r r r r r r r r r r r r r r r r r r r r r r t p s r r 7 X @ r r t r r t r r r p r r p p p h H p O @ y p u m h.:.m.n.}. XL.L..X.X&XwX].kXkXkXkXnXnXnXKXAX` t.L.U.*X*XJ.J.I.I.+X,X~.~.*X7X-XG.r.+X&X~._._.tXtX(.8X8X(._.{.hXHXyX'.[.jXhX].].'.[.kXhXfXfXzXMXMXMXMXBXCXZXZXBXMXcXfXfXzXzXzXzXzXzXfXfXjXzXzXzXjXfX].(._.nXcXjXjX[.].[.[.[.[.yXyXtXtXtXyXiXF.{ <XnXyX]._.).).~.*XT.oX;X;Xi.9.<.+.%.+.|  .o.;X>X>X4X#Xm.y.Z.b.3 | } U Q U v z z : > > > > > i i i u ; u u u u u u u u i u u ; ; ; ; ; ; ; ; ; ; ; = = = = = = = = = = = = = = = = = = = = = = = = = = ; ; ; = = = = = ; ; ; ; ; ; = = = = = = = = = = = = = = = = = = = = = = = = = = = ; ; ; ; ; ; ; ; ; ; ; ; ; = = = = = = = = = = = = = = = = = = = ; ; ; ; ; ; ; ; ; : : i : > > : : : : 4 z z : n Q B } 3.@X@Xw.7.w.n.y.c.2.} >.+XI. .....} w.}.n.m.i.o.8.;X;X&X&X-X7XtXtXqXbX:X' J.lXfXkXkXhXhX[.[.kXxXjXjXhXhXaXE.J.lXlXzXxXxXxXjXhXhXjXzXjXjXfXfXzXcXjXjXzXxXjX].gXNXBXBXBXcXjXfX].[.kXyXyXyX'.'.'.'.'.'.]._.(.(._.sXsX_.0X7X8XR.U.U.G.,XaX8X(.~.&X&X&XT.!.!.P.p.&X>X.X}.y.6 a.KXxXF.J.U..X|.}.u.7.I.&XoX&X+XOX@X}.V.3.6.n u p p p s p H h @ @ h H t r p s t r r r r r r r r r r r r r r r r r r r r r r r r r r r r r r r 7 r r p p @ O @ # 7 7 r r r r r @ # # @ p s @ X @ r r r r r r r r r ",
"7 r r r r r r 7 r 7 @ @ @ 7 7 7 # # # r r 7 7 7 7 @ @ O O @ t r r r 7 8 r r r r r r r r r t r r r r r r r r r r t r 7 @ r r X O r r r r r r r r r t r r p t t s H p @ @ p u u z N B c.q.n. X X.X+X!.^.qX].kXkXhX[.kXnXxXnXAX` 7.I.U.,X,XU.Y.I.I..X&X~.~.~.7X>XG.8.P.!.eXbXtX`.(.(.8XtXyXtX`.'.'.[.`.fXNXnXhXhX[.[.[.[.fXfXfXfXfXgXzXCXVXCXZXCXCXcXfXfXzXzXcXcXMXcXgXfXjXzXzXzXhXhX].(.`.cXcXjXhX[.[.hXkXyXyXyXyXtXtXtXqXwX{ ' wXnXyX_.).7X*X!.&XG.L.#X#Xm.w.e.7.<.@.w.#X#X+X|.o._ _ @.| ) 3.M.j.} U U I z z f > > > > > > i i i u ; u u u u u u u u u u u u ; ; ; ; ; ; ; ; ; ; = = = = = = = = = = = = = = = = = = = = = = = = = ; ; ; ; = = = = ; ; ; ; = = = = = = = = = = = = = = = = = = = = = = = = = = = = = = ; ; ; ; u ; ; ; ; ; ; ; ; = = = = = = = = = = = = = = = = = = ; ; ; ; ; ; ; ; ; ; ; : i : > > : : : : 4 f : : I %.#.B } &.+.,.<.| | } ..} V  .+X}.X.=.&.@.r.I.r.i.}.r.p.}. XL.K.H.Y.~.).).<X}._ +XnXhXtX].kXkXhX].hXxXjXjXfXhXyXF.J.nXxXzXjXzXzXjXjXjXcXcXzXfXfXfXMXNXxXjXcXcXfX].gXBXBXCXBXBXBXNXNXxXfX[.'.'.yXyXyX[.'.{.kXnXyX`.'.'._.dX(.7X7XR.U.U.8.>XaX_.~.~.&X&X&XoX~.T.P.K.&X,XT.P.y.1 a.HXnX^.=XU..X XL.a.{ H.&XoX;X.X X}.r.i.9.5.v u p p p p t H g O @ h H t r p s t r r r r r r r r r r r r r r r r r r r r r r r r r r r r r r r 7 r r p p O X @ # 7 7 7 7 7 7 r @ r # @ p s @ O @ 7 r r r r r r r r ",
"r r r r r r r r 7 7 @ @ @ 7 7 r # @ # # 7 7 r r r @ @ O O @ r t r 7 7 7 r r r r r r r r t t r r r r r r r r r r p 7 O O s g O X 7 r r r r 8 r p r t r r p t r s H p @ # s u i z x B b.n.i.r.L.P.U.W.^.rX].kXkXyX].jXnXxXnXAX[ 7.I.U.,X*XU.U.I.I..X&X*X*X~.-X>XG.8.+X*XrXbXtX(.(.(.(.sXyX`.`.[.[.[.{.fXKXnXjXkX[.[.[.[.fXfXfXfXjXfXzXBXCXVXCXZXBXcXzXzXfXzXcXzXMXcXgXfXzXzXfXjXhXhX].`._.nXzXhXkX[.[.hXkXhX[.yXyXyXtXtX8XeXH.] uXGXtX8X7X7X-X!.+XH.r.%X%Xi.7.r.u.a.@.7.2X2XI.OX .| | X.:.| $.C.b.B Y U I m : f > > > > > > > i i ; ; ; u u u u u u u u u i u ; ; ; ; ; ; ; ; ; ; = = = = = = = = = = = = = = = = = = = = = = = = ; ; ; ; = = = = ; ; ; ; = = = = = = = = = = = = = = = = = = = = = = = = = = = = = = = ; ; ; u u ; ; ; ; ; ; ; ; = = = = = = = = = = = = = = = = = = ; ; ; ; ; ; ; : ; ; ; : i i > > : : : : : i f : N U B B B Q %.&.:.| ..| G } | w.#X|. .$.,.<.r.K.L.i.u.m.m.r.L..XP.U.Y.*X^.^.>X X_ OXnXlX].].kXxXhX].kXxXjXjXfXhXbXF.F.nXnXzXjXjXjXjXfXzXMXcXgXfXfXfXMXCXcXzXcXMXfX{.fXNXBXBXBXVXBXNXBXzX].[.[.'.yXyX[.yX'.{.kXKXyXdX'.'._.~.~.0X7XR.J.U.8.>XaX_.R.~.&XoX&X&X~.!.P.L.*X0XT.U.y.< a.HXnX^.=X+XL.I.}.r.7.I.&XoX&X.X|. Xi.n.q.5.n p p s s p r g s O @ h H p r p s r r r r r r r r r r r r r r r r r r r r r r r r r r r r r r r r 7 r r p p O X @ # 7 7 7 7 7 # - @ r r @ p s @ O @ 7 r r r r r r r r ",
"r r r r 7 r r r r 7 O X @ 7 @ 7 # # # 7 7 7 - # 7 @ 7 @ X @ p 7 O O @ 7 r r r r r r r 7 7 7 r r r r r r r r r r r 7 r 7 7 7 O X r r r p r r r r r p r r p r r s J - O 8 a i i z l.b.e.r. X|.|.|.I.G.J.rXtXkXkXhX].kXxXxXnXrX` 7.I.U.*X-XU.I.I.I..X*X!.*X~.*X,Xr.7.&X7X(.).).(._.tXtX_.`._.`.[.yX[.[.fXnXkX[.yXyXyX[.[.[.fXfXjXfXfXgXVXCXCXCXgXgXfXzXzXgXzXzXjXzXzXNXMXgXgXfXfXkXNXhXdX[.cXxX[.yX[.[.hXkXhXhXhX[.tX[.tXqXeXF.] >XbXtX(.(.0X*X&X&XU.U.G.8.|.OXi.9.9.7.8.4X:X7.@.<.c.1.} } #.Q B V N N I I m 4 f : : : : : : > i i ; ; ; ; u u u u u u u u u u u u u u u u ; ; u ; = = = = = = = = = = = = = = = = = = = = = = = = = = = = = = = = = = = = = = = = = = ; ; ; ; = = = = = = = = = = = = = = = = = = ; ; ; ; ; u u u u u ; u ; ; % % ; ; ; ; ; ; % = = = = = = = = = = ; ; ; ; u u u ; ; : : ; ; : : i i : : 4 4 4 > f : N B B #.U v B ......} V.$X#X$XOX' 8.5X2X) ) a.L.m.u.n.m.P.W.W.U.&X+XT.&X!.U.W.L. .W.bXjXhXkXkXxXkXjXxXxXzXzXjXlXbXF.F.HXnXzXfXjXfXjXfXzXMXMXgXgXcXMXBXBXMXNXMXBXzX{.[.].gXBXBXBXCXBXBXzX{.[.'.[.yX[.[.[.'.`.kXNX[.`.'.'._.8X8X8X0XR.U.J.8.=XaX_.R.T.&X&X!.T.J.U.I.I.,X9X~.!.u.1 a.HXnX^.-X&X:XL.r.p.a.p.U.U.&X&X+X|.r.n.x.j.Z u p p r s p s p 7 @ g h 7 O @ @ @ r t r r t 8 r r r r r r r r r r r r r r 8 8 8 7 7 r r r r 7 7 r p r p r O O @ @ 7 7 # # # # @ r @ # 7 r s @ X @ r r r r r r r r r ",
"r r r r 7 7 r r r 7 O X @ 7 @ 7 # # # 7 # 7 - - 7 @ 7 @ X @ p 7 O @ @ 7 r r r r r r r r r r r r r r r r r r r r r 7 r 7 7 7 O X r r r r r r r r r p r r p r r s J - X 8 a i i x l.v.i.L.|.|.|.OXL.G.J.rXyXkXkX[.].kXxXxXnXrX_ r.I.J.*X-XU.I.I.I.T.*X*X~.~.*X;X8.' =X9X).).(.(.).yXtX_.`.`._.[.[.[.[.fXkXhX[.[.[.[.[.[.[.].fXjXjXgXgXVXCXCXBXgXgXfXfXzXzXzXzXfXfXzXBXMXgXgXfX[.jXNXjX{.].nXxXfX[.yX[.yXkXkXkXhX].].[.tXqXeXF.] -XbXqX(.0X-X*X&XT.T.U.K.G.P.OXL.9.y.7.8.>X:X8.9.,.M.j.} } U N D Q N N I I m : f : : : : : : : 4 : : : : ; u u u u u u u u u u u u u u u u ; ; ; u = = = = = = = = = = = = = = = = = = = = = = = = = = = = = = = = = = = = = = = = = = = ; ; ; = = = = = = = = = = = = = = = = = = ; ; ; ; ; ; u u u u ; u ; ; ; ; ; ; ; ; ; ; ; = = = = = = = = = = ; ; ; ; u u u ; ; : : ; ; : : i i : : 4 4 4 > f : N B B U B D F B ....| @X2X:X2X+X` ' FXFX) 3 a.i.m.m.M.n.I.!.!.U.&X.XT.!.!.W.U.G._ +XbXjXjXjXkXxXxXjXzXxXzXzXjXlXbXF.F.HXnXzXzXjXfXjXfXzXMXMXzXzXMXMXMXZXZXBXZXCXzX{.[.].gXNXBXBXCXBXBXjX{.'.[.'.{.'.'.'.'.{.kXnX].{.'.'._.qX8X8X0XR.J.J.8.=XaX_.R.T.oX*X!.!.J.W.P.I.,X9X~.~.OX1 s.HXbX^.wX>X>X+Xp.r.e.r.L.P.+X+X+XP.e.n.j.l.n u p p t s p s p 7 O g h 7 @ @ @ @ 7 r r r r 8 r r r r r r r r r r r r r r 8 8 8 8 7 r r 7 8 7 r r p p s p O O @ @ 7 7 # # # # @ r @ # 7 r s @ X @ r r r r r r r r r ",
"7 7 r r 7 7 r r r 7 O X @ 7 @ 7 - # - # # @ - - 7 @ 7 @ X @ p 7 O @ @ 7 7 7 7 7 7 7 7 r r r r r r r r r r r r r r 7 r 7 7 7 O X r r r r r r r r r p r r p r r s J - X 8 a a i z b.b.n.r.r.K.P.OX|.8.U.iXyXkXkX[.[.kXxXxXnX<X_ e.I.Y.*X-XU.I.I.I.U.*X*X~.~.*X;X7.' =XeX0X).(.(.)._._.tXtX_.`.yXyX[.fX[.[.fXxXkX[.].nXnXfXfXjXfXcXNXBXVXCXCXCXMXNXzXfXfXjXfXjXzXzXcXBXCXMXcXjXfXzXNXzX{.[.NXcXjXkX[.].yXhXhXhXhXhXhX[.yXqXeX*X*X9XaX8X(.7X-X*X,X&X&XU.U.I..X#X|.w.y.@.8.<X>XI.p.>.4.| } ..%.Q S S N N I I m : : : > : : : : : : : : : : : u u u u u u u u u u u u u u u u u ; u u = = = = = = = = = = = = = = = = = = = = = = = = = = = = = = = = = = = = = = = = = = ; ; ; ; = = = = = = = = = = = = = = = = = = ; ; ; ; ; ; u u u u i u u u ; ; ; ; ; ; ; ; % = = = = = = = = = = ; ; ; ; u u u u ; : ; ; > : : i i : : : 4 4 i f & v U } +.=.l.l.=.=.} | t.OXa.O.+XuXuXwX#X) @.e.i.m.m.m.i.I.!.!.U.&X&X!.!.!.*XwX+Xo.U.yX[.jXjX].fXjXxXxXxXzXzXjXlXbXF.F.HXnXzXzXjXfXfXfXzXMXMXzXzXMXBXBXBXBXBXZXBXMXcXxX].gXNXBXCXCXBXCXcXfXzXzXjXjXkX[.[.[.[.xXNXxXxXlX[._.8X8X).0XT.T.J.8.-XaX_.R.*X*X*X!.!.T.W.W.I.*X9X~.-XOX1 s.HXbX).-XY.G.L.i.r.i.i.i.L.P.I.+XP.e.t.| V b p p s p s p t t 7 O g h 7 @ @ @ @ 7 r r r r r r r r r r r r r r r r r r r r r r r r r 7 7 8 7 7 r s s h p O O @ @ 7 7 # # # # @ r @ # 7 r s @ X @ r r r r r r r r r ",
"7 r r r r r r r r 7 O X @ 7 @ 7 - - - # # # - # 7 @ 7 O X @ p 7 O O @ @ 7 7 7 7 7 7 7 7 r r r r r r r r r r r r r 7 r 7 r r O X r r 7 r r r r r r p r r p r r s J r O 8 p a i z C.b.m.L.r.K.|.+XOX8.U.iXyXkXkXyX[.lXxXxXnXAX_ w.I.Y.*X-XU.I.I.I.U.&X*X~.~.~.;X8.' >XiX8X).).(.7XR.`.yXyXsX_.yXyX[.fX[.{.[.NXnX{.{.NXKXfXfXfXgXcXVXVXVXCXCXCXCXVXgXgXfXfXjXfXfXgXcXZXBXBXNXzXgXxXNXzX{.].MXMXxXxX[.[.hXhXfXfXjXxXkXyXyXqXeXwXwXwXeX).~.-X*X,X,X,X&XU.U.+X+X+X|.7.0. .8.uX>XW.OX7.| | | :.;.;.D N N I I I m : : : > : : : : : : > : : : : u u u u u u u u u u u u u u u u u u u u = = = = = = = = = = = = = = = = = = = = = = = = = = = = = = = = = = = = = = = = ; ; ; ; ; ; ; ; = = = = = = = = = = = = = = = = = = ; ; ; ; ; ; u u i i u u u u ; ; ; ; ; ; % = ; = = = ; ; = = = ; ; ; ; u u ; u ; : ; ; > : : i i : : i 4 4 z z & m Q +.$.3.Z.C.$.$.|  .7.p.' ` H.GXGX-X+X| 3 r.K.L.n.m.L.U.oX!.U.&X&X&X!.~.9XaX&X' U.yX[.jXjX{.].jXxXxXxXzXzXjXlXbXF.F.HXnXzXzXfXfXjXfXzXMXMXgXzXNXBXBXBXCXBXBXZXBXBXNX{.].NXBXBXCXBXBXMXcXMXcXMXcXxX[.[.[.[.xXNXNXNXkX].tXtXtX(.~.~.!.H.{ -XaX_.~.*X*X*X!.!.!.!.W.U.*X9X*X>X%X` H.nXkX].^.] ] 8.L.r.i.}.}.i.L.8.I.p.t.y.3 2 c p p s p s t t t 7 O g h 7 O @ @ @ @ 7 p p r r r r r r r r r r r r r r r r r r r r r r 8 7 r r @ r h h s p O O @ @ 7 7 # # # # # r @ # 7 r s @ X @ r r r r r r r r r ",
"7 7 r r r r r r r 7 O X @ 7 7 r 7 7 7 # - - # # 7 @ 7 @ X # p 7 O O @ @ 7 7 7 7 7 7 7 r r r 7 7 r r r r r r r r r 7 r 7 7 7 O X r 7 7 7 r r r r r r r r p r r s J r O 8 p p u z Q $.m.|..X.XI.L.|.8.U.vXrXyXlXhXyXlXkXxXNXAX` 9.I.J.*X-XU.I.I.I.U.&X!.*X~.~.&X8.' >XeX8X(.(.(.7XtX_._.sX8X'.yX[.fX[.[.fXfXNXNXgXgXNXNXzXgXzXNXBXVXVXVXVXCXCXCXCXMXMXcXjXzXzXzXMXMXBXBXZXMXgX].zXNXzX].[.MXMXzXxXjXfXjXjXjXjXjXjXhXkXhXtXbXR.F.>XeX7X~.~.!.!.&X&XoXU.oX+X+X+X|.7.9. .8.uX<XW.OXw.9.0.0.,.$.#.*...B N I I m 4 4 : > > : : : : : > : : : : u u u u u u u u u u u u u u u u u u u u ; = ; = = = = = = = = = = = = = = = = = = = = = = = = = = = = = = = = = = = = = ; ; ; ; ; ; ; ; = = = = = = = = = = = = = = = = = = ; ; = ; ; ; i i i i u u u u ; ; ; ; ; % ; = ; = ; ; ; ; ; = = ; ; ; ; ; ; ; u ; : ; ; > : : i i : : i i 4 z c i n U } | >.@XA.| | 9.e.r.}.a._ H.4XwXwX<X) 5 i..X XL.L.P..X.XU.U..XoX!.T.~.9XaX!.' W.yXhXkXhXhXhXxXxXxXxXzXxXjXhXlXF.F.nXcXgXfXjXjXjXfXzXMXMXzXzXMXMXMXMXBXZXZXZXZXBXcX{.].xXcXNXCXBXCXMXMXMXMXMXMXMXzXzX[.[.xXNXMXNXxX{._._.8X(.0X!.!.J.8.-XyX_.R.*X*X&X!.!.&X&XU.J.*X0X*X>XOX` a.nXxX].).*X*XU.I.}.e.n.XXn.}.p.i.p.y.m.@.=.b u p p t s t s p 7 @ g h @ O O O O O 7 s s r r r r r r r r r r r r r r r r r r 8 r r r r r r t p t t r p p O O @ # 7 7 # # # @ # r @ # 7 r s @ X @ r r r r r r r r r ",
"r 7 r r 7 r r r r 7 O X @ 7 7 r 7 7 7 # - - - # 7 @ 7 @ X # p 7 O O @ @ 7 7 7 7 7 7 r r r r r r r r r r r r r r r 7 r 7 7 7 O X r 7 @ # 7 r r r r r r r p r p s J r O 8 p p p a 4 3 u.OX.X+XL.r.i.8.U.vXrXyXyXhXhXkXjXxXKXAX` 9.L.U.*X-XU.I.I.I..X&X&X*X~.~.&X8.' >XeX).).).(.7XaXtX`.`._.'.yXyXhX[.hXxXxXNXNXgXgXMXNXgXgXcXVXVXVXVXVXVXCXCXCXCXCXCXcXgXgXgXgXBXCXCXCXZXMXgXgXzXNXzX].hXNXMXzXzXxXjXzXzXxXzXfXfXfXkXkXlXbXE.] -XiXqX~.!.U.U.U.U.U.U..X&X+X+XP.r.9. .8.uXwXW.P.i.m.m.m.>.| V } D D N I I m z z : > > : : : : : > : > : : i u u u u u u u u u u u u u u u u u u u ; = = ; = = = = = = = = = = = = = = = = = = = = = = = = = = = = = = = = = = = = ; ; ; ; ; ; ; ; = = = = = = = = = = = = = = = = = = = ; = = ; ; ; ; u u u u u u u ; ; ; ; ; ; ; ; = ; ; ; ; ; ; = ; ; ; ; ; ; ; ; ; : ; ; > : : i i : : i i : z z z n U } |  .@XV. . .q. XL.}.p.L.K.H.R.aXiX5 } }..X.XK.I.W.oX.XU.U..XU.T.R.R.7XaX&X' W.yXyXjXhXxXxXxXxXxXxXzXxXjXjXlXF.F.nXcXgXzXjXjXjXfXzXMXMXcXcXMXMXcXcXZXZXZXZXBXBXcX{.].fXgXMXBXBXCXZXBXZXMXMXMXMXMXMXgX{.cXNXNXKXnX]._.`.(.(.7X~.!.J.8.*XyX).~.*X*X*X!.!.&X&XU.J.~.0X~.>X+X` F.nXxX{.).bXGX;XI.|.}.n.}.m.m.m.m.m.y.v.c.C.n u p p t s k s p 7 @ j h @ O O O O X 7 h s r r r r r r r r r r r r r r r r r r 7 r r r 8 7 r p E p @ O r s O X @ # 7 7 # # # @ # r @ # 7 r s @ X @ r r r r r r r r r ",
"r r r r 7 r r r r 7 O X @ 7 # 7 7 7 # - - - @ # 7 @ 7 @ X @ p 7 O O O O @ @ @ @ @ @ 7 7 r r r r r r r r r r r r r 7 r 7 7 7 O X r 7 @ @ 7 r r r r r r r p p r s T 8 O 9 t t r u n V m.+X.X+XI.r.r.r.U.iXqXtXyXyXhXhXjXkXKXAX` 9.L.J.*X-XU.I.I.I.U.&X&X!.~.7X-X8.{ :XeX).).0X0X7XsX8X`.`._._.yXyX[.[.[.fXgXBXMXgXgXBXBXcXcXBXVXLXVXVXVXVXVXVXCXZXCXCXMXMXMXMXMXBXBXMXMXMXBXgXgXzXNXfX{.[.NXMXzXjXzXzXzXjXzXzXfXfXfXhXkXlXaXE.{ -XeX7X~.!.T.U.T..XU..X.X.X+X+X.XP.q. .8.uXwXU.U.+XOX}.e.w.>.>.1.=.U N I I m z z : > > > > : : : > > > > : i i u u u u u u u u u u u u u u u u u u u u ; ; ; ; % % = = = = = = = = ; ; ; ; ; ; ; ; = = = = = = = = = = = = = = = = ; ; ; ; ; ; ; ; = = = = = = = = = = = = = = = = = = = = ; ; ; ; ; ; ; ; u u u u u u u ; ; ; ; ; ; ; ; ; ; ; ; ; ; ; ; u u u u u ; ; : : ; ; : : i i : : 4 4 4 z i z n Q $. .7.@Xn.9.7.i.}. XL.|.OXL.!.~.tXwX) }  X.X.XP.J.W..X.XU.W..XU.!.~.~.7XaX&X' U.yXhXkXxXxXxXxXxXxXxXzXxXjXjXlXF.F.nXMXcXcXzXjXjXjXzXMXMXzXzXzXcXcXgXMXBXZXCXCXVXNXgXjXgXgXMXCXBXBXZXCXZXZXZXZXBXMXMXcXgXzXzXzXkXjX].tXtX8X(.~.*X-XU.{ -XyX_.~.*X&X&X!.*X&X&XU.J.~.7X).wX+X` Q.HXnX].qXeXiX&XH.P. X Xm.m.u.m.t.u.9.<.y.C.n u s p t s t k t 7 @ g h @ O O @ @ X 7 H g 7 r r r r r r r r r r r r 8 r r r r 7 r r r 7 7 r r H r @ O p s @ X @ @ 7 7 - r # @ # r @ # 7 r s @ X @ r r r r r r r r r ",
"r r r r 7 r r r r 7 O X @ 7 # 7 7 7 # - - - @ @ 7 @ 7 @ X @ p 7 X X X O O O O X O O @ @ 7 r r r r r r r r r r r r 7 r 7 7 7 O X r 7 @ @ 7 r r r r r r r p p r s T 8 O 8 t r r ; m 5 n. XI..XK.r.r.L.U.wX).].yXyXhXhXhXkXKXAX` w.L.I.*X-XU.I.I.I.U.*X&X!.~.eXwX8.' =X7X(.).).(.0X)._._._.tX_.'.[.[.[.[.{.gXCXBXMXMXMXBXVXLXLXLXLXLXLXLXLXVXVXVXCXCXCXCXBXCXCXZXCXZXgXgXMXBXgXgXzXNXjX{.[.NXMXzXjXjXzXzXjXzXxXjXfXfXhXhXlXbXE.] >XeX7X~.!.!.&X&X&XU.&X.XU.+X+X+X+Xu.o.' uXiXR.J.&X:XL.o.w.OX@XZ.Z.B N U I m m z : > > > > : : : > > > i : i i u u u u u u u u u u u u u u u u u u u u u ; ; ; % % = = = = = = = = ; ; ; ; ; ; ; ; = = = = = = = = = = = = = = = = ; ; ; ; ; ; ; ; = = = = = = = = = = = = = = = = = = = = ; ; ; ; ; ; ; ; ; ; u u u u u ; ; ; ; ; ; ; ; ; ; ; ; ; ; ; ; u u u u u u ; : : ; ; : : i i : : 4 4 4 i i z N Q $. .7.OXOXOXi.|.}.|.L.|.+X+X*X0XtXrX@.G  X.X.XU.W.J.U..XU.W.U.U.!.~.^.7XaX*X' U.yXhXkXxXxXxXxXxXxXxXzXxXjXjXlXF.F.HXNXMXMXcXzXzXzXcXNXMXgXgXgXgXgXgXMXCXCXVXVXVXLXVXNXgXgXMXCXCXVXCXVXBXBXBXBXBXMXMXCXBXgX{.].{.[.lXyXyXaXR.R.7XeXU.{ >XaX8X~.*X*XT.!.&X&X&XT.J.~.).).iX:X` Q.HXnXbXlX).^.~.J.G.K.}.m.m.m.m. .@. .@.t.C.n u s p t s t t t @ O g h 7 O O @ @ O 7 H g @ 7 r r r r r r r r r r r 8 r r r r r r r 7 @ @ 7 r 7 7 r r s s @ @ @ # 7 7 - - - @ # r @ # 7 r p @ X @ r r r r r r r r r ",
"7 r 7 r r r r 7 r 7 O X # 7 @ O @ @ # # r r @ @ 7 @ 7 O X 7 p @ X X X X O O O O O @ @ 7 7 r r r r r r r r r r r r 7 7 r r 7 O X r 7 7 7 7 r r r r r r r p r r s H 7 O 8 p t r u n 5 m.@X|.|.I.8.i.8.W.eX).].yXyXhXhXhXjXKXmX` w.L.I.&X!.U.U.U.U.U.&X&X!.~.eX<X8.' =X7X(.`.).0X0X)._.tXyX_._.'.'.[.'.[.hXjXcXMXMXMXMXZXBXLXLXLXPXLXLXPXLXLXLXVXCXCXCXCXCXCXCXZXZXZXgXgXZXBXcXcXzXcXfX{.[.NXNXjXzXzXjXjXzXjXjXjXhXhXjXlXlXbXF.] -XaX7X).~.T.&X&X&X+X.XU.U.+X+XOX|.u.o.{ wXeX!.U.=X:Xp.' p.$X@X0.l.#.Q I I 4 m 4 f f f > > > > i f : : : : u u u u u u u u u u u u u u u u u u u u u u ; ; ; ; ; ; = = = = = = = = = = = = = = = = = = = = = = = = = = = = = = = = ; ; ; ; ; ; ; = ; = = = = ; = = = = = = = = = ; ; ; ; ; = = = ; ; ; ; ; % ; ; u ; u u u ; ; u ; ; ; = = = ; ; ; ; ; u u i i u u u ; ; ; ; ; : f i i : : 4 4 4 i a i W %.+.| >.m.}.p.OXp.8.|. X|.+XU.,X0XtXeX@.| L..X.XU.W.^.&X.XU.W.U.U.T.~.~.7XaX&XO.W.lXhXxXxXxXxXxXxXxXxXzXzXjXkXlXF.F.HXNXMXMXcXzXzXzXcXMXcXcXcXcXcXcXMXMXCXCXVXLXVXVXVXNXgXgXMXCXCXCXCXVXCXBXBXMXMXMXMXZXBXgXgXfXjXhXyXyX'.tX~.~.7XwXU.] >XaX8X~.*X&X*X!.!.*X&XU.J.7X^.).rX;X` a.pXwXbXlX].).^.!.J.U.L.L.m.}.e.w.9.9.t.t.b.n p d r s t s s t O @ g h 7 O @ @ O @ r p 8 @ @ 7 r r r r r t p r 8 8 r r r r r r 7 7 7 O 7 p 7 r 7 7 7 s s @ O # # 7 7 7 7 7 # # r r # 7 r 7 @ X @ r r r r r r r r r ",
"7 7 7 r r r r 7 7 7 O X # 7 @ O @ @ # # r r @ @ 7 @ 7 O X 7 p @ X X X X O O O O @ @ @ 7 7 7 r r r r r r r r r r r 7 7 r r 7 O X r 7 7 7 r r r r r r r r p r r s T 7 O 8 g s y f n V V.@X+X.XL.8.r.8.H.-X_.tX[.hXlXhXhXkXNXmX_ 7.}.L.U.J.J.I.I.U.U.U.oX!.~.eXwXG.' ;X7X(.`.(.0X0X).8XyXlXtX'.'.'.'.'.hXNXzX/./.BXMXMXZXVXLXPXPXPXPXPXPXPXPXLXVXVXVXVXVXVXVXCXZXZXCXBXBXCXVXVXBXcX{.{.`.yXNXNXzXjXzXjXjXzXkXkXkXjXjXkXkXlXbXF.] ,XeXqXeX9XT.U.U.&XU.U.U.W.+XOXP.p.u._ 8.pXwX~.!.+X;Xi.' 8.#Xu.) 3 V B N Q 4 m 4 : i > > > > f i f : : : : u u u u u u u u u u u u u u u u u u u u u u ; ; ; ; ; ; = = = = = = = = = = = = = = = = = = = = = = = = = = = = = = ; ; ; ; ; ; ; ; ; ; ; ; = = ; ; = = = = = = = = = ; ; ; ; ; = = ; ; ; ; ; ; ; ; ; u ; u u u ; ; ; ; ; ; = = = ; ; ; ; ; u u i i i i u ; ; : ; ; : f i i : : 4 4 4 i f i N %.$.$.@.u.i.r.p.` ` r.+X XO.G.&X*XtXeX_ | }..X.XU.-XvXuXU.U.U.U.U.!.~.~.7XwXU.' W.bXhXxXxXxXxXxXzXxXxXzXzXjXjXlXF.J.HXNXMXMXcXzXzXzXfXgXgXVXVXVXVXVXCXVXLXLXLXLXVXVXLXVXBXBXBXCXCXCXVXCXBXCXMXgXgXMXBXCXCXMXcXNXNXnXyX'.dX(.eXaX*XT.J.8.-XaX8X~.*X*X*X!.&XT.&X&XY.J.E.^.vX;Xo.o.' ] bXnXlXbXR.F.W.>X+XL.L.r.m.i.m.1X%Xu.b.N p d r p r t t t @ 9 h h @ X e @ O O O @ O O O r r r r r r 8 7 r r 8 r r r r r r 7 8 7 @ r s s r 7 7 7 p s @ O # # 7 7 7 7 # # # r r # 7 r 7 @ X @ r r r r r r r r r ",
"7 r r r r r r 7 7 7 O X @ 7 @ O @ @ @ - r r - @ 7 7 7 O X 7 p @ X X X O O O X X @ @ @ @ 7 7 7 7 r r r r r r r r r 7 7 r r 7 O X 7 7 7 r r r r r r r r r p r r s J 8 O 8 g g s f z 5 M.@X#X#Xi.7.r.K.U.wXqX[.[.hXyXhXhXjXKXmX_ e.m.L.H.H.J.P.I.U.U.U.U.!.~.9X9X8.O.,X7X_._._.0X0X(.8XyXyXtX'.'.'.'.'.hXNXxXgXgXMXBXZXBXVXPXPXPXPXPXPXPXPXPXPXLXLXVXVXLXVXVXCXCXCXCXCXCXCXCXVXCXcXgX].{.].NXNXcXzXzXzXzXjXkXkXjXjXjXkXkXlXbXF.] >XaXqXeX7X!.T.&X&X&X+XW.W.W.W.I.L.t._ 8.<XwX-X-X&X$Xr._ r.$Xm.) | #.Q Q Q 4 m 4 : i > > > > > : f : : : : u u u u u u u u u u u u u u u u u u u u i u u u ; ; ; ; = = = = = = = = = = = = = = = = = = = = = = = = = = = = ; ; ; ; ; ; ; ; ; ; ; ; ; ; ; ; ; ; ; ; = = = = = = = ; ; ; ; ; ; ; ; ; ; ; ; ; ; ; ; u u u u i u ; u u = = ; ; u u ; ; ; ; u i i i i i u ; : : ; ; : f i i > : 4 4 4 > f : N #.%.$.+.y.r.|.:X7.` m.$X XI.&X,X,XeXwX_  .m.|.I.H.-XrX>X&X!.!.W.T.!.-X7X~.>XU.8.W.lXhXxXxXxXxXxXxXxXxXzXxXzXkXbXE.W.HXNXMXMXcXzXjXzXfXfXzXVXVXVXVXVXVXVXVXLXLXLXLXVXLXVXVXCXCXCXCXVXVXCXCXVXMXgXgXMXBXBXBXMXMXcXnXxXyX[.`.~.eXiX!.T.H.8.*XaX8XR.*XoX&X!.!.,X&X&XT.T.!.^.rX+Xo.e.O.8.FXmXlXlX^.^.!.-X!.U.K.L. Xr.r.$X%Xu.V.N u s r p r t t t O 9 g j @ X @ @ @ @ O X X O O 7 7 7 7 7 r r r r r r r r 8 7 r r r 8 7 O 7 r r r 7 r 7 p s @ O @ @ 7 7 # # # # @ # # # 7 7 7 @ X @ r r r r r r r r r ",
"7 r r r r r r 7 7 7 O X @ 7 @ O @ @ @ - r r # # 7 7 7 @ X 7 p @ X X O O O X X X @ @ @ @ 7 7 7 7 r r r r r r r r r 7 7 r r 7 O X O @ # 7 r r r r r r r r p p p s J 7 O 8 g g p d n M 0.e. XOX}.}.}.8.W.vXrXyXyXkXlXkXhXjXKXvX` q.n.r.H.J.U.U.I.U.U.U.U.T.~.7X>X8.O.,XqXtXtX8X0X0X8X8XtX'.`.`.'.'.'.{.].NXNXNXBXVXVXVXVXLXLXPXPXPXIXIXIXIXIXPXPXPXPXLXLXLXVXVXCXCXVXCXCXVXVXCXVXBXNXkXdX].NXBXcXcXzXzXzXjXkXkXjXjXjXjXjXlXbXF.] >XaX).~.R.T.&X&XU.+XU.U.U.U.I.I.P.i. .7.=X=XW.U.+X2Xu.` u.2Xm.3 V l.k.%.Q 4 z 4 z : > > > > > : > : : : : u u u u u u u u u u u u u u u u u u u u i i u u u ; ; ; ; ; ; ; ; ; ; ; = = = = = = = = = = = = = = = = = = = = ; ; u u ; ; ; ; ; ; ; ; ; ; ; ; ; ; ; ; = = = = = = = ; ; ; ; ; ; ; ; ; ; ; ; ; ; ; ; u ; ; u u u u u u u u u u u u u u ; u u i i i i i ; ; ; ; ; ; : : i i > > : 4 4 > : : N Q U #.$.b.m.5X5Xr.` @X5X2X2X2X>X>X7X>X' _ e.i.K.G.J.!.!.*X*X-X-XT.R.7XwX!.J.G.7.Q.lXfXxXxXxXxXxXxXxXxXzXzXjXlXlXE.J.nXcXcXMXcXzXfXzXfX].gXVXVXVXVXLXLXLXLXLXLXLXLXLXVXVXVXVXVXVXVXVXVXCXCXBXBXZXBXCXBXCXVXMXcXgX].].[.tX`.).~.~.T.!.J.{ -XaX_.R.oXT.&X!.!.Y.G.T.-X&XJ.^.vX:X .w.w. .8.] rXbXbXvX7X~.&X&X+Xr.r.}.}.r.r.r.t.N 0 s r s t t s t O O p j r O O O 7 r @ O O O O r 7 7 7 7 r t p r r r r r 7 7 8 r r 7 @ O O @ @ 7 7 r 7 p s @ O @ @ 7 7 - # # # @ # # # 7 7 7 @ X @ r r r r r r r r r ",
"7 r r r r r r 7 7 7 O X @ 7 O O @ @ @ - r r # # 7 7 7 @ X 7 p @ X X O O O X X X @ @ @ @ # 7 7 7 r r r r r r r r r 7 7 r r 7 O X X O @ 7 r r r r r r r r p r p s T r O 8 g g p f m 5 <.w.n.}.m.m.}.L.&XiXrXyXlXlXkXlXlXlXHXvX .0.q.w.J.U.I.I.I.U.P.I.U.U.R.7X>X8.' >XeXtXtX8X0X0X8X8XtX'._.'.'.'.`.].lXNXNXNXBXBXCXLXLXLXLXPXPXPXIXIXPXPXIXPXIXIXPXPXPXLXLXVXCXVXVXCXCXCXCXCXVXBXNXzXdXyXBXZXcXcXcXcXzXjXxXxXjXzXzXzXjXkXbXF.] >XbX(.R.!.!.!.T..XU..X&X!.U.J.U.+X}.) 7.#X+XW.;X$X%Xb.@.n.1Xm.) } l.k.%.Q 4 m 4 z : > > > > > > > : : : : u u u u u u u u u u u u u u u u u u u u i i i u i ; ; ; = = = ; ; ; ; ; = = = = = = = = = = = = = = = = = = = = ; ; u u ; ; ; i ; ; ; ; ; ; ; ; ; ; ; ; = = = = = = = ; ; ; ; ; ; ; ; = ; % % % ; ; ; u ; u u u u u u u u u u u u u u u u u u u i i i ; ; ; : : ; : : > i i : : i : 4 4 : : N Q B B $.c.m.5X5Xa.7.@X2X2X4X4X2X4X&XW.8._ 9.r.K.Y.J.!.~.-X~.7X-XT.T.7X9X!.J.J.7.Q.lXfXzXxXxXxXxXxXxXzXcXcXxXkXlXE.^.nXxXMXMXzXcXzXfXjXfXgXVXLXLXLXLXLXLXLXLXLXLXLXLXLXLXLXLXLXLXVXVXVXVXCXBXCXBXBXBXBXBXCXMXxXhX].[.tXyX_.).).*XR.T.Y.{ -XaX_.R.*X&X&X!.!.J.Y.&X>X&XU.=XvX+Xo.w.x.w.7.{ vXvXvXvX-X!.!.=X;X8.r.XX|.r.r.r.V.N 0 p p p r t t t 8 8 p p 7 @ O O 7 r 7 @ @ @ O r r r r r r r r r r r r r 7 7 7 7 r r 7 @ @ @ @ 7 7 r 7 p s O O @ @ 7 7 - # # # # # # # 7 7 7 @ X @ r r r r r r r r r ",
"7 r r r r r r 7 7 7 O X @ 7 O X @ @ @ - r r # # 7 7 7 @ X 7 p @ X O O O O X X X @ @ @ @ # 7 7 7 7 7 r r r r r r r 7 7 r r 7 O X X O @ 7 r r r r r p r r p r r s T r O 8 g g p d z 2 3.q.w.w. . .e.2X:X-X^.qXqXbXbXbXnXmX/.Q. .>.0.r.U.W.K.K.I..X|..XU.U.R.7X>X{ ' >XtX[.tX_.0X0X~.(._.'.tXyX'.`.lXnXmX/.gXNXBXBXZXVXLXLXLXPXPXPXIXIXIXPXIXIXIXIXIXIXPXPXLXLXVXLXLXVXCXCXVXVXVXNXNXjXdX[.BXBXMXMXMXMXcXjXzXzXjXzXjXzXjXkXbXF.] <XbX(.R.R.!.!.&X&X&X&XT.U.Y.H.U.;X@X3 ` _ ' +X:X_ | $.| | 9.0.:.2.#.Q B U 4 m 4 4 : > > > > > > > : : : : u u u u u u u u u u u u u u u u u u u u i i i i i i ; ; ; = = ; ; ; ; ; = = = = = = = = = = = = = = = = ; ; ; ; ; ; ; u ; i i i u ; ; ; ; ; ; ; ; ; ; ; = = = = = = = ; = = = = = = = = ; % % % = ; ; u ; u i i u u u u u u u u u u u u u u i i i i u ; ; ; ; ; ; : : > i i : : i i i 4 4 : m W Q Q B $.| 9.t.m.@Xw. .e.i.8.r.7.{ 8.U.+X9.o..X,X!.!.~.7X~.*X-X-X*X~.~.!.-X+X8.+XnXjXzXjXxXzXzXxXxXcXcXMXzXlXlXE.R.lXgXcXMXcXMXcXgXcXMXNXVXLXLXLXLXLXLXLXLXLXLXLXLXLXLXLXLXLXLXVXCXVXVXVXVXCXCXZXBXBXZXBXfXfX[.].tX_._.(.).qXeX!.T.Y.{ -XbXtX(.*XT.!.J.J.*XU.J.U.K.U.H.{ 7. .>.>.0.9._ { { uXGX&X{ G.U.K.P.I.r.r.;X:XI.OXN u p r p 7 7 r 8 s j t @ O O @ O O O O O O @ @ O O 7 r r r r r r r r r 7 @ @ 7 7 p t 8 7 @ O O 7 7 r 8 p s O X # @ 7 7 - - # # # # # # 7 7 7 @ X @ r r r r r r r r r ",
"7 r r r r r r 7 7 7 O X 7 7 O X @ @ @ @ r r # # 7 7 7 @ X 7 r @ X O @ @ O X X X @ O @ @ @ 7 7 r 7 7 7 7 r r r r r 7 7 r r 7 O X X O @ 7 r r r r r r r r r r r s T r O 8 g s p a v 2 y.0. . . . .e.5X4X=X-XrXrXnXbXnXHXmXQ.Q.9.x.x.w.;X=XK.8.L.I.|..X.XU.R.9X9X{ ' >XtX'.'._.7X0XR.(._.'.yXyX'.`.lXKXjX/.gXNXNXMXZXVXLXLXLXPXPXPXIXIXPXPXPXIXIXIXIXIXIXPXLXLXLXLXLXCXCXCXVXCXCXMXNXjXdX].CXBXMXMXNXNXcXzXxXzXjXzXzXzXzXxXnXF.] <XbX).^.!.U.W.!.&X&XT.T.T.T.U.!.:Xm.) ) ` _ $X2X ...=.$.} | >.l.l.N N N I 4 m 4 4 f f > > > > f f : : : : i u u u u u u u u u u u u u u u u u u u u i i i u u i ; ; ; ; ; ; ; ; ; = = = = = = = = = = = = = = = = ; ; ; ; ; ; u u ; i i i u ; ; ; ; ; ; ; ; ; ; ; = = = = = = = ; = = = = = = = = ; % ; ; ; ; ; ; i i i u i u u u u u u u u u u u u u i i i i u ; u ; ; ; ; : : f i i : : 4 4 i 4 4 4 m R ^ Q B } +.| @.@X$Xo.` w.}.r. .) w.8.+X:X9. ..X9X*XR.~.0X).(.0X9X0X~.T.*X>XU.' P.nXzXzXzXxXxXzXxXcXcXMXNXcXkXlXR.R.yXfXcXMXMXMXcXgXMXBXVXVXLXLXPXPXPXPXLXLXLXLXLXLXLXPXPXPXPXPXLXVXCXCXCXCXZXCXCXZXZXMXMXfXfXyX[.tX_._.)._.7X7X*X*XY.] -XbXtX0X0X&X!.J.J.!.!.!.U.K.|.8.` w. .>. .4.v.0.w.` 4XGX&X{ G.K.G.+X.Xr.L.2X<XI.i.N u s p p 7 7 e 8 h h 8 X O @ @ @ O X O O @ @ 7 O O @ 7 r r r r r r t r 7 @ @ 7 7 s p 7 8 @ X O 7 7 r 7 p p O X # # 7 7 7 7 # # # r r # 7 r 7 @ X @ r r r r r r r r r ",
"7 r r r r r r 7 7 7 O X 7 7 O X @ @ @ @ r r # # 7 # 7 @ X 7 r O X O @ @ O X X X O O @ @ @ 7 r r @ @ @ 7 7 7 r r r 7 7 r r 7 O X X O @ 7 7 7 7 r r r r r r r r s J - X 8 p p p i o 2 A.@Xm.m.0. .>.n.7.8.{ F.{ J.F.!.).^.<X!._ w.w.7.:X>XL.8.K.8.L.|..XU.T.wXwXG.] >XyXqXqXqX8X9X8X8X_._.tXyX'._.xXnXjX[.fXgXgXBXVXVXLXLXLXLXPXPXIXPXPXPXPXIXIXIXIXIXIXPXPXLXLXLXLXLXVXCXCXCXVXMXcXfXdXyXKXNXcXcXMXNXNXcXnXnXxXxXxXxXnXnXnXF.] <XbXeXrX9X~.!.&X&X&X&X-X9XwX>X7X>X$XV.@XV.OX7. .:.=.#.#.:.,.,.=.%.B B N I z m z z f > > > > > > f : : : : i u u u u u u u u u u u u u u u u u u u u i i i u u i u ; ; ; ; ; ; ; ; = = = = = = = = = = = = = = = = ; u u ; ; ; u u ; ; i i u ; ; ; ; ; ; ; ; ; ; ; = = = = = = = ; = = = = = = = ; ; ; ; ; ; ; ; u i i i u i u u u u u u u u u u u u i i i i u u ; u ; ; ; ; : : f i i : : 4 : i z 4 4 L W W D D =.} ,.<.>.w.o. . .o.o._ @.3X#X=X4X9. ..X>X!.~.7X~.0X0X0X0X9X*X*X9XpX&X' Q.nXxXxXcXxXxXxXxXcXcXMXNXxXlXyXE.E.).{.xXMXMXMXMXMXMXCXCXVXLXLXLXPXPXPXPXLXVXLXLXLXPXPXPXPXPXPXLXLXVXVXVXVXCXCXZXMXMXzXzXhXyX[._._._.8X(.(.~.*X*X>XJ.{ -XbXtX0X9X*X*X!.!.!.!.W.W.I. Xe.7. ._ a.7.>.9.>.7.{ { 8.I.:X+XP.:X4X:X#X|.p.P.+X$XN u s p s 7 7 r p H j 7 O t p @ 7 O O @ 7 7 7 r s p t r 7 7 r r r r p t 7 @ @ @ @ p p 8 r 7 @ r 7 8 r 7 p p O X # # 7 7 7 7 # # # r r # 7 r 7 @ X @ r r r r r r r r r ",
"r r r 7 7 7 r r r @ O O @ 7 @ X O @ 7 7 7 7 7 7 # 7 # O X @ @ @ O O @ @ O X X X O O O O @ 8 r r 7 O O 7 r 7 7 r r 7 7 8 8 7 @ O X O @ 7 r r r r 7 r r r p p p p H - O # s s p p * * S.3X1X%Xb.| 1.1. ._ _ { [ _ ' { -X^.rX/.` ' ' p.2X4XXXi.p.r.|.+X.XI.;XFXpXG.] uXbXeXeXeXeXaXtXtXtXqXyXyXyX[.xXnXkXkX[././.CXVXVXVXVXVXLXLXPXPXPXPXPXPXPXIXIXIXIXPXLXLXLXLXLXLXLXLXCXVXVXBXMXcXfXdXyXKXKXxXkXNXKXKXNXKXKXKXNXKXNXKXKXKXF.] <XGXbXbXiX7X-X&X;X=X-XiXiXiXiX9XwX2X5X3X$X3X| ) X...$.$.....:.$.$.B I W N v m z z > > f > > > > > > > > : i u u u u u u u u u u u u u u u u u u u i i i i u u u u u u u u ; ; ; ; ; ; % % % ; ; ; % % % ; ; ; ; ; u u u u u u u u ; ; ; ; ; ; ; ; ; ; ; ; ; ; ; ; = = = ; ; ; ; ; ; ; ; ; ; ; ; ; ; ; ; ; ; u u u u u u u u u u u i u u u u u u u u u i i u u u i u u i ; i i i i : : i i z z i : : 4 m I Q B #.;.$.$.,.:.@.>. . . ._ ` 7.5XpXuXpXt. .+X>X>X9X-X7X9X9XwXwXwX9X9XpXGX&X] W.HXHXKXNXNXNXNXNXNXNXKXKXnXbXlXE.E.).).nXNXnXNXNXMXZXCXCXVXVXLXLXLXLXLXLXVXVXLXLXLXPXPXPXPXIXPXPXLXVXVXVXCXVXCXBXcXcXjXjXhXkXtX_.`.8X8X0X0XT.*X9XpXT.] -XbXeX7XwX9X9X,X&X=X&X&X+X|.}.q.| [ ` ` ] _ ` _ _ ] ` ' XX2X2X:X:XuXuX4X$Xt.m.2XSXW a p s r 7 r s s h h 7 O p H r r @ O @ r r 7 7 H s r 7 7 r r r r r p p r @ O 7 7 r p r 7 @ 7 r r r r p s p @ X @ @ @ @ 7 7 7 7 r r r # # r r r X @ r r r r r r r r r ",
"# # 7 7 7 7 # @ @ O O O @ @ @ @ @ @ 7 7 7 7 7 7 @ 7 @ X X @ 7 7 7 7 8 @ O O X O O O O O @ 7 8 8 7 O O 7 r 7 7 r 7 7 7 7 7 @ O O X X O O @ @ @ O @ @ @ @ @ @ @ @ r $ X @ 7 r r 8 % * =.3.@. .@.) ....>.3X%X[ [ 5XGX:XH.wXbXmX<XQ.{ a.OXOXe.w.r.7.r.8.r.r.r..XI.] ' U.!.J.T.!.R.R.(.~.^.^.~.0X`.`.).[.].'.[.xXzXBXCXCXCXCXCXVXVXLXPXPXLXPXPXPXPXIXIXPXPXLXLXLXLXLXLXVXVXCXCXMXgXzXjXhXdX`.)./././././././././././.^.^.<X=X=X{ { U.&XJ.W.F.F.F.8.L.8.G.H.F.a.r.G.G.K.a.u.q.<.| :.X.c.3.,.:.2.2.$.#.N N S n v z z z > > > > > > > > > > > : i ; u u u u u u u u u u u u u u u u u u i i i i u u u u u u i u ; ; ; ; ; ; % % % ; ; ; % % % ; ; ; ; ; u u u u u i u u ; ; ; ; ; ; ; ; ; ; ; ; ; ; ; ; = = = ; ; ; ; ; ; ; ; ; ; ; ; ; % ; ; u u u u u u u u u u u u u i i u u u u u u u u i i u u u u i i i i i i i i : : i i z z i i i z m I B V B #.$.$.$.} $.3.0.x.0.9.@.@.u.i.P.|.>.) 7.p.K.K.Y.Y.J.J.H.H.J.G.G.U.,XU.] H.<X=X<X<X/./././.-X-X).7X].^.).^.^.).^.qXlXmXgXgXgXcXZXCXVXVXLXLXVXLXVXVXVXVXLXLXLXLXPXPXIXIXPXPXLXVXLXVXVXZXMXcXfXfX[.[.[.tX'._.`.dXT.T.T.U.U.U.&XH.] J.!.J.J.J.H.Y.K.K.K.G.G.K.r.i.0.) s.AXAXrX<XvXpX4XuXQ.8.8.q.q.e.r.U.H.8.t.,.5.9.:.z 8 8 r 7 @ @ 7 7 r 8 O X @ r O @ O X O 7 7 7 7 h s r 7 7 r r 8 7 7 7 r 7 O O 7 7 r r r 7 @ 7 r 7 7 7 7 7 @ O X @ @ 7 7 7 7 7 7 # r r # # r r # O @ - - # # # # r r r ",
"@ # r r 7 7 @ @ X X O O O O @ 7 7 7 7 7 7 7 7 @ # 7 7 O O @ r p p t r 7 O O O O O @ @ @ 7 r r r 7 O O 7 r 7 7 r 7 7 7 7 O O X O X X X X O X X X O O O O O O O X X X X O O @ @ @ + * 2 3 3 1 ) ) ) )  .pX<X] ` GXIX4X] rXHXbXbXpX' ' 7.7.w.w.w.7.7.' o.o.o.' ' ' ' o.] ] ] { ] F.E.E.Y.Y.Y.T.R.dX`.dX`.{.].KXBXBXZXCXCXVXCXVXLXPXPXPXPXPXLXLXPXPXPXPXLXLXLXLXLXLXLXCXCXCXVXgXgXmXkXyXE.E.F.{ F.F.] ] ] ] ] ] ] ] ] ] ] ] ] ] G.] ] ] ] ` ` ] _  . ._ ` ` V G | _ ` ` ` ) ) | | c.M.b.c.l.;.%.Q ! N W W n m z z z i i > > > > f > > > > : i ; u u u u u u u u u u u u u u u u u u u u i i i u u u u u u u u ; ; ; ; ; ; % ; ; ; ; % ; ; ; ; ; ; u u u u u i i i i u u ; ; ; ; ; ; ; ; ; ; ; ; ; ; = = = ; ; ; ; ; ; ; ; ; ; ; ; ; ; ; ; u u u i i u u u u i i u u i i i i u u u u u u i i u i u u i i ; i i i i i : : i i z z z i z z m N B V V B } #.$.$.2.c.M.M.b.l.b.y.X.)  ._ } B ) _ _ o.' _ ` ] ] ] ] ] ] ] G.] ] ] F.] ] ] ] ] F.F.] F.F.F.F.F.E.R.^.R.R.`.`._.].].{.gXCXCXVXVXLXLXVXVXVXVXVXLXLXLXLXLXLXPXPXIXIXPXLXVXVXCXZXMXgXfX{.{.{.'.`.`.dX`.`.R.Y.Y.K.P.p.8.8.' ] ] ] ] { ' { 7.7.7.O.o.O.8.8.n.x.3 Q.KXHXnXnXHXHXHXHX<XOXw.) | ) ` ` ` ` ) +.&.5 3 % O O @ O O O O X O O X O O X O @ O O O @ 7 7 r h s r r 7 7 7 7 7 # @ @ @ X O @ @ 7 7 7 7 # 7 7 7 7 r @ O X X X @ @ @ 7 7 7 7 7 # # r # # r - @ # # # @ @ # # @ r r r ",
"# # r r r 7 7 7 @ # 7 @ @ @ 7 7 7 @ @ 7 7 7 @ @ O @ @ O X O 7 r p r 7 @ O X X O O O O O @ 7 7 7 7 O X O @ @ @ 7 7 7 8 7 7 7 7 7 7 7 7 7 7 r r r r r r r r r p r - r p p t s k t + & $.>.w.7.w.9.9.w.8.<XwX!.F.vXHX<X] rXHXmXQ.=XW.W.p.u.n.e.w.a.r.p.p.r.K.r.K.P..XP.U.!.&X&X,X,X0X~.T.U.U.T.T.R.tXyX[.{.].NXMXBXZXCXCXCXCXVXLXLXPXPXPXLXLXLXLXLXLXLXLXLXLXLXLXLXVXVXCXBXLXgXfX[.yX].tXyXrXrXmXrXrXrX<X-X^.-X-X^.^.7X7X7XwXwX>XwX<X=X^.^.!.=X;X#X#X#Xi.t.j.D j.m.t.9.@. .| 0.X.3.4.4.2.;.#.I W ~ W Q W N m z z z i i > > > > > > > > > : i : u u u u u u u u u u u u u u u u u u u u u u u u u u u u u u u u u ; ; ; ; ; ; ; ; ; ; ; ; ; ; u u u ; i i u i i i u u u u ; ; ; ; ; ; ; ; ; ; ; ; ; = = = ; ; ; ; ; ; ; ; ; ; ; ; ; ; ; ; u u i i i u u u u i i u u i i i u u u u u u u u i u u u u i i ; i : : : : : : i i z z z z : 4 m I Q Q #.#.B #.#.$.:.2.3.3.=.$.b.b.M.n. Xe.$.#.@.>.n. X+X;X&X&X!.!.*X*X&X*X>X>X-X-XrXrXrXrXrXwXwXqXrXrXqX).qXyXrXlXyXyXlX]._.'.{.[.fXzXMXMXVXCXLXVXVXVXCXVXVXLXLXLXLXLXLXLXPXIXIXPXLXVXVXCXBXMXcXnX].].[.'.'.'.'.'._._.*XH.I.I.r.+X&XW.&XU.!.!.U.H.OXOXu.e.i.r.i.r.i.}.x.1 Q.KXnXnXkXrXrXrXiX=X=XP.7.9.@.w.P.I.a.9.,.5.+.%.c p p p r t t r 7 r 8 8 p 7 O 7 @ @ @ @ @ O @ 7 p p r 7 7 7 7 @ 7 # 7 7 7 # 7 r p r p p p p p p p s p r # @ @ @ @ @ @ @ 7 7 @ @ # # # # @ - r # r r r - # r r # # # # ",
"# # # # r r r r p r r r 7 7 7 7 @ @ @ 7 7 @ @ @ X X O X X X O O r 7 @ O X X X X X X X X O @ @ O @ X X X O X O O 7 7 7 r p g h g s s s s d h h H h h h H H H H T H J T H H E J J 0 * b.@X@X#XOXOX%X+X&X9XeXbXlXlXvX^.] rXKXvX` K.pXuX+X X Xr.r.K.P.#X;X#X;X&X;XuXuXwXeXaXaXbXbXbXbXtX~.R.Y.Y.R.E.nXKXnX{.fXNXNXBXBXCXBXBXCXVXVXVXLXPXPXLXLXLXVXVXVXVXVXLXLXLXLXLXVXVXVXBXKX[.'.'.E.].KXKXKXNXNXNXNXNXKXKXnXnXnXnXnXnXnXnXnXnXbXnXnXnXnXnXnXnXGXGXbXbXuX4Xm.| i.2X#XL.p._ | Z.Z...B V V V } %.Q W Q Q W N m z 4 : i i > > > > > > > > : : u u u u u u u u u u u u u u u u u u u u u u u u u u u u ; u i i i u u u ; ; ; ; ; % % % ; ; ; ; u u u u u u i i u u u u u u ; u u ; ; ; ; ; ; ; ; ; ; ; = = = ; ; ; ; ; ; ; ; ; ; ; ; ; ; ; ; u u u i i u u i i i i u u u u u u u u u u u u u u u u u u i i i i : i : i : : i i i z z z : z m N Q %.%.%.%.%.B B } V } | ..X.q.p.+X&X&X;X9.| q.n.#XuXuXbXbXbXbXbXbXbXbXnXbXnXnXnXKXNXNXNXNXnXnXKXKXKXnXxXnXKXNXNXKXKXKX].{.`.dXfXNXMXgXgXBXBXVXVXVXCXCXCXVXVXLXLXLXLXLXLXPXPXPXLXVXVXCXBXMXMXKXKX].`.`.`.tXyXyXyXyXyXwXJ.J.Y.F.9XaXaXaXeXaXeX7X-X>X&XU.P..X|.|.P.L. Xv.` Q.nXnXnXnX/.^.^.^.-X>XU.8.p.a.OX4X4X;X+Xp.V.2.;.^ E E T H J E H J J h h T p @ r @ 7 7 @ O O O O r 7 7 @ @ @ @ O @ @ 7 p p s s h h h h h H H H h h h h s p r r r 7 7 7 7 7 7 7 7 # # # @ @ # r r # r p r r # r r # # # ",
"# # @ @ # r r r r r 7 7 7 7 7 @ @ O O # @ O @ @ @ @ @ @ O O O O r 7 @ @ @ @ @ @ @ @ @ @ @ 7 7 7 7 @ O O X X O O r 7 7 8 p s s p s s s s s s s s s s s s s d s s K h d s g J J K +   b.Z.}.#XOXOXOXU.!.7X8XbXkXyXmX^.] rXKXmX' H.wX9XU.L.L.w.r.L.P.|..X.X.X.X.X,X*X~.^.).7XeXeXeXyXqX(.~.Y.F.R.(.lXxXjXjXzXNXNXgXgXNXBXBXCXCXCXCXVXLXLXLXLXLXVXVXVXVXVXVXVXVXVXVXCXCXCXCXKX[.`.[.].mXNXcXnXcXcXcXxXxXxXxXnXnXkXmXmXlXlX[.].kXnXmXrXmXmXrX].qXaXeXyXeX-X;Xm.) r.>X.XI.|.7.9.v.b.$.B #.&.#...#.#.D Q Q Q I n m z 4 z i > > > > > > > > : : u u u u u u u u u u u u u u u u u u u u u u u u u u u u ; u i i u u u u u u u ; ; % ; ; ; ; ; u u i u u u u u u u u u u u u ; ; u u ; ; ; ; ; ; ; ; ; ; = = = ; ; ; ; ; ; ; u u u u i i ; ; u u ; u u u u u u i i i u u u u u u u u u u u u u u u u u u i i i i : i : i : : i i i z z z z m v N Q Q #.#.#.%.B 2.j...X.| | w.|.U.-X-X!.-X7.` n.#X;X9X7XyXtXtXtXyXyXrXqXrXrXrXrXmXnXxXjXjXlXlXkXkXjXjXzXzXzXMXMXNXNXNXNXmX].[.[.hXzXcXMXcXMXMXCXCXCXCXCXCXVXVXLXLXLXLXLXLXLXLXVXCXCXCXCXBXZXBXcXkXxXkX`._.'.tX'.'.'.yXwXH.Y.T.T.9XeX0X7X0X9X0X!.T.T.U.U.U.U.P.Q.P.P.|.t.` =XHXnXkXkX).).).7X8X9XR.J.P.p.|.;X,X,X;X|.OX3.*.Z C h h s g H s h h j j h s r r @ r r r 7 7 @ @ 7 7 7 7 7 7 7 7 7 7 r r p p p p s s s s s s s s s s s s p r r r r 7 # @ @ @ @ @ r r # @ @ # r r O r r r # # # # # # # ",
"# @ # # # # r r 7 # @ @ @ @ @ O @ O O O O X O r p r r r r r r r r r r r r r r r r r r r p p p r r r 7 @ O X O @ r 7 7 7 r r 8 7 r r r r r r r r r r r r r r r r p p p p t k y y # * 2.v. X.X|.+X+XW.~.eXtXkXkXlXlX^.F.rXnX<X_ 8.uX9XW.}.m.w.p.p.r.8.8.r.I.I.G.H.J.J.F.F.J.!.!.!.~.7X9XwXU.G.eXaX_.E.mXKXNXBXNX/./.MXBXBXBXZXZXZXVXVXVXLXLXVXVXCXCXCXBXCXCXCXCXBXZXZXBXBXKXmX].kXPXcXgXgXxXxXzXzXlXlXlXmXxXNXkX/./.^.).E.E.yXkX/.F.F.{ { { F.!.R.~.R.Y.K.q. .p.=X,X&X;X#X@X| | +.} c.A.l.#.} ....*.Q Q Q W I m z z i i i > > > > > > : : u u u u u u u u u u u u u u u u u u u u u u u u u u u u ; u i u u u u u i u u ; ; ; ; ; ; ; ; ; i u u u u u u u u u u u u u i i i u u i u u u ; ; ; ; ; = = = ; ; ; ; ; ; ; u u u u ; i u u u u ; ; ; u u u u u u u u u u u u u u u u u u u u u u u u u i i ; i : i : : : : : : i i z z n n N N N Q Q Q B #.#.C.Z.c.3.:.) 7.=X=XwXwX7XeX8._ +X4X=X*X~.~.~.^.^.wX7X!.F.F.J.E.E.^.lXlX].]._.].].].{.{.].kXjXjXzXNXNXNXNXNXNXNXNXgXF.].KXNXcXMXZXBXZXCXCXVXCXVXVXLXLXLXLXLXLXCXBXZXZXZXCXCXVXMXF./.KXPX].`._._.(.(._.sX7XJ.R.eXeXwX7XJ.Y.J.Y.G.G.G.8.G.I..XP.I.I.I.P.|.q.` =XKXkX].].).).(.(.0X7X~.!.+X+X#X.XoXuXwX+XV.:.Q a 0 8 r 7 r r r r r p p p g s r @ r s s p t r 7 r r 7 7 8 r r r r p r r 7 7 7 @ 7 r r r r r r r r r p p r r 7 7 r 7 @ O O O O @ # r - # @ # # @ X @ r r # # # # # # # ",
"- - r r r # # # 7 7 7 @ @ O O @ @ X X X X X @ p p r 7 7 7 7 7 7 7 7 7 r r r r 7 r r r r r p r r t t r @ O X O @ 7 7 7 r r r r r r r r r r r r r r r r r r r r p p p p p p k k K $ & ..q.#X|.|..X+XU.R.eXtXbXkXhXlX`.E.).HXrX` L.pX9XI.p.u.w.i.p.8.p.L.i.K..XU.U.U.U.U.J.U.T.!.*X*X7X9X>XH.8.9XaXtX`.mXNXNXBXNXgX{.NXBXZXBXZXZXZXCXCXVXVXVXVXVXCXCXCXBXBXCXBXBXZXZXZXZXMXNXfX{.xXNXMXgXzXzXxXnXxXkXlXkXkXnXKXkX/._._.qX^.(.bXnX).J.W.Q.Q.H.U.=X*X!.!.U.p.>. .L.<X,XoX.X;X@XX.,.| | 3.b.2...#...} #.Q D Q Q I v z z z i i > > > > > > : : u u u u u u u u u u u u u u u u u u u u u u u u u u u u ; u i u u u u u i i u u ; ; ; ; ; ; ; u u u u u u u u u u u u u u u i i u u u u u u u ; ; ; ; ; = = = ; ; ; ; ; ; ; u u u u i i u u u u ; ; ; u u u u u u u u u u u u u u u u u u u u u u u u u i i ; i : i : : : : : : i i z z I I I N B Q Q Q #.#.B C.C.3.4. ._ 7.&X~.7X7X_.eX8._ Q.4X&X!.7X~.7X-X-XwXwX!.J.^.~.~.R.).bXbX_.tXtXtXtXtX_.].yXkXjXjXxXnXNXNXNXNXMXMXNXmX/.mXNXxXzXcXMXZXZXCXCXVXVXVXVXVXLXLXVXVXVXBXZXZXZXZXBXCXCXMX/.].NXKX]./.`.8X0X0X_.sX7XG.J.wXwX9XwX!.G.U.I.P.|.L.8.K..X.XU.I.P.P.P.|.w.` Q.KXkX].).].).8X7X8X7X7X!.W.$XOX X.X>X>X.XOX2.^ a p p p t t p t r r p p 8 h H r @ r s s s p r @ 7 7 7 7 7 8 r r p p r 7 7 r r r r r r r r r r r 7 r p p r r r r p r @ O O O @ @ # r r - - # @ @ O @ @ @ # r r # # # # ",
"# # # # # # # # @ @ 7 7 7 7 7 7 @ O O O X X O 7 7 7 7 7 r 7 r r r r r r r r r r r r r r r r r r 7 r 7 7 7 @ O 7 s p r r 8 8 r r r r r r r r r r r r r 7 r p p r p p p p p s y y O * }  .r. XI..X.XU.!.-X).bXkXlXlXtXtXyXlXrX_ 8.uX9X' [ u.i.i.I.p.p.i.L.|.P.U.U.|..XU.U.U.U..XoX&X!.&X&Xp.8.*X0X_.'.].].gXBXNXBXBXBXBXMXBXBXZXZXBXCXVXCXBXZXVXVXCXCXZXZXBXMXMXMXMXMXMX{.].[.{.hXxXzXzXzXxXxXnXxXxXjXxXxXlX].].).].lXkX_._.bXbXeX0X9X>X&XY.U.;X&XwXpX8.7.<.) Q.vXwXT.U.r.r.$X5Xw.| | $.} } #.Q W B Q U N Q W v z z z i i i i i > > > > : i ; u u i i i i u u u u u u u u u u u u u u u u u u u u i u u u u u u i u u ; ; ; ; ; ; ; u u u u u u u u u u u u u u u u u u u u u u u i i u u u u u ; = = = = = = ; ; ; ; ; u u u i i ; ; ; ; ; ; ; ; u u u u u u u u u u u u u u u u u u u u i i i i i i ; ; : : : : : : i i i i i z n I N N Q Q D D %.B #.} X.X. .0.%X#XU.Y.7X0X8XaXG.' W.4X:X;X*X~.0X(.0X8XqXqX7XwXrX).E.).bXbX_.].qXtXtXqX_.].yXkXkXjXxXxXxXcXcXMXcXcXnXxXnXmXE./.xXzXgXgXMXVXVXVXVXVXVXCXCXMXMXZXBXMXgXMXCXZXMXBXBXCXNXNXNXNXmX].7X0X0X8X(.(.^.H.J.9XwX>X*X!.J.U.P.P.P.|.|..X.XI..XP.P.|.|. Xt.` Q.KXnX{.].kXbXqXqX8XrX^.W.Q.$XOXr.L.I.H.|.m.&.~ b 8 p r t r r t t p p p p r r t s s s s s s s s O O O @ 7 r r r r r r r r r r r r r r r r r r r r r r r r r r 7 r r 7 7 @ @ 7 7 r r r r r r # # - - - - - - r r # # # ",
"# # # # # # # # @ @ 7 7 7 7 7 7 @ O O O X X O 7 7 7 7 7 7 7 r r r r r r r r r r r r r r r r r r 7 r 7 7 r @ O 7 r r r r r r r r r r r r r r r r r r r r r p p r p p p p p k y s # . $.q.i.L.P..X.XU.&X9X7XbXlXkXyXyXtXyXlXwX_ r.uX9X' [ u.m.L.L.L.L.L.}.|.P.U.U..X.X.XU.U.U..XoX&X*X*X,X8.{ *X8X_._.].mXgXNXNXNXNXNXNXBXBXMXMXZXZXZXVXCXZXBXCXCXBXBXZXNXMXMXMXcXMXMXcXgXfX[.].fXzXzXzXzXzXxXnXxXzXzXxXjXmXqX].`.].yXyX_.qXbXbXeX0X9X9X,XU.U.&X+XpXuXG.7. . .+XpX>XU.P.p.i.$X2X9. .| +.} ..#.I W N Q U N Q Q m : z z i i i i i i > > > : i ; u u i i i i u u u u u u u u u u u u u u u u u u u u i u u u u u u i u u ; ; ; ; ; ; ; ; u u u u u u u u u u u u u u u u u u u u u u i i u u u u ; ; ; ; = = = = ; ; ; ; ; u u u i i ; ; ; ; ; ; ; ; u u u u u u u u u u u u u u u u u u u u i i i i i ; ; ; : : : : : : i i i i z z n U N N D D D #.B %.#.} |  . .q.1X@XK.Y.&X-XaXiXI.` OX4X$X#X&X0X0X(.0X8X8X7X7X7XqX~.^.).aXlXtXqXtXqXsXtX_._.yXkXjXhXxXxXxXcXcXcXcXcXcXnXnXmX/./.xXjXfXgXMXBXNXVXCXCXCXCXCXMXMXBXZXMXgXBXCXMXMXZXZXBXNXNXNXNXmX].7X(.0XsX_.(.!.G.J.-X-X9X7XR.J.J.U.P.P.I.P.|.P.P..XP.|.P.|. Xv.` Q.HXkX].].lXbXeX8X7XqX^.^.!.;XOXp.L.I.K.}.m.&.! b 8 p r p t p p r t p p p r r t p p p p p s p p X O @ @ 8 r r r r r r r r r r r r r r r r r r r r r r r r r r r 7 7 7 7 # 7 7 7 r r r r r r # # - - - - - - r r # # # ",
"# # # # # # # # # # @ @ 7 7 7 7 @ @ O O X X O # 7 7 7 7 7 7 r r r r 7 r r r r r r r r r r r r r 7 r 7 r r 7 @ r 7 7 r r r r r r r r r r r r r r r r p r r p p r p p p r t s s s + . A.1X Xr.I.P.|.I.U.-X*X-X^.yXlXyXtXyXbXrX' i.uX9X' _ u.i.L.I.I.K.L.I..XU.U.U..X.XU.U.T.T.T.T.!.~.0X-X8.{ ~.8X'.'.)./.].KXnX/./.NXNXNXMXMXZXcX/.gXCXVXBXBXZXZXBXBXgX/.gXKXxX/.{.{.gXnXNXNXNXNXMXcXcXcXzXzXxXxXxXzXjXjXxXnXlX].].).7X).7X7XrX~.0X*X*X*X&X=X:X$X8.8.U.:Xe.o.&XvX=X8.G.OXOXm.t.| | | +.B U I m I N B B B ! ! n 4 z z i i i i i i > > > : i ; u u i i i i u u u u u u u u u u u u u u u u u u u u i u u u u u u i u u u ; ; ; ; ; ; ; u u u i u u u u u u u u u u u u u u u u u u i i i u u ; ; ; ; ; ; = = ; ; ; ; ; ; u u u i i ; ; u u u u u u u u u u u u u u u u u u u u u u u u u u i u i i i i ; ; : : : : : : i i i i i 4 N Q Q B D D Q %.#.B | :.>.m.$XXX) XX>X>XU.W.bXHXQ.` i.OX9.7.8.-X*X*X0X8X8X7X).7X7XeXaXeX^.^.qXtXqXtXyXyXtX_.yXnXkX].].].].xXnXxXzXMXNXcXzXcXNXnX/.{.nXNXgXgXcXMXMXMXMXMXMXgXgXBXBXZXZXBXBXNXBXMXBXMX{.].NXKX/.E.(.(.0X(.8XaXiX8.{ H.J.-XwX~.~.!.J.U.P.I.P.I.I.I.U.U.P.P.P. Xv.` Q.KXbXrXqX).7X7X8X0X7X).7X*X&XU.8.P..XP.I.i.<.l.c 8 p r t r t t r p p p r r r r t r r r t t t t X O @ 7 r r r r r r r r r r r r r r r r r r r r r r r r r r r r 7 7 7 7 7 7 7 7 # # - r r r r r r r - r - - r r # # # ",
"# # # # # # # # - - - - 7 7 7 7 7 @ O O O O @ @ @ 7 7 7 7 r 7 7 r r 7 r r r r r r r r r r r r r 7 r 7 r p 8 7 r @ 7 7 r r r r r r r r r r r r r r p r r r p r r r p p r t k s s o . Z.1X X8.K.L.|.|..X>X>X*X^.yXyXyXyXyXbXiX' r.uX9X' _ y.i.K.P.I.I.L. X.XU.I.I..X.XU.U.T.T.U.T.!.~.0X-X8.{ ~.8X_._.)./.].KXnX{.{.NXKXNXNXMXMXgXgXzXCXBXBXBXMXBXMXBXgX{.jXKXkX{.].[.jXNXBXBXCXMXMXcXzXcXzXzXzXzXxXzXfXfXxXnXkX].].(.).).7X).).^.~.T.~.*X7X>X:X#X8.G.,XuXK.' J.iX=X{ G.+X#Xa.@.@.) +.+.+.%.Q m N Q #.V B %.-.N m z z z i i i i i > > > : i ; u u i i i i u u u u u u u u u u u u u u u u u u u u i u u u u u u u u u u ; ; ; u u u u u u u u u u u u u u u u u u u u u u u u u u u i u u u u u ; ; ; ; ; ; ; ; ; ; ; ; u u u i i u ; u u u u u u u u u u i u u u u u u u u u u u u u u u u u u u i i ; ; : : : : : : i i i i i 4 N Q Q B D #.#.#.V B | |  .m.2X}. .}.>X>XU.!.bXHX{ ` 8.p.7._ 8.>X,X*X*X0X9X7X(.0X8X8XaX8XR.~.qXtXqXtXyXlXyX].yXnXkX[.].].].xXnXxXcXcXMXcXgXcXNXcXE./.nXNXzXgXcXMXMXcXMXMXMXgXgXNXBXZXBXNXNXNXNXNXNXcX/.{.HXHX/.R.(.(.0X(.8XaXpXG.8.G.H.-X9X~.*XT.U.U.P.P.P.I.P.H.U.U.I.I.P.|.q.` Q.HXbXlXeX).7X9X0X0X7X).7X-X&XT.G.P.+X.X|.i.w.b.v 8 p r t r r r r r p p r r r r r r r r r r r r X O @ 7 r r r r r r r 7 7 r r r r r r r r r r r r r r r r r r r r r r 7 7 # 7 7 # # # - r r r r r r r r - - r r # # # ",
"# # # # # # # # - - # # # # # # 7 @ @ O O O @ @ @ # 7 7 7 7 7 7 r - - r - r r r r r r r r r r r 8 r r t s r 7 r 7 7 7 7 7 r r r r r r r r r r r p p r r r r r p r p p p t s K s % * 3.m.}. XP.I.L.I.I.;X,XU.J.7X).tXyXyXbXrX' L.uX>X_ ) 5.t.L.I.L.L.L.}. XI.L.L.|.|.P.Q.U.U..XU.W.!.&X&Xa.{ ~.8X8X(.qXlX]./.{.xXjXzXgXnXKX].{ /.xXzXNXMXBXNX{./.cXKXfX].].[.'.'.{.nXNXzXgXMXBXZXNXcXcXcXzXxXxXzXxXxXfXfXhXjXhXhXhXyXyXyXyXqX8X7X^.-XwX7X*X*XOX}.p.G.*X9X>X>X9X7X*X!.&XP.OX%X@Xm.<.+.+.,.C.l.x N j.;.Q B Q ! v 4 z z z z i i i : : > > : u u u u i i i i u u u u i i u u u u u u u u u u u u u u i u u u u u u u u u ; ; ; u u u u u i u i u u u u u u u u u u u u u u u u u u u u u u u u i i i ; ; ; ; ; = ; ; ; ; u i u u i i i i i i i i i u u u u u u u u u u u u u u u u u u u u u u u u u i i ; ; ; : : : : : i i z z i 4 N #.Q B %.*.#.} ..1XS.<.w.i.+X+X=X&X-X*X,X-XwX7XaXbXiXwX+X' r.,X,X*X*X0X7X7X0X7XeX8X8X8X0X8XtXtXqXqXqXtXtXqXqXtXyXkXkX].].jXzXjXzXzXNXcXgXzXMXcXgXmX{.{.zXcXMXMXMXMXMXNXnX/./.NXBXcXcXcXnXmX/.].nXjX^.).]._._.qX7X~.(.(.8XaXwX] r.p.I.,X-X*X*XT.U..X.X|.|.|.I.I.U.J.U.H.I.|.t.` Q.HXbXyXeX7X8X0X0X8X7X-X9X-X~.T.G.L.i.m.OXOXr.v.S p h p s p p t r r p r r r r r r r r r r r r 7 X O 7 r r r r r r r r r r r r r r r 7 r r r r r r r r r r r r r r r r 7 @ O @ @ # # # # - - r r 7 7 - - - - r r # # # ",
"# # # # # # # # # - # # # # # # 7 7 @ @ @ @ @ @ @ @ # 7 7 7 7 7 r - - r - r r r r r r r r r r r r r r p s t 7 r r r 7 7 7 7 r r r r r r r r r r p r r r r r r r r r p p p p s p o * :.w.n. XP.P.|..XU.;X,XU.J.!.~.8XtXtXlXrX' |.uX>X) 5 5.y.L.K.L.L.i.m. XL.L.p. X|.Q.Q.U..X.X.XU.U.T.+X7.{ *X8X0X(.sXbXyXE./.NXnXcXmXnXKX<X] ^.KXnXNXNXNXNX{.E.nXKXhX{.{.].'.`.[.NXNXfXfXMXNXNXNXnXcXxXzXjXzXzXzXkXhXfXhXyXhXkXkXyXhXlXyXqX8X~.!.-XeX7X0X*XL.u.a.H.7XeXpXuX9X!.7X-X9XJ.I.:X2XOXOX@.| c.Z.l.M B j.;.Q B %.! N 4 z z z z i i i : : > : : u u u u i i i i u u u u i i u u u u u u u u u u u u u u i u u u u u u u u u ; ; u u u u u i i i u u u u u u u u u u u u u u u u u u u u u u u p u u i i ; ; ; ; ; = ; ; ; ; u i u u i i i i i i i i i i u u u u u u u u u u u u u u u u u u u u u u u u i i ; ; : i : : : : i i z z i z Q #.Q B *.;.%.} } 1X1X9. .8.|.&X-X~.0X0X9X-X^.^.bXHXlXrXW.` L.2X,X*X*X~.7X7X7X8X8X8X8X8X8X8XqXtXqXqXqXqXqXtXqX_.lXHXnX].].zXzXzXfXcXNXzXgXzXcXNXnXnX`.{.xXNXNXNXBXBXMXNXnX/./.KXLXcXcXzXnXyX^.rXnXmX^.).(.`.tXyX7X-X~.~.8XbXiX{ r.7.L.&X&X*X,XoXP.|.|. X XP.U.U.U.J.H.H.I.|.q.` Q.HXlXtXqX_.8X0X8X0X-X-X9X*X~.T.H.r.t.n.@X#Xp.m.Q a h s g s p t r r p r p r r r r r r r r r r 7 X O 7 r r r r r r r r 7 7 r r r 7 r 7 r r r r r r r r r r r r r r r 7 @ O O @ @ # # # # - - r r r r - - # # r r # # # ",
"# # # # # # # # # # 7 # # # # # 7 7 7 @ @ 7 @ O @ @ # 7 7 r 7 7 - - - r r r r r r r r r r r r r r r r p s p 7 r r r r 7 7 r r r r r r r r r r r r r r p p r r r r r p p p p y p o * j.n.n.}.L.L.L.I.U.,X>XoX!.*X0X8XeXqXyXwX8.|.uX>X) 5 5.t.K.K.K.L.L.}.L.I.L.L.|.P.P.P.U.oX.X.XU.oX*X;Xr.7.*X0X).)._.qXtXyXqX).].nXnX/.^.W.G.~.].gXNXNXmXmX).^.eXyXyXkXhXyXtX'._.].[.].hXfXfXlX[.lXkXkXhXjXjXzXhXhX[.yXfX[.yXhXyX].[.tXtXqXqX~.!.!.-X~.0X,X}.n.m.8.-XwXW.{ <XbXrX*X-XT.Y.oXoX.X.Xr.e.v.c.2.V B %.%.B B %.-.N 4 z z z i i i i : > > > : u u u u i i i i u u u u i i u u u u u u u u u u u u u u u u u u u u u i i i u ; u u u u i i u u u u u u u u u u u u u u u u u u u u u u u u p p u u i i ; ; ; ; ; ; ; ; ; ; u i u u i i u u u u u u u u u u u u u u u u u u u u u u u u u u u u u u u u i i i i : i : i : : i i z z z z Q %.#.B #.;.$.#.$.,.v.9.o.L.;X;X-X~.(.(.*X-XrXrXqXqXeXbX=X` p.:X&X*X~.~.).7XqX8XqX8X).8XtXtXqXqXqXtXtXtXtXtXtXtXqXlXlX].[.kXkXhXnXmX/.mXnXmX/./.yXyX_.`.yX[.fXgXgXgXgXNXnX/./.lXcXNXNX].^.^.^.^.!.^.iXaX(.`.`.).*X*X*X0X7X).~.!.+X7.8.I.U.!.&XU.P.P.}.L.P.U.U.U.U.P.P.P.I.|.q.` Q.nXlX].[.yXyXtXeX^.!.*X9X-X*X!.H.P.u.n.OXOXL.OXW p d p s y t r t r p r p r r r r r r r r r r 7 X O 7 r r 7 r r r r 7 7 7 r r r 7 7 7 r r r r r r r r r r r r r r r r # O O @ r r r r r # # - r r - - - 7 r r r # # # ",
"# # # # # # # # r r r r r r r r # r 7 @ 7 7 7 O @ @ # 7 7 7 7 r r - - r r - r r r r r r r r r r r r r p s p 7 r r r r r r r r r r r r r r r r r r r p s s p r r r r p r r p y r + * 4.n.n.}. XL.I.P.U.>X9X&X*X-X-X9XeX9XqX-X' |.pX>X_ ) 5.n.K.K.K.I.L.L.I.I.L.I.P.U.P.P.U.U.U.U.Y.oX9X>Xp.7.&X0X)._._.(.8XbXbXE.E.HXKXJ.] F.J.J.F.].IXKX/./.).7X(.E.yXnXkXhXtX_.`.^.`.].lX`.{./.{.yXkXkXhXhXjXjXhXyXyXyX[.].hXkXlX]._._.qX8X7X~.&X&X-X*X0X*Xi.M.m.8.wXiX{ 1 =XHXbX~.*XT.U.U..X.X|.#X$Xt.| $.%.#.#.#.B B -.%.v & m z z z i i i : > > : : u u u u u i i i u u u u i i u u u u u u u u u u u u u u u u u u u u u i u i u ; u u u i i i u u u u u u u u u u u u u u u u u u u u u u u u u u u u u u ; ; ; ; ; ; ; ; ; ; u i u u i i u u u u u u u u u u u i u u u u u u u u u u u u u u u u u u u u i i i i i i i i : : i i z z z z B *.#.B #.=.$.$.2...>. .w.OX;X,X*X*X0X0X-X-XbXbX^.R.8XbX+X` p.>X&X-X-X~.).8XqXqXqXqXqXeXqXqXqXqXtXtXtXtXtXtXtXtXqX].].[.yXhXjXxXnX/.] ].IXmXF.E.'.tXtX_.tX`.{.{.{./.mXIXnXE./././.nXIX<XF.T.wXF.] F.GXbX(.(.^.!.!.*X*XT.R.~.~.*X;Xo.7.8.8.W.&XW.P.L.L.L.P.U.!.&X.XP.P.I.I.|.t.` Q.bXyX`.[.yXyXyXaXR.F.!.9X7X0X-X+XQ.u.t.OXOXL.V.N u d p s t t r p p p r p t r r r r r r r r r 7 X O 7 8 7 7 r r r r 7 7 7 r r r 7 7 7 7 r r r r r r r r r r r r r p r 7 @ @ r p r r r r - # # r r r - - 7 7 r r # # # ",
"7 7 # r - # @ @ r e @ @ # # # # @ # @ # # @ @ @ @ O @ 7 r 7 8 r r r r r r r r r r r r r r r r r 7 7 r p g p 7 p p r r r r r r r r r r r r r r r r 7 r s h p r r r r r r r r y f @ * x.m.n.m. XL.I.I.U.&X&X&X*X~.*X=XU.-XwX*X8.L.pX<X_ ) ,.3.n. XK.K.L.p.L.L.I.K.I.U.P.I.U.U.J.T.J.T.*X,Xa.7.&X0X0X0X).(.).qX8X(.(.bXnX^.F.H.H.H.Q.Q.iXrXlXmXrX^.(.E.yXnXlXtXtX_._._.qX_._.lXmXlXkXlX].yXyXhXkXkXfX[.hXkXyX].yXyXyX8X8XqXqX7XrX^.R.*X=X*X0XoXXXm.m.i.>XpX9.1 Q.HXvX~.-XJ.T.T.U..XOXi.y.<.&.%.Q ! Q Q N N Q -.n 4 m z z z z z f f f f : : : : ; ; u ; i i i i u u u u u u u u u u u u u u u u u u u u u u u u u u u u u u u u u ; u u u u u u u u u u u u u u u u u u u u u u u u u u u u u u u u u u u u u u u u i i i u u u u u u u u u u u u u u u u u u u u u u u i u u u u u u u u u u u u u u i i f i i i : i i i i i i i z ..=.#.B #.&.$.:.1.1...3.9.}.+X&X*X*X*X,X*X*X<X=X-X~.eXGX+X` p.;X&X*X*X~.~.7X7X7X7X7X).8XeXtXtXtX].].].[.tXtXtXtXtX].[.kXkXxXxXxXcXxXkXmXrX7X)._.[.'.'._._.qX].].).qXqXbXaXR./.nXnXAX<XOXL.P.U.H.{ H.bXyX~.~.~.&X*X&X&X&X*X~.R.*X#Xo.7.p.K.+X;X.XU.P.P.P.L.P.U.U.U.I.I.I.U.XXq.) H.rXqXyXqXtXtXtXeX^.J.*X9X9X9X,XP.OX9.t.}. X#X@XN 0 a u p s 7 p r u p p p r r r r r r r r r r 7 O @ 7 r r r 7 7 r 7 7 7 7 r r 7 # 7 7 r r 7 7 7 r r 8 r r r r r t p p p r @ O r 7 7 7 7 - # # # r - - - r r r r r r r ",
"7 # 7 r - # @ @ r - @ @ # # # # @ - # - # # # @ @ O O 7 8 8 8 r r r r r r r r r r r r r r r r r 7 r r s g t 7 p p r r r r r r r r r r r r r r r p r r s s p r r r r r r r p s K - o x.XXx.q.n. XL..XK.K.I.=X~.*X!.U.8..XwX-Xo.L.pXuX_ ) +.@.q.XX XK.p.p.p.p.I.U.K.U.I.I.W.U.J.T.U.U.,X;Xa.7.&X,X0X0X0X(.(.8X8X(.(.eXaX~.!.H.{ { ] a.8.F.KXnXlXrX^.E.tXnXlX).8XtX_.qX8X^.dXlXnXnXKXkX/._.yXkXkXlX[.[.kXkXhX].qXqXqX8X8X8XqXqXrX!.F.&X;X&X*XoX.XXXe.r.>XpXy.1 W.HXiX-X9XJ.J.&X&X.X}.w.@.+.+.#.I W Q Q N N Q -.n 4 m z z z z z f f i i : : : : ; ; u ; i i i i u u u u u u u u u u u u u u u u u u u u u u u u u u u u i i i i u u u u u u u u u u u u u u u u u u u u u u u u u u u u u u u u u u i i i i u u i i i i u u u u u u u u u u u u u u i u u u u u u u u u i u u u u u u u u u u u u u i : i f f i i : i i i i i i i z B $.U N %.&.$.1...1.1.j.<.m..XU.&X*XT.oXoXoX!.!.!.~.eXGX+X` r.;X&X&X*X*X!.~.-X!.~.~.~.).qXqXtXqX].].].tXtXtXtXtXtX].yXnXNXNXcXNXNXNXKX].] ^.lXtX[.'.'.'.sX8X_._.qX8X8X8X).E./.KXIX{ 1 _ 7.8.H.{ 8.H.bXyX^.~.*X&X*X*X&X&X*X~.!.-X#Xo.7.p.p.+X;X.XU.U.P.P.P.P.U.U.U.U.U.U..XXX0.) G.-X).yXeX8X8X7X7X^.J.^.7X-X9X&XK.i.7.7.i. X#X1XD 0 a u r p r r r p p u p r r r r r r r r r r r O @ 7 7 7 7 r r r 7 7 7 r r 7 7 r r r r r r r r r r r r r r r r p p p r r O O r 7 7 7 7 - # # # 7 - - - r r r r # # # ",
"7 # - - - - # # r r # @ - # - - - - - - # # # @ @ O @ 7 r 8 r r r r r r r r r r r r r r r r r r 8 r r s s r 7 r p t r r r r r r r r r r r r r r r r r r p r r p r r r r p p s K @ + j.x.v.v.m.}.L.P.L.L.L.:X!.~.&XI.L..X>X*Xo.L.pX>X_ ) <.3.w.e. Xi.i.p.p.p.K.I.K.XX XI..XU.U.U.U..X;X;X7.7.+X,X*X-X7X~.~.(.7X).8X7XqX~.!.J.U.+X=XQ.8.J.nXHXrX~.^.dXyXkXyX]._.sXsXtXqXqX].kXxXxXnXlX/.).).].kXkXyXyXhXkXyX].qX8X8X8XsX8X8XqXeX^.F.&X=X&X*X~..XK.L.a.=XuXa.1 W.nXiX~.7X!.T.oX&X+X#Xu.9.4.j.j...! ! Q N v Q -.n 4 m z z z i i f f i f i : i i ; ; u ; i i i i i u u u u u u u u u u u u u u u u u u u u u u u u u u u u u u u u u u u u u u u u u u u u u u u u u u u u u u u u u u u u u u u u u u u u u u u u u i i i i u u u u u u i u u u u u u u u u u u u u u u u u u u u u u u u u u u u u u i i i f i i : i i i i i i i z W ! W L Q %.%.=.;.2.;.2.<.m.+XW.U.&XW.U.-X*XR.!.(.).8XbXW.` K.>X,X*X-X*X~.~.^.-XwX0X~.).qXqXtXtXqXtXtXtXsXsXsXsXtXqXtXkXkXkXkXxXcXcXKXrXF.^.lXlX_._._.8X8X0X8X7X8X0X8X(.`.{./.NXNXmX<XW.Q.8.' a.7.H.aXtX^.^.!.!.~.!.!.T.R.R.R.,X#Xo.o.r.r.+X;XU.Y.I.P.P.I.P.U.U.I.I.U.U.P. X3.) 8.<XwXbXiXJ.!.7X9XqXwX-X9X9X9X,XI.P.p.i.P.}.OX@XN + u s r p r r r u p p p p r r r r r r r 7 7 7 O O @ 7 7 8 r r r 7 7 r r r 7 7 @ @ @ @ @ @ @ @ @ 7 7 r r r r r t s s p r O O r 7 # 7 7 - - # # 7 r - - r - r r # # # ",
"# # - - - - # # r - # # @ # # # - - - - # @ @ @ @ @ @ 7 r r r r r r r r r r r r r r r r r r r r 7 7 7 p s 7 @ 8 p t r r r r r r r r r r r r r r r 7 7 r r r p p t t p p p p y y @ r V ) y.m.a.L.I.p.p.OX@X2X>X&X&XI.XX#XU.J.K..XpX4X' ) ,.,.X. .e.r.i.p.p.p.L.L. XXX X XOX.XU.U.K.K..X+X7. ..X,X*X~.-X-X7X).7X8XqX(.eXR.F.*XpXFXHXvX] F.nXHXJ.] qXtXtXqX].].'._.sX_.].nXxXcXzXzXnXlX^.^.^.^.kXkXhXyX[.yX[.].qX8XsX8XsX8X8X8XeX~.F.!.=X&X~.!.K.K.r.H.-XuXa.` ^.HXlX^.-X0X*X*X&X;X:X}.e.v.M.j...D ! Q N N Q -.n 4 z z z z i i i i f f i : i i ; ; u ; i i i i i u u u u u u u u u u u u u u u u u u u u u u u u u u u u u u u u u u u u u u u u u u u u u u u u u u u u u u u u u u u u u u u u u u u u u u u u u u u u u u u u u u u i i u u u u u u u u u u u i u u u u u u u u u u u u u u u u u i i f i i i : i i i i i i i i W ~ ^ L W %.#.;.&.5.,.,.@.L.+X+X+XW.W.!.9X8X~.^.8XtX_.bXW.` 8.:X&X*X*X*X-X^.^.eXaX9XR.).qXqXqXqXqX8XtXsXsXsXsXsXsXtXqX].].].].].].lXKXrXF.~.lXlX)._._.0X0X0X0X*XT.R.(.^._.kXxXxXcXKXKXbXGX:X' t.w.K.iXtX^.~.~.!.^.!.R.J.E.J.R.,X#Xo._ r.r..X;XU.U.U.P.I.P.P.U.U.I.P.W.W..X}.3.) p.<XrXHXGX{ { vXbXbXGXwX-X>X*X*XI.W.OX#X+X}.t.5.n + u s r y y r r r p p p p r r r r r 7 7 7 7 7 X O @ 7 7 8 r r r r r r r r 7 @ X O O X X X X X O @ 7 7 r r r r r s s s r @ O 7 7 # 7 # - - # 7 r 7 - - - - r r # # # ",
"7 7 7 7 r 7 7 7 r r r 7 7 r 7 # - - # @ @ @ @ @ @ O @ 7 r r r r r r r r r r r r r r r r r r r r 7 7 7 p s 7 O 7 p r r r r r r r r r r r r r r r r r r r r r r r r p p p p p t y @ @ v G <.t.p.Q.I.+Xi.y.V.@X=XH.L.i.e.XX&XJ.T.U.;X%X@.@.$.$.X.>.w.n.m.i.p.L.I.I.I.|.I.P.OXQ.p.p.p.i.+X+X@._ .X&X&X!.*X-X0X*X7X7X7X~.-X!.&X&X;X6XAX<XQ.Q.bXmX&XY.8XqXqX8X_.`._.tXsXsX].xXcXcXzXxXnXyX!.!.!.^.kXkXhXyXyXhXyX].qX8X8X8XsXtXtX8XqX~.T.&X&X=XwX*XU..Xr.H.=XuXu.` W.bXrX^.~.*X*X*X&X+X+XL.r.n.n.c.X...#.Q N N Q -.n 4 4 z i i i i i i f f f : i i : : u u u i i i i u u u u u u u u u u u u u u u u u u u u u u u u u u u u u u u u u u u u u u u u u u u u u u u u u u u u u u u u u u u u u u u u u u u u u u u u u u u u u u u u u u u u i u u u u u u u u u u u u i i i u u u u u u u u u u u u u u : i f f i i : i : : i i i i z ^ h.! I Q %.$.3.<.c.y.9.7.W.&X!.&XU.W.!.0X7X~.~.7XeX8XaXQ._ r.4X-X~.*X,X7X7XqX8XeX9X*X7XqX].qXtXtXtXtXtXtXtXtXtXqXtXqXqXqXyXyX].).mXHXwXF.7XbXyX8X8X8X0X0X0X0X*X0X(.(.~.).bXbX<XAXnXHXvX4XOXX.4.>.i.aXeXR.R.!.!.~.!.U.Y.J.T.T.>X#Xo.o.}.|.+X;XU.U.U.P.P.L.L. X|.P.L.H.P. Xm.3.5 a.+X<XvX5Xa.7.5XpXwXpX=XW.*XwX-XU.W.+X+Xi.y.+.Q a + p s y y y r r r p p p p r r r r r r 7 7 7 7 X O @ 7 r r r 7 r r r r r r 7 @ X @ @ @ O @ O O O @ 7 r r r r r r s p r 7 O O 7 7 - - - # # # 7 # # # # # # # # 7 7 7 ",
"7 7 r 7 r r 7 7 r r 7 7 r 7 7 7 - - # @ @ @ @ O O O O @ 7 r e r r r r r r r r r r r r r r r r 7 r 7 7 s s 7 O 7 p r r r r r r r r r r r r r r r p p p r r r r r r r p p p p t y e X R #.| [ 8.U.W.pX2X) | ) ` ` ` _ ` u.4X&XT.J._ @.) ,.&.&.$.$.x.m. XL.K.I.I.K.K.I.I.L.P.p.a.a.a.i.OXOX@._ U.&XT.T.!.0X0X0X0X7X7X~.J.bXJX+X` [ [ { HXvX] { K.G.(.8X8XqX8X(.`.'.sXtX].nXcXgXfXfXlXeX!.!.J.R.yX[.yXyXhXhX].].qXqX8X8X_.`._.).qX7XwX*XW.-XbXaX>X;X8.L.=X4Xm.) P.uXwX^.-X-X-X&XT.U.W.G.8.r.u.t.<.3.#.Q N N Q -.n : 4 : i i i i i i > f f : i i : : u u u i i i i u u u u u u u u u u u u u u u u u u u u u u u u u u u u u u u u u u u u u u u u u u u u u u u u u u u u u u u u u u u u u u u u u u u u u u u u u u u u u u u u u u u u i u u ; ; u u u u u u u u i i i u u u u u u u u u u u u u u : i f f i i : i : : i i i i z Q ;.*.B %.;.3.c.0.m.u.r.8.+X*X*X,X&X,X*XR.R.).wXaXbXiXwXH._ 8.pXwX^.*X*X~.qXlX).R.9X8XqX].].qX_.qXqX].].qXqXqXqX].].].yXyXyXlX].^.!.-X!.J.~.tXtXsX8X8X8X0X0X0X~.~.~.~.~.!.*XW.` ` { !.{ _ w.3.X.X.i.aXeXJ.F.!.*XT.T.U.U.T.&X&X,X+X' o.#X;X&X,XU.U.U.I.I.P.P.|.|.|.L.p.L.}.m.2.V _ ` ] ` ` [ ` ` ` ` ` _ ' U.vX>X=X=X+XP._ | x R + o # r r r y r r r r p p r r r r r r r r r r r X O @ 7 r r 7 7 r 7 7 r r r 7 7 7 p s p r r r r 7 r r r r r r r p p r @ O X O 7 7 - # - # # # # # # # # # # # # 7 7 7 ",
"7 7 7 r r r 7 7 7 7 7 7 r 7 7 r @ @ # # @ @ @ @ O X O @ r r e r r r r r r r r r r r r r r r r 7 r 7 7 s s 7 O r p r 7 r r r r r r r r r r r r r r p p r # r r r r r p p p s t y e @ b 4 @.7.G.U.*X>X:X) ) @.' ] ] ' o.e.#X&X9X&X[ +.+.,.} #.$...x.v.n. X|.I.I.I.I.U.U.P.P.L.a.8.r.K..X.X_ _ U.&XT.R.~.0X0X(.).8X7X(.^.bXJX=X' a.{ a.HXvX] H.G.Y.0XqX8X0X0X~.(._._._.].kXxXjXxX].wX>X&XU.!.^.hXfXhXhXfXfX].].[._.].].].].].].qXqXqX).R.*XaXaX9X,X8.I.;X4Xv.) m.4X=X-X-X,X,X,X&X&XU.G.G.8.p.r.w.9.#.Q N v Q -.n 4 z z i i i i f f > : f : i u : ; u u i i i i i u u u u u u u u u u u u u u u u u u u u u u u u u u u u u u u u u u u u u u u u u u u u u u u u u u u u u u u u u u u u u u u u u u u u u u u u u u u u u u u u u u u u i i u ; ; u u u u u u u u i u i u u u u u u u u u u u u u i : i i f i i i i i : i i i i z #.2.$.} ..,.3.n.n.m.n.L.G.oX*X*X*X*X&X~.(.(.7XeXiXiX>X.Xa.' G.iXrX^.~.~.^.tXlX_.R.8XtX].].].].].].].].].].].].].[.].].lXlXlXkX^.!.*X~.J.J.~.eXyX8X8X_.).0X0X~.~.^.^.~.*X,X:XQ.{ F.{ W.K.7. ...j. .p.iXeXJ.G.&X>XT.U.U.U.!.*X&X=X+X' ' ;X,X&X*XT.U.J.U.U.I.I.K.L. Xi.p.p.i.n.2.} [ ' ] { [ [ [ [ ] { { [ _ Q.pX>X;X+X.X}. .$.z i % a i # r r r r r r r r r p r r 7 7 8 7 7 7 7 7 O O @ 7 7 7 7 r r 7 7 7 r r 7 7 r p s r r r r r r r r r r r r r p p 7 O O O @ 7 7 # # # # # # # # # # # # # - # 7 7 7 ",
"r 7 7 7 r 7 7 7 7 7 7 7 7 7 7 r @ @ # # # @ @ @ O O @ 7 r r r r r r r r r r r r 7 7 7 7 7 7 7 7 r 7 7 p s @ O 7 t r 7 7 r 7 7 r r r r r r r r r 7 r r @ O r p t y p p p a s t r O p o . Z.pXuXiX*X] 7._ 7.5XpXrXiX<XpX#X` K.iX>X@.5.A.Z.$...=.$...X.w. X.X|.P.|.|.+X+X+X+X|.L.i.r.K..X.X ._ .X;X*X*X*X0X0X~.~.).).qXeXJ.H.H.a.a.[ a.W.W.H.8.pXpXeXeX(.*X*XT.(.qXqXqX].).].kXKX^.] 8.oX&X7XqXkXnXnXnXxXxXxXnXkX].lXkXnXxXnXnXbXaX7XeX9X9XeX8X7XwX#XP.8.i.4.| >.e.I.>X;XG.G.;X;X+X;X+X+X|.OXp.9.<.#.Q N v ^ -.n : z i i i i f f f : : f : i u ; ; u i i i i i i u u u u u u u u u u u u u u u u u u u u u u u u u u u u u u u u u u u u u u u u u u u u u u u u u u u u u u u u u u u u u u u u u u u u u u u u u u u u u u u u u u u u i i u u ; u u u u u u u u u u i u u u u u u u u u u u u u i : i i f i i i i i i i i i i z #.2.=.} ..:.3.v.m.@X#X$X+X;X;X&X&XoX] Y.9XeX9X-X{ O.O.O.}.W.^.bXlXlXaXaXbXkXlXlXbXbXbXbXxXxXnXnXkXkXxXxXnXxXxXxXnXxXnXxXkXnXnX^.H.G.H.J.G.!.bXqX).(.).).~.~.~.^.^.-X&X8.K.;X<XHXJX=XH.8.7.9.$.+.| 7.<X^.F.G.&X;X&XU.P.I.+X=X&X=X;X' ' &X=X!.=X!.&X&X&X+XP.p.8.7.w.w.7.7.o.X.} 5 a.vXbXbXnXHXvXbXbXvXvXQ.` 7.8.O.r.8.8. Xv.A.v o W h.R i p p r r r r r r r r r r r 7 7 7 @ O O O O @ @ @ @ 7 7 r r 7 7 7 7 r r 7 @ r r @ X O O O 7 7 7 7 r r r r p p r 7 7 @ @ 7 7 # # # # # # # # # # # # # # # 7 7 7 ",
"@ @ 7 7 7 7 7 7 7 7 7 7 @ @ @ 7 @ @ 7 @ @ 7 @ @ O O O @ r r r r r r 7 7 r r r r @ r r # @ 7 7 7 @ @ r p p 7 @ 7 t r 7 7 r r r 7 r r r 7 7 7 r r r r r 7 @ 7 r p s y s s s p p t 8 8 o . V.pXpXaX*X'  ._ ' uXaXyXyXeXpX#X_ }.pX4X .<.Z.@X4.| $.%...:.w.XXOXOXp.OXOXOX#X+X+X.Xi.m.n. X#XXX .) OX2X:X;X:X:X>X-X-X-X*XwXuXH.8.p.m.n.9.7.Q.{ { I.FXpXwXeX7X*X;XoX*X9XwXwXeXeXrXHXJX:X` r.K.&XwXrXnXnXHXnXnXnXxXnXbXrXlXnXnXbXnXHXHXvX>XwXuX9X9XwXuX4XOX}.i.w.....X.9.e.2X#X>.q.1X#X@X$X@X@X@XZ.b.5.;.Q Q N v ^ ~ m : 4 : : : i i : : : i i : i i : : u u u u u u u u u u u u u u u u u u u u u u u u u u u u u u u u u u u u u u u u u u u u u u u u u u u u u u u u u u u u u u u u u u u u u u u u u u u u u u u u u u u u u u u u u u u u u u u u i i i i i i i u u u u u u u u u u u u u u u u u i i i f f f i i i i i i i i i z Q %.U V #.=.2.l.b.%X%X#X$X#X#X#X#XOXo.p.4XuX<X2X7. .X.w.m.$X<XvXvXiXvXiXbXbXbXbXbXbXbXbXnXnXnXHXbXbXbXbXbXnXnXnXnXnXHXbXbXHXbX*XL.r.K.8.8.=XiXiX*X*X-X-X&X+X=X=X+X:X;XO.XX2X:XHXKX^.H.8.' @.&.#.+.9.!.!.H.8.+X2X.X.X.X X.X#X2X#XOXo.7.OX+X+X+X&X;X+X;X#Xi.u.9.<.9.<.>.@.o.w.$.6 a.GXbXnXnXnXnXbXkXlXbXQ.' 7.' 8.r.r.r.L.@X1X4 & -.l.S & 0 u p r p r r r r r r r 7 7 7 7 @ O O @ @ @ O @ 7 7 7 7 7 7 7 7 7 7 7 7 7 7 7 @ O O O @ r r r r r r r r r s r @ 7 @ @ r 7 7 7 7 7 7 7 7 7 7 7 7 7 7 7 7 7 7 7 ",
"7 r 7 7 7 7 r r 7 7 7 7 7 7 7 7 7 r 7 7 7 7 @ O O X O @ r r r r 7 7 # 7 7 r r 7 @ O X X @ r 7 @ @ O O @ @ O O @ 7 @ @ @ 7 7 @ O O O O O @ O O O O @ r r r r r r y y s s g g s j 0 c m 2 m.4X*X9X>X+X:X#X&XiXyXtXtXtXiXP.1  .#XL. .X.q.n.w.4.l.2.2.3. .o._ 7.[ @.@.@.7.o.o.o. .9.w.o.w.q. .| @.7.o.o.o.7.8.8.8.8.G.8.G.o.7.q.0.0. .p.HXvX{ { G.G.F.E.F.Y.|.K.G.G.G.J.Y.J.F.G.Q.I.r.L.K.U.wX^.F.] { ] -XnX^.F.W.J.W.W.J.H.{ { 8.8.{ 8.O.8.8.{ { 8.7.@. . .| } .. . . . .| | | :.| | | | | } V x x 4 x 2 2 N I z : : : : : i i : : : : : : i i : : u u u u u u u u u u u u u u u u u u u u u u u u u u u u u u u u u u u u u u u u u u u u u u u u u u u u u u u u u u u u u u u u u u u u u u u u u u u u u u u u u u u u u u u u u u u u u u u u i i i i i i u u u u u u u u u u u u u u u u u u i u i i f f i i i i i i i i i z 4 x x x N N N } } | )  .@. . . . .>._  .r.8.' 7. .>.9.>.w.r.8.H.8.G.G.8.G.G.{ H.H.U.J.G.F.F.F.F.{ F.H.H.{ { { F.{ { F.G.F.J.J.8.r.r.r.a.' 8.H.{ G.8.{ { 8.8.8.8.O.O.r.O.8.|.p.{ { AXGX=Xp.t.+.%.#.@.Q.J.U.I.+X.XG.O.O.O.O.O.O.w.w._ _ 7.8.8.8.8.8.o.o.7. .<.$.$.1.4.0.q.n.n.,.3 H.bXmXlXkXnXnXlXhXkXbXmXwXpXpXuX.X+X;X+X#X1XV x l.C.*.l a a p p p r 7 @ @ O O O @ @ O O O O O O O O X O O @ @ O O @ O @ @ @ @ @ 7 r r 7 7 7 7 r r r r r r r r r t s 7 X O O O 7 @ @ @ @ @ # 7 7 # 7 7 7 7 7 7 7 7 7 7 ",
"r 7 7 7 7 r r r r 7 r 7 7 7 7 @ @ e 7 7 7 7 @ O O X O @ r r r r 7 7 7 7 r r 7 7 @ X X X @ 7 7 7 7 O X O O O O @ O O O O @ O O X O O X O O O O X X @ r r r r r r r y k k s s p a q v x 3 }.>X*X*X;X:X2X2X9XeX8XtX'.yXbX+X1  .OXa. .X.w.q.w.0.c.5.c.0.9.o.` ' _ ` ` ` ` ` ' o.+.,.3.>.9. .>._ _ ` _ _ _ _ _ ' ' ' 8.' 8.o.9.3.1.1.>.OXKXHX8.{ { ] F.F.] { K.r.{ G.{ G.G.{ ] F.{ 8.8.8.H.J.wX-X] ] ] ` =XGX-X{ F.H.H.H.a.8.7.o.o.7.' 7.' _ _ ` ` ` ` ` ` ` ` ` ` ` ` 1 ` 5 5 3 V 3 5 3 3 M M l l l 2 2 2 4 m m z : : : i i i i : : i f : : i i ; ; i i u u u u u u u u u u u u u u u u u u u u u u u u u u u u u u u u u u u u u u u u u u u u u u u u u u u u u u u u u u u u u u u u u u u u u u u u u u u u u u u u u u u u u u u u u u u u u u u u i i i i i i u u u u u u u u u u u u u u u u i i i f i i i i i i i i i i i i : 4 4 x n v x N 5 5 ) ) _ ) | ) | | ) ` ` _ ` _ _ _ ` ` ` _ 7._ o.7.7.o.o.o.8.O.r.L.L.8.{ ] ] ] ] ] { { ] ] ] ] ] ] ] ] ] ] ] O.o.' ' { ' ] ] ] 8.8.{ ' O.O.o.o.O._ ' ] ' +XOX` ` vXJX<Xp.y.} #.#.+.W.F.H.H.H.H.] ] ' _ O.o.o.X. .@. .o.' ' _ _ ' _ ' o. .4.$.=.1.3.y.v.m.m.2.6 Q.bXhXjXkXkXkXkXhXkXlXlXbXbXbXeXR.R.*X>X;X1X#.l l.C.*.& c a p p p t 7 @ O O X X O O O O @ @ @ O @ O O O O @ O O O O O O O O O O 7 7 r r r 7 r r 7 7 7 7 r r r r p s 7 X O O O 7 7 @ @ @ 7 7 7 r 7 7 7 7 7 7 7 7 7 7 7 ",
"@ @ O O @ @ 7 r 7 @ @ @ @ O O @ O O O O @ @ @ O X X O @ r r r r r r r r 7 7 @ @ O X X O O X @ r r 7 7 r r r r r r r r p p p r r p 7 @ O @ 7 7 7 7 r r r r r r r r t k y k p d C h.h.M 3 }.>X&XoX.X;X.X&X*X0X(.).`.qXbXW.1 :.OXu.| X.q.v.q.9.y.3.:. .q.#X+X;X=X=X=X=X=X&X=XP.+.+.@.9.m.u.$X#X:X;X;X+X+X;X+X;X&X&X=X>X4Xp. .>.2.j.X.p.pX<XO.8.wXrXiXeXeXpX;XO.J.iXpXJ.J.iXvXvXiXiXrXrXrXrXnXbXiXvXwX<X!.!.>XiXiXiXpXFXpX_ w.w.7.7._ $X4X4X<X<XwXwX4X2X:X:X=X=X=X:X:X6X6XOX%X+.) <.0.0.3.3.1.*.F ! v N N N m m z i : i i i f i i : i f f : i i ; ; i i i u u u u u u u u u u u u u u u u u u u u u u u u u u u u u u u u u u u u u u u u u u u u u u u u u u u u u u u u u u u u u u u u u u u u u u u u u u u u u u u u u u u u u u u u u u u u u u u u u u u u u u u u u u u u u u u u u u u u u i i i f i f i i i i i i i i i i : 4 m W Q Q Q U +.@.7.i.m.e.n.m.u.OX$X6X:X>X;X&X<X<X<X<XpXvX5X7.r.OXOX$X$XL.r.r.i.r.a.Q.4X4XGXvXvXvXvXvXvXpXwX<X>X=X-XwXwXwXwXwXuXuXrXrXrXrXiXiX&X,X!.U.;X;XXXi.;X<X-X^.-XwX4Xo._ FXJX=Xa.9.} %.M <.vXmXvXvXmXmXrXrX=Xp.|.XXm.O.7.@X#X+X;X;X:X:X:X:X:X:X}.v.:.1.x.x.t.t.n.m.<.6 H.bXhXhXhXhXhXhXhXlXyXyXyXtXyXtX_.).7X-XL.m.S v l.C.*.& c d p p s p t r r 7 @ @ O @ @ 7 r r 8 7 r 7 7 7 7 7 7 7 7 7 7 7 7 r 7 7 7 7 7 7 r 7 7 7 7 7 7 7 r r r r t s 7 O O O X @ @ @ @ @ # 7 7 7 7 7 @ @ @ O O O O @ @ ",
"O O O O O @ 7 7 @ @ @ O O O O O X O O O O O O X O X O @ r r r r r 7 7 7 7 @ O O X X O O X X @ p p p s s s p p s s s s s s s s s s p 7 @ 7 r r p r p r r r r p p t s s y y y d b b.b.B 5 }.:X&XU..X.X.X,XR.R.~.^.^.qXbXW.1 :.V.u.| $.3.y.9.<.3.0. . .e.2XuXpXpXiXaXaXaXiXiX&X[ [  .7.L..XuXuXiXeXwXwXwX9X9XwX9XwXwXvXvXP._ @.<.,. .p.=X!.r.8.vXHXHXbXHXGX>X] F.HXbXR.E.nXHXnXnXnXnXkXkXxXnXnXnXHXmXvXF.] 7XbXbXlXnXKXHX' 7.7.@.{ ` -XGXGXbXbXbXbXbXbXbXbXbXbXbXbXbXbXvXuX5X' ` }.L.}.}.n.q.4.1.;.#.Q %.Q v z : i i f f f f f i i i f > : i : ; ; ; ; u u u u u u u u u u u u u u u u u u u u u u u u u u u u u u u u u u u u u u u u u u u u u u u u u u u u u u u u u u u u u u u u u u u u u u u u u u u u u u u u u u u u u u u u u u u u u u u u u u u u u u u u u u u u u u u u u u u u u u i : i f i f i i i i i i i i i i : 4 n Q *.*.%.#.:. .O..X;X|.OX#XW.-XvXbXaXaXeX8XbXnXnXkXnXHXpX` { Q.W.4XpXH.' a.H.8.{ Q.vXbXHXHXHXHXHXHXHXHXbXrXrXrXrXbXbXbXbXbXbXbXnXkXnXnXbXbXeXeX).-XeXuX,XW.rXbXlXyXyXiX<X' ` JXJX6Xa.9.} #.5 a.HXnXKXHXnXnXnXnXiXQ.W.=XOX' 8.>XwX9XeXeXaXiXiXaXaXuX&XP.@.@.m.n.u.u.n.n.<.` Q.bXyX[.yXyXyXyXyXyXlXyXtXtXtXtXtXqXeX>X8.>.v A z.S.-.i d d t t p p t t t t r r @ 7 r t r r r r r r r r r r r r r r p p p p r r r 7 7 r r r 7 r 7 r r r r r r r r p 7 X O O X @ O O @ O @ @ # # 7 7 @ @ O X X X O O O ",
"7 7 7 r r r r t r r r 7 7 r r r r r r 7 @ @ @ X O X O @ r r e r 7 7 7 7 7 7 7 @ O X X X O @ r r p p p p r r p s t r r r r r r p p r r r r p r r r r r r r p p p p p k y y y u z b.b.B 5 }.;X+X+X.XI.U.,X~.*X-X!.~.wXbXW.1 $.n.y.,.1.<.9.9.y.y.9.q.w.i.+XoX,X-X*X0X(.(.0XeX&X[ @.e.L.|.K.&X&XoXR.T.!.T.!.T.!.!.!.!.*X=X8._ @.@.@.7.p.=XW.K.8.<XiXrXeXrXrXwXwXrXlXyX_./.rXmXmXlXrXqX].].].].].bXbXrXrX^.^.eXaXqXyX].^.W.a.w.9._ Q.^.).rXqXqX]._._.~.~.~.~.^.^.~.~.*X*X*X&X=X8.8.P.I.P.|.L.e.9.>.$.#.Q Q Q m : i i i f f f f f i i i f > : i : ; ; u u u u u u i u u u u u u u u u u u u u u u u u u u u u u u u u u u u u u u u u u u u u u u u u u u u u u u u u u u u u u u u u u u u u u u u u u u u u u u u u u u u u u u u u u u u u u u u u u u u u u u u u u u u u u u u u u u u u u u u u i : i f i i i i i i i i i i i i > : n ! *.#.#.+.@.OX+X.X&X&X+X+X~.~.-X-X~.7X(.~.).].].].].rXrX^.-X!.!.-X=X<X<XQ.] U.!.-XbXlXlXrXrXrXrXrXrXyXrXqXqXqXqXqXqXqXqXtXqXyXyX[.yXhXyXyX8XeX8X).7X-X!.!.^.rX].].].rXuX' _ %X6Xs.@.@.+.U +.[ rX].rXrX).^.).-X^.H.W.=XI.' ] *X-X~.(.(.).^.).0X0X*X&XU.7.@.m.i.p.p.i.n.<.6 H.bXyXlXyX]._.yXkXyXyXqX8X8X(.(.).^.~.=Xe.c.v w ~ k.R i u p t y y t t t p t r r 7 r r t r r r r r r r r r r r r r r r r r r r r r @ @ 7 r r r r r r r r r r r r p s @ X X O O r 7 7 7 7 r r r r r r 7 7 @ @ 7 7 r r r ",
"t t t p p p p p s p t t r t p p y p p r r 7 @ O X X X @ @ 7 @ @ 7 8 8 8 8 r 8 7 O O X X 7 p p p t t r r 7 r r r r t r r r r p t r r p s s p p r r r r r r p p r 0 t y e e e u 4 b.M.U 5 i.+XP.Q.OXp.K.&X*X9X>X,X!.9XbXP.< ..0.9.c.c.0.9.w.t.w.w.u.m.i.K.I.&X!.!.!.T.T.*XuX&X7.t. XXX.X|.I.I.J.U.J.J.J.J.J.J.J.J.H.G.L.o. .>.:.,.[ { =X&X8.8.!.^.^.^.R.J.rXHXnX].yXtXtX].].).7X7X~.0X).).).).yXlXrXqXeXaXaXeXtXlX^.] _ r.q.>._ 4XHXrX^.^.^.^.).~.T.U.U.U.U.J.U.U.Y.T.T.U.P.+X#X|.|..X|.}.u.9.@.+.#.Q Q Q v : z i i f f f f f i i i f i : i i ; ; u u u u u u u u u u u u u u u u u u u u u u u u u u u u u u u u u u u u u u u u u u u u u u u u u u u u u u u u u u u u u u u u u u u u u u u u u u u u u u u u u u u u u u u u u u u u u u u u u u u u u u u u u u u u u u u u u u u u u u u u i : i f f f i i i i i i i i i i f : n *.-.#.$.| @.5XpX&XT.&X;X&X~.~.!.+X&X&X&XT.J.J.~.7X).^.7XnXbX~.!.T.J.bXHX^.] =XwXiXkXlX`.`.).^.^.^.(.).qXtXtXtXtXtXtXtXtXyXtXqX].].].].qX8X0X9XeXqX~.!.!.!.*X7X8XtXqXeXwX] _ 1 1 ) 5 | ;.#.B ) W.!.W.!.J.Y.J.J.U.+X;X+XL.' { &X&X~.~.~.~.!.~.*X*X&X+X|.>.@.i.r.p.p.L.n.,.3 Q.bXyXlXlXqX7XbXbXyXeX7X*X,XoX&X:X+Xp.p.9.5.M * z n i u r e y y y r r t r p r r r r r r r r r r r r r r r r r r r r r r r r r r r @ O @ 7 7 # 7 7 7 7 7 r r r r t s @ X O @ @ p p p p p p p p s p p r r r r p s s s s ",
"t t t t t r r r t t r r r r t t r t r r 7 7 @ X X X X O @ @ @ @ 7 # @ @ @ @ @ @ X O O X @ p p p t r r r t t r 7 7 r r r r r r r 7 r p s p p r r p p r r r p p p p p r e y y u l b.M.V 5 m.+X+X+XQ.p.P.&X*X-X&X,X*X9XbXP.1 #.3.0.9.0.0.9.q.w.w.t.q.u.r.L.U.&X&X!.W.U.U.-XiX,X8.i.r. X.X.X.X|.P.P.P.P.P.U.U.U.U.P.+XU.+Xw. .| ..3.7.W.vXpX8.8.,X*X~.).~.^.rXnXlXyXtX8XyX_.qXqX8X9X0X8X7X(.qX8XqXeXqXqXeX8X8XsXqX).^.J.W.7.w. .) 5XHXrX^.7X~.^.~.~.oX.X.X.XW.OX+X+XoXoXU..X|.OX|.|.|.+XOX}.p.y.<.+.;.Q %.Q v z z i i f f z f f f i i i : : i i ; ; u u u u u u u u u u u u u u u u u u u u u u u u u u u u u u u u u u u u u u u u u u u u u u u u u u u u u u u u u u u u u u u u u u u u u u u u u u u u u u u u u u u u u u u u u u u u u u u u u u u u u u u u u u u u u u u u u u u u u u i i : : i f f f i i i i i i i i i i : ; n -.*.#.$.|  .:XuX&X*XoXU.&XT.*X&X+X+X.X&X&X&X!.-X9X0X).).bXlX).&XY.J.vXbX=X8..XU.^.kXlX`.qX).).).qX8X8X8XyXtXtXtXtXyXtXtXtXyXtXtXtXtXqXqXeX9X0XeXeX7X~.~.!.*X9X8XtXsXaXwX' ` s.V.,.$.#.*.D D @.;X*X&X;X&X&XoXT.;X.X+X|.|.r.8.&X&X&X!.T.&X!.U.&X&X&X.X}.@.@.i.i.L.i.m.n.1.3 a.vXwX^.~.qX8XyXyXyXtX9X*X,XoX.XOXOXp.V.0.3.x * i f f f r e y y y t t t r p p p t r r r t t r r r t r r r r r r r r r r r r r r p 7 O @ 7 @ @ # @ 7 7 7 7 r r r 7 r @ X O @ @ r r r r r r r r r p r 7 @ @ r p p p p p ",
"s t p 7 O 7 r p r r r r r r r r r r 7 7 r r @ X X X X X X X X X # @ X X X X O X X X @ r r t p r r r r r r r r r r r r r r r r r r t r r p h s 7 r s p r r r r r r r r y r p i l M.S.M 5 m.+X+X+X|.p.L.:X&X*X*X*X*X9XvXP.< } c.0.0.0.0.q.q.q.q.q.t.w.u.r.K.;X;XU.U.&X=X-XeX*XI.i._ O.U.U.P.|.|.|.|.|.|.U.U.U.U.U.U.;X:Xw. .@.:.0.W.wXKXHX{ 8.=X*X*X9X~.R.rXHXnXqXqXqXqXqXqX7X7X7X7X7X7X7X7X7X7X7X7X7X*X~.~.~.!.!.~.bXiX] _ [ ` 5XnXrX~.*X~.!.!.!..X.X.X+XU.U..X.XU.&XU.K.L.|.|.+X|.+X|.OXOXu.@.>.,.$.#.U x 4 z i i i i i i i > > i i i i i i i i i i i i i i u u i u i u u u u i i i i u u u u u u u u u u u u u u u u u u u u u u u u u u u u u u u u u u u u u u u u u u u u u u u u u u u u u u u u u u u u u u u u u u u u u u u u u u u u u u u u u u u u u u u u u u u u u i i i i i i i i : : : f f f : : : : : : : i i i : z N *.%.%.+.+._ >XuX&X&X&X&X&X&X&X.XU.U.+X+X&X&X!.-X9X7X(.qXbXlX^.J.G.U.iXGX*XO.K.] W.lXlX).7X7X7X7X7X).8X8XtXtXtXtXtXtXyXtXtXtXtXqXqXqXqXeXqX8X8XqXeXaXaX~.F.~.7XqXtXtXeXuX_ _ UXJXA.5 #.$.} V >.;X&X&X&X+X&X&XoXoX&XP.o.r.;X&X&X&X!.&XU.G.U.U.U..X.X Xe.>.:.n.i.n.n.n.x.1.3 { vXW.` { eX].].[._.qX0XT.&X.XU.8.r.m.n.c.j.& # # X @ r r r r r r r r r r r t t r r r r r r r r r r r r r r r r r r r r r r r r r p s @ X O X X X X X O @ r r r @ O X X X X X X O O X X X X X O O 7 7 @ 7 7 r t r r r ",
"7 r s p r t 7 7 p p p p t r 7 7 r r r @ @ @ @ O O O O O O O O O @ @ @ O O O O X X X @ r r r t r r r r r r r r r r r r r r r r r r r r r p h p 7 7 p p r r r r r r e y y r u i l b.C.M 5 m.OX+X+X|.r.r.;X&X&X*X*X~.9XvXQ.1 +.x.x.0.w.q.q.q.q.0.0.0.9.u.a.L.#X;XU.U..X+X-XeX~.G.i.o.r.H.J.P. X|.|.|.|..XU.U.U.U.U..X&X#X7.| +.$.9.K.=XvX4X{ [ &X,XoXT.~.7XrXmXrXqXqXqXqXqX8X).).7X7X7X7X7X7X7X7X7X7X-X*X~.*X*X*X~.!.eXwXJ.H.[ ` <XnXqX~.*X*X&X&X&X.X.X.X+X+XW..X.XU.+XU.P.|.P.P.|.|.L.p.L.#Xu.@.>.2.$.%.Q v 4 : : z z z z i i > > i i i : i i i i i i i i i i u u i i i i u u u i i i i u u u u u u u u u u u u u u u u u u u u u u u u u u u u u u u u u u u u u u u u u u u u u u u u u u u u u u u u u u u u u u u u u u u u u u u u u u u u u u u u u u u u u u u u u u u u u i i i i i i i i : : : i f f : : : : : : : i i i i z N %.%.Q +.| _ >XuXoXoX+X.X.X+X+X.XU.U.U.+X&X!.!.*X-X7X7XqXlXlX).>XI.H.<XiX>X.X|.] W.bXmX~.0X0X8X0X8X8X8XqXqXtXtXtXtXtXtXqXqXtXtXqXqXqXqXqX8X8X8XqXqXyXrX).^.^.^.-X7X8XeXuX_ ` UXJXs.5 +.#.} V @.;X&X&X&XW.W.&X&X&X&XL.7.K.&X!.&X&XT.T.T.U.U.I.I..X X Xu.:.@.t.u.n.n.x.x.1.3 { vX$X_ 8.vXyX[.yXqX8X0X*X&X+X.Xr.r.}.m.c.l.q # 8 O r s p t r r r r r r t r r r r r r r r r r r r r r r r r r r r r r r r r r r 7 p s @ X @ O @ @ @ @ @ 7 r r p @ O O @ @ # @ @ O O @ @ @ @ @ @ 7 r r 7 @ 7 t p r r r ",
"O r s p s p O @ s p p p t r @ O 7 r r @ X O O @ @ @ @ @ @ @ 7 7 @ @ @ @ @ @ O X X X @ r r r r 7 r r r r r r r r r r r r r r r r r t r r p s p @ @ r r r t t r t r r r t t p i l M.C.4 . | 7.L.+Xm.7.a.$X=X*X*X~.~.7XiXQ.1 +.c.x.0.w.q.q.q.q.q.q.0.9.u.t.}.#X+XU.U.U.U.*XwXR.{ r.m. XU.J.P. X|.|.|.|.U.U.U.U.U.U.U..XOX .| +.$.3.w.7.` [ ) _ +X;XU.] ).bXrX!.^.).).).).7X7X).7X7X7X7X7X7X7X7X7X7X~.~.!.!.*X*X*X*X~.!.*XvXvX{ ` 4XHXqX~.7X7X-X*X&X.X.X.XU.U.U..X.XU.U.U..X|.L.r.L.L.r.8.i.#Xn.@.@.2.;.;.%.v z z i z z z z i i > > i i : : i i i i i i i i i i u u i i i i u u u i i i i u u u u u u u u u u u u u u u u u u u u u u u u u u u u u u u u u u u u u u u u u u u u u u u u u u u u u u u u u u u u u u u u u u u u u u u u u u u u u u u u u u u u u u u u u u u u u i i i i i i i i i ; : i : : : : : : : : : i i i i z N #.#.U +.) _ >XwXU.Y.U.U.U.U.U..XU..X+X+X&X!.!.!.!.-X7X8XqX].nXGXH.G.G.] =XGX>X] W.bXlX7X8X7X8X7X7XqXeXqXqXtXtXtXtXtXtXtXtXtXtXtXtXqXqXqXtXtXtXtXqXqXyXbXHX>XW.U.!.~.wX4X_ ` m.OXr.n.,.} +.5 @.;X&X&X+XW.W.W.&X&X+XL.7.K..X&X*X,XT.U.&X+XU.K.L. X X Xu.>.@.y.9.u.t.x.x.$.3 a.vX6X_ r.HXnXnXbXeXqX7X&X&X+X+X|.|.|.}.q.3.2 o + X p h s s s s p p p t t r r r r r r r r r r r r r r r r r r r r r r r r r r r 7 p s @ O 7 7 r 7 7 7 7 7 r p p O @ @ r p p p r t t t t r r 7 7 r r p r X O p s s s s ",
"7 s s p g p X @ s p t p p t 7 O @ 7 7 O X O @ 7 7 7 7 @ @ @ @ 7 # @ @ @ @ 7 @ O O X @ r r r r r r r r r r r r r r r r r r r r r r t r r p s r O @ r t r p t r t r r t t t p i q z.b.m . @.u.}.$Xm.@.9.OX+X=X*X~.~.9XiXQ.6 +.c.x.0.9.q.q.q.q.0.0.0.9.t.u.L.#X+XU.U.U.U.=X9XT.8.e.}.}.P.U.P.|.P.I.|.|.U.U.U.U.P.P.U.I.}.@.| +.$.3.0.w.7.@.) @.#X>XY.] ).bXqXE.^.).7X).).7X7X7X7X7X7X7X7X7X7X7X7X*X~.!.!.!.&X*X&X!.~.~.*XaXvX{ ` <XbXqX~.0X7X-X&X!..X.X.XU.U.U..X.XU.U.P.+X|.L.r.i.L.8.7.p.%Xn. .:.:.$.=.%.v z z z i z z i i i : : i i : i i i i : i i i i i i u u i i i i u u u i i i i u u u u u u u u u u u u u u u u u u u u u u u u u u u u u u u u u u u u u u u u u u u u u u u u u u u u u u u u u u u u u u u u u u u u u u u u u u u u u u u u u u u u u u u u u u u u u i i i i i i i i i ; : i : : : : : : : : : i i i i : N #.Q U +.+._ 2X4XU.U.U.U.U.U.U..X.X.X.X+X&XW.!.!.R.~.9X7X).tXbXbX!.W.G.] >XvX&X] =XbXiX8X(.8X7X8X8X7XqXqXqXqXqXqXtXtXqXqXtXtXtXtXqX8X8X8X8X8X_.tXqXqXqXaXHXwX&X+XJ.^.rX<X_  .x.m.e.M.,.} B 5 @.;X&X&X!.W.W.W.&X+X+X}.7.r..X+X=X&XT.U.&X&XP.K.K.L.L. Xn.>.@.y.9.t.q.q.0.$.6 a.vX6X` { HXnXkXbXeX7X-X!.+X+XOXL.p.L.i.e.0.3 * + X t h s s s s p p p t t r r r r r r r r r r r r r r r r r r r r r r r r r r r r p s @ O 7 7 r r r r r r r r r @ @ 7 r p p p r t t p t r r 7 @ p r s p X O s s s s s ",
"p h h p h p O r s s p s s s r @ O @ @ O @ # 7 7 7 7 # @ O O O O r @ X X @ 7 r 7 O X @ r r r t r r r r r r r r r r r r r r r r r r r r r t s r O @ r p t p p r p p p p t t p p q k.k.: . | t.m.@XV.<.@.w.r.&X*X*X0X9XiXP.` @.x.x.0.9.w.q.q.q.0.0.0.9.w.w.u.}.L.P.U.U.U.&X9X&Xr.m.q.e.L.I.|.P.U.U.P.|.U.U.U.U.P.P..XP.OX>.| +.#.$.>.@XFX5X) ` +X*X*XR.qXyXqXqXqX8X7X7X).7X7X7X7X7X7X0X0X7X7X-X*X~.*X&X&X&X&X&X&X&X&X-X~.iXiX{ ] <XbXqX).9X7X-X*X&XU.U.&X;X!.W.U.U..X+X+X+X|.}.}.i.i.r.7.i.%Xn. .:.} B Q U m : i f i i z z z i : i i i : > i i ; : i i i i i i u u i i i i u u u i i i i u u u u u u u u u u u u u u u u u u u u u u u u u u u u u u u u u u u u u u u u u u u u u u u u u u u u u u u u u u u u u u u u u u u u u u u u u u u u u u u u u u u u u u u u u u u u u u u i i i i i i : : : i : i : : : : : : : : i i : : N #.Q U U | _ 2X4X.XU..X.X.X+X.X.X.XP.U.U..X&X&X&XT.*X8X7X7X).).rXbXGXW.{ wXbX=X{ 8.8.F.qXyXqXqX7X7X7X7XeXeXeXtXtXtXtXtXtXtXqXtXtX8X(.).).(.(.(.qXtXqX).7XeXiXwX9X!.^.rX<X_ | X.X.X.=.D h.D V @.#X&X&X!.W.W.!.&X&X+XOXw.e.+XI.U.U.T.U.U.&XP.K.L.L.i.n.n.>.@.a.a.r.e.w.9.+.6 Q.KXAX[ a.HXnX].]._.8X7X&X+XQ.p.a.a.r.i.m.V.:.#.i O t g p p r r r t r r r r r r r r r r r r r r r r r r r r r r r r r r r r r r r s s @ X 7 7 r r 7 7 r r r 7 @ 7 7 7 7 r r r 7 r r t p p p p t p t h s O @ s s s s s ",
"p s s p s p O 7 p p p p p t 7 @ O O O O # r r 7 r r 7 7 @ O O O # @ X O @ 7 r r O X @ r r r r r r r r r r r r r r r r r r r r r r r r r p s r O @ t p t p t r p p p p p t p p q z.k.z * | t.m.%XZ.<.>.7.8.;X,X*X*X0XuXI.) @.0.x.0.9.9.w.q.q.0.0.0.0.q.w.w.i.r.I.I.U.U.+X>X+Xw.q.q.e.i.|.|.P.U.U.L.P.P.U.U.P.P.P.P.I.OX>.| } $.:.0.OXFX5X) @.=X=X!.!.qXlXqX).0X9X7X0X0X7X7X7X0X7X7X7X7X7X7X-X~.!.&X&X+X+X&X&X&X&X!.!.~.aXGXG.] 9XbXqX(.7X7X*X*X&XU.U.&X&XW.U.U.U..X.XOX}. XOX}.e.r.r.7.m.@Xn.X.:.V V B I z : i f i i i i : : : : i i > > i i : : i i i i i i u u i i i i u u u i i i u u u u u u u u u u u u u u u u u u u u u u u u u u u u u u u u u u u u u u u u u u u u u u u u u u u u u u u u u u u u u u u u u u u u u u u u u u u u u u u u u u u u u u u u u u u u u u u u i i i i i i : : : i : i : : : : : : : : : i : : N Q Q Q U }  .2X2X.XI.P.|.|..X.X.XP.P.P..X.X+X&X&X!.*X7X7X8X7XqX).bXnXF.] wXGX=X{ 8.8.U.eX).qXqX9X7X7X7XqXeXeXeXqXqXqXtXtXtXqXeXqX7X~.~.0X~.0X).8X8X7X7X7XwXwXiXeX^.^.rX<X` ) |  .| B S d.! 4 +.#X&X&X!.!.!.!.&X.X+XOX9.t.}.I.U.U.&XT.U.+XI.L.L.L.i.n.n.:.@.e.r.e.e.w.w.| 1 Q.KXAX[ a.HXnX].].).8X7X!.+XQ.p.t.t.p.n.m.Z.=.*.p O r s p p r r r r r r r r r r r r r r r r r r r r r r r r r r r r r r r r r r r p s @ O 7 r r r 7 7 r r 7 @ O r r 7 7 7 7 7 7 r t p s s s s s r r s p @ @ p p s s s ",
"r 7 r r r 7 O @ r r r r r 7 @ O O O O O @ 7 r 7 r r r r r 7 7 7 X @ # # # 7 r p @ X @ r r 7 r r r r r r r r r r r r r r r r r r r r r r p s r O @ t p r t r r p 0 0 p p t t p p % & * . X.v.m.@Xm.>.<.y.e.$X&X!.!.*XuXP._ 9.e.n.q.9.0.0.q.q.0.0.0.0.q.9.w.e.r.|.U.U.U..X;XL. . .m.m. X X|.P.U.U.L.L.P.P.P.P.P.P.I.I.OX>.| :.3.4.9.@.t.@.)  .#X+Xr.{ -XbX>XG.U.>X*X~.~.7X7X7X0X7X7X7X7X7X7X-X!.!.T.W.W.W.U..XW.W.U.T.~.9XpXU.G.9XbX).~.*X*X&X!.&XU.U.U.W.U.U.U..XP.I.P.L.m.OX}.e.7.w.w.n.@XM.:.$.B N N I z : f f i i i i : : : : i i : : i i u u i i i i i i u u i i i i u u u i u u u u u u u u u u u u u u u u u u u u u u u u u u u u u u u u u u u u u u u u u u u u u u u u u u u u u u u u u u u u u u u u u u u u u u u u u u u u u u u u u u u u u u u u u u u u u u u u i i i i i i i i : : : i f f : : : : : : : i i i : : N Q Q U U } | $X#XK.K.r.i.}.|.I.I.L.|..X.X.X+XW.&XT.*X9X7X9XeX).`.kXbX^.^.!.=X&X=X#XK.U.eX8X7X7X7X7X7X7X0X7X0X0X(.(.).qXtXqXeX9X-X-X-X*X-X0X~.~.7X7X-X-X!.J.^.eX7X!.~.<X:X` _ 5XvXa.5 B S v 4 +.#X&X&X!.!.!.T.oXU.I.i.9.q.w.p.&X&X&X&X+X+XL.K.i.L.i.n.n.:.>.q.e.n.n.q.0.X.1 { vX%X1 [ HXnXlXlXqX8X).!.W.P.p.9.y.u.0.:.=.l l 8 X 7 s t p t t r r r r r r r r r r r r r r r r r r r r r r r r r r r r r r r r 7 p s @ O 7 r r 7 r r 7 # @ @ @ r 7 7 7 7 r 7 7 r r r 7 r 7 @ @ @ 7 r 7 O @ 7 r 7 7 7 ",
"r O 7 r # 7 O @ # 7 7 7 7 7 @ @ O O O O O @ 7 7 @ 7 r r r r r r X @ p p 7 @ 7 p O X @ r r 7 r r r r r r r r r r r r r r r r r r r r r r p s r O @ r r r r r r p p u p p r r r p o * . . | q.m.$Xm.:.,.<.w.#X+X&X!.*XuXW.7.u.n.m.q.0.0.0.0.0.0.0.9.0.q.9.w.w.w. XP.U.I.+X;Xr._  .@Xm.m. X}.I.U.U.L.L.P.I.P.P.P.P..XP.OX .| 1.j.4.>.7._ ) >.| }.#X}.' =XvX=XK.+X>X*X~.~.*X7X7X7X7X7X-X7X-X-X-X&X!.T.U.U.P.U.U.P.I.U.Y.!.eXiX=XU.wXbX7XR.!.&X&X&X+X.XP.U.W.U.U..X|.P.K.L.i.}.OX}.w.o.7.7.u.@XM.:.+.B N N L f ; i u i i i i i : : : i : : : i i u u i i i i i i u u i i i i u u u i i u u u u u u u u u u u u u u u u u u u u u u u u u u u u u u u u u u u u u u u u u u u u u u u u u u u u u u u u u u u u u u u u u u u u u u u u u u u u u u u u u u u u u u u u u u u u u u u i i i i i i i i : : : f f f : : : : : : : i i : : 4 v Q Q Q #.} | @X#X8.8.r.r.m.|.L.L.L.|..X.X.X+X+X&X!.*XwX9X7X0X8X].lXxX].-X>X!.=X<X:X.X.X-X7X7X).7X7X7X7X7X0X*X*X~.~.(.qXtXeXeX7X!.*X,X*X*X-X*X*X-X*X*X-XU.F.~.yX7X!.-X>X%X` ` 4XbX{ ` V z W 4 +.#X&X&X!.!.!.T.&XU.r.u.t.t.7.8.;X;X;X;X+X#X|.p.i. Xi.n.u.:.:.x.x.x.x.x.0...3 a.vX%X1 { HXnXkXbXqX0X*X!.U.i.u.9.y.n.x.....q a @ X r s r r 7 r r r r r r r r r r r r r r r r r r r r r r r r r r r r r r r r r r p d @ O 7 7 r 7 r r 7 O X @ 7 @ @ @ 7 r r r r r r r r r r r r @ r 7 @ @ @ @ r 7 r r ",
"7 7 @ 7 r # O @ 7 7 7 7 7 7 7 # O O O X O @ 7 r 7 r r r r 7 O @ r - @ @ @ @ r p @ X @ r r t 8 r r r r r r r r r r r r r r r r r r r r r r r @ O 7 r r r t r r p p p p r r r r # o o ;.l.v.m.m.e.>.| } <.8.+X*X!.*X!.!.U.8.a.XX}. .>.0.t.0.0.0.0.0.0.0.0.q.w.e. X|.I.P.|.}.}.m.n.)  .q.n. XK.U.P.L.L.K.K.P.P.P.P.P.I.XX9.| $...>._ p.vX:X_ o. X#Xr.O.!.wX=XU.U.&X!.*X*X-X7X~.~.~.~.~.*X*X*X*X&X&XoX&X+XP.U.U.P.W.W.U.T.wXpX{ ` -XbX7X!.!.&X&X&X&X.X.X.XU.U.U..X|.P.P.P.L.m.m.u.e.w.w.7.t.%Xb.V } V N Q W z i i u i i i : : i : : i i : : i i i i i i i i i i u u i i i i u u u u u u u i i u u u u u u u u u u u u u u u u u u u i i u u u u u u u u u u u u u u u u u u u u u u u u u u u u u u i i u u u u u u u u u u u u u u u u u u u u u u u u u u u u u u u u u u u u i i i i i i i i i i i : : f i i : : i : : : i i i : : : N Q #.#.#.B +.@X#Xr.8.i.}.e.L.L.|. X|.|.|.|..X.XU.U.T.T.*X9X9X0X`.lXkXlXbX!.] U.4X+XK.&X,X7X7X-X~.~.~.~.*X-X-X*X~.~.0XeXeX8X7X-X*X*X-X-X*X*X-X*X-X-X!.!.U.Y.~.yX7X~.~.=X$X1 ` <XvXQ.) B x v 5 ) #X+X&X&X&XW.J.I.K.i.n.n.q.w.r.OX;X+X+X.XK.L.L.i. Xi.m.n.:.$.1.2.j.4.x.M.j.V a.+XOX` ` pXwXrXeX~.T.T.U.I.i.n.n.v.>.>.j.h.c p r r @ O @ t p r p t r 7 r t t r r r r r r r r r r r r r r r r r r r r r 7 7 7 r 7 p p 7 @ 7 r r 7 7 O O 7 r 7 7 7 7 7 r 7 7 7 7 7 7 7 7 r r r r r @ 7 @ O O 7 7 7 7 7 ",
"7 7 @ 7 r @ O @ 7 7 7 7 7 7 7 # @ O O O O @ 7 7 7 r 7 r r 7 O @ r @ O O @ 7 r p O X @ 7 r r 7 r r r r r r r r r r r r r r r r r r r 7 8 r r 7 O @ r r 7 r r r r u u r r r r r # + & b.Z.m.m.n.e.:.2 U 5.7.+XoX*X*XT.T.U.8.u.@Xn. .@.:.<.0.0.0.0.0.0.0.0.q.w.e.m.}.I.|.L.u.}.@Xm.` | x.x.}. XK.I.L.L.K.K.K.P.P.P.I. X}. .| #.B X._ a.GXvX)  .OX#Xn.7.&XwX*XU.U.U.U.&X&X>X9X*X!.!.!.!.!.!.&X&X&X&X&X&X+XP..X.XP.P.U.J.U.<X4X{ ` =XbX7X!.T.&X&X+X&X.X.X.XP.P.P.|.|.P.L.L.}.}.u.e.e.u.w.7.0.Z.b.} B V N Q W z i i i i i i i : i : : i i > : i i i i i i i i i i u u i i i i u u u u u ; u i i u u u u u u u u u u u u u u u u u u u i i u u u u u u u u u u u u u u u u u u u u u u u u u u u u u u i i u u u u u u u u u u u u u u u u u u u u u u u u u u u u u u u u u u u u i i i i i i i i i i u ; : i i i : : i : i i i i i : : : v Q #.#.#.} | @X%Xr.8.i.}.u.i.L.}. X X X|.|.|.U.U.U.U.U.!.9X9X8XqXlXbXbXbX!.` J.pX<XI..X>X9X-X-X~.!.!.&X*X-X,X*X*X~.7XeXeX7X7X-X~.!.*X*X*X-X*X*X-X*XT.U.U.G.R.aXeX!.*X>X#X) ` DXFXs.+.U S N 3  .:X;X.XW.+X=XH.r.8.r.i.e.e.e.r.OX+X.X.XP.p.i.i.i.}.L.n.n.,.,.,.$.....c.C.j.V ) 7.| 1 _ 4X>X=X=X&X+X.X X Xm.n.v.0.X.@.2.k.d r r r 7 @ 7 t p r r r r r r t r 7 r r r r r r r r r r r r r r r r r r r r r r r r r s p @ O @ r 7 7 7 O O 7 r 7 7 # # # 7 7 7 r r r r r r r r r r 7 @ 7 @ O O 7 7 7 7 7 ",
"7 7 @ 7 r @ X O 7 7 7 7 7 7 7 7 @ @ O O O @ 7 7 @ 7 7 r r @ O O r @ X X @ 7 r p O X @ 7 7 r 7 r r r r r r r r r r r r r r r r r 7 r 7 7 r 7 @ O O r p 7 7 r r r r = r r r r r # X . 3.n.q.q.e.m.j.l Z -.X.#X.X,X,XoX.X8.`  .M.b.3.,.:.>.3.0.0.9.0.0.0.0.q.w.q.m.i.i.P.e. .m.@Xu.` | X.| n.OX8.L.L.K.K.U.|..X|.|. XOXm.| V U v #.+.<.OXm.| :.0.x.j.X.P.=X+XU.U.U.W.&X&X,X-X&X!.!.!.!.!.&X!.&X&X&X&X&X+XP..X.XP.P.P.U.U.<X<X' ` <XbX7XT.T.&X&XU.+X#X#X.X|.P.P..X.XP.I.L.L.i.u.e.e.q.t.v.0.3.2.} #.B U Q W z i i i i i i i : i i i i i i i i i i i i i i i i i u u i i i i u u u u ; ; u u i u u u u u u u u u u u u u u u u u u u i i i u u u u u u u u u u u u u u u u u u u u u u u u u u u u u i i i u u u u u u u u u u u u u u u u u u u u u u u u u i i i i u u u i i i i i i i i i i i i i i ; : i i i : : : : : : : : : : : : n Q #.#.#.} +.y.t.m.XX Xm.m.i.}.}.}.}.}.|.|.|..X.XU.U.J.!.9X0X0X~.rXrXqXrX7X7X!.W..XL.U.,X*X9X7X~.!.!.!.&X*X&X*X*X!.*X9X7X7X7X(.~.~.*X*X~.*X*X*X-X*XT.U.I.G.T.eX9XT.*X-X#X` 3 Z.@X@.%.v v l 5 | OX|..X+XP.P.|.}.i.e.e.n.n.q.i.+X+XI.I.I.p.p.i.i.}.i.n.t.,.,.&.,.3.3.3.5.Q M :.Z.l.3 5 <.w.}.i.e.r.XX@XM.x.4.X.>.t.0.2.l.: ; # 7 @ O @ 7 7 @ 7 r r r r t r 7 r r r r r r r r r r r r r r r r r r r r r r r r r s p @ O @ r r 7 7 O O r r 7 7 7 7 7 # 7 7 r r r r r r r r r r 7 7 7 @ O O 7 7 7 7 7 ",
"7 7 @ @ r @ X O @ 7 7 7 7 7 7 7 # @ O O O @ 7 @ @ 7 7 7 r @ X O r O X X @ 7 r p O X @ 7 7 r 7 r r r r r r r r r r r 7 7 7 r r r r r r 7 7 7 @ O @ p p 7 7 r r r r = = r r r r r $   :.q.<.9.n.@Xz.w h Z ..@X#X:X4X:X$Xw.< B b.b.b.5.:.:.4.0.0.9.0.0.0.0.q.w.q.n.u.r.i.7.| v.@Xu.` ) G G M.@Xe.e.r.r.K.|..X|.}.L.}.}.V.:.V N N Q =.+.1 1 y.c.| | 1.X.L.+XU.U.U.U.W.&X+X&X&X!.&X*X!.!.&X&X&X&X&X&X&X&XU.P..X.XP.P.U.U.!.<X4X{ ` <XbX7XT.!.&X&XU.U.;X#X+X.XP.U..X.X.X|.I.p.e.u.u.u.w.n.V.0.| } #.%.#.Q Q W z i f i i i i i i i i i i i i i i i i i i i i i i i u u i i i i u u u u u u u u i u u u i i i i i i i i u u u u i i i i i i i u u u u u u u u u u u u u u u u u u u u u u u u u u u u u i i i u u u u u u u u u u u u u u u u u u u u u u u u u i i i i u u i i i i i i i i i i i i i i i ; : i f f : : : : : : : : : : : : n Q *.#.$.#.+.|  .}.:X Xi.}.}.}.}.L.i.i.L.|.|..X.X+X!.U.!.9X7X~.!.-X7X^.).lXHX-XG.K.L.K.&X*X9X9X*X!.!.!.!.&X&X-X,X*X-X-X*X7X(.~.~.~.7X~.T.~.*X~.*X&XU.U.K.G.*XpXuX,X9X>X2X3 5 }  .5 V x A v 2 +.$X#X#X+Xr.r.}.OXXXe.e.n.n.w.r.+X+XL.K.L.p.i.i.i. Xi.m.t.:.,.+.<.M.b.<.+.N x +.3XC.2 4 2 3 0.v.<.>.@X3XZ.j.1.3 | M.v.,.2.: i @ O O O O @ @ O @ 7 r r r r r r r r r r r r r r r r r r r r r r r r r r r r r 7 7 p p @ O @ r r 7 7 @ O r r # # 7 7 7 7 7 7 7 7 r r r r r r 7 7 7 7 7 # O O @ 7 7 7 7 ",
"- r # # r @ X X @ @ # # # # # # 7 @ @ O O @ 7 # 7 7 7 7 r @ X O - O X X @ 7 r r O X @ 7 7 r 7 r r r r r r r r r r 7 7 7 7 7 r r @ 7 @ @ 7 7 @ O O 8 7 O @ r r r r r r r r p p r @ o 4.x.0.<.y.b.k.w p T ~ =.c.y.A.5.5.+.4 D h...j.2.:.,.3.0.0.0.9.q.0.9.q.q.q.u.u.u.i.w.| c.@Xi.7. .G G 3.0.u.q.w.e.n. X}.}.m.m.}.w.0.$.M N *.B $.:.u.p.7.@.@.) ..X.i.+X.XU.U.U.P.;X&X+X+X&X&X!.!.!.&X&X&X&X&X&X&X&XU.P..X.X.X.XU.U.T.>X4X{ ` :XbX).R.!.&X!.U.U.#X+X.XU.P.U..X.X.XP.I.L.i.i.u.n.m.m.V.3.} $.%.Q %.#.Q I z i a i i i i i i i i i i : i i i i : : i i i i i i u u i i i i u u u u i i i u u u u u u u u u i u u u i i i u u u u u i i i u u u u u u u u u u u u u u u u u u u u u u u u u u u u u u u u u u u u u u u u u u u u u u u u u u u u u u u i i i i i i i i i i i i i i i i i i i i i i i : : f f i : : : : : : : : : : : : m Q #.$.$.#.U +.@.OX#X Xe.i.}.}.L.i.r.i.L.}.|.P.U.W.&XU.!.-X-X*X*X-X9X7X).yXbX-XH.H.8.K.;X&X*X*X&X!.!.&X&X&X&X=X&X&X&XT.!.-X7X~.~.~.*X!.!.!.*X*X*X&X+XQ.p.8.P.#X@Xn. Xi.b.3 3 Z.5X[ 1 5 B F 4 5 v.w.#X|.L.i.e.m.n.e.w.0.y.y.a.+X+XL.K.K.i.p.i.i.n.i.m.n.,.+.@.@.0.q.y.0.U x +.A.l.4 Y Y 5 ,.@.@.| 3.b.j.*.#.V } b.3.} ;.: i @ @ O O O @ O O @ 7 7 7 @ 7 r r r r r r r r r r r r r r r r r r r r 7 7 r r 7 7 O r p @ O @ 7 @ 7 7 O O r r @ @ @ @ @ 7 7 7 7 # # - - - - # @ @ r # # @ X X @ # # # # ",
"# r # # r @ X O @ @ # # # # # # 7 @ @ O O @ 7 # 7 r 7 7 7 O X O - @ X X @ @ r r O X @ 7 7 7 7 r 7 r r r r r r r 7 7 r r 7 7 7 7 O O O X O O O O O @ O X @ 7 7 r r r r r p p p r O o 1.x.j.2.,.2.h.w p E n . 1 < < . < . . 2 2 M #.$.2.3.c.0.0.0.0.q.0.9.q.q.q.e.u.u.i.9...0.OXp.OXM.G l | ) 0.t.v.v.n.n.m.m.V.OX}. .) 5 3 D ;.....0.$XQ.` ` _ 1 | | m.#X+XOX|.P.+X;X+X+X&X&X&X!.&X!.!.!.&X&X&X&X&X&XW.P..X.X.X.XU.U.T.>X4X' ` =XaX^.R.R.T.T.J.U..X.X.XU.U.U..X.XU.I.I.|. Xu.u.m.m.V.V.y.+.#.#.Q %.#.Q I z i a i i i i i i i i i : i i i i i : : i i i i i i u u i i i i u u u u i i i u u u u u u u u u i i u u u u i i u u u u i i i u u u u u u u u u u u u u u u u u i i i i u u u u u u u u u u u i u u u u u u u u u u u u u u u u u u u u u u i i i i i i i i i i i i i i i i i i i i i i u : : f f f : : : : : : : : : : : : m Q #.$.=.#.%.+.@.OX2X Xe.i.}.i.i.r.r.i.L.}.P.P.I.U.+X!.!.*X&X>X>X-X-X9X(.eXbX^.F.{ 8.P.+X.X&X&XT.!.&X&X!.&XW.W.U.U.U.Y.U.&X-X-X*X*X&X&X&X=X>X>X:X:X$X#Xn.9.7.9.@.1 1 1 < 3 2 UXJXs.1 5 < < 2 < < ` @X@XOXn.n.t.x.n.q.>.<.y.u.OX+XL.L.p.p.p.i.i. Xi.m.n.,.,.<.@.>.>.y.b.&.M ) 3 < < < < 1 1 1 1 1 3 V V l v N U l.2.V D & u @ O O O O O O O O O O O O @ 8 r r r r r r r r r r r r r r r r r r r 7 7 r 7 7 @ O r p @ X X O O 7 @ O O r r @ @ X O O @ 7 7 7 7 r r r r - @ @ @ - # # @ X X @ @ # # # ",
"# r # # r @ X O @ @ # @ # # # # 7 @ @ O O @ 7 # 7 7 # @ 7 @ O @ - @ O O O O 7 p O X @ 7 @ 7 @ r 7 7 7 r r r r r 7 7 r r r 7 @ @ 7 7 @ O O @ @ O @ @ @ @ 7 @ 7 t r r r p p p p t 7 + j.x.2.;.=.&.B & : P 6 7.8.{ { { 7.@.y.+.< N %.$.=.2.3.3.0.0.0.q.0.9.w.w.w.q.w.u.u.>.} 3.}.i.p.t.G l j.3.0.3.l.5.3.<.<.9.y.y.q. .|  .2.=.1.1.X.0.+XQ.Q.Q.a.[ #.} 0.n.n.n.n.m.i.p.p.+X;X+X&X&X&X&X&X&X&X&XU.U.U.W.W.I.U..X.X.X.XU.oX>X4X7.` =XaX_.).7X-X-X!.!.U..X.XU.U.U..X.X.XU..X|. Xi.u.n.t.t.v.,.+.#.U -.%.#.Q I z i a i i i i i i i i i i i i i i i : i i i i i i i u u i i i i u u u u i i i i u u u u u u u u u u u u u u u u u u u u i u i u u u u u u u u u u u u u u u u u u u i i i u u u u u u u u u i i i i u u u u u u u u u u u u u u u u u u u u i i i i i i i i i i i i i i i i i i i i i i i : : f i : : : i i i i i i i : 4 4 m Q #.$.=.#.6.V ) OX2X|.r.i.m.i.i.i.i.i.i.i.L.P.I.U.&X&X&X&X,X,X*X-X-X*X0XaXbX).^.W.H.P.+X+XoX&X&X!.!.!.W.!.&XW.W.U.U.oX&XoX&X*X,X=X;X+X.XP.P.P.L.m.m.b.3.:.1.@.[ a.{ a.a.5 4 S.SX5.3 +.<.@.,.5.6 | n.t.<.,.5.2.,.4.w.9.9.y.r.|. XL.L.L.i.i.i.i.i.e.e.0.:.,.2.=.1.:.0.v.$.3  .p.y.y.a.' 8.8.a.7.p.@.5 B 4 m z n -.h.x c 0 9 O O O O O O O O O O X X O @ 7 7 r r r r r r r r r r r r r r r r r r 7 r r r @ O X r p @ X O @ @ 7 @ X O r r @ @ O O O @ @ @ 7 7 r r r r r r # @ - # # # X X @ @ # # # ",
"# r # # r @ X O @ @ # # # # # # 7 @ @ O O # 7 7 7 7 @ @ 7 @ O @ - @ @ O O O 7 p O X @ @ @ @ @ 7 7 7 7 7 r r r r 7 7 r r r 7 @ @ H h s t r r r 7 r r t p t @ @ r p r p p p p t y O o j.j.*.Q U v 4 & & 2 _ FXGXGXbXbXbXvXJX3X6 4 Q #.#...X.>.0.q.0.q.0.9.0.9.9.w.w.n.u. .| 0. XL.}.n.V l C.Z.2.+.V V V V 5 5 3 ` ) 7.e.@X1Xq.)  .|  .+X4XJXJX5X6X) 1 1 ` 1 1 3 3 ` ` ` }.:X+X+X&X&X&X&X&X&X+XK.G.H.U.P.I.U.U.P.U.U.U.T.>X4X{ ` =XbXlXlXbXaXiX9X,XU.+X&X&XW.U.P.|..X;X+XK.r.m.m.w.9.@.| | #.%.Q Q %.#.Q I z i i i i i i i i i i i : i i i i i i i i i i i i i u u i i i i u u u u u i i i i u i u ; ; u u u u u u u u u ; ; ; u u u u i u u u u u u u u u u u u u u u u u u i i i i i i u u u u u u u i i i i u u u u u u u u u u u u u u u u u u u u i i i i i i i i i i i i i i i i i i i i i i : : : f i : : : i i i i i i i i 4 4 m Q #.#.$.#.Y +.@.u.+XL.r.p.}.m.m.m.m.m.i.p.r.L.I.U.+X&X&X&X&XoXJ.*X-X0X0XaXbXbXbXrXU.P..X|..X&X&X+X&X&X+X&X+X+X+X+X+X;X&XY.Y.W.;X:X:XOXr. .` ` 1 1 1 1 3 3 2 1 [ HXnXnXvX1 ( 2 V 2 < V.JXFXJXUX1 1 1 1 1 3 < 2 3 3 | c.b.t.w.i.r.8.L.i.u.i.i.i.i.w.w.>.+.;.=.=.1.1.y.b.+.< %XJXJXJXHXiXrXrXiXvXGXOX3 +.m f m 2 2 M 2 l w O @ X X O O O O O O O X X @ 7 r 7 r r r r r r r r 7 7 r r r r p p p r r r r r @ O X r r @ X @ r r 7 @ X X 7 r @ @ 7 # @ @ @ @ 7 7 r r r r r r r # - # # @ X X @ @ # # # ",
"7 7 7 7 7 @ O O @ @ @ 7 7 7 # # # @ O O @ @ 7 7 # @ # @ @ 7 r 7 @ @ # @ @ @ 7 r O X O 7 7 @ @ @ 7 7 7 7 7 7 7 7 7 7 r r 7 7 7 @ g g s t t r 8 7 r t r t t @ O p p p r t p t e e X # Q j.Q W I n z % & | _ pXvXiXaXbXbXbXHX6X. m ~ U U $.,.>.9.0.0.0.0.0.9.9.0.y.q.u.u.@.| 3. XI.}.v.2 M m.@X2.V +.@.+.5 } $.|  .@.9.a.:X<XW.{ { a.{ s.6XvXGX4X<Xa.[ { { { { @.| | 3 ) Z.@XOX;X&X&X&X.X+XOXOXP.K.U.U.P.P.Q.Q.P.P.W.Y.U.>X<X8.` <XbXyXlXyXyXaX9X>X+XU.W.W.!.W.I.L.+X+X+XP.L.i.t.y.<.,.&.#.%.-.Q ~ Q %.Q N z : : a i i i : i > ; ; > > > : i i u u u u i i i i i i i i i i i i i i i i i i i u i u i i i i i i i i i i i i i i i i i i i i i u u u u u u u u u u u i i i i i i i i i i u i i i i i i i i i i i u u u u u u u u u u i i i i u i i i i i i i i i i i i i i i i i i i i i i i i i i i i : i f i i i i i i i i i i i z 4 2 N Q #.%.#.#.+.+.| V.@Xr.p.i.m.m.n.n.m.}.}.L.i.P.P.P..X;X;X&XoX.XoX&X-X0X0XeXyXyXbXrXJ.W..X.XOX&X+X+X.XoX&X.X.XU.+X+XU.;X,XY.H.!.;X+X:X#Xr.w.5 4 +.[ [ [ _ [ [ ` F.nXjXjXnXQ.7.Y -.B | @X4XiXHXvX` `  .) | ) 3 } V V -.h.c.n.r.r.L.p.i.i.r.i.r.i.u.q.<.:.%.&.,.,.,.:.0.b.#.< Q.bXbXHXlXrXrXrXrXvXbXQ.a.+.& z 5 3 +.@.G M l * + X # @ O @ O O O @ O O O @ 7 7 7 7 r r r r r r r r r p r r r p r 7 7 r r 7 @ @ O @ 7 7 @ @ @ r r @ O O r r r @ r r @ @ @ @ r r r r r r r r r # r r r @ X X @ - @ @ @ ",
"7 @ @ 7 7 @ O O @ @ 7 7 7 7 7 7 # # @ O @ @ 7 7 7 # 7 7 @ 7 p r # # # @ @ 7 r p O X O r 7 @ @ @ O O O O O O O O O O O O @ 7 r t s t t r t t p p g H h g t 7 O X X X O O @ @ O O X   2 5 2 2 V U W * 2 ,.' =X!.!.^.).tXyXbX<X. L 6.%.+.+.<.0.x.q.0.0.0.9.<.<.<.9.q.n.u.@.5 <.XX X}.y.2 2 n.m.#.3 m.%XA.| :.M.M.m.m.%XQ.pXGXvXbXvXGX6X6 6 1 [ GXHXHXHXHXHXnXHX5X1 5 V 5 3 3 m.:X&X&X&X.X|.|.OXL.P.U.U.P.P.P.Q.Q.P.K.+XU..X#X' 1 <XbXlXlXyXeXeX,X>X|.P.W.J.J.U.OXOXL.8.K.|.|.p.a.u.y.<.,.#.U %.S N Q N x z z z i i : : : : : > ; ; > > f : i i u u u u i i i i i i i i i i i i i i i i i i i i i i i i i i i i i i u u u u i i i i i i i i u u u u u u u u u u u u i i i i i i i i u i u u i i i i i i i i u u u u u u u u u u u u i i i i u u i i i i i i i i i i i i i i i i i i i i i i i i i i i : i f i i i i i i i i i i a z 4 2 N Q Q %.U %.%.+.| V.@Xa.r.r.r.u.u.u.i.i.|.+X+X+XOXU.U..X.XI.|..X+X.X&X9X7X7X(.eXbXeXJ.+X.X.X+XW.I.U..XU.U.I.I.K.I.I.K.&X,XJ.J.H..XL.8.w. Xn.4 4 UXJXvX<XbXHXFXGXbXbXnXnXnXbXFX<.4 l.1XV.' G.wXuX=X4X5XSX:X2Xi.9.x.M.k.2 G n.p.I.L.r.r.i.u.i.n.m.m.t.<.:.$.&.b.y.<.>.0.b.#.< { rXqXnXnXkXkXkXbXbXnX-XQ.<.* v 3 0.FX5Xv.3.$.W R d T H g H K H p h a + X O @ O r 7 7 @ @ 7 r p r r r @ @ O @ @ O O O @ @ O O O O O O @ @ 7 7 r r @ O @ r t r r r r r @ @ 7 r r r r r r r r r # - r # @ X X O # @ @ @ ",
"7 @ @ 7 7 @ O X @ @ 7 7 7 7 7 7 # # @ @ @ @ 7 7 7 7 7 r 7 r p r 7 @ @ @ 7 r r r O X @ r r 7 7 @ O O O @ @ @ @ @ @ @ @ @ @ 7 r p r r t p s s s p s s s g p r @ O @ @ @ 7 8 8 @ + * < )  ._ ` _ 7.B . 3 0.r.&X&XW.R.~.qXeXbX<X< M 2.@.X.X.4.x.0.<.0.0.0.q.q.e.e.e.w.u.t.@.5 <.XXL.OXb.4 2 n.m.#.3 7.2Xt.3 X.M.m.n.n.%X%XpXvXiXvXvXFX5X) @.) _ FXFXFXJXJXvXnXHX<X1 6 6 Y 5 1 p.+XU.!.U.U.L.L.I.I.P.|.|.|.P.I.P.P.P.P..X|.#X#X7.` :XbXaXbXeX9XuX2X2XXX}.W.U.U..X X X|.8.I.+X.XK.G.r.r.w.q.@.| +.#.B #.Q v z z z i : : : : : : : ; ; > > f : i i i i u u u i i i i i i i i i i i i i i i i i i i i i i i i i i i u u u u u u u u i i i i i i u u u u u u u u u u u u i i i i i i u u u u u u u u i i i i u u u u u u u u u u u u u u i i i i u u u u i i i i i i i i i i i i i i i i i i i i i i i i i i i i i i i i i i i i i i f i : : I Q Q #.#.$.+.|  .m.@Xi.L.K.K.H.L.L.K.I..X&X+X+XW.U.U.U.I.L.i.}.OX+X+X,X*X-X-XrXvXwXH.+X#X#X;X+XU.U.W.I.P.P.P.K.I.I.U.&X=XU.U.U.#X X8.i.+Xi.6 6 FXGXmXmXkXbXHXvXvXbXbXnXvXHXFX9.5 b.1XM.@.t.6X6X2X5X2X5X<XeXJ.G.K.@X$.. 3 V.i.p.i.u.u.t.w.u.u.e.e.w.9.>.4.4.v.y.<.@.0.v.%.< a.iXrXbXnXnXnXnXbXbXbX<X%X5.* v 3 7.FX5Xt.y.:.B n a d d s K s g s H d + O O @ O @ 7 7 r r r r r r r r 7 @ 7 @ O O O @ @ @ @ O O @ O O @ 7 r r 7 r 7 @ @ r p p r t r r r 7 7 r r # # # # # # - - - - # @ X X @ # @ @ @ ",
"7 @ 7 7 7 @ O X @ @ @ 7 7 7 7 7 r # @ @ @ 7 7 7 7 @ 7 7 7 r p r @ @ @ # 7 7 @ O X X @ p p r r 7 7 7 r r p p s s s s s p r 7 @ @ p p s s g s p t s O @ g s r p h s s s s j a a a ;.<.$XuXuXuXuXpXZ.. | 5X5XK.' I.&X-X9XeXbX>X< M $.X...X.3.x.3.| <.<.0.0.w.r.r.r.w.u.V.@.V 3. Xi.m.c.4 3 v.n...3 }.pXOX1 <.@Xm.) ) 3 ) _ ` _ ` ` ` @.n.t...| ) [ [ 6 [ 6 Q.HXvXAX3X5 5 5 ) OX=X&X!.!.U.L.L.L.I.U..X.X.X.X.X.X.X.X.X X Xr.w. XXX#X+XU.W.G.O.8.w.q.0.9.r.K..X:X#XXXOXP.+X>X>X>X>X;X;X#X$Xm.| | +.#.Q Q Q L m : : : i i i : i i f f > > f : i i i i u u u u i i i i i i i i i i i i i i i i i i i i u i i i i i u u u u u u u u i i i i i u u u u u u u u u u u u u u i i i i u u u u u u u u i i i i i u u u u u u u u u u u u u u i i i i u u u u i i i i i i i i i i i i i i i i i i i i i i i i : i i i i i i i i i i i i i f i i : I W Q %.#.#.} |  .m.@X XXX|..XP.L.P..X+X;X;Xa.a.a.p.I.H.p.p.t.@.9.u.OXI.H.&X=X!.W.H.{ 8.r.K..X&XU.I.P.P.+XQ.P.P.W.&X&X,X=XU.G.;X2X;X#X#X+XK.1 1 vXbXnXlXkXnXQ.1 { HXvX` ` ` _ _ >.| 3 5 5 | ) 1 _ ` ` ` >XbX!.J..XOX$.< | b.p.e.u.n.v.<.| >.t.0.9.w.w.w.4.4.0.9.>.@.0.c.%.1 8.pX7X7X^.^.^.^.7X!.!.H.+X,.* v b.w.$X#X}.@Xn.5.z u u p r p r t p r p p r O X @ X X O O O O O O 7 r r r s h p @ r r r p r 7 7 # 7 @ @ @ r r r 7 r 7 @ 7 r t t r t r r r 7 7 7 r # # # # # # - - # # # @ O O @ # @ @ @ ",
"7 @ 7 7 7 @ O X @ @ @ @ @ 7 7 7 # # @ # 7 7 7 7 7 @ 7 7 7 r p r 7 @ @ @ 7 7 O X X X 7 s s p t r r r p s s g g h g g g s p 7 @ O s s p p s s s s p O @ g s t s H s s g g j j d z 5.w.>XiXiXaXaXbXOX. ) SXDXO.' #X+X&X!.9XbX=X1 V #.#.#.$.2.j.3.X.<.3.0.0.0.w.w.w.q.n.n.@.| 0.XX Xm.c.4 5 n.n.} 3 #XFXOX` 9.@XM.3 5 5 5 1 1 1 6 1 3 >.$X X| | ` ` 6 6 6 < Q.HXnXHXFX5 5 ) 3 m.#XW.&X.X.XI.K.K.I.U.U.U.U..X.X.XU..X.X.XXXw.w.XX#X X X}.m.w. .>.,.:.%.,.y.p.+X2X$X@XOXOX$X2X2X4XuX:X#X#X$Xm.| | +.#.B W I L m i : : i i 4 : : > > > : : f : i i i i u u u u i i i i i i i i i i i i i i i i i i i i u u i i i i u u u u u i u u u u i i u u u u u u u u u u u u u u u u i i i i u u u u i i u u u u u u u u u u u u u u u u u u u u u u i i i i i i i i i i i i i i i i i i i i i i i i i i i i i i : : : i i i i i i i i i i i i i f : n I Q -.#...$...>.M.@X@XXXXX@Xm.m.V.@X$X#X#X9.9.y.v.n.v.b.A.A.+.@.b.V.t.a.+X:XI.H.K.G.r.L.L.oXoXT.U.W.Q.+XW.+XU.&X,X,X,X,XU.H.=X2X2X:X+X;XW.` 1 vXHXnXbXnXHXs.< { HXvX` ` ` ` 9.n.| 3 5 ` ` 1 1 ) ` < < 5XFX$Xp.m.@X,.< ` n.i.e.n.v.0.>.| :.b.3.:.>.3.j.j.4.<.<.<.>.9.3.Q < a.iX9X*X!.!.!.!.!.J.J.H.OX<.* v M.i.L.P.+X|.p.V.v u u s t y r t p 8 8 p p 7 O @ O O X X X X O O 7 r r r h T h 7 r p p p p r r 7 r r r r r r r r r r 7 7 r r r r r r r r r 7 7 7 r # # # # # - - @ @ @ @ O O @ @ @ @ @ ",
"7 @ @ 7 7 @ O X O O O @ @ @ @ # # @ @ # 7 7 7 7 7 # 7 7 7 r p p r r @ @ 7 7 7 @ X X 7 p s p p t r t p p p p p p t t r r r r r r @ 7 t s g s t r 7 7 r t p s s r r t t p a a a m 5.w.>XeXeXeX8XaX%X< ) 3X2XO.o.OX#X+XH.-XGX=X1 V Q Q #.#.=.3.3.3.0.0.y.y.9.9.w.w.w.q.9. .) 0.#XXXm.b.V M n.n...3 w.#X9.) | :...G < 3XUXUXUXUXUXA.6 >.+X#X) ) 6X6X5XUX5.< 7.a.H.vXUX3 | | ) m.#X+X+X+X.X.X.X.X.X.XU.U..X.X.X.X.X.XI.L.L.i.n.o. .9.9.>.<.@.) | B V U +.<.@.7.7. . .>. .>.w.7.o.o.o.7.7.9.>.} &.&.#.%.W m z i f i : i i 4 4 : : > > : : f : i i i i u u u u i i i i i i i i i i i i i i i i i i i i u u i i i i u u u u u i u u u u u u u u u u u u u u u u u u u u u u i i i i u u u u u i u u u u u i u u i u u u u u u u u u u u u u i i i i i i i i i i i i i i ; ; i i i i i i i i i i i i i i : : i i i i i i i i i i i i i i f ; z m I -.%.D B V } :.>.>. . .X.X.$.$.4.4.w.4.} } #.$.:...+.&.%.B } +.:.|  .y.V.p.L.p.r.i.|.#XoX,X,X;XP.7.a.OX.XU..X&X&X,X,X&X=Xa.8.r.7.7..Xa.1 1 [ { W.4XH.{ ) . [ HXvX<X<X4X5Xm.y.| < y.5X6X5X5X5X$X5 6 @.<.0.@.0.V.,.< ` |. XXX Xw.w.x.0.c.c.<.@.:.3.3.j.j.4.3.3.,.<.4.B < p.pX>X*X,X=X*X*X*X>X<X=X$X<.* v x.OXP.P.+X.XP.OXv u u p r r r r p p p 8 p s p 7 O @ 7 r 7 @ O O s p 7 7 s H s 7 r r r r r r r r 7 7 r r 7 7 r r r r r r r r r r r r r r r r 7 7 r # # # # # @ @ O O O X X X O O @ @ @ ",
"7 @ @ @ @ O X X X X O O @ @ @ @ @ @ @ # 7 7 7 7 7 7 7 7 7 r p r p r @ @ @ 7 7 7 O X @ p p t p p p t t t r t t t r r r r r p s s O 7 t s g s r @ O r r 7 r s t r r p t t p a a z 5.9.>XuXeXaXtXvXQ.. 3 5X5XO.o.@X$XOXG.=XGX=X< 4 Q Q #.....X.4.q.0.0.q.w.w.w.w.w.w.7.7.[ ) y.+XOXp.y.6 6 9.u.| 5 $.:.;.=.B 2 2 5 6 FXJXJXJXJXJX6X< 2.#X$X) | vXFXJXJXA.< ) 1 [ JXFX) ) 3 | OX$X;X+X+X#X#X#X#X.X.X.X.X|.|.}.}.}.}.}.#XOXw.q.>.<.@.| | } } 5 V N M Y +.5.@. . . . ...} } $.$.| | | +.| +.} #.-.Q Q ! I m : i f f : i i i i : i > > : : i : i i i u u u u u i i i i i i i i i i i i i i i i i i i i u u u i i i u u u u i i i i i i u u u u u u u u u u u u u u u u u u u i i i i u u u i i i i u i i i i i i i u u u u u u u u u u u u u i i i i i i i i i i i i i ; ; ; i i i ; i i i i i i i i i i i i i i i i i i i i i i i i i i : i z v W Q N Q B ..#.#.#.B U B Q Q Q } ..| ..B B D ......} U Q Q Q B D ..} :.y.v.m.q.n.n.@X#X;X,X2X2XOX7.i.%X#X+X;X;X>X>X>X>X4Xp. .>. . .@Xt.5 V 2 < Z.3X$.< 5 < [ JXGXHXGXJXJX@Xy.$.< A.JXFXvXFXFX5X5 5 3 B #.*.j.b.$.1 _ |..X.X Xr.r.q.w.u.t.9.@.@.@.>.<.3.3.3.1.$.>.2.Q 2 a.uX>X*X,X&X&X&X&X-XwX=X:X>.* D n. XP.I..X.XW.@XN 0 u p p p r t r p p 7 r h g r X O 7 r r @ O X s p r r p p p r r r r r r p p r 7 7 r r 7 7 r r r r r r r r r t r r r r r r r r # # # # # @ @ @ X X X X X X X X O @ @ ",
"7 @ O @ O O X X X X O O O @ @ @ @ @ @ # 7 7 7 7 7 7 7 7 7 r p r r # @ @ 7 7 @ @ O X @ p t r t r r r r r r r t p t t r r r r t t s p r r r r 7 7 r t r r p r r p u p t t p p p i k.@.+X*X~.-X^.wXs.< ) 5X2X8.7.OX$XL.' W.GX=X< N Q *.=.$.X.| >.0.v.n.n.u.n.m.m.}.m.p.a.9.@.t.OXL.p.t.3 3 t.m.9.:.} V D N W h.Q < < y.a.7.a.[ a.[ x B t.[ 2 +.y.a.s.%X5.5 } B 5 V.V. .c.| | 0.w.r.r.r.e.n.n.e.r.8.r.w.9.9.@.@.<.9.9. .0.0.:.} ;.V B B B U V M N N Y Y %.%.+...| $...#.D D Q B N U U U Q U Q Q v n v m m i : : f f i i z z z i f f : : f : i i i u u u u u i i i i i i i i i i i i i i i i i i i i u u u i i i u u u u i i i i i i u u u u u u u u u u u u u u u u u u u u i i u u u u i i i i i i i i i i i i u u u u u u u u u u u u u i i i i i i i i i i i i i ; ; ; i i i ; ; i i i i i i i i i i i : i i i i i i i i i i i i z : z i z L N N N V B N N Y Y I I I I I #.......D S S D ..$.#.B B S ! D D D B $.1.1.x.0.M.v.m.n.r.r.e.e.e.7.9.w.w.7.w.e.r.r.r.i.a.t.<.>.@. .m.b.x c F D h.h.v S &.5.+.s.a.a.a.y.y.+.| G 4 Y 5.@.[ 7.a.w.< V =.z.F F F h.Q < ) OX}.r.r.i.u.o._ w.V.u.w.9.@.| $.1.b.l.;.$.,.2.W 2 a.pXwX&X*X,X&X*X*X9X9X*X:X>.< B @Xi.P.K.I..XI.OXN 0 u p p t r t p p p p p t t r r 7 7 7 # 7 r p r r r r r r r r r r r 7 r r r 7 r r r r r r r r r r r r r r r t r r r r r r r 7 @ @ # @ @ @ O O X X X X X X X X O O @ ",
"7 @ X X X X X X O X X X O @ @ @ X X O @ @ 7 7 @ r 7 7 7 7 t p r 7 # # @ @ 7 7 7 O X @ r r 7 r r r r r r r r r r r r r r r r r r s s p 7 O O @ 7 r r r r r r r r r r r y p p r u k.5.p.I.W.!.!.=Xy.< ) 5X4XG.] +X;XG.] U.GX$X< N #.=.l.2.} 5 ,.5.b.V.n.V.}.}.}.$X1X@XV.V.M.M.XXm.@XM.V 5 n.@XM.Z...2 2 x ! B.k.4 4 . < < < 2 . 4 R S 6 5 z c M 5 5 } $.&.Q v v G | A.C.B M ..@.@.>.@.$.l.2.$.0.<.<.,...} B V +.+.} $.1.M *.*.n W v N N N N N N N S N Q -.S S Q D D B M Q N U Y x 4 M 4 N ! v q & z 4 i i : > : : i i z z z i i i : : : : i i u u u u i i i i i i i i i i i i i i i i i i i i i i i i i i i i i i ; ; i i i ; ; ; i i i i i i i i i i i i i i i i i i i i i i i i i i i i i i i i i i i i i i i i i i i i i i i i i i i i i i i i i i i i i i i i i i i i i i i i i i i i i i i i i i i i i i i i i i : i i i : : i i i f i : m v x l 2 M V 4 x n n I L I U ..} ..W c ^ ! -.B V #.B #.#.B B B B V B $.3.0.q.n.q.q.| | $.:.3.3.:.:.| $.| :.<. .>. . .>.x.j.| :.n.b.M n Q Q x x v v j.C.l.. 1 < < . 2 l l v z 4 2 . . . ) 3 V M l.S.F v v F n & B Z.A.<.<.b.Z.>.3 v.@X@X@Xv.| } #.#.C.C.=...1.2.Q . a.pX9X*X*X*X*X*X*X7X9X*X>X9.. D M.}.i.r.L.r.P.@XN % u r p t t r p r r r r r r r r @ 7 7 O @ s H 7 7 r r r r 7 7 r r r r r r r r r 7 7 7 7 r r r r r 7 r r r r t r r r r r r r 7 # r r # @ O X X X X X X X X X X O O O ",
"p r 7 7 7 7 7 @ @ @ @ 7 7 7 @ O O @ @ @ 7 7 7 7 7 # 7 7 7 r p r # # # # 7 7 7 7 O X @ r r 7 r r r r r r r r r r r r r r r r r r 7 7 @ O O O @ 7 r r r r r r r r r = r y p p r u -.,.m..X+X+XW.Q.<.< ) 2X>XJ.H.!.,X&XJ.*XvX+X< N #.B } } ..} ,.,.<.<.<.>.9.m.m.e.q.9.9.3.4.4.w.w.9.4.G G 0.v.4.3.V 2 V #.Q Q Q x M V B x 4 b n A d.W 5 ( C g.n N S #.| ..Q ^ F ..| c.l.#.D =.2.,.:.,.*.h.h.%.:.:.$.;.#.} #.#.#.$.$.} #.D -.S v ! Q #.#.%.*.%.#.} D F ! ^ Z Z W N B &.$.%.+.+.+.,.<.,.2.&.Q N m z m z i i : > : : i i z z i i i i : : : : i u u u u u i i i i i i i i i i i i i i i i i i i i i i i i i i i i i i i i i i i i i i i i i i i i i i i i i i i i i i i i i i i i i i i i i i i i i i i i i i i i i i i i i i i i i i i i i i i i i i i i i i i i i i i i i i i i i i i i i i i i i i i i i i i i i i i i : i : : i i i i i i i i z N V b.b.:.| +.&.+.B U Y V } | | } v Z ~ Z #...+.B B } } B B V V V V } $.$.@.<.>.<.+.%.6.j.;.=.....*.%.Q U +.| @.@.| X.1...} :.v.c.B N %.&.B V N v *.h.Q m N x m P T b v v b d b z % & V B V N #.=.v S F D S N *.l.l.+.+.2.l.X.3 x.@Xv.4.1.$.#.! D k.l.#.V $.;.Q < a.pX9X*X*X*X*X*X*X0X8X*X>X7.. B Z.n.w.w.i.i.#X3XN 0 u 8 p r t r p r r r r r r r t 7 @ @ @ 7 p p 7 7 r r r r 7 7 r r r r r r r r 7 7 7 7 r r r r r r r r r r r r r 7 7 7 r r r 7 @ # # - r r r r # # - - - # # @ @ @ @ ",
"p p p p s p p r r r r r r 7 @ X @ @ @ # 7 7 7 7 7 @ 7 7 7 r p r @ @ @ # 7 7 @ @ O X @ r r r r r r r r r r r r r r r r r r r r r O O O O O @ # r r r r r r r r r r r r y p p p i -.2.}.#X;X;XP.r.+.< ) 5XwX~.-X-X9XwX9XwXiX#X< x Q N 4 3 +.| | 5 5 3 ) )  .@.9. .) ) 3 3 G G 3 3 3 3 2 2 | | G G 3 2 } $.G 2 2 2 2 2 2 M N c Z A F M 6 2 p g.a v A N ) ` 5 5 5 | ) _ | } ..$.@.@.) | V V V V 5 5 B } V | | | | | :.} } B 5 G 3 | +.+.| @.5.c.3.:.| | ..! Z m 2 < 3  .) ) _ _  .i.#X}.@X0.| 5 4 4 m m z : : f f : f i z z i i i f : : : : i i u u u i i i i i i i i i i i i i i i i i i i i i i i i i i i i i i i i i i i i i i i i i i i i i i i i i i i i i i i i i i i i i i i i i i i i i i i i i i i i i i i i i i i i i i i i i i i i i i i i i i i i i i i i i i i i i i i i i i i i i i i i i i i i i : i i i i : i i > i i i i i : z x V ..1X1Xq.w.e.q. .) ) ) ) ) ) | } N L W n V 6 6 5 5 5 5 5 5 2 2 2 2 3 2 2 2 1 6 6 5 I l.b.h...D N ! v N U V 5 1 3 ) 3 G G 3 | >. .B V |  .) ) 5 3 3 2 & 4 x 4 : f P i l l a d c c j a G 3 3 5 < . 3 } ..| +.,.>.X.| 2 2 2 3 3 1 | M. .3 } *.! ^ ^ N D M 3 V } N . a.uX-X*X*X~.*X*X!.7X8X*X:X7.. D 1Xm.9.7.n.m.2XUXN % u 8 p r r r p r r r r r r r t 7 O O r r 7 r r 7 r r r r r r r r r r r r r r 7 7 7 7 r r r r r r r r r r r r @ @ @ @ 7 r r r # # # - r r p s s s s s s s s s 7 7 7 ",
"r r r p p p r 7 r 7 @ @ @ @ O O @ @ @ @ @ @ @ @ 7 @ 7 7 7 r p r O @ @ # 7 7 7 @ @ X O r r r r r r r r r r r r r r r r r r r r r @ @ 7 # # 7 7 r r r r r r r r r r r r y p u u i -.:.XX#X Xi.r.n.2.. | $X&X~.9X~.T.,X>X>XuX+X3 x N N B } c.v.0.y.9.w.9.) @.>.9. . .w.9.@.:.3.>.X. . ...X.@.@.9.9.>. .w.e.9. . . .9. .@.V v v c v F } y.&.a g.W *.F G  .p.a.y.t.a.8.8.r.u.u.m.i.r.r.r.9.>.@.<.m.V.| 5 <.m.n.e.o. . . .@.y.9.w.7.7.a.w.w.w.w.w.9.w.w.q.1.=.N < 5.%XV.L.p.p.p.L.r.P..X.X#Xm.0.&.2 4 n m z : : f f f f i z i i f f f : : : : i i u u u u i i i i i i i i i i i i i i i i i i i i i i i i i i i i i i i i i i i i i i i i i i i i i i i i i i i i i i i i i i i i i i i i i i i i i i i i i i i i i i i i i i i i i i i i i i i i i i i i i i i i i i i i i i i i i i i i i i i i i i i i i i i i i i i i i : i i > i i i i i i z v B X.@X#X X X|. XL.r.r.a.a.8.r.r.m.V 2 U Y y.s.a.a.p.a.a.p.t.y.y.y.t.t.y.t.u.p.p.a.+.U ;.j...V ..D D N Q B | b.t.w.w.7.9.9.7.a.p.r.9.9.w.8.8.7.7.7.7.0.#.& 4 m f f : Q 2.V z f c a w v 4.>.@.9.@._ >.9.7.7.a.p.r.r.t.@. .| |  . .w.OX9. .:.%.Q W W B } B } $.2.Q < a.wX-X*X*X!.*X*X!.7X9X~.:X7.. B M.x.X.>.n.n.%X3XN 0 u 8 p r r r p r r r r r r r 7 @ X O p p 7 r r r r r r r r r r r r r r r r r 7 7 7 r r r r 7 r r r r r r r r @ @ @ @ 7 r r r r - # # - r p p r r r r r r r r 7 7 7 ",
"7 7 7 7 7 7 7 7 7 @ O O O O O X O O @ @ @ O O @ 7 # 7 7 @ 7 p r O O @ # 7 7 7 7 @ X @ r r r r r r r r r r r r r r r r r r r r r r r r r r r r r r r r r r r r r r r r t p u u i -.2.@XXX>.) w.@Xk.* 3 7.G.9XuXU.K.&X>X,X>X}.2 v x V 5.c.1X2X2X2X2X5X#X_ 7.u.t.7.' &X>X=X+X#X+X;X:X:X:X:X:X>X4XuXwX9X9XwXuXuXuXuXuXpX5X@.2 v v F V :.3X%Xv N y.V...3 @XvXpXpXpXwXeXeXuXuXuXuXuX9XwX>X=X+X8.+XpXvX_ ) @X5X:X.XI.8.8.' p.pXFXpXpXpXpXpXpX4X+X|.|.+X;X;XXXM.| < 6XJXvX<X4X4X4X4X>X>X;X;X2X$X3XA.4 Y N m z : : i f f f f i i i i f f ; ; ; ; i i i i u u u u i i i i i i i i i i i i i i i i i i i i i i i i i i i i i i i i i i i i i i i i i i i i i i i i i i i i i i i i i i i i i i i i i i i i i i i i i i i i i i i i i i i i i i i i i i i i i i i i i i i i i i i i i i i i i i i i i i i i i i i i i i : : i i i i : : : : a i i f f m N B  .@X;X;X,X;X,XuXpXpXpXpXpXpXpXpX@.1 @._ $XHXGXGXbXvXvXbXbXbXbXGXGXvXiXvXbXvXvXpX` ) 3 | } B *.D D *...)  .5XFXpXiXiXiXiXiXiXiXeXpXpXiXeXeXeXeXpXpXFX%X2 z c b : 2 V.2X7.2 : h b & ,.5X4X<X<XwXuX4X4X9X9XwXwXwXpXuX:X;X;X#X;X;X:X:X+XOXp.<.+.Y B $.$.$.3.c.b.h.2 a.<X*X*X&X&X&X&X&X9X9X~.:X9.. v } X.X.>.m.n.OXZ.N 0 a 8 p r r r p p r r r r r r O O X O r p 7 r r r r r r r r r r r r r r r r r 7 7 7 r 7 7 7 7 r r r r r r r r r 7 7 7 r r r 7 r # # # # # # - # # # # # # # # r r r ",
"7 7 7 7 7 7 7 r 7 @ @ @ @ @ X X O O @ @ @ O O @ 7 # 7 # @ 7 r 7 O O @ # 7 7 7 # O X @ p t r r r r r r r r r r r r r r r r r r r r r r r r r r r r r r r r r r r t y y p p q u i ! #.M.@X4.| $.l.^ o M <.8.>X:XP. X.X#X+X;Xm.3 v x V 5.v.#X:X#X;X+X2X.XO.e.w.>.m.K.&X-X&XU..X.XU.U.U..X.XW.!.&X,X-X-X0X0X0X9XwX9X9X4XpX@.2 v c S V | 1XZ.2 3 Q.+X$.2 }.pX<XwXwXwX9XwX9X>X>X9X9X7X9X*X&XU.8.U.wXuX_ 1 OX5X#X.XU.G.8.8.H.<XpXuX9XwXwX>X,X;X.XP.P..X+X#Xn.M.<.< $XGXpX&X>X>X=X>X>X;X;X;X.X}.@Xc.4 I n n m z i i f f f f i i i f f f ; ; ; ; i i i i u u u u i i i i i i i i i i i i i i i i i i i i i i i i i i i i i i i i i i i i i i i i i i i i i i i i i i i i i i i i i i i i i i i i i i i i i i i i i i i i i i i i i i u u i i i i i i i i i i i i i i i i i i i i i i i i i i i i i i i i i i i i i i i : i i i i : : : i z z a b n m N B @.}.#X+X;X&X;X>X9X9X>X9XwXwXwX4X_ < 9.a.&XbXaXbXaXeXeXyXlXlXlXaXbXeX7XwXeXeXyXeX8.7.) ) ....*.F D B | 0.i.4XpXwX7X7X9XwXwX7X7X7XwXwX7X7X7X7X9XwX>X4XZ.. x N n * < @X4X_ < i h 0 . ) <X-X-X-X*X*X,X>X,X*X*X-X-X>X>X&X&X;X;X+X+X+XOXQ.L.t.@.@.&.| @. .3.c.v.b.*.2 7.=X&X&X;X&X&X!.U.-X9X!.:X9.. n =.1.:.:.n.n.m.b.v 0 a u p r r r r p r r r r r r @ O X O 7 7 7 r r r r r r r r r r r r r r r r r 7 7 7 7 7 7 @ @ 7 r r r r r r r r r 7 r r r r 7 - # # # @ @ @ @ r r r r r r r r r r r ",
"7 r 7 r 7 7 7 7 7 7 7 7 7 @ O X O X O @ @ O O @ 7 @ 7 @ O @ 7 7 @ @ # # 7 7 # @ O X 7 p p r r r r r r r r r r r r r r r r r r r r r r r r r r r r r r r r p p t t t t p w q u i n x c.A.2.B x : h 8 n C.u.r.w.9.0.w.w.w.}.u.V N V 5 5.0.e.e.8.8.r.r.L.#XOX . .$X2X;XW.L.r.r.r.8.8.r.r.r.r.r.K..XI.U.U.Y.U.U.I.I.U.G.OX) 4 z i b S B V.0.2 5 W.=X .< w.|.K.Y.J.H.G.H.r.r.r.r.8.G.U.I.i.i.e.r.OXOX .3 m.$X}.|.P.P.+X>X&XU.U.Y.Y.F.G.8.O.7.t.t.t.9.u.w.X.} B < Q.vX>XY.U.H.H.p.r.a.p.o. .| ..V v W N I n n f > > f f f i i i f f f : : : : i i i i u u u u i i i i i i i i i i i i i i i i i i i i i i i i i i i i i i i i i i i i i i i i i i i i i i i i i i i i i i i i i i i i i i i i i i i i i i i i i i i i i i i i i i i i i i i i i i i i i i i i i i i i i i i i i i i i i i i i i i i i i i i i i i i : i i i i : : : i z z b P P L I B | 9.8.r.I.I.H.G.H.K.H.U.!.&X+X$X_ 1 @X5X>X*XR.~.~.!.!.!.^.^.!.!.T.Y.G.Y.&X*XwXwXpX4Xp.) } N Q W *.M X.1X#X+XJ.J.J.Y.K.I.P.K.Y.K.r.i.r.G.I.H.8.8.7.9.+.< | 3.l.V 2 M.1X| 4 b d i l | #XT.!.!.H.K.r.L.K.G.a.r.r.K.r.r.r.e.e.w.7.7.7.>.7.>.>.3.j.1.>.>.m.V.n.x.! 2 7.=X&X&X;X&X+XU.G.&X-X&X:X<.* W l.j.X.| 0.9.t.y.x 0 a p p r r r r r r r r r r r r O X O O @ 7 7 7 r r r r r 7 7 7 r r r r r r r 7 7 7 7 7 # @ @ 7 7 r r r r r 7 r r 7 7 r r r 7 - # @ @ @ @ # - @ @ # # # # # # - - - ",
"# 7 7 7 7 7 # # 7 7 # # 7 7 @ @ X X O @ @ X O @ 7 @ 7 @ O @ 7 @ 7 # 7 7 # @ @ @ X X 7 s p r r r r r r r r r r r r r r r r r r r p r r r r r r r r r r r r p p t t t t p w 0 i i n I b.C.Q I n i p p c l.b.w.y.0.3.x.x.9.w.<.M W V V b.q.q.w.e.i.r.w.i.$XOX .o.$X4X#X}.}.n.e.u.i.e.n.i.e.p.p.K..X X|.|..X+X+XP.P..X|.OX5 4 f T C i Q M.c.M 5 !.wX .G q. X|.U.H.H.I.L.i.m.}.u.r.}.}.OXq.q.m.n.m.@X| | m.OXOX+XW.+X&XwX>XU.U.G.I.H.8.r.u.t.y.y.y.y.t.0.j.B U 6 Q.vX>XY.H.G.P.P.p.i.m.9.@.:.B V ! Z I I W L z i : f f f i i i f f f : : i ; i i i i u u u u i i i i i i i i i i i i i i i i i i i i i i i i i i i i i i i i i i i i i i i i i i i i i i i i i i i i i i i i i i i i i i i i i i i i i i i i i i i i i i i i i i i i i i i i i i i i i i i i i i i i i i i i i i i i i i i i i i i i i i i i i i i i i : i i : : : : z z b L R L N V | 7.r.P.P.L.P.I.P.I.I.U.&X&X;X$X .1 Z.5X;XoX*X!.&X&X*X*X&X*X*X&X&XoXG.U.&X&XuXuXeXpXI.[ +.V I v B V X.2X;X!.T.T..X.X X XXX XK.L.m.m.n.m.OXOXt.9.t.3.+.5 6 t.b.3 2 M.3X..q % i b & | #X,XU.&XK.L.m.n.n.i.n.q.q.n.q.n.n.t.q.0.9.@.<.:.,.,.1.j.x.x.w.7.@X@Xq.4.B 2 @.$X+X#X#X#X+XK.8.+X<X;X$X,.o W z.j.$.:.c.<.9.<.v 0 a p p r r r r r r r r r r r r O X O X O r 7 7 7 r r r r 7 7 7 r r r r r r r r r 7 7 7 @ @ O 7 7 7 r r r 7 7 r r 7 7 r r r 7 r - @ @ @ @ # - # # r r r r r r - - - ",
"7 7 # # # # 7 7 r r - @ - # # # O X X X O O @ r 8 p p 7 @ 7 r @ 7 @ @ 7 7 7 @ X X O 7 s s r 7 r r r r r r r r r p r r r r p r 7 r r r r r r r r r r r r r r p t t y r r p u i i R n k.z.~ n n i c E E Q $.@.+.$.4.4.x.>.,.&.M Q N B M.V.t.t.q.e.r.i.m.i.|.#X:X2X4X}.7.u.i.i.r.u.u.u.e.i.r.r.i.i.r.i.L.|.OXP.I.U..XI.@X| & m b c n U M.x.4 6 *XwX@.2 <.L.I.Y.U.I.L.}.i.m.m.OX#Xi.w.w.7.y.9.9.y.0.$.G V.+XQ.U.&XeXeXeXiXU.OXm.}.q.<.:.@.<.<.,.>.@.@.:.1.2.B < Q.vX<XG.H.P.|.L.m.m.m.<.$.+.;.-.S S S N N L f i f f i i i i i i i i i i i i i i i i i i i i i i i i i i i i i i i i i i i i i i i i i i i i i i i i i i i i i i i i i i i i i i i i i i i i i i i i i i i i i i i i i i i i i i i i : i i i i i i i i i i i i i i i i i i i i i i i i i i i i i i i i i i i i i i i i i i i i i i i i i i i i i : : : : i : > : : i i a n L n I B B | V.}.i.OX|.L.}.L.}.L.U.&X&X;X#X .5 X.4.m.;X&XU.T.&X=X&X&X&X*X&X&X&X&X&X&X&X!.R.rXaXiXFXp.3 U N #.} q.:X;X&XU.U.|.i.e.e.i.i.i.i.i.i.i.i.}.OXe.w.0.5.h.2 _ Q.%X` 3 M.S.D l q a : & | #XoX+X+X,X4X#Xn.9. .>.:.| ,.+.| @.q.m.u.w.v.c.3.$.:.,.>.q.n.;X2X9.| n.@X+.3 } 5.w.w.w.w.r.8.7.t.m.w.,.B & b -.#...$.2.5.<.5.c u p p t t t r r t t r 7 @ O O O O O O O @ O O r r 7 r r r r r r 7 7 r r r r 7 r 7 7 r r @ O @ @ 7 r 7 @ @ 7 r r @ 7 r r @ @ r 7 7 @ @ @ 7 r r # # # # # - - - # # # ",
"7 # # - @ 7 7 7 r r - @ # # # # O X X X O O @ r t t t r 7 7 7 7 7 7 7 7 7 7 @ O O O 7 p p 7 7 r r 7 7 7 7 r r 7 7 7 7 7 7 7 7 7 7 r r r 7 7 r r r r r r r r r r r r r r p u u i R R d.d.R n n z c Z E R U +.&.&.$.j.j.j.l.%.M N S #.M.m.v.v.0.q. X Xm.m.OX+X;XuX4Xi. .y.i.r.e.u.t.t.e.i.i.i.e.i.i.i.i.P.OXI.L..X.X X@X| 2 m v n m N M.v.6 1 >XuX+.2 <.m.I.H.I.L.}.}.}. X}.}.@Xm.w.t.9.w.>.>.y.y...G u.W.W.!.*XeXeXaXiXH.OXm.m.4.$.&.,.:.:.4.4.>.@.,.1.1.B < Q.GX>XG..XP.r.L.XXm.t.<.&.%.;.h.S F D N N n z i f f i i i i a i i i i i i i i i i i i i i i i i i i i i i i i i i i i i i i i i i i i i i i i i i i i i i i i i i i i i i i i i i i i i i i i i i i i i i i i i i i i i i i i i i i : : i i i i i i i i i i i i i i i i i i i i i i i i i i i i i i i i i i i i i i i i i i i i i i i i i i i i : : : : : : : : > > a a P W I N B | | m.}.i.}.L.L.}.}.L.K.U.+X+X;X:X .5 1.j.v.OX.XoX&XW.&X=X&X&X&X&X+XW.+X+X&X!.&X!.eXeXaXGXQ.` 5 B B ..q.2X;X.XU.P.}.m.e.e.i.i.i.n. Xi.i.i.}. Xe.w.3.2.-.2 ` +X=X` _ 3.b.N l q z f . 5 $X;X.X+XuXpX Xq.9.@.| :.$.B #.%.,.0.n.n.n.v.3.2.$.&.<.>.t.i.;X2X@.| t.@X| 6 U k.4.>.<.9.e.w.<.3.b.j.;.W i Z ~ *.*.;.2.2.5.l.a p p p t t t r r r t r 7 @ O X X O O O X O O O @ @ 7 7 r r 7 7 7 7 7 7 7 7 7 7 7 7 7 7 7 @ @ @ 7 7 7 7 r r r r 7 r 7 7 @ 7 7 @ @ @ @ @ @ 7 # r # # # # # # - - # # # ",
"7 7 - - # # 7 7 r r @ @ # # # # @ X X X O O O 7 8 7 @ 7 @ O O @ O O O O O O X X X O 7 p s p t p r r 7 7 7 r r 7 @ 7 r r 7 7 7 r r r r r r r r p r r r r r r r r r t p p p p i u Z b z i c Z n & Z C T T 4 4 > > i n v v m : v N v B :.<.0.t.9.q.e.w.q.u.r.r.U.2X4Xe.) 9.m.r.e.e.t.t.e.i.e.e.e.e.e.e.r.i.i.p.K.U..X XOX5 2 z c W k.%.x.j.6 1 wXpX@.2 <.i.P.I.L.r.e.e.e.u.w.7.w.7.7.w.q.w.w.t.@X1X..G u.W.&X-X9XeX8XeX9X] 7.>.0.4.,.2.3.,.3.j.c.3.@.:.:.1.B < Q.GX>X8.U.P.L. X}.o.9.@.@.+.$.*.D F Q N I L z : f f i i i i i i i i i i i i i i i i i i i i i i i i i i i i i i i i i i i i i i i i i i i i i i i i i i i i i i i i i i i i i i i i i i i i i i i i i i i i i i i i i i i i i i i i i i i i : i : : i i i i i i i i i i i i i i i i i i i i i i i i i i i i i i i i i i i i i i i i i i i i i i i i : : i i > > > > i : c L I N B |  .m.}.}.L.L.|.L.}.L.I.U.+X+X;X$X| 3 =.j.3.q.K.&XW.U.U.&X&X&X&X&X+X+X+X+X&X&X,X*X7X7XeXbXuX4Xm.) V M ..3X$X8.8.K.}.u.w.w.e.r.e.i.i.r.i.i.|.OXi.u.<.,.*.3 @.FXvX+XOXv.b.Q l q z : 4 4 t.r.L..X&XU.e.>.@X5XZ.X.X...+.&.:. . .q.m.b.b.5.} } :.>.e.L.;X:X@.5 v.@X+.< v ! ..} #.+.:.X...M M v c u % c v N D Q Q #.} #.i 8 r p r r t r r r r r 8 @ O O X @ 7 @ O O @ 7 O O @ 7 r r 7 7 7 7 7 7 r r 7 7 @ @ 7 @ O O @ @ @ @ O @ 7 7 @ O O @ @ O X @ @ O O O @ @ @ 7 # # # # # # # # # # # # # ",
"7 7 - - - - 7 # r r @ @ @ @ # # @ X X O @ O O O O O @ @ O X O O O X X X O O O O X O 7 t s s p p r r 7 r r 7 @ @ O @ 7 r 7 7 r r r r r r r r p p r r r r r r r r r t p p r 8 0 u b C q * z Z n z n b T b 4 4 4 * * & * o % f R Z S B V | 0.t.0.t.q.w.q.w.r.8.I.:X5X7.3 <.m.i.e.e.t.t.e.e.e.u.u.u.e.u.e.r.r.a.p.P..X XV.5 2 z z ^ -.;.1...3 1 wXGX@.2 <.m.I.L.L.e.e.w.w.w.w.7.@. .w.u.m.u.e.u.$X1X..M u.W.=X9X9X9X9X9X*X8.7. .>.>.2.,.,.3.c.b.c.3.+.&.:.1.N < Q.GX<XG.L.L.}.}.i.7. ._  .| | #.! *.Q N I L i : f f i i i i i i i i i i i i i i i i i i i i i i i i i i i i i i i i i i i i i i i i i i i i i i i i i i i i i i i i i i i i i i i i i i i i i i i i i i i i i i i i i i i i i i i i i i i i i i i i i i i i i i i i i i i i i i i i i i i i i i i i i i i i i i i i i i i i i i i i i i i i i i i i : : : i > > > : : ; z L I N } | ) m. Xr.r.I.|.L.i.i.I.U.+X+X+X$X| 2 ..j.:.>.r.+X.XH.I.+X&X&X&X&X+X+X+X+X&X&X;X,X-X7XeXeX9XiXW.` | 3 } @X@X7.{ G.L.e.w.w.e.r.r.i.i.i.i.i.|.OX}.m.9.$.} < [ HXGX=X6Xy.5.B l q c % > 4 y.7.L.K.U.P.9. .@XUX1X| X.:.$.$.X.) ` 9.n.y.b.2.G } <.9.e.L.,X:X| 5 v.@X$.2 v S F F W I B #.*.x & i d d a c l v n S N B } B i 8 8 p r r t r r t r r 7 @ O O O @ 7 @ O O @ 7 X O @ 7 7 r 7 7 7 7 7 7 8 8 7 7 O @ 7 @ O O @ O @ @ O O @ @ O O X O O X X O O X O O O @ @ 7 # # # # # # # # # # # # # ",
"# # # - - # # # - # # # 7 7 7 # @ X X @ 7 O O O O 8 t r 7 7 r r @ @ O @ 7 r r r r 7 7 7 7 7 7 @ 7 @ # 7 7 @ O X X X O O @ @ @ @ @ O O O 7 r 7 7 7 7 r r r r r r r t p p r 7 7 8 0 d u % i q & & & i C z G b.Z.@.| j.Z.h.z b d h k.k.B } 0.t.q.v.t.q.t.e.r.L.P.;X2X .1 @.m.i.e.e.t.t.e.e.e.u.u.u.n.m.i.r.t.a.p.|.|.XXV.5 2 z q S ~ Q G | @XQ.bXGX<.2 <.m.L.L.}.m.n.w.w.u.n.t.9.w.w.e.n.q.w.w.}.V.} 3 a.I.&X9X9X9X0XY.U.+X%Xv.v.<.,.| | :.j.j.3.2.&.&.=.=.N < Q.GX<XK.P.L.}.w.7.$X$XOXm.w.@.$.Q Q Q N W L z : i i i i i i a i i i i i i i i i i i i i i i i i i i i i i i i i i i i i i i i i i i i i i i i i i i i i i i i i i i i i i i i i i i i i i i i i i i i i i i i i i i i i i i i i i i i i i i i i i i i i i i i i i i i i i i i i i i i i i i i i i i i i i i i i i i i i i i i i i i i i i i i i i i i i : i i i : : f : m I I B +.@.>.1X2XL.r.L.L.r.a.a.L.I.W.OX|.@X| G =.j.1.4.e.OX|.L.I.+X+X.XP.U.P.U.P.+X+X+X+X.XU.J.*X~.7XiX=XP.u.@.2.2.y.m.P.U.P.i.e.e.i.i.i.L. X X X}.|.OXi.i.m.c.5.< [ HXbX^.$X@.,.N l A d.n * B OX}.#X|.K.P.<.:.@.v.j.} $...$.$.:.>.>.q.v.3.2.+.3 +.V.m.m.K.>X<X| V j.M.$.B S A F A d i m W ~ n i i z l c q i i d n S Q #.Q i 8 8 p r r t r t r r 7 O O X X X O O O X O O O X O @ O O @ @ @ @ O O O O O O O O 7 r 7 7 7 r 7 r r r @ @ @ @ 7 O O O 7 r @ O @ O O @ @ @ 7 7 7 # # # # # # # # @ @ # ",
"# # - - - - # # - - @ # r r 7 7 O X X @ @ O O @ O r g t r t p r 7 @ @ 7 t s s p s p 7 O O @ @ O @ @ @ 7 7 O X O O O O O O O X X O X X O @ 7 @ O 7 7 r r r r r r t t t r 7 7 7 7 @ # o + q % o & & l v l | @X2Xe.X.Z.SXM.4 : % a z.k.N B 0.q.q.q.0.0.q.w.e.P.P.+X1X .1 @.m.i.e.e.t.t.e.e.e.u.t.t.m.m.m.u.u.t.r.L.|. XV.V & c c Z h.W . 5 5XpXbXGX@.3 <.u.i.m.XXm.n.9.9.9.u.t.9.t.w.w.w.w.w.w.m.M.D 2 a.H.!.>X>X,XT.F.G.;X5XZ.m.0.3.$.| | 1.1.1.,.%.&.=.=.N < +XGX>XG.P.L.m. . .5XFX4X$X}.9.$.B N Q N W I z i i i i i i i a i i i i i i i i i i i i i i i i i i i i i i i i i i i i i i i i i i i i i i i i i i i i i i i i i i i i i i i i i i i i i i i i i i i i i i i i i i i i i i i i i i i i i i i i i i i i i i i i i i i i i i i i i i i i i i i i i i i i i i i i i i i i i i i i i i i i i i i i i i i i i : : : : : : > : m W I B +.<.n.5X5X|.r.L.L.r.7.a.P.L.I.|.i.m.B l h.j.1.3.q.}.}.p.}.+X+XI.K.K.K.K.P..X+X+XU.I..XU.!.~.9XaX-X&X|.9.5.| >.OX+X.X}.i.e.i.}.}.}.}.|.|.|.}.|.|.i.i.t.y.5.< ` HXbX^.:X7.,.N l ^ z.W 4 | @X+X#X|.8.7.@.,.| | } $.;.#.$...:.0.v.v.y.5.$.} 2 | Z.@Xm.L.>X4X+.V ..j...-.^ A A w % ; 4 N ^ n & l l 2 * * % r p d b S S W u 7 7 r r r r r r r 7 @ O O O X O O O X O O O X O O O X X O O O O O X X X X X X @ 7 r r t p p p t t r r 7 @ r r @ O @ r r @ @ @ @ @ @ @ @ 7 7 7 # # # # # # # # @ @ # ",
"# # - - - - # # # # @ @ - - - - O X X O O O O 7 7 r t r r r r r 7 @ @ 7 t p p p s p r @ 7 r 7 @ O O @ # @ X O @ r r 7 @ O X X X @ @ 7 r r 7 7 @ r r r r r 7 7 # 8 8 7 7 7 @ @ @ r @ + 0 i l N k.} 3 B =.>.V.@X| } ..j.V 2 N S v -.-.v N 3.q.q.0.y.y.q.w.i.}.P.OX%X| 1 ,.n.i.i.n.t.u.e.e.e.u.t.t.u.m.u.e.u.t.e.i. Xm.m.M & R R W n n 4 5 2X>XbXGX7.3 <.n.u.u.m.m.n.t.u.q.t.q.w.n.1Xm.w.q.q.q.n.b.} 2 L.=X*X9X>X&X*X!.U.#X1Xv.9.>.>.3.y.<.:.2.2.2.#.#...*.N < +XGX>X8.r.p.m.@. .3X5X.XL.i.w.<.&.%.Q Q W W n i f i i i i i a i i i i i i i i i i i i i i i i i i i i i i i i i i i i i i i i i i i i i i i i i i i i i i i i i i i i i i i i i i i i i i i i i i i i i i i i i i i i i i i i i i i i i i i i i i i i i i i i i i i i i i i i i i i i i i i i i i i i i i i i i i i i i i i i i i i i i i i i i i i i i i i : : : : : : m ^ U N +.<.9.m.OXe.7.OX$Xm. .9.OXP.L.}.w.0.V l h.l.1.>.w.}.m.w.e. X XL.L.K.L.L.L.P.|..X.X|.K.L.+XW.>XaX>X&X+Xr.u.@.9.XX.XXX Xi.e.i.}.}.}.}. X X|.}.|.OXL.i.u.m.5.1 [ nXbX^.:X7.&.v q A k.Z * | 2X;Xn.e.#X2X3.+.%.&.1.=.%.%.$.$.,.c.b.0.,.2.2.#.2 | M.m.r.K.-X<X+.v ..h.V N S Z Z & : U Y +.;.U G j.Z.x...W u K K d c c b b 0 + @ 7 @ 7 7 @ 7 7 r r r r r r t t r r r t r 7 r r @ O @ 7 @ X O O X X O @ 7 7 7 7 7 r r r r p r r r r r r r r @ 7 r r r r @ @ 7 @ @ @ @ @ @ 7 7 7 @ # # - r r @ @ # ",
"# # # - - - - 7 # # @ @ # # - - O X X X O X @ r t r 8 r r r r r r r t p p s s s r p p t p s 7 X X X X O O X X 7 p s p r O X X O 7 r s s p r r r r r r r 7 # @ @ @ @ O O @ @ @ @ O O p i o * k.3Xb.3 ..1X@Xt.@.3 2 2 2 2 . 2 %.! Q ! n Q 3.q.v.0.5.3.q.w.u.}.L.OX@X| 6 +.t.i.n.m.u.e.e.r.e.e.u.t.q.n.e.e.u.u.e.r.r.e.M.G & ^ d.d.c & : 5 <XwXbXbX7.3 <.t.y.w.v.x.q.t.n.q.w.w.w.@XSX$Xw.q.9.t.n.V.D 3 #XuX9X9X,XU.U.>X;X+X@X .| <.>.M.Z.b.2.2.j.;.Y U B D v < +XGX>X' 7.9.<. . .$X5X.XK.L.u.v.l.k.Q Q W W n f f i i i i i a i i i i i i i i i i i i i i i i i i i i i i i i i i i i i i i i i i i i i i i i i i i i i i i i i i i i i i i i i i i i i i i i i i i i i i i i i i i i i i i i i i i i i i i i i i i i i i i i i i i i i i i i i i i i i i i i i i i i i i i i i i i i i i i i i i i i i i i i i i i i i i i : : : : i : L -.! N +.2.0.X.9.w.w.1X5Xm.3 >.@X X}.m.X...x l j.M.4.>.7.}.m.w.w.e.i.r.i.L.L.i.p.r.p.L.|.+XOXP.I.H.>XaX9XT.&X:X%X@.>.@X2XXX}.i.e.i.}.}.}.}.|.|.|.|.|.|.i.i.u.n.3.< ` bXnX^.=X7.+.m q d.z.~ 4 } SX2X)  .5XFXA.+.+.%...1.#.#.#.2.c.M.A.5.| $.#.#.2 | M.n.7.8.-X<X| v h.k.M . & v v . 5 5.@.) | ) ) 1XFX3Xc.+.4 m P d i # - r @ O O @ O O @ O @ 7 t s h H T T H H H h h H H h H g r 7 p g r X O X X O 7 r s s s r 7 r r 7 7 r r r r r t r r 7 r p p r r r r @ 7 7 @ @ @ @ @ @ @ 7 @ # - r r r # @ # ",
"7 7 - - - # # # @ @ @ @ @ # - - @ X X X O 7 r 7 7 r t r r r r r @ 7 t p p t p p t t r r r 7 7 7 @ @ @ @ O O @ r s p r r 7 @ O X 7 r r r r r r r 7 7 r p p @ O # 8 8 7 8 8 e e e r @ u % n N D l.5.V &.b.<.u.OX@.,.5 . U A.+.4 W S N W n 3.q.q.0.5.5.0.q.e.m.}.i.@X) 4 &.q.e. Xm.u.e.e.r.e.e.e.q.u.u.e.u.t.t.u.e.i.e.M.M % E k.W q z : 6 4XwXlXbX7.3 <.y.y.q.v.x.q.q.u.t.q.q.q.u.1Xm.9.9.0.0.0.j.V 2 OXuX*X-X&XU.+X;X#XL.n.<.>.>.4.0.v.y.3.2.2.;.Y U #.D N 2 P.GX:X8.w.9.y.+.| %X2X.XK.L.u.y.&.-.U N W L z i f i i i i i i i i i i i i i i i i i i i i i i i i i i i i i i i i i i i i i i i i i i i i i i i i i i i i i i i i i i i i i i i i i i i i i i i i i i i i i i i i i i i i i i i i i i i i i i i i i i i i i i i i i i i i i i i i i i i i i i i i i i i i i i i i i i i i i i i i i i i i i i i i i i i : : : i i i z i Z ~ ! N ..&.3.0.0.9.0.b.M.b.| 1.m.m.n.v.3.=.N l 1.v.0.q.w.u.n.9.q.m.i.e.}.i.i.i.i.i.i.}. X}.OXp.L.P.=XuX7X*XU.p.u.@.<.@XXXXX Xi.e.e.i.i.}.}.}.}.L.}.}.}.L.i.i.m.3.< [ nXbX^.<X7.+.m q A k.E % B 3X@X@.<.OX$X2.&.+.+.X.j.2.} =.} $.j.c.3.&.#.#.#.3 } b.v.7.r.-X>X| V h.-.N 4 x 4 B ) [ %X+X.X.XP.OXi.V.V.9.y.<.,.V N i p y r @ + @ @ O O @ r r 7 r t p p p p s s s s s p p p p s p r r p t @ 7 X @ @ O r g 7 r 7 7 r r r 7 7 t r r r t t r 7 t t r r r r r r 7 7 @ @ @ @ @ @ @ @ @ @ # # # r r r - ",
"7 7 - - # # 7 # @ @ @ @ @ # - - O X @ p s p r 7 7 r t t r r r r @ 7 r r r r r r r r r r r t t t s p r O X O r s p p r r 7 @ O O 7 7 r r r r r r r r r s s r @ r p p p t t y r r r u i o k.C.%.. 3 A.2.3 ) m.i.OX3X$.. S.JX%X< < 2 x L N 3.v.q.y.5.3.0.q.e.m.}.i.M.V 2 +.0.n.m.e.q.q.i.i.e.e.u.u.u.u.e.e.t.t.u.e.e.e.M.M % E d.W q i : 6 >X7XyXbX7.3 ,.y.y.0.x.x.q.w.q.w.w.w.q.q.q.9.>.9.<.@.| | N 2 +XuX!.T.U.K.P.+X+Xw.0.0.0.>.X. .@.:.:.2.2.;.U Y #.*.W 2 Q.GX>X7.w.y.,.} | v.@Xi.r.r.u.3.#.! U N I L z i i i i i i i i i i i i i i i i i i i i i i i i i i i i i i i i i i i i i i i i i i i i i i i i i i i i i i i i i i i i i i i i i i i i i i i i i i i i i i i i i i i i i i i i i i i i i i i i i i i i i i i i i i i i i i i i i i i i i i i i i i i i i i i i i i i i i i i i i i i i i i i i i i i i i : : : i i i z l n ~ ^ N #.;.$.3.c.y.3.| | V %.2.x.w.4.0.j.l.v 2 j.M.n.m.i.m.n.9.w.n.u.r.m.i.i.u.u.i.m.m.}.}.m.m.OXP.J.T.R.&XG.` | +.:.v.e. XOX}.i.i.i.i.i.L.L.i.i.i.L.i.i.r.i.m.3.< ` bXbX-X<X7.+.m w g.k.E % N 1XZ...|  . .$.#.+.$.1.j.j.2.$.V V $.:.$.+.#.%.B 2 } A.V.0.r.>X4X@.G *.h.-.I M < ) m.#XpXpXpXpXpXpX' < _ u.m.$Xm.| V & i p r 8 8 @ @ @ @ r t r 7 7 r r r r r r r r r r r r r p t p p r 7 r h 7 X O @ 7 s s O O @ 7 7 @ 7 7 r r r 7 r r r r r t t r O O r r r 7 7 7 7 7 @ @ @ @ @ 7 7 # # # # r r - ",
"7 # # - # # 7 7 @ @ @ @ # # # @ @ X O r t 7 7 7 @ 8 r r r r r 7 @ 7 r r r r r r 8 r r r r t p p r p p r 7 7 r p p r r r 7 7 @ @ 7 7 r r r r r r r r r p s r @ r p p t t t t t r p u i & -.l.=.|  .V.0. . .}.i.}.A.} . V.JX$X` @.2 z n V y.v.0.0.3.3.0.q.e.m.}.e.v.V 2 +.v.n.e.q.t.u.e.r.e.e.e.e.u.u.e.u.t.t.u.e.n.e.M.M % E d.R q i : 6 >X7XrXvX@.3 2.c.y.0.q.q.q.e.e.q.q.w.q.q.w.0.y.y.3.,.,.&.v 2 #XuX!.T.U.|.}.i.i.7.9.0.y.:.>.:.>.>.1.2.2.;.U U #.D v < L.pX:Xi.n.@.B #.$.l.v.m.}.n.0.3.#.Q N N I L z i i i i i i i i i i i i i i i i i i i i i i i i i i i i i i i i i i i i i i i i i i i i i i i i i i i i i i i i i i i i i i i i i i i i i i i i i i i i i i i i i i i i i i i i i i i i i i i i i i i i i i i i i i i i i i i i i i i i i i i i i i i i i i i i i i i i i i i i i i i i i i i i i i i i i i i i i i i z l n ~ Q N Q ;.;.$.1.j.j.+.} #.=.2.0.w.x.c.$.=.z 2 4.M.n.u.r.u.n.>.9.u.u.i.m.i.i.i.u.u.m.m.m.m.M.v.OX+XT.~.~.>X}.) B h.l.y.w.|.}.m.u.u.i.i.}.}.r.r.i.i.i.r.i.i.i.m.3.< ` bXbX7X<X9.+.b w g.k.A * x b.0.,.:.@.@.&.%.:.,.1.j.2.2.2.B V #.$.#.$.-.;.D 2 V l.5.| _ &X>X9.} Q Q W U Q < _ :X<XwXuXW.Y.>X4XH.` 7.a.p.+X Xw.4.2 & c a p 0 8 8 @ 7 r s p t r r r r r p 8 8 r r r r r r r r p p r 7 r h p @ O @ 7 s s O O 7 r 7 @ 7 7 r 7 7 r r r r r r t p r X O r r 7 7 7 7 @ @ @ @ 7 @ @ 7 7 7 7 7 # - - - ",
"7 7 # # # 7 7 7 @ @ # # r # @ @ @ X   X O O @ @ O @ 7 7 7 7 r 7 7 r t t r r r r r r r r r r r r 7 7 p h h s r r r r r r r r r 7 r r r r p p r r 7 r r r p 7 @ r r r r r r r r p 0 % i l N V ;.Z.m.w.q.@Xm.m.u. .} V . V.JXiX&X%X3 4 N V 3.y.0.0.0.0.0.q.e.}.}.e.b.V 2 ;.M.0.>.q.V.m.n.i.i.i.i.e.e.e.e.u.t.t.u.e.i.e.M.M % E d.Z i i & 6 <X9XyXbX>.G 1.c.y.9.q.q.t.u.u.e.q.q.q.q.0.t.v.y.<.3.5.5.N 2 OXuX!.T.+X#XOXw.q.0.0.>.0.<.,.c.b.v.3.1.1.;.U U *.D v 2 p.:X;X1X@X| V U V &.| v.@X0.| } N x N N I L z i i i i i i i i i i i i i i i i i i i i i i i i i i i i i i i i i i i i i i i i i i i i i i i i i i i i i i i i i i i i i i i i i i i i i i i i i i i i i i i i i i i i i i i i i i i i i i i i i i i i i i i i i i i i i i i i i i i i i i i i i i i i i i i i i i i i i i i i i i i i i i i i i i i i i i i i i i i z q v ^ W N Q ;.=.} V $.3.2.2.5.#.$.X.>.v.j.3 2 v 2 3.m.n.n.p.m.t.9.w.u.i.i.m.i.u.u.n.n.n.n.q.0.X.X.r.U.~.0X~.>X}.| D k.;.5.9.p.e.w.w.e.m.}.}.OXi.i.i.i.i.i.i.i.i.m.3.< ` bXbXwX4X9.#.c w g.k.A & x 2.X.:.>.>.,.l.l.j.3.=.=.=.$.;.%.#.$.$.&.;.%.-.Q x M #.} 3 3 :X:X>.| x * m B.m < 7.GXbXwX>X` 1 I.;X+X=XOX7.p.|..XOXZ...v F S E T d p s s s H s t r r r r r p t t r r r r r r 7 r r r r s t @ r t r @ O p s @ O 7 r @ O O O O O O O O O O @ @ r p t r @ 7 7 @ 7 7 @ O X O @ r @ @ @ 7 7 7 7 7 - - r ",
"- - # # # - - - @ # # # - @ @ @ O X X X O 7 8 O 7 7 7 7 7 r r r 7 r r r r r r r r r r r r r r r p 7 7 s H p r r r r r r r r r r r r r r r p r r r r r p p r 7 r r r r r r p p u a c z 2 B } 2.b.i.i.m.v.b.v.v.@.N 4 . s.GXiX-X+X< 4 %.$.:.:.<.v.0.0.0.9.e.}.|.r.v.V 2 %.c.>.:.0.c.v.n.e.i.i.i.u.e.e.e.u.t.t.u.e.i.e.M.M % E d.Z i i & 6 <X9XrXvX@.G 2.c.y.9.q.q.t.t.t.q.q.q.q.q.9.q.v.y.y.y.3.2.N 2 +XwX!.T.+XOXOXy.y.0.x.,.3.<.:.5.v.y.3.1.1.2.#.B D D S 5 p.;XOX@XV.} Q Q x N #.c.A.3.} #.Q Q S N I L z i f f i i i i i i i i i i i i i i i i i i i i i i i i i i i i i i i i i i i i i i i i i i i i i i i i i i i i i i i i i i i i i i i i i i i i i i i i i i i i i i i i i i i i i i i i i i i i i i i i i i i i i i i i i i i i i i i i i i i i i i i i i i i i i i i i i i i i i i i i i i i i i i i i i i i i i i i i i & b W W N Q =.$.} } :.3.5.2.&.&.,.>.O.v.3.G 4 m 2 3.m.n.n.u.n.0.9.q.u.i.i.i.i.u.u.n.n.m.v.0.4.X.4. XU.&X-X=X$Xv.V F h.;.5.9.7.e.w.q.n.m.m.}.}.n.i.i.i.i.i.i.i.r.m.3.< ` vXbX7X4X9.#.b w E k.S & M 1.X.4.:.@.@.l.j.j.j.=.*.-.-.#.%.%.#.B %.-.Q *.S l v *...3 3 $X$X>.| V 2 v k.W < [ GXiX!.:X) < V.;XU.+X+X7.p.+X+XXXM.B v *.h.A h s s s s s s t r r r r r 8 r r r r r r r r r r r 7 7 t s p @ 7 s s @ @ s s O @ 7 7 @ @ 7 7 @ @ @ 7 @ 7 7 7 r r r p s r @ @ r r t r 7 @ O @ 7 r 7 7 @ 7 7 7 7 - # # ",
"- - # # @ - - - @ - # # - @ @ @ @ @ O X O p h p p t t 8 r r r r 7 7 7 7 7 7 7 7 7 7 7 7 7 7 7 7 r O @ p s r 7 r r r r r r r r r r r r r r r r r r r r r p r 7 t r r r r p p p a d.d.v l #.$.c.n.u.}.m.| :.3.v.+.Q m . y.pX9X9X=X< x C.b.+.5 @.t.0.q.0.9.w.}.|.r.c.V & v $.1.3.j.$.3.n.m.u.e.e.e.e.e.e.u.t.t.u.e.i.e.M.M % R ~ b 0 i & 3 2X-XqXuX .l =.l.0.w.q.q.y.y.q.0.q.q.q.q.q.t.v.t.y.c.y.3.N 2 OXwX&X!.I.t.t.y.v.3.3.3.3.,.:.,.,.:.1.2.1.:.&.Q #.D c . p.5XOX .| } N S ^ W U V } } B N v S S N I L z i f f i i i i i i i i i i i i i i i i i i i i i i i i i i i i i i i i i i i i i i i i i i i i i i i i i i i i i i i i i i i i i i i i i i i i i i i i i i i i i i i i i i i i i i i i i i i i i i i i i i i i i i i i i i i i i i i i i i i i i i i i i i i i i i i i i i i i i i i i i i i i i i i i i i i i i i i i z : m W I N Q =.2.3.3.3.3.3.3.3.3.v.}.m.m.v.$.;.: & 3.M.v.q.>.>.9.y.u.u.i.i.i.i.u.u.n.m.m.n.x.0.j.4.e.8.U.>X+Xm.x.F *.z.l.c.9.9.w.w.q.u.n.n.i.i.i.i.i.i.i.i.i.e.r.m.2.. ` vXbX-X4X9.#.b u E k.S * v 2.4.j.2.y.v.=.*.1.2.=.*.%.%.Q %.%.B M #.-.*.h.S x S *.Q 2 < m.OX9.:.,.-.v q z . [ HXuX' 9.< . 5..X|.I.L.a.7.r.L.u.0.. * ..j.a p 8 r r r r r r r r t p t r r r 7 7 r r r t p t 7 7 r r r t h s g r X O p p @ 7 @ @ r s h h s s s s s s g g g t r t s t @ 7 s p p s s p 7 7 @ s p 7 7 7 7 7 7 @ # # ",
"- - 7 7 7 7 # # @ - r r # @ @ @ r @ @ O @ s h g s s t t r t t r 7 7 @ @ 7 7 7 7 7 7 7 7 7 7 7 7 O @ r p p r r r r r r r r r r r r r r r r r r r r r r r r r 7 p r r r r p u a a z.k.S M $...c.M.u.u.b.1.$.$.3.B R z   9.pXeXeX+X< x Z.Z.+.3 @.9.q.q.0.9.w. X|.e.b.V & m B $.j.2.$.3.n.m.n.u.u.n.e.e.e.u.t.t.u.e.i.e.b.M * R ^ b u i & 3 2X-XqXpXX.l =.l.0.w.q.q.y.0.0.0.0.q.q.q.q.q.0.9.0.0.0.j.v < OXwX*X!.I.9.9.y.b.>.3.3.3.,.,.,.@.@.,.2.1.$.6.;.*.S Z 4 u.4XOX) | *.S c ^ Z W v N B Q Q S ^ N N N n z i f f i i i i i i i i i i i i i i i i i i i i i i i i i i i i i i i i i i i i i i i i i i i i i i i i i i i i i i i i i i i i i i i i i i i i i i i i i i i i i i i i i i i i i i i i i i i i i i i i i i i i i i i i i i i i i i i i i i i i i i i i i i i i i i i i i i i i i i i i i i i i i i i i i i i i i i i i i : m I I Y Q $.$.4.0.0.9.0.0.y.<.t.OXXXm.y.$.Q n 4 3.M.0.0.>.<.0.u.u.u.i.i.p.i.p.u.t.t.v.v.x.0.c.<.w.w.OX2XOX<.1.V ..j.x.0.9.y.q.q.q.e.n.n.e.e.i.i.n.n.i.i.i.i.L.m.5.. ` vXbX-X>X7.#.n u T k.R # c =.$.*.%.c.v.=.....:.1.1.%.#.-.Q N V N U *.*.*.S v v S W v 4 b.V.>.| $.j.S 0 c . [ HX4X` %.b x 2.XXXX Xu.y.w.8.K.m.c.* % ;.z.C p p p s s p p t r r p p p p p r r r r r p p p t r r r r 7 p H h s 7 @ @ 7 r r @ O O r s s s g s s p s s g s p p t t g s r t s p p g s s p r 7 p r 7 7 7 7 7 7 @ # 7 ",
"# - 7 7 7 # # # # - r r - @ @ @ O O 7 p s s p 8 t t t r t p p t r r 7 7 r r r r r r r r r r r r r h h p 7 r p r r r r r r r r 7 r r r r r r r p r p r r p r r p r r r r r s a c h.h.M 2 ;.2.,.) 7.n.b.j.2.+.} ..W b . y.pX7X7X=X< 2 Z.@X:.| y.0.0.q.0.9.e.|.|.r.b.x & n N B #.B B } | >.q.e.e.e.e.u.e.e.u.u.e.e.i.e.b.5 * T ^ c a i & 3 2X>XeXvXX.l =.j.y.q.q.q.0.0.0.0.0.0.0.0.q.0.0.q.v.t.0.j.N 2 OX4X&X&XP.9.y.y.y.>.c.1.:.,.+.,.,.,.,.1.1.2.2.6.D V z.l.t.8.9.| 1.j.k.W W R R W ! N N W S S S v n L f i i f a i i i i i i i i i i i i i i i i i i i i i i i i i i i i i i i i i i i i i i i i i i i i i i i i i i i i i i i i i i i i i i i i i i i i i i i i i i i i i i i i i i i i i i i i i i i i i i i i i i i i i i i i i i i i i i i i i i i i i i i i i i i i i i i i i i i i i i i i i i i i i i i i i i i i i i i f : b I I I Q #.:.,.0.v.v.q.0.<.9.t.}.}.q.0.} 4 m * } X.| :.3.c.t.n.u.u.i.i.u.u.t.9.<.<.4.4.>.:.:.,.y.t.m.@X<.5 } } | X.>.0.y.u.n.u.e.e.i.i.i.n.e.i.m.m.i.i.m.m.}.V.5.< ` bXbX*X>X7.+.n i C k.R # a =.1.=.&.b.c...} } :.4.4.:.%.! m 4 x x x v v v v v v n W h.l.b.m.<.:.,.j.A w 0 . [ HXpX_ ~ p o l.XX XXXm.u.}..XXXXXA.4 4 ,.j.c p 8 r p p r r r r r r p r r r r r r 7 r r r t 8 p p 7 7 r p r r r s H h @ O r s r r s h s p s t t t t s s p t s p s g g g p t t t r t t p p s r 7 @ # 7 r 7 7 # # # ",
"- - e e - - # # # r # @ # r @ O O O 7 p g p t p p r 8 t p p p p r r 7 7 7 r r 7 r r r r r 7 7 r r h h r r p r r r r r r r r r r p p r r r r p p r r r r r r r r p r r p y y u z j.2.V 2 &.2.&.3  .m.n.c.b.| V ..N x . t.pX9XwX&X< v M.1X0. .y.3.5.5.0.y.u.OX+Xr.b.x z v N ! Q I N Q | | v.n.n.n.t.t.e.r.r.e.r.i.r.w.b.5 * n Z v c z * 3 :X9XeXbX@.* $.c.y.9.v.e.q.t.q.9.q.t.0.0.0.0.x.c.0.0.x.j.N < OX4X;X&X|.w.9.9.y.3.,.3.3.3.,.&.&.,.2.1.2.2.l.l.B M l.A.q.9.X.=...l.z.! S W Z S W W S S S W Z Z n n c f i u i i i i i i i i i i i i i i i i i i i i i i i i i i i i i i i i i i i i i i i i i i i i i i i i i i i i i i i i i : : : : : : : : : : : : : : i i i i i i i i i i i i i i i i i i i i i i i i i i i i i i i i i i i i i i i i i i i i i i i i i i i i i i i i i i i i i i i i i i i i i i i i i i i i i i i i i i i n R W N Q %.$.:.<.v.v.y.0.0.w.w.}.m.b.j.V x m m N } ....2.b.b.n.n.n.n.u.u.t.2.=.;.h.=.1.2.$.:.,.b.n.n.m.<.3 5 } | | >.y.t.m.m.i.i.i.i.i.i.i.p.p.i.i.p.p.i.m.L.%Xy.< [ vXvX-X:X9.#.n c A k.R % c ;...$.,.5.A.#.V } :.,.:.+.&.Q n z z v v v z n b n b v -.B.C.m.m.@.&.2.h.R r r * _ HXpX_ Q u % l.M.m.|.P.}. XXX@X@XZ.5 < @.y.x + p p p p r r r r r r t t r r r r r r r r r r r r r r r r r r r r s H s O O r p p p p s s s p 7 7 7 p s s s p s s s s h h g t 7 7 r r r s s r 7 7 7 7 7 7 7 7 r - - ",
"- - e e - - # # - r # @ # r @ O @ @ 7 p p r r t p t t t r 8 8 7 r 7 @ O @ @ @ @ O O O @ @ @ @ 7 @ p p r r p r r r r r r r r r r r r r r r r r r r r r r r r r p p p p p y y u z l.4.V 2 l.S.j.5 9.m.t.0.b.} M N W x . 9.$X&XwX=X< l =.3.) ) 3.l.%.5 | <.e.|.+Xe.b.x 4 z i c z z c N N } c.v.q.q.y.y.e.r.i.r.e.e.i.u.b.5 * n R v q i * 6 :X>XeXGX@.< :.b.y.<.q.w.w.w.9.0.0.>.| @.3.,.3.,.>.,.0.5.4 2 n.#XK.K.r.9.9.9.0.:...1.4.1.&.%.#.+...} B B N Q N M B } X.x.1.j.1.=.*.#.Q N S W Q W S S N Z z i i i i i i i i i i i i i i i i i i i i i i i i i i i i i i i i i i i i i i i i i i i i i i i i i i i i i i i i i i i i i i i i : : : : : : : : : : : : : : i i i i i i i i i i i i i i i i i i i i i i i i i i i i i i i i i i i i i i i i i i i i i i i i i i i i i i i i i i i i i i i i i i i i i i i i i i i i i i i i i : : z c z z N %.;.,.<.<.0.0.4.<.q.7.v.3.2.=.4 & z z N Q Q B #.1.X.>.>.>.9.>.@.$.#.D S D D #.=.$.$.$.y.v.M.@Xv.1 | b.c.| +.>.<.n.u.e.u.u.u.i.i.i.r.i.p.p.p.p.i.m.}.OX<.< ` vXvX-X:X<.%.n l Z d.E o z ;.1.2.:.&.6.%.U } $.$.:.,.&.^ m z v S Q ^ Z & i n n z N D | @X@X| 3 :.l.A 7 p * ` HX<X` I u   l.V.u.r.r.r.e.@XM.| | @XOX$X5XN u p u p p r r r r r r t t r r r r r r r r r r r r r r r r r r r r r r p h p @ @ r p p p p r 7 7 7 7 r r r r 7 @ @ 7 r s g g p s r r r r s s t 7 7 7 7 7 r r 7 # # # ",
"- - 7 r - - - - - # # @ # # @ O @ O @ 7 r 7 7 r s p p t r r r p r 7 O O O O O O O O O O O O O @ @ r r 7 r r r r r r r r r r r r r r r r r r r r r r r r r r r r p p r p y y f m 1.X.2 2 C.3Xl.V @.m.n.9.l.U R P T : . +.u.I.wX+X* u W D G | ,.l.+.5 | w.r..X.Xr.l.m & z a f i i i z m N l.b.b.b.y.y.u.e.u.n.n.q.q.q.b.3 * n ^ C u f ; 6 $X>XwXvX@.< $.y.0.0.e.q.y.0.3.y.5.$.} &.2.2.2.,.+.$.3.l.m 4 0.n.7.w.9.9.9.<.3...} 1.1.1.*.D N B D D D S Z R n c v l S l.1.0.:.X.} $.$.B B B Q Q I I I n & % % i i i i i u u i i i i q q i i i i i i i i i i i i i i i i i i i i i i i i i i i i i i i i i i i i i i i i i i i i i i i i i i i i i i i i i i i i i i i i i i i i i i i i i i i i i i i i i i i i i i i i i i i i i i i i i i i i i i i i i i i i i i i i i i i i i i i i i i i i i i i i i i i i i i i i i i i i i i i : : : i i q q v Q $.$.,.4.x.x.x.x.c.,.5.&.%.! z a i a n W Q N N B ..+.+.&.@.+.+.| U N N S B #.&.&.+.+.c.M.Z.1XM.1 +.Z.A.+.@.3.<.y.y.y.t.n.n.n.u.i.u.i.i.i.i.i.i.i.i.m.,.< [ vXbX^.$X<.%.v q Z k.R % z h.$.,.@.+.%.#.#.#.$...:.,.$.~ 4 z S Q *.! S q z n n v x M 3 XX@X) 1 >.b.Z + f . _ HX4X1 P ; 2 b.m.r.r.8.w.m.1Xb.2 3 3X5XuXDXB u i i p p p r r r r r t r r r r r r r r r r r r r r r r r r r r p 7 O p T H @ @ r s s p r 7 @ 7 7 r r 7 7 7 7 O O @ r p p s h g r 7 r t s s p 7 7 7 7 @ @ @ # # @ # ",
"@ @ @ @ @ @ @ @ @ 7 # @ # - @ O O O @ 7 r 7 r p 8 7 @ @ @ @ @ 7 p r @ O O O O O @ @ # 7 7 7 r r r r r 7 r r 7 r r r r r r r r r r r r r r r r r r r r r r r r p p p r p y y f z M.Z.N & -.B.B M  .m.m.m.b.N n T E z * ,.OX+XuX;X. s ~ -.$.:.2.l.#.B | 9.e.#X#Xw.l.v & m L P b T b b b m Q Q %.&.%.,.<.>.0.v.v.0.q.v.b.4 * n ^ C a f ; 6 $X=XwXpX+.2 $.0.0.0.q.q.3.5.,.&.$.} B #.#.%.&.$.} } ,.l.m 4 | >.9.y.<.<.0.3.3...} 2.2.;.h.! D D D D S S ^ R i d C b Z k.2.>.>.3.2.$.&.$.B N N N n n n b i i i i i i i i i i i i i i i i i i i i i i i i i i i i i i i i i i i i i i i i i i i i i i i i i i i i i i i i i i i i i i i i i i i i i i i i i i i i i i i i i i i i i i i i i i i i i i i i i i i i i i i i i i i i i i i i i i i i i i i i i i i i i i i i i i i i i i i i i i i i i i i i i i i i i i i i i i i i i i i : : : i f i i z v M B } } ..X...} $.} #.N N W z d a i c Z n n n N n n N N Y Y V V Y n v N N U +.#.V V 5.c.y.b.,.< | A.b.| +.<.>.<.<.<.3.y.y.y.t.u.n.n.n.n. X X X Xn.t.%.< ` vXvX!.+X,.*.n q Z k.T % z *...:.:.$.$.#.#.2.2.1.1.$.#.%.& 2 Q Q *.! n l z b c z x v G XX#X>.| 9.c.N % i   [ JX4X1 P u < m.$X#X$XQ.9.<.,.B 2 2 2.>.|.#XN 0 u u p p r r r r r r r r r r r r r r r r r r r r r r r r r r r r r 7 r p p 7 7 r r p r r 7 7 @ @ @ 7 7 7 r r 7 @ 7 p t 7 r p p 7 7 r r r 7 @ @ @ @ O O O @ @ 7 # 7 ",
"7 7 e e 7 7 7 7 7 7 7 @ 7 7 @ O O O @ r r 7 7 r 8 @ X X O O O O p r 7 @ @ @ O O O @ 7 p s p s s r p r r r r 7 r r r r r r r r r r r r r r r r r r r r r r r r p p r p p y y f z 1X3XN & v x x B @.e.m.@XZ.V l n n z 2 <.1X;X>X#X. f -.=.2.c.2.l.%.V } 2.b.1X%X0.l.N & x S Z R ^ C n b l v 2 M N N U } ..1.c.b.c.c.c.c.M & n ~ C a v * 3 :X,X0X<X| 2 ,.c.b.v.q.0.j.l.5.#.+.} #.#.#.%.;.;.+.&.5.l.x x V X.3.y.5.5.5.0.x.X.} ;.;.-.! F S S D D S N W n c f f c Z ~ =.$.$.l.l.$.=...%.Q S n n n b c i i i i i i i i i i i i i i i i i i i i i i i i i i i i i i i i i i i i i i i i i i i i i i i i i i i i i i i i i i i i i i i i i i i i i i i i i i i i i i i i i i i i i i i i i i i i i i i i i i i i i i i i i i i i i i i i i i i i i i i i i i i i i i i i i i i i i i i i i i i i i i i i i i i i i i i i i i i i i i i i : : i f i u u i : m n v x v v v M l v l l c q a C a a q q q q q u = ; ; : m m L n n n S S Q #.} V V j.l.1.1.} 3 ..C.C.$.$.=.1.l.5.5.l.l.c.c.b.M.n.m.m.XXXX#X#X#Xm.0.#.< ) vXvXW.OX@.Q c q Z k.E % c h.1.3.>.:.$.;.;.l.b.c.2.2.;.;.2 x -.*.-.-.S 4 z b n n v x 3 @XXXn.v.q.0.N & i . [ GX<X1 P i . @X4X2X2XOX9.@.< 2 z b   . +.5.z # u u p p r p r r r r r r r r r r r r r r r r r r 7 r 7 7 7 r 7 r r r r 7 7 r 7 7 7 # 7 r 7 # @ @ O @ 7 7 7 7 r 7 7 r 8 O @ 7 r @ 7 r @ X X X X X X X O @ 7 7 7 7 7 ",
"7 7 7 e 7 7 7 7 7 7 7 @ 7 7 @ O O O @ 7 7 @ O @ 7 @ X O @ @ @ @ p r @ O O O O O @ 7 r p p r r r r p r r r r r r r r r r r r r r r r r r r r r r r r r r r r p p r r r p y r u z M.Z.l & N x N V >.m.v.4.c.1.=.v l l 2 3.$X+X&X#X. z ;.1.j.c.} B Q N #.j.2.2.2.&.;.V 2 D h.^ S Z c c Z v n v I W L I N V B %.=.&.$.$.&.4 & b ~ C a v 2 3 2X,X0X>X) * Y +.+.+.X. ...;.*.B V B B B B B #.#.B } #.#.z x G V } +.%.5.j.j.x...B ;.=.U ! S S D ..#.Q U U I N v m n Z N } $.$.2.2.l.l.D V v x z c c d d i i i i i i i i i i i i i i i i i i i i i i i i i i i i i i i i i i i i i i i i i i i i i i i i i i i i i i i i i i i i i i i i i i i i i i i i i i i i i i i i i i i i i i i i i i i i i i i i i i i i i i i i i i i i i i i i i i i i i i i i i i i i i i i i i i i i i i i i i i i i i i i i i i i i i i i i i i i i i i i i z : : u u f u u > m m m z z n n v N N N v v v Z Z n v v v v v c P K f f m L I W S n N S Q *.h.=.V l D #.} D V G D h.=.D ..} } ..#.+.#.#.$.$.:.2.1.4.4.4.x.v.v.v.4...N < [ FXiXJ.OX+.S c q A k.E 8 i ! B ..X.+.$.#.B $.2.$.V V Q U 2 2 N N N I v 4 z z b R n v M m.q.y.c.0.c.V * : * 7.GX5X6 m % 2 n.XX;X4XOX .+.3 Q E T $ = 6.B.a 0 a p p p r p r r r r r r r r r r r r r r r r r r 7 7 7 7 7 r 7 r r r r r r @ @ @ @ 7 r r 7 @ r @ @ @ 7 r 7 @ 8 7 7 r 7 @ @ 7 r 7 r r @ @ 7 7 7 @ O X O O @ @ @ @ @ ",
"@ 7 7 7 7 7 7 7 7 7 7 @ 7 7 @ O X X O 7 @ O X O O X X X O @ @ 7 r 7 @ O O @ O O 7 r r p p 7 @ @ @ p p 7 r r r r r r r r r r r r r r r r r r r r r r r r r r r t r r p p r r u l j.j.z q W v v 2  .@Xv.3 | x.M.G l x V 3.@X|.:X%X. i ;.2.j.c.M 2 v v Q -.N * * N B G 2 *.z.*.S v v v S v v z z i c z z l l z z 2 M 5 V 2 & d ^ C p a 2 3 2X>X9X<XY , > * . < < 2 2 l l l l x l l x l l G 2 2 3 2 2 2 3 3 3 2 M 2.3.j.3.} V 2.,.#.N n v V V 5 2 2 5 6 2 2 2 2 2 2 3 3 ) ) | 3.3.3 2 2 2 & & 0 i i q q i i i i i i i i i i i i i i i i i i i i i i i i i i i i i i i i i i i i i i i i i i i i i i i i i i i i i i i i i i i i i i i i i i i i i i i i i i i i i i i i i i i i i i i i i i i i i i i i i i i i i i i i i i i i i i i i i i i i i i i i i i i i i i i i i i i i i i i i i i i i i i i i i i i i i i i i i i i i i i z z i u f f f ; f > : 4 : & * & 2 2 < 2 2 2 2 2 2 2 2 2 3 4 4 4 m 4 2 2 2 2 2 4 ..B V V S ! h.h.2 & 2 2 2 l 2 2 2 2 2 2 l x G 2 2 < < < 2 2 2 2 M M M x x M M V 3 2 l * ) vXwXH.OX| n c i A k.E $ - b 2 3 5 B U 4 2 4 x 2 2 2 4 4 * * 2 & : & % : ; % ; d b f m ,.:.&.2.3.c.N & : 4 a.FX5X` m & 2  .7.$X5XV.3 B Q Q A d ; % 6.k.c u p p p p r r r r r r r r r r 7 7 r r r r r r r r r r r r r r r r r 7 r p r @ @ 7 7 7 r r 7 # r r # r r r 7 7 7 7 7 7 7 7 7 r r 7 7 r 7 r s s p r O X X X X X O O O ",
"7 7 7 7 7 7 7 7 7 7 7 @ 7 7 @ X O O @ 7 7 @ @ 7 7 @ @ @ @ @ 7 r 7 @ @ O @ @ O O @ 7 r r p r r r @ s s r r r r 7 r r r r r r r r r r r r r r r r r r r r r r r t r r p p r r 0 q ....v * n n S x | Z.b.| X.1.l.v l & x 2.v.}.:XOX. & Q ..1.c.V 2 v N S ! ^ v 4 I Q M 2 Q h.S N S v v n c n z n z d c c n b c z x V M M 4 i c ^ C 8 a & 3 2X:X>X4XV ; L I U | | | } } } } ..........} ....X.:.:.X.B B | | } 5 +.l.3.j.2.| V 2.3.@.+.@.<.y.y.t.p.p.a.a.a.a.9.7.9.w.w.w.u.u.u.@X@X9.| | V V x m z i q q q q i i i i i i i i i i i i i i i i i i i i i i i i i i i i i i i i i i i i i i i i i i i i i i i i i i i i i i i i i i i i i i i i i i i i i i i i i i i i i i i i i i i i i i i i i i i i i i i i i i i i i i i i i i i i i i i i i i i i i i i i i i i i i i i i i i i i i i i i i i i i i i i i i i i i i i i i i i i i & i a i f f u : : 4 4 Y &.&.+.$.@.@.@.@.>.@.9.>.@.@.@.@.@.@.@.<.@.9.w.w.w.y.y.y.q.@.| } B %.j.j.B #.+.V B } V } } } $.$.} ..$.$.| | | } } } B B B B N N I W W Q B B v * ) pXuXU.OX5 v a a A d.E # u Q V | | +.,.+.+.#.+.B B U U Q U N N N v m m m b z z E R z m #.2.k.-.2.l.m & m 4 9.5X$X1 v c * j.v.V.1Xc.5 #.Q v ^ R q o l.j.b 8 p p p p r p r r r r r r r r r r r r r r r r r r r r r r r r r 7 7 r r 7 7 r # 7 r 7 @ # 7 7 @ # # # 7 # # 7 7 7 7 7 @ 7 7 7 r 7 7 @ @ r p r r 7 O X O O O O O O O ",
"@ 7 7 7 7 7 7 7 # 7 7 7 7 @ @ @ @ O @ @ r p p p s p r r # @ # 7 7 7 @ # p s r 7 7 7 7 7 7 7 7 7 # s s r r r r r r r r r r r r r r r r r r r r r r r r r r r r r r r r p r r u z G G & i n v v x $.1XV.5 B N W i 0 c c N 5 y.2X@X. & x M 2.l.V 2 l z v v v v v n L I I m z v n c b c c c b b b a b E c l a i b W %.V Q 4 % n d.C p d : 2 5X4X!.uX| 2 l.Z.@XXX@XXX}.}.}.m.}.OXOXOX#XOX#X#X#X+X#X$XA.C.b.b.b.5.l.5.2.3.2.V 5 b.n.}.P.W.J.<XbXvXvXbXbXbXbXaXiXwXwXwXuXuXuX4X4XuX4X:X#XOXm.V.A.&.2 & 4 & & i q i i % i i i i i i i i i i i i i i i i i i i i i i i i i i i i i i i i i i i i i i i i i i i i i i i i i i i i i i i i i i i i i i i i i i i i i i i i i i i i i i i i i i i i i i i i i i i i i i i i i i i i i i i i i i i i i i i i i i i i i i i i i i i i i i i i i i i i i i i i i i i i i i i i i i i i i i i i i i u i u i z 4 2 3 1 2XDX$X:X:X:X>XuX4X4XpXuXuXuXuXuX4XuX4X<XuX9XT.0XGXaXpXFX<X>XOX7.@.6 B l.c.@X@X@XOXOX@X@X@XOXOX@X@X@X@X@X}.@Xm.m.XXm.b.4.1.b.2.$...#.#.=.;.j.#.W & ) vXuXW.@X5 & a c A d.^ o M b.v.}.XXm.m.V.Z.@X@X@X@XZ.Z.Z.Z.A.M.b.j.1.1.=.2.=.$...V l 2 ;.;.W Q =.l.N % z v @.V.t.5 v q & h.l.1.:.+.B B D S ! Z & & l.l.c p r r p r r r r r r r r r r r r r r r 7 7 r r r r r r r r r r 7 r r r r r 7 @ @ # 7 7 7 7 r 7 s p r r r r 7 # # @ 7 7 7 7 7 7 r r r r r r r r 7 r 7 O O X X O O O O ",
"@ @ @ @ @ @ @ @ @ @ @ @ @ @ O O O O @ 7 r r r r p r r 7 @ @ # 7 7 7 @ @ r r 7 7 7 7 7 7 7 7 7 7 7 s s r 7 r r r r r r r r r r r r r r r r r r r r r r r r r r r r r r p r r u c V D i i Z v n N $.b.c.} #.n T d ; i i I U c.$XZ.* q v V $.;.V 2 v v v v v n n L L I I n m m v c n b c c n n n v n W v v n a n L N #.;.4 % b ^ a p u : 4 Z.$X>X>X| 2 j.M.m.m.m.m.m.i.i.i.i.i.i.L.}.OX+X+X+X+X+X+Xv.b.b.M.c.3.3.2.2.2.&.V 5 y.m.+X-X~.R.7XeXeXeXqXqXqXqXqX8X7X7X7X-X*X-X>X>X>X,X&XP.OX}.p.u.9.) 5 2 q z z i q i i i i i i i i i i i i i i i i i i i i i i i i i i i i i i i i i i i i i i i i i i i i i i i i i i i i i i i i i i i i i i i i i i i i i i i i i i i i i i i i i i i i i i i i i i i i i i i i i i i i i i i i i i i i i i i i i i i i i i i i i i i i i i i i i i i i i i i i i i i i i i i i i i i i i i i i i i i u a d d c v 3 < ) _ ;X4X&XoX,X&X*X>X>X>X9X>X,X9X9X9X>X9X>X-X9X7X~.(.eXeXeXuXwX>X&XQ.a.6 5 2.<.OX|.|.|.|.|.|.L.}.}.|.|.|.|.|.}.m.n.m.n.n.v.4.3.c.2.$.#.....=.;.=.*.^ & ) vXiXJ.OX} z 0 a R k.R & G M.m.n.m.n.n.m.m.m.m.m.M.m.M.v.M.b.b.c.4.X.1.4.1.1.1.=.B G G ;.;.Q *.=.j.n % a v #.b.5.M S a q ! h.=.2.=.B D D S S Z * & -.h.i u r r r r r r r r r r r r r r r r r r 7 7 r r r r r r r r r r r r 7 # 7 r 7 @ @ # 7 7 7 7 7 7 r r r # # r 7 7 r 7 # @ 7 7 7 7 7 7 7 7 r r r 7 7 r @ @ @ O X O X O O ",
"@ @ @ O O O @ @ O O O O O O O X X O # r r r r 7 7 r 7 7 7 @ 7 7 7 7 O O 7 7 7 r 7 7 7 7 7 7 7 7 7 s p 7 7 r r r r r r r r r r r r r r r r r r r r r r r r r r r r r r p p r p i b.b.a # n W z.S.l.B #.C.l.M m m b z * v N V | 5 * z ~ %.B B Q -.N n v v v N N n x N N N Q N x n Q S N v N N D Q N Q v S Z i i 4 M l.C.N & R ^ C c % : 4 . 1 +X:X| 2 ..4.w.w.,.,.@.@.@.@.@.@.@.@.@.9.y.u.u.t.a.w.9.@.9.0.:.:.:.:.$.$.$.B | y.}.>XpXeXeX9X!.!.!.!.!.!.!.!.!.&X&X&XW.{ H.>X:XG.' 8.8.+X:X#X}.OX@XZ.2 z n Z a & i q i i i i i i i i i i i i i i i i i i i i i i i i i i i i i i i i i i i i i i i i i i i i i i i i i i i i i i i i i i i i i i i i i i i i i i i i i i i i i i i i i i i i i i i i i i i i i i i i i i i i i i i i i i i i i i i i i i i i i i i i i i i i i i i i i i i i i i i i i i i i i i i i i i i i i i i i i i d R R R N 3 ) 5X5X2X;X&X.XK.G.I.+X&X&X&XI.G.U.U.U.U.U.U.J.J.T.!.~.~.*X!.W.<XaXpX4XOX6 5 j.0.i.L.p.p.i.i.p.a.a.8.r.r.e.w.w.t.0.y.c.<.$.$.} +.2.;.;.%.#.#.=.j.;.h.~ * ` vXwXF.a.| W C q A k.Z & x Z.v.)  .t.m. .| X.X.X.X.$.+.$.$...+...V } 2.b.1.V } 2.;.%.-.&.;.*.*.1.j.v % i n N #.Y 4 b 0 % c S D ;.-.W W W ^ R E X o % o 0 r p p r r r r r r r r r r r r 7 r r r r 7 r r 7 7 r r r r r r r r @ @ @ 7 7 @ O @ 7 7 7 r r 7 @ # # # # r r r r r @ @ @ # 7 7 7 7 7 7 e r 7 7 7 7 @ @ r 7 X X X O O ",
"@ @ @ O O O O O O X X X O O O X O @ 7 r r 7 7 7 7 7 7 7 7 7 7 7 7 @ O O 7 r 7 7 r 7 7 7 7 7 7 7 7 p p 7 7 r 7 r r r r r r r r r r r r r r r r r r r r r r r r r r r p p p r r i z.C.i = W Q z.C.l.2 V C.b.} V 3 x 2 & v %.#.+.B % i ~ Q x x Q k.v n N B } ..B B V +.B #.=.B l V h.#.B V B ..$.=.#.#.} #.Q c m m 2 C.S.x * n ^ b q n n 4 < 6 Q.4X| l ..X.4.:.%.%.&.,.,.&.&.&.,.2.,.3.y.c.y.y.v.n.t.>.0.0.$.+...$...} #.+.+.9.i.:XiXuXpX>XW.+X+XW.+X+X+X+X+X+X+X+XOXa.I.4X:X8.o.r.8.|.$X#Xe.m.#XZ.2 c W W c i i i i i i i i i i i i i i i i i i i i i i i i i i i i i i i i i i i i i i i i i i i i i i i i i i i i i i i i i i i i i i i i i i i i i i i i i i i i i i i i i i i i i i i i i i i i i i i i i i i i i i i i i i i i i i i i i i i i i i i i i i i i i i i i i i i i i i i i i i i i i i i i i i i i i i i i i i i i i n E ^ W N 3 1 1X5X#X+X+XI.P.r.L.#X#X#X+XL.r.|.|.|.P.|.|.|.P.P.&X-X&X&XQ.H.<XpXuXpX%X1 5 c.x.u.p.p.p.u.u.t.9.w.w.w.w.w.w.9.<.5.5.l.&.+.+.U #.;.;.-.-.%.#.=.;.;.h.~ . ` pX9XG.a.| ~ C q Z z.R * x C.c.) ) <.b.+.+.$.$.$.$.$.$.$.} } +.+.B #.5.A.2.V } ;.k.-.%.&.2.....1.j.v + p C v N L L R c 0 z x N ! ^ L T R T T E - + % o i r r p r r r r r r r r r r r r 7 r r r r r r r r r r r r r r r r 7 # @ @ 7 7 @ O @ 7 7 7 r 7 7 @ @ # r # # r r r 7 @ @ @ # 7 7 7 7 7 7 7 7 7 7 7 7 @ 7 p r O X O O O ",
"@ @ @ @ @ O O X O X X X O O O O @ # 7 7 7 7 7 r 7 7 7 7 7 7 7 # 7 @ O O p p 7 @ 7 7 7 7 7 7 7 7 @ r r 7 r r 7 r r r r 7 7 r r r 7 7 7 r r r 7 7 r r r r r r r r r r p p p r r i h.z.u = I N } $.B x B +.:.@X1Xq.j.l.j.j.l.;.#.I f r i i & 4 z m Q -.j.x.v.v.v.c.y.b.c.c.b.=.V } b.j.1.$.3.c.b.M.b.b.b.l.*.x v x 3 Z.1XM * n ^ n * l.UX3X< 1 W.:X| G =.$.4.1.%.%.%.$.$.%.%.%.&.&.$.&.&.,.:.<.c.M.>. .@.<.$.#.=.=.1.=.#.#.+.@.7.#X>X&X;X.X8.p.i.r.e.r.r.r.e.r.a.a.9.<.9.y.9.9.9.9.w.w.n.x.>.n.m.x.v n W W c i i i i i i i i i i i i i i i i i i i i i i i i i i i i i i i i i i i i i i i i i i i i i i i i i i i i i i i i i i i i i i i i i i i i i i i i i i i i i i i i i i i i i i i i i i i i i i i i i i i i i i i i i i i i i i i i i i i i i i i i i i i i i i i i i i i i i i i i i i i i i i i i i i i i i i i i i i i & : b W W W N 3 5 @X@X@.@.7.@.@.q.e.e.w.w.e.w.w.w.e.e.e.q.e.e.q.y.y.i.r.p.p.7.p.I..X2XOX< B l.x.e.u.m.m.n.t.q.q.q.v.q.q.0.b.c.,.,.+.&.#.#.#.Q -.%.%.#.%.#.#.#.=.%.! W . ) pXeX*X:X,.S a 0 R z.Z * x b.c.v.y.,.+.#.#.......#.#.#.$.#.$.5.l.#.V +.| $.:.2.2.;.-.;.,.,.....1.j.n # p a q & & & & o & * * 2 4 : = = % + # # u a h.k.d p r r r r r r r r r r r r 8 8 7 7 r r r r r r r r r r r r r r 7 7 7 7 7 r 7 @ O @ 7 7 7 7 7 7 @ # r r # # # r @ @ @ @ @ 7 7 7 # # - - - - 7 # # r @ r p r X X X X X ",
"7 @ @ @ @ O O X X O O O O O @ @ 7 7 7 7 7 7 7 r r r 7 7 7 7 7 # @ @ X @ s s r @ 7 7 7 7 7 7 7 7 @ r r r r r 7 7 r 7 7 7 7 r r r 7 r r r r 7 7 r r r r r r r r r r p p p r r r u h.h.u $ n U } $.M N U B >.1X5X@X<.j.l.l.l.j.Q W p r i i : m 4 z ! h.b.M.M.m.m.m.m.m.M.b.M.j.$.1.b.j.2.3.c.M.M.Z.Z.V.M.b.$.N x 2 V Z.1XV * R ~ Z 2 =.JXSX1 1 !.=X| * Q *.:.:.%.%.=.=.=.=.=.=.=.=.=.;.=.$.:.3.c.M. . . .+.#.Q -.*...=.*.#.#.,.@.OX;X+X+X}.7.7.q.q.q.q.q.e.e.w.w.t.9.y.0.@.@.9.0.>.3.:.4.4.:.x.M.j.N n R Z z i i q i i i i i i i i i i i i i i i i i i i i i i i i i i i i i i i i i i i i i i i i i i i i i i i i i i i i i i i i i i i i i i i i i i i i i i i i i i i i i i i i i i i i i i i i i i i i i i i i i i i i i i i i i i i i i i i i i i i i i i i i i i i i i i i i i i i i i i i i i i i i i i i i i i i i i i i : : : b W W Q N 3 3 Z.%X) ) @.,.,.v.q.q.w.w.q.q.q.9.w.q.q.q.q.q.>.3.0.u.w.0.t.t.a.8.U.2Xm.3 ..l.x.x.e.n.n.v.0.0.t.0.q.q.9.0.c.3.$.$.} #.#.#.#.B %.%.Q Q #.#.#.#.#.%.#.I < ` pXeX9X5X,.n b q A z.R * x l.c.b.c.+.U %.%.%.#.=.%.%.%.#.#.#.;.6.#.V } V X.,.,.2.2.;.6.&.,.....1.j.n % p p % & & . . 2 . . < < . .     & * * o 0 i h.h.d p r r r r r r r r r r r r 8 8 r 7 r r 7 r r r r r r r r r r r 7 7 7 7 r r 7 @ @ @ 7 7 7 7 7 # - - r r # # @ # @ @ @ @ 7 7 7 # @ @ @ @ # # @ @ # r @ # r r O X O O O ",
"r 7 @ O O O O X X O @ @ @ @ @ 8 7 7 7 7 7 7 7 r r 7 7 7 7 7 7 @ @ O X @ p s r @ 7 7 7 7 7 7 7 7 7 p p r p r 7 7 r 7 @ @ 7 r r 7 r r r r r r r r r r r r r r r r p p u u r r r u v x ; ; W 2...$.*.S B $.+.y.<.@.5.,.&.-.*.*.D S q c S D D W n W v B $.2.3.0.<.<.9.9.<.3.3.1.$.$...#.$.$.:.<.3.0.9.w.w.0.2.;.%.4 3 c.A.2 * b ^ n z m 5 ) $X:X>XpX} * E -.=.1.2.&.$.$.=.=.=.=.*.=.=.=.$.$.$.,.3.0.m.@X0.+.U z L v F ..=...#.6.@.OX:XH.7.w.y.y.y.<.x.q.n.n.e.i.i.}. X X X Xn.n.v.0.b.j.l.;.B B =.-.N Z R Z z q i q i i i i i i i i i i i i i i i i i i i i i i i i i i i i i i i i i i i i i i i i i i i i i i i i i i i i i i i i i i i i i i i i i i i i i i i i i i i i i i i i i i i i i i i i i i i i i i i i i i i i i i i i i i i i i i i i i i i i i i i i i i i i i i i i i i i i i i i i i i i i i i i i i i i i i i i : : : m W Q Q B 5 5 Z.%Xy.@.) ,.c.t.q.u.u.u.n.t.t.w.9.t.m.n.m.u. .>.m.XXn.q.n.V.p.K..X2Xm.< N *.1.q.e.u.t.y.0.0.y.q.0.q.q.0.<.,.5.j.j.j.1.$.$.#.%.%.#.Q %.*.%.#.%.%.%.W < ` uX9X7X:X| n C q C z.R * l l.3.:.:.$.#.Q Q Q Q *.*.%.#.$.$.#.#.%.#.$.3.A.c.>.:.2.,.} B +.&.%.=.=.h.n % p u v ! -.#.:.A.V.m.m. Xm.u.n.q.w.4...N c 0 C C s r r r r r r r r r r r r r r r r r r r 7 r r r 7 7 7 7 7 7 7 7 7 7 7 7 r r 7 @ @ # 7 7 7 7 7 # r # # # # # # @ @ @ @ @ 7 7 7 # @ @ @ @ # # # # # r # # r r @ @ @ @ @ ",
"r 7 O X X O O X X O @ @ @ @ @ 7 7 7 # 7 7 r 7 7 r 7 # # 7 7 7 7 O O X @ p p 7 7 7 7 7 7 7 7 7 7 r p s p p r 7 7 r # O @ 7 r r 7 r r r r r r r 7 r r r r 7 r r r p 0 p p r r r u q * = ; Q l.$.$.-.Q #.&.+.&.} 5.l.+.V N N Q D Q l v ! *.h.-.N I I N #.$.,.2.,.,.3.>.>.3.2.2.2.=.V #.;.2.,.$.$.@.>.>.>.0.c.l.6.2 3 1.b.2 & R ~ R i z . 1 5XpXiXpX+.  L / $...2.$.=.=.=.;.;.=.=.=.=.=.1.1.1.1.:.>.%X3X0.} n ; P c v h.h.D Q 6.@.OX#Xp._ 9.y.<.y.0.q.q.e.e.e.i.}.|..X X X Xn.m.m.b.b.5.2.#.N B Q N n n W Z i & i i i i i i i i i i i i i i i i i i i i i i i i i i i i i i i i i i i i i i i i i i i i i i i i i i i i i i i i i i i i i i i i i i i i i i i i i i i i i i i i i i i i i i i i i i i i i i i i i i i i i i i i i i i i i i i i i i i i i i i i i i i i i i i i i i i i i i i i i i i i i i i i i i i i i i i i i : : : m Q Q Q B 3 V Z.@X@. .,.A.j.n.u.u.u.n.m.m.m.y.9.t.m.m.m.e. .X.m.XXn.n.m.@Xr.8..X2Xm.2 N N ..v.q.q.y.y.0.0.0.t.9.0.v.3.| +.l.b.b.b.1.#.=.%.#.#.Q Q %.%.#.#.%.U %.W < _ pXeX7X4X| v b q A z.R q & l.j.} ..$.B Q Q Q Q *.*.*.Q #.$.#.#.#.#.#.2.A.c.>.3.3.$.B #.V &.%.-.-.-.z % & & V 2.5.+.9.1X1X$X:X:X#X#XXX X XXX4...2 & & i u r r p r r r r r r r r r r r r r r r r 7 7 r r 7 7 7 7 7 7 7 7 7 7 7 7 r r 7 @ @ # 7 7 7 7 7 - - # @ @ # - # # # # @ 7 7 7 7 7 @ @ @ @ # # # # @ r # # r - # r 7 7 7 ",
"p @ O O O X X O X O O O 7 7 @ 7 7 # # # # # # # # 7 # # - # # 7 7 @ @ @ 7 r 7 @ 7 @ @ O @ @ 7 7 r @ @ r t r r r 7 7 7 7 7 @ @ @ @ @ @ @ @ @ @ @ O O @ @ @ @ @ @ 8 8 7 7 e r 0 * 0 # T f Q h...=.#.%.%.%.%.%.%.%.&.%.#.B N U Q I l z W Q N W I I I N U #.%.#.#.$.$.1.=.$.$.%.%.#.#.B #.#.$.=.=.$.$.1.:.} $.l.6.2 3 2.b.l & R ~ A a a . 1 4XwXiXvX+.  Y %.%.=.=.=.;.$.$.;.;.%.$.;.=.$.$.$.$.$.1.:.0.q.@X@X&.4 P i N h.;.x I %.<.m.#Xr. .w.V.V.m.m.}.OXw.7.m.m.i. Xm.e.n.m.n.9.:.@.>.c.Z.3.V } =.=.v n W W z & i i i i i i i : i i i i i i i i i i i i i i i i i i i i i i i i i i i i i i i i i i i i i i i i i i i i i i i i i i i i i i i i i i i i i i i i i i i i i i i i i i i i i i i i i i i i i i i i i i i i i i i i i i i i i i i i i i i i i i i i i i i i i i i i i i i i i i i i i i i i i i i i i i i i i i i i i i 4 2 N Q Q Q N x V A.V. .@.2.%.&.<.9.m.y.,.:.:.<.0.v.m.m.m.m.i.w.t.t.n.n.m.m.u.p.L..X$X0.3 v v *.M.M.9.0.v.9.q.q.q.q.0.y.c.:.#.;.=.2.2.=.%.#.#.%.%.%.%.Q %.#.#.#.#.Q W 2 _ uXeX7X4X .4 c i Z z.R + i h.*.N M =.} %.Q Q Q %.%.Q Q %.#.%.#.#.#.#.#.2.2.2.2.j.%.x M ,.2.k.-.-.~ P * M 2.@.t.m.m.m.OXm.t.e.}.@XOX|..X X}.}.OXe.v.. o + + r # @ r 7 7 7 r 8 @ O @ @ O O @ 7 7 @ @ @ @ @ @ O @ @ @ @ O @ O @ @ O @ 7 @ O @ 7 7 r # # # - - # @ @ @ # # # - # # # # # # r # # - @ @ O O X @ # - @ @ # r # # # ",
"r @ O O O X X O O O X X @ 7 8 7 7 # # # # # # # 7 7 # # - # # # @ @ 7 7 7 7 @ @ @ @ O O O @ 7 7 @ @ @ 7 7 7 7 r 7 7 7 @ O X X O X X X X X X X X X X O O X O O O + @ 7 @ @ 7 0 & + @ H T -.*.*.*.#.#.#.%.Q %.%.%.%.#.#.B V N I n : i W W I W I I N N U Q %.%.%.%.*.=.=.%.%.#.#.#.#...} #.%.=.=.*.%.=.%...%.l.-.4 l 2.b.l % T ~ A a i . 6 4XwXbXHX@.. B &.-.;.;.=.;.;.=.#.%.=.;.$.;.;.$.$.$.$.=.:.,.) @XSXj.* m i N j.6.v L %.>.m.#Xr.7.u.@X%X@X#X#X@Xe.7.q.u.i.}.v.0.q.m.v.@.| :.X.q.V.3.V } 1.=.N n W R z q i i i i i i : : : : i i i i i i i i i i i i i i i i i i i i i i i i i i i i i i i i i i i i i i i i i i i i i i i i i i i i i i i i i i i i i i i i i i i i i i i i i i i i i i i i i i i i i i i i i i i i i i i i i i i i i i i i i i i i i i i i i i i i i i i i i i i i i i i i i i i i i i i i i i i i i i i i i & N %.Q Q I x 2 l.b.| | :.#.%.,.9.A.c.,.$.$.:.b.n.m.}.}.m.}.m.v.0.e.m.m.t.t.i.|. X@X9.3 v v N b.V.v.q.q.q.q.q.q.0.0.0.3.$...;.=.;.;.=.%.#.%.%.%.%.Q Q %.%.#.#.*.^ W 2 _ uXeX9X4X .4 c i Z z.R O i Q N N v ..} %.#.Q Q %.%.Q Q %.%.%.%.#.#.#.#.#.$.;.=.h.#.2 2 3.j.h.! ~ ~ m * | m.u.u.}.2X2Xu.>. . .u.OXOX#X#X$X@XOX#X.XXX2   % + @ X O @ X O X O @ O X O O O X X X X X O O O X X X X X X X X O X X O X O O X @ @ 7 7 # # # # - # # @ @ @ @ # # # - # # # # # r # # - # O O X X O @ # @ @ # r # # # ",
"t 7 O O O X X O @ @ X X @ 7 7 7 7 # # # - - - # 7 # # # # # # # @ 7 7 7 7 # # 7 O O X O O @ # # @ @ 7 r r r 7 r @ 7 7 7 7 7 7 r 7 7 7 r r r r r r r r r r 7 @ O O @ r e e r l l i u d E ! N *.*.Q #.Q %.Q Q %.%.%.=.=.#.N I Q I : i R W W W I I N N U Q %.#.#.%.%.%.%.%.#.%.#.#.#.Q Q #.%.%.%.%.%.%.#.#.#.;.Q 4 l j.b.x % T d.Z a a . 6 :X-XbXHX@.. V #.%.=.=.$.=.;.=.#.$.;.;.$.;.;.;.;.=.=.=.:.,.@.e.}.3.V n 4 N j.;.x x #.<.m.@Xq. .9.v.v.t.t.n.u.e.e.n.m.u.u.q.v.q.q.0.+.| <.<.b.Z.j.V U &.%.v n W R z q i i i i i i : : : : i i i i i i i i i i i i i i i i i i i i i i i i i i i i i i i i i i i i i i i i i i i i i i i i i i i i i i i i i i i i i i i i i i i i i i i i i i i i i i i i i i i i i i i i i i i i i i i i i i i i i i i i i i i i i i i i i i i i i i i i i i i i i i i i i i i i i i i i i i i i i i i i : & N %.Q Q N x V C.Z.>.X.@.+.&.<.<.y.5.$.:.$.$.3.0.v.m.m.i.u.w.n.q.i. X}.p.p.}. X X@X0.3 x n N l.c.4.>.9.q.t.9.q.t.0.y.3.$.#.;.=.=.$.%.#.%.%.%.%.%.Q Q %.%.%.%.Q ^ W 2 ) uXeX7X4X .4 c i n z.T + z k.-.v x 1.j.%.#.Q Q %.%.%.Q Q %.Q Q Q #.#.#.#.$.;.=.k.%.2 2 2.j.*.I ~ ~ m * | n.u.u.r.#X@X .:.:.<.9.y.y.w.e.u.t.q.e.XXXXV m i + # @ @ r 7 r r p p p 8 O X O O O X O O @ O O r 7 7 7 7 r r r r 7 7 r r p r @ @ @ 7 7 # # # r # # @ @ @ @ @ @ - - # # # # # # r # - r # O X X X O @ # # # # r # # # ",
"s 7 O O O O O @ 7 @ O O 7 r 7 7 7 # # # - - - # # # # # # # # # 7 7 7 # @ # 7 r O X X O O @ # # 7 r s s p r 7 7 O @ r p s s s s h h H H H H H H h h H H H g r @ O 7 r y y s v v Z b f f l G Q Q #.%.%.%.%.%.%.%.=.;.j.=.U Q Q I : i R W R W I I I N U Q #.Q Q #.%.%.#.%.#.#.#.#.#.#.#.#.%.%.%.%.%.Q #.#.#.%.I 4 x j.b.M % T ~ S a a   6 +XW.bXGX+.. V #.#.*.$.$.$.%.=.;.;.;.=.$.;.;.;.=.=.=.=.:.,.V. .3 :.l.Q x B 2.=.x x #.4.m.@Xy.@.@.>.@.@.@.@.@.u.}. X}.u.9.0.M.v.>.:.+.+.5.0.M.Z.l.N Y Q U v v W n i % i i i i i i i : : : i i i i i i i i i i i i i i i i i i i i i i i i i i i i i i i i i i i i i i i i i i i i i i i i i i i i i i i i i i i i i i i i i i i i i i i i i i i i i i i i i i i i i i i i i i i i i i i i i i i i i i i i i i i i i i i i i i i i i i i i i i i i i i i i i i i i i i i i i i i i i i i i i & v %.Q Q I x B C.Z.w. . .$.| <.@.,.$.$.,.:.$.X.>.0.q.u.m.u. .q.n.}.}.}.}.OXL. X X@X0.< 4 Q Q $.X.|  .>.0.t.9.9.0.y.c.5.$.%.;.;.=.#.#.%.%.%.%.%.%.%.Q %.%.%.%.Q ! W 2 ` uXeX7X4X .4 c q Z z.T + c B.z.z 2 b.M.%.%.#.#.#.%.%.%.%.#.Q Q Q Q #.#.#.$.;.=.k.Q z 2 2.j.Q m ! ~ m & | n.n.m.e.e.t. .} 2.5.$.| +.@. . . .>. .XXXXl.B.b i u u s H s h T H T T h r O O O X X O @ O O X H H h s h h h h h s g h H T H p 7 7 7 7 @ @ # r # @ @ @ @ @ @ @ - # # 7 7 # # # r # - r # O X X X O @ # r # # # # # # ",
"s 7 O X O O O @ 7 @ O X 7 7 7 7 7 7 r r r r 7 7 7 7 7 7 7 7 7 7 r 7 @ @ @ 7 # @ O O O O @ @ @ # 7 t s s t r r r r 7 7 7 r r t r s s g h h g s s s s s s g s r 7 @ r r r r f n D N v n m N =.Q W %.%.%.Q %.%.%.%.%.;.j.=.B Q W L : i R W R W I I I N U Q Q Q Q Q %.%.#.#.%.%.%.%.%.#.#.Q #.#.#.#.%.Q Q %.#.Q I x M j.b.M % T ~ S w a . 6 #XW.bXGX+.. B %.%.;.=.=.$.;.=.#.} %.=.$.$.=.=.=.=.=.=.:.,.<.q.n.>.$.;.B ..1.;.V B ;.4.v.b.5.:.@.,.,.,.,.,.@.n.m.n.m.t.@.,.b.0.X.$.+.+.2.3.c.b.;.x n W N v v S n i 0 i i i i i i i i : : i i i i i i i i i i i i i i i i i i i i i i i i i i i i i i i i i i i i i i i i i i i i i i i i i i i i i i i i i i i i i i i i i i i i i i i i i i i i i i i i i i i i i i i i i i i i i i i i i i i i i i i i i i i i i i i i i i i i i i i i i i i i i i i i i i i i i i i i i i i i i i i i i % n ! Q Q I x 5 Z.Z.q.>.0.y.@.:.:.5.2.$.;.&.1.,.>.0.v.0.0.t.t.q.m. X}.L.}.L.i.|.}.OX<.< N -.Q ..} ,.c.0.0.0.0.3.0.3.3.2.$.#.;.j.=.#.#.%.%.Q %.Q Q Q Q %.%.%.%.*.-.W 2 ) pXeX7X4X| 2 c q C k.R + z h.;.Q N j.x.$.%.#.#.#.%.%.%.%.%.%.Q Q #.#.#.#.%.%.%.-.Q l z ;.2.U m ~ ! m * X.@Xm.w.e.m.y.:.#.%.$.+.#.$.,.:.:.@.>.>.XXm.b.B.b i p r p s r t s p p h h r @ @ X X O O @ @ 7 r h h s p s s s s p p p s s H h 7 7 7 7 7 @ @ # r # @ @ @ @ @ @ @ # 7 7 7 # # # # # # r r # O X X X O @ # # # # # # # - ",
"s 7 X X X X O @ 7 7 X X @ 7 7 7 7 7 r r 7 r 7 7 7 7 7 7 7 7 7 7 # @ @ 7 7 @ O X @ @ @ @ @ 7 7 @ r t t r r r p s h t @ X X O 7 r p p s s s p r r r r 7 8 r p p p 7 r r - r d ! h.2 l b L h.C.h.Q Q Q Q Q Q %.%.%...=.;.%.N W ^ L i i R W L W I I I N U Q #.Q Q Q #.Q Q #.%.%.%.%.%.%.#.#.#.#.#.#.Q Q Q Q #.#.I m l j.b.x % T ~ Z w a * 6 :X&XaXGX+.. D -.*.;.=.=.=.j.=.V M #.;.$.$.$.=.=.=.=.=.:.:.| V.5XM.} ;.%.1.1.2.$.%.;.:.4.,.+.$.@.:.,.+.+.,.@.m.m.n.m.9.@.+.,.,.<.2.+.+.5.j.3.l.%.m m n m v v S Z i % i i i i i i i i : i i i i i i i i i i i i i i i i i i i i i i i i i i i i i i i i i i i i i i i i i i i i i i i i i i i i i i i i i i i i i i i i i i i i i i i i i i i i i i i i i i i i i i i i i i i i i i i i i i i i i i i i i i i i i i i i i i i i i i i i i i i i i i i i i i i i i i i i i i i i i i i i i i % v ! Q Q W x V C.Z.m.m.m.Z.c.:.3.A.l.&.$.$.2.:.$.3.M.y. .<.m.m. X X X X}.i.}.}.}.m.<.2 N k.-.V } c.Z.b.0.0.c.y.y.2.$.$.#.%.j.j.=.#.#.%.%.Q %.Q Q Q Q %.%.%.%.#.! W < _ vXaX9X4X_ 2 z q C k.E + z 2 l B.z...X.$.%.#.#.#.%.%.Q %.%.%.Q Q Q #.#.#.#.#.Q -.W l z ;.;.Q n ^ Q m * :.1XM.>.w.9.>.,.k.Q N %.;.&.$.$.&.+.:.>.M.m.l.%.c % 0 r r p r r 8 O @ p d r 7 @ O O O O # p h H p p r r r r r r r 7 r r p d s @ @ # 7 7 # # # r # # @ @ @ @ @ @ 7 7 7 7 # # # # # # # r # @ O O O O @ @ # # # # @ # - ",
"p 7 O O @ O O O 7 7 @ @ 7 7 7 7 7 7 7 r 7 7 7 7 7 7 7 7 7 7 7 7 @ @ @ @ @ @ O O @ @ @ @ 7 7 7 @ 7 r t r r t s s s p 7 @ O @ 7 r p p s s s s p r r r r r r p p s r r r r y b ^ ;...=.& m -.l.-.-.! ! Q Q %.%.%.#.#.;.2.%.B Q ~ R i i R W L W N W I N U Q %.Q #.#.Q Q Q Q Q %.%.%.%.%.Q Q Q Q #.%.Q Q Q Q #.Q I m l ;.l.l % T ~ Z a a * 6 :X&XiXGX+.. Q -.*.*.=.=.=.%.#.#.#.$.=.$.$.$.=.=.=.=.=.$.+.:.v.@XM.$.=.=.2.1.2.=.%.#.} :.2.,.:.:.,.&.%.+.$.$.v.m.m.m.>.$.&.$.:.3.3.$.$.2.c.1.;.Q m b z z v n W W z : i i u u i i i i i i i i i i i i i i i i i i i i i i i i i i i i i i i i i i i i i i i i i i i i i i i i i i i i i i i i i i i i i i i i i i i i i i i i i i i i i i i i i i i i i i i i i i i i i i i i i i i i i i i i i i i i i i i i i i i i i i i i i i i i i i i i i i i i i i i i i i i i i i i i i i i i i i u % n ^ Q Q W x V l.0.M.m.v.M.3.:.2.b.l.=.$.%.=.1.$.j.M.c.@.,.v.n.u.e.u.i.m.m.}.m.n.n.3.V V -.=.} | c.A.c.5.3.3.3.3.,.$.$.#.%.k.j.*.#.%.%.Q Q %.Q Q Q Q Q Q Q %.Q Q Z . _ vXaX9X4X_ 2 c 0 C k.E % c M M k.h.=.3.$.%.%.#.#.%.%.#.%.%.%.%.Q Q #.#.#.%.%.Q -.W z z #.%.Q I W Q m . ..@Xb.y.9.>.:.2.*.B N *.6.;.&.&.&.#.2.2.4.4.b.l.n i p r r p r p 8 8 8 p p t 7 @ O X X O @ r s s p p r r p p r r r r r r p d s @ @ @ 7 7 # # # # - # @ @ @ @ # # # # 7 # # # # # # @ @ - - @ @ @ O @ @ @ @ # # # @ @ @ ",
"p 7 @ @ 7 @ O O O 7 r p s p 7 7 7 7 7 r 7 7 7 7 7 7 7 7 7 7 7 7 @ @ @ @ O O 7 r 7 7 7 7 7 7 @ @ @ r t t t t r r 7 p g h p 7 7 7 7 r t p p t r 7 7 r r r r r r r r r y r - ; 4 2 SX3Xx 4 B ..-.k.! ! *.-.%.%.%.%.=.2.l.%.B Q ^ n i i R E L W N W I N U Q #.Q #.%.Q Q Q Q Q Q %.%.%.Q Q Q Q Q #.Q Q Q Q Q Q %.W 4 x j.l.l % T ~ Z a i * < :X*XwXvX+.. Q -.*.*.*.=.#.M V l.C.;.#.;.=.=.;.;.=.=.=.$.&.,.X.>.:...=.=.2...#.Q N N B 1.l.2.$.$.$.&.;.,.,.:.b.v.M.V.3.,.2.&.,.,.$.;.;.;.j.} B N z b b b v n W W z i i i u u i i i i i i i i i i i i i i i i i i i i i i i i i i i i i i i i i i i i i i i i i i i i i i i i i i i i i i i i i i i i i i i i i i i i i i i i i i i i i i i i i i i i i i i i i i i i i i i i i i i i i i i i i i i i i i i i i i i i i i i i i i i i i i i i i i i i i i i i i i i i i i i i i i i i i i u % b ! Q Q W x x V 5 X.>.| ,.:.,.$.;.$.%.;.=.%.=.$.$.$.+.,.2.:. .>.>. .>.n.m.n.m.0.@.$.$.} #.B j.} 2.3.,.j.,.} +.$.$.+.$.%.%.=.;.%.Q %.%.Q Q %.Q Q Q Q Q Q Q Q *.! R . _ vXaX9X4X_ 2 a q Z k.E % i j.;.4 2 j.M.$.%.%.#.#.%.#.Q %.%.%.%.Q Q #.#.Q #.Q Q ! W q z N I W I S W v * V b.3.y.y.b.l.B V *.h.-.%.-.;.#.#.;.l.$.< 3 l.S.^ d d p r r 7 r r r r p p t r r r 7 @ 7 p s p r r r r r r r r r r r t r r s s @ O @ 7 7 - # # # # # # @ @ @ # # # # # # # # # # # @ @ - # @ @ @ @ @ @ @ @ @ # @ @ @ @ ",
"t r @ @ 7 @ X O O @ r t t r r 7 7 7 7 r r 7 r r 7 r r 7 7 r r 7 O @ O X O O @ r 7 7 7 7 7 r 7 @ O r r r r r r r r r h s @ @ r r r r t p p t t r r r r r r r r r r r r r u ; & l 1X3Xl & D *.*.-.-.-.Q h.-.%.%.2.2.$.;.%.B W L n % a n R R W W W N W Q Q %.%.%.Q Q Q Q Q Q Q Q Q Q Q Q Q Q Q Q Q Q ! Q Q %.%.I 4 x l.l.l o b ~ A a a * 6 :X,XwXvX} * Q h.*.! *.*...V ..l.l.j.$.;.=.=.=.=.=.=.=.=.&.&.1.,.:.1.=.%.$.2.%.N U N V 2.c.3.:.$.&.&.,.,.:.3.c.b.b.c.3.2.2.&.:.2.2.;.=.2.2.$...N z f n n m N W ^ z i % i i i i i i i i i i i i i i i i i i i i i i i i i i i i i i i i i i i i i i i i i i i i i i i i i i i i i i i i i i i i i i i i i i i i i i i i i i i i i i i i i i i i i i i i i i i i i i i i i i i i i i i i i i i i i i i i i i i i i i i i i i i i i i i i i i i i i i i i i i i i i i i i i i i i i i i i i u i n ! Q Q W v n N V +.:.:.&.%.$.$.=.=.=.=.=.=.=.=.1.:.$.$.$.$.:.:.$.:.3.y.b.b.M.y.:.$.$.=.....2.=.2.2.2.2.$.+.$.$.#.%.$.=.=.=.-.%.Q Q %.%.Q Q Q Q %.%.Q Q Q Q Q Q W . _ vXaX9X4X) 4 i q R z.E % i k.;.v x j.x.=.%.#.#.#.#.#.%.Q %.*.Q Q Q %.Q =.#.Q Q ! W z z Y I L L Q Q v * } c.c.5.3.j.l.#.D #.=.=.;.;.;.%.%.&.6.&.2 2 b.C.W d d p r r r r r r p r r r r r 7 7 r r p p p p r r r r r r r r r r t r r s s O O @ 7 7 # r r # # # # # # 7 # # # # # r r r r - @ # @ # # @ @ @ @ @ @ @ # # r r @ @ @ ",
"p p r 7 r @ X X O 7 r s s t r 7 r 7 7 r r 7 7 7 7 r 7 7 7 7 7 @ @ @ O O 7 r 7 r 7 7 7 # 7 7 @ O O r r r r r r r 7 r s p O @ s h r r r t t r r r r r r r r r r r r r r r u ; & 2 3XSXl * M D N W W -.Q -.Q =.$.$.$...=.%.D Q W W % i z n n n v v N W Q Q %.%.%.Q Q Q Q Q Q Q Q Q Q Q Q Q Q Q Q Q Q Q Q U Q Q I 4 l ;.j.x % T ~ v a a * 6 :X=X9XpX} * D *.D N B B } } %.;.2.;.=.=.=.=.=.=.=.=.=.=.&.&.:.:.1.=.%.#.%.;.-.N Q N N l.Z.0.| } ;.2.:.,.>.,.:.$.+.+.$.,.$.&.2.:.$.%.%.#.=...D N i : i : n N W W i i & i i i i i i i i i i i i i i i i i i i i i i i i i i i i i i i i i i i i i i i i i i i i i i i i i i i i i i i i i i i i i i i i i i i i i i i i i i i i i i i i i i i i i i i i i i i i i i i i i i i i i i i i i i i i i i i i i i i i i i i i i i i i i i i i i i i i i i i i i i i i i i i i i i i i i i i i i u i n ! D Q W v n m N #.&.&.%.&.&.$.=.=.=.=.=.=.#.$.$.1.;.&.$.$.&.&.%.$.$.:.,.:.:.$.#.$.1.1.1.1.j.2.$.$.&.$.$.$.#.%.#.#.#.#.#.Q #.Q B Q %.%.%.%.#.%.%.%.%.Q Q Q Q Q W . _ vXaX9X4X_ 4 a q E z.E 0 z k.;.z 2 ..:.$.#.#.#.#.#.#.%.%.*.! Q Q Q Q Q B B #.Q ! W i & I I L R Q W v & M 1.&.#.} } #.#.$.1.;.=.=.=.%.#.#.%.%.%.* < j.C.n i u u r t r t r r p r r r r r r r r r r r r r r r r r r r r r r r t r r h s O O @ 7 7 # r r # - - # # 7 7 # # - - r # # # @ @ # # - r # # # # @ @ @ @ @ @ - - # @ @ ",
"r t r r r @ O O @ 7 r r t r r 7 r 7 7 7 r r 7 7 7 7 7 7 7 7 7 7 O O X O r p 7 @ # # @ @ 7 7 @ O O r r r r r 7 r 7 r s p X O p h 8 r r r r r r r r r r r r r r r r r r r u ; ; 4 1X3Xx % v N n L W -.%.%.B ;.2.:.,.$.2.#.N I n L % i c n n b m v W Q Q Q %.%.%.Q #.#.Q Q %.%.Q Q Q Q #.Q Q Q Q Q Q Q Q U Q %.I m x #.*.x % T ~ c a a * 6 :X=X-XuX+.& D *.D N B V #.=.=.#.#.%.=.$.=.=.;.;.=.=.=.$.%.%.$.$.=.=.%.B Q -.-.I W N N l.@X0.| ..;.2.:.,.:.,.&.#.B B +.:.$.$.1.1.$.Q Q Q ......N i i z z I I I W i i q a i i i u i i i i i i i i i i i i i i i i i i i i i i i i i i i i i i i i i i i i i i i i i i i i i i i i i i i i i i i i i i i i i i i i i i i i i i i i i i i i i i i i i i i i i i i i i i i i i i i i i i i i i i i i i i i i i i i i i i i i i i i i i i i i i i i i i i i i i i i i i i i i i i i i i i i i i i n ! D Q W v L m N Q =.%.%.%.=.=.=.=.-.=.%.&.=.$.$.$.;.;.&.%.%.%.%.%.$.$.$.#.#.#.%.=.1.j.j.j.2.;.;.;.$.#.#.#.%.%.#.#.#.#.#.D U B U Q %.#.#.%.#.#.%.%.%.%.Q %.#.Q W . _ vXaXqX4X_ 4 a q E z.E + z k.=.x 2 ....$.#.U #.#.#.#.%.Q Q Q Q Q Q Q Q %.#.*.%.! W z z I I L R W W b & V 2.-.#.#.V B ;.1.1.;.$.$.&.;.%.%.%.%.Q * * l.b.z % p r r t r t r r p r r r r r r r r r r r r r r r r r r r r r r r t r r h h O O @ 7 7 # r r # - # # # # # # # - # - - # # @ @ # # # # # # @ @ # # # # # # # # # # @ ",
"r t t t p r @ 7 r r @ O @ @ 7 r 7 7 7 7 r r r 7 7 7 7 7 7 7 7 7 O X X O p p 7 O @ # @ @ @ 7 @ O O 7 r 7 r r 7 r 7 r h p X X @ 7 7 7 r r r r r r r r r r r r r r r p r r u ; ; 4 M.Z.2 % N W R L Q *.-.-.#.2.$.:.,.:.2.$.B U I R : a c n n n b v W W Q Q %.%.#.Q #.#.Q Q %.%.Q Q Q Q Q Q Q Q Q Q Q %.#.Q %.;.~ W B D B 2 % T ~ Z a q . 1 :X*X9XuX} * D *.! Q *.%.%.;.;.#.B #.=.=.=.=.=.;.=.=.=.=.=.%.$.$.=.=.#.B N Q ^ I I N N j.v.4...$.;.=.$.3.:.1.2.;.&.%.$.$.2.$.:.2.;.Q Q h.-.=.*.N i z R R W I I W i i q a i i i u i i i i i i i i i i i i i i i i i i i i i i i i i i i i i i i i i i i i i i i i i i i i i i i i i i i i i i i i i i i i i i i i i i i i i i i i i i i i i i i i i i i i i i i i i i i i i i i i i i i i i i i i i i i i i i i i i i i i i i i i i i i i i i i i i i i i i i i i i i i i i i i i i i i i i & n Q D Q W b P n L Q -.%.%.-.=.=.=.=.-.-.&.&.l.j.1.$.$.&.=.%.%.%.-.%.=.;.=.$.-.-.%.*.1.1.1.j.1.;.$.%.#.B #.%.#.Q Q Q #.%.#.#.Q Q Q %.%.Q #.%.#.#.%.%.%.%.Q Q #.! W . _ bXaX9X4X_ 2 a q E z.E + i h.;.Q Q l.c.$.%.#.#.#.#.Q Q Q Q Q Q ! Q Q %.%.#.*.%.-.Q c m I I L R W W b % N h.-.-.%.l x *.;.1.&.&.&.;.=.=.=.&.%.Q % & l.b.c % u p r p r r p p r r r r r r r r r r r r r r r r r r r r r r r r t r r H h O O @ 7 7 # r r # # - # # # # # # # # # # # # # # # # # @ @ @ # # # # # @ # # # # # # @ ",
"r t p p s r @ 7 p r O X X O @ 7 7 7 r 7 r t r 7 7 7 8 7 7 7 7 7 O O X @ p p 7 # 7 7 7 7 7 7 @ X O 7 r 7 r r 7 r 7 r s p X X @ O 8 7 r r r r r r r r r r r r r p r p r r p = = 4 v.M.& o v W R Z Q -.;.%.+.5.:.,.>.>.3...V U W W ; i c n n b b v W W Q Q %.%.#.%.%.Q Q Q %.%.%.%.#.Q Q Q Q Q Q Q #.%.%.#.%.;.-.~ %.B V 2 % T d.A a i * 1 :X=X9XpX} o N ! Q Q -.;.=.=.$.#.#.%.=.=.=.=.=.=.=.=.=.=.=.=.$.$.=.=.%.B I I W I Q S N *.1.1.2.;.=.=.&.2.1.:.$.$.$.&.,.,.;.&.$.$.%.! ~ ~ *.-.*.v q a R W W I I W i i % i i i i u i i i i i i i i i i i i i i i i i i i i i i i i i i i i i i i i i i i i i i i i i i i i i i i i i i i i i i i i i i i i i i i i i i i i i i i i i i i i i i i i i i i i i i i i i i i i i i i i i i i i i i i i i i i i i i i i i i i i i i i i i i i i i i i i i i i i i i i i i i i i i i i i i i i i i : v Q D Q W n n n N Q -.=.*.-.=.=.=.=.%.%.&.&.l.l.2.$.$.$.$.%.=.-.%.! %.$.=.#.! W I %.2.3.2.2.2.;.#.B V V %.h.Q D D Q %.%.%.%.#.Q %.%.%.#.#.#.#.#.#.%.%.%.%.%.*.! W . _ GXbXqXuX) 2 i q R z.E 0 z -.=.-.-.b.M.$.#.Q #.#.Q Q Q *.Q Q Q ! Q U Q Q D *.-.h.h.n z I I L R W W c % v -.~ ~ -.l l *.=.&.&.&.=.=.$.%.=.%.*.W % % l.b.c % u p r p r r p p 0 8 p r r r r r r r r r r r r r r r r r r r r r t r r J H O O @ 7 7 # r r # 7 7 # - - # 7 7 r r # # # # # # r - # # @ # - r @ @ # @ # # # # # @ @ ",
"O @ 7 r t r @ 7 r 7 O O O O O O r r t r r r r 7 7 7 7 @ @ 7 7 @ X X X X @ 7 O @ r r r 7 7 7 @ X O 7 r 7 r r 7 r r 7 r 7 X O r 7 r r r r r r r r r r r r r r r r p p p r p = - : M.M.z o n S W R Q -.=.5 5 A.A.M.M.b.M.2.B N N n ; u c n n b n v n N N Q %.#.#.#.#.Q Q Q %.%.%.Q Q Q #.#.Q %.%.%.#.#.#.#.#.%.! ^ *.D D x ; T d.C a i * 6 :X*X-XuX+.* N Q Q Q %.%.=.%.#.%.%.%.$.=.=.=.=.=.=.=.=.=.=.=.$.$.=.=.%.Q Q I W I Q Q N #.=.1.=.=.=.;.;.&.2.2.$.$.:.,.&.$.#.2.$.M v ~ / b v F ! Z i c W W I I I W z i % i i i i u i i i i i i i i i i i i i i i i i i i i i i i i i i i i i i i i i i i i i i i i i i i i i i i i i i i i i i i i i i i i i i i i i i i i i i i i i i i i i i i i i i i i i i i i i i i i i i i i i i i i i i i i i i i i i i i i i i i i i i i i i i i i i i i i i i i i i i i i i i i i i i i i i i i i ; : v Q D D W n n m N Q =.=.=.=.=.=.=.=.%.%.&.&.2.2.1.1.1.=.$.%.&.&.%.Q %.=.$.#.W L I %.j.j.2.2.$.$.$.%.%.Q Q *.Q Q Q Q #.#.#.#.#.Q %.%.*.%.#.#.#.#.#.#.#.#.#.Q #.! W . _ GXbXqXuX) 2 a q R z.E 0 i D B W N 2.j.#.Q U Q #.Q Q Q Q N N Q -.Q Q %.l.;.*.#.*.! v v I I L L W W d % n -.^ ^ ! v N *.U B U %.;.;.=.=.=.=.*.^ # % l.b.z % p p r p r t p r 8 8 p r r y s s p p r r r r r r r r r r r r r r r r r T J O O @ 7 7 # r r # 7 7 7 - - # # 7 p r r r # # @ @ # @ @ @ @ @ @ # @ @ # # # # r r # @ @ ",
"X O O @ r r @ 7 7 7 O O O O O X r p s r r r r 7 7 7 7 7 7 7 7 7 X X X X @ @ O O r r r r r r @ O O 7 r 7 r r 7 r r 7 r 7 X O r r r r r r r r r r r r r r r r r r 0 p p r p - - : M.M.m , n W W R Q -.%.2 3 A.Z.Z.@XZ.Z.c.#.Q I L ; i c n n n n n v v N Q %.#.#.#.#.Q Q Q #.#.#.#.#.#.#.%.%.%.%.%.#.#.#.#.#.#.Q Q #.D ..v ; T d.Z a i * 6 :X*X9XpX+.& S Q Q Q %.%.$.%.#.%.%.$.$.$.=.=.=.=.=.=.=.=.=.=.;.$.=.=.=.%.Q n n N D D D #.=.=.#.$.=.;.;.%.;.;.2.3.3.2.&.$.#.;.#.G z L T a q S ! Z i c W S I I N W i i % i i i i u i i i i i i i i i i i i i i i i i i i i i i i i i i i i i i i i i i i i i i i i i i i i i i i i i i i i i i i i i i i i i i i i i i i i i i i i i i i i i i i i i i i i i i i i i i i i i i i i i i i i i i i i i i i i i i i i i i i i i i i i i i i i i i i i i i i i i i i i i i i i i i i i i i i i ; ; v Q D D W v n v N #.=.=.=.=.=.=.&.&.&.&.&.&.$.$.1.1.=.=.$.%.$.#.#.#.$.=.$.%.W I I %.2.2.2.,.} #.;.j.h.*.Q D ! Q Q Q #.#.#.#.#.Q #.-.=.=.#.#.#.#.#.#.#.#.#.#.Q ! W . _ GXbXeXpX) 2 a i R k.E + i N x v x ..:.#.Q U Q Q Q Q Q Q N N Q -.Q Q =.z.j.*.D D D v N I Y L L W W d % z W L L S N S S N N N Q =.=.;.;.=.=.-.^ = % l.M.v % u r r p r t r r 0 8 p r p p h h s p r r r p r r r r r r r r r r r r p E T @ O @ 7 7 # r r # # # - - # # # # s p r r r # # # # @ @ O O @ @ @ # # # # # # # # @ @ @ ",
"7 r 7 r t r @ @ 7 @ O O O O O X 7 t s t r r r r r r r 7 7 r r 7 @ 7 @ 7 r r 7 7 p p p r r r @ O O r r r r r 7 r r 7 r 7 X O 7 7 r r r 7 7 7 r r r r r r r r r r 0 p p r p = - i l.j.i + n W E R Q %.-.N V b.3.3.3.3.j.$.V N I L ; u d c c b b b v v N Q %.Q Q #.Q Q Q Q #.#.Q Q Q #.#.%.%.%.%.%.#.%.%.#.#.#.Q Q Q D ! v + d d.C a i * 6 :X>XeXvX+.* N Q Q Q %.=.%.=.=.%.%.=.=.%.=.$.=.$.=.=.=.=.$.$.=.$.$.;.=.-.Q v v v v N N %.%.Q #.=.=.%.%.6.&.&.:.:.:.:.&.;.;.%.} V m z d n z W d.Z % i n z W I n I i i ; i i i u i i i i i i i i i i i i i i i i i i i i i i i i i i i i i i i i i i i i i i i i i i i i i i i i i i i i i i i i i i i i i i i i i i i i i i i i i i i i i i i i i i i i i i i i i i i i i i i i i i i i i i i i i i i i i i i i i i i i i i i i i i i i i i i i i i i i i i i i i i i i i i i i i i i i i ; ; v Q D Q W v n v N #.=.=.=.=.=.=.=.&.=.&.=.&.=.=.$.$.$.$.=.;.$.$.#.#.$.$.$.U I L L U #.$.,.2.$.$.=.=.=.#.#.*.*.Q Q Q #.#.#.#.%.#.#.%.=.=.#...#.#.#.#.#.#.#.#.Q ! W . _ GXbXrXpX_ 2 a i R k.E + a Q N n N 2.c.$.#.U Q Q Q Q Q -.N N -.-.Q B #...D ..D ! Q v v U I L L W W c % b W R R W Q ! N Q I I Q %.*.! ! *.*.! ^ # % l.b.c 0 u r r r r r r r 8 8 r r p p s s p p r r r r r r r r r r r r r r r r p E E @ O @ 7 7 7 r 7 # # # # # # # # # s p p r r - 7 r r r # @ @ @ r r r r r # # @ # # @ @ @ ",
"7 r r r t 7 X O X O O O O X X X 7 r r r p s s r 7 p s r @ 7 p p p t p p p p p p p p s p r r @ X @ @ 7 p t 7 7 7 r r 8 @ O O @ r r 7 7 7 r 7 7 r 7 r r r r r r 8 0 8 r r r - r i D h.% + n S W R W Q ! Q Q %.%.#.V V V N U W I W i u b b b n b n v m N Q Q Q Q #.Q U U ! ! Q Q Q Q Q Q %.%.=.=.$.} =.#.D %.#.W Q Q ^ ^ c 0 R d.A a q * 6 >X7XaXbX@.& S W Q Q %.;.*.=.-.%.-.-.-.%.%.&.;.$.$.$.$.$.&.&.&.=.=.=.=.*.~ z a z c Z S ^ -.N M B &.;.;.&.2.2.,.,.2.;.;.;.#.B V B N m : i i n ^ T i i a a I I I L z i i % i i i i i i i i i i i i i i i i i i i i i i i i i i i i i i i i i i i i i i i i i i i i i i i i i i i i i i i i i i i i i i i i i i i i i i i i i i i i i i i i i i i i i i i i i i i i i i i i i i i i i i i i i i i i i i i i i i i i i i i i i i i i i i i i i i i i i i i i i i i i i i i i i i i i i i i i i i b R W ^ W z z N Q #.#.$.$.$.=.=.=.&.=.&.$.$.$.$.$.$.$.=.=.$.#.#.%.#.#.=.=.U Q W N N V B 2.2.2.;.;.=.*.#.#.*.#.#.#.#.#.%.-.-.-.=.=.=.$.%.#.#.#.#.#.#.#.#.#.Q Q ! W . ` HXbXrXpX_ 2 c % C z.E * v h.~ n Y 5.V.,.} U U Q Q Q h.%.Q N N %.Q V V 2 l *.Q S W v n I Q W L W W n % z W W N S W S N N N N Q N n W S Q h.^ / # o l.b.z 8 p p r p r r r r r r r r r r s s 7 7 p p 7 r r r t t r r r t t 7 r r p E E @ O 7 8 8 7 7 7 r 7 r 7 7 r r @ @ p s t 7 7 @ r s s 7 @ 7 r @ @ p p p r r 7 7 7 # # # # ",
"r r r r p r O O X O O O O O X X @ 7 7 7 8 p p r 7 r t 7 O 7 p r r r r r r r r r r r r r r r r O @ 7 r p r 7 7 7 7 7 7 7 @ @ 7 8 r 7 @ 7 7 7 7 r 7 r r r r r r r 8 8 r r r r i i ! h.; # n S W R S Z S W W Q Q N I I N N W I n R 0 u b b b n b n n m N Q ! Q Q ! Q Q Q Q Q I Q Q Q Q Q Q *.=.=.%.#.#.#.#.#.N N W R R R c q A d.A a q o 6 >X7XlXbX@.& S -.%.B ..h.;.=.%.#.Q Q Q U Q #.%.#.#.#.#.%.#.#.#.$.=.=.*.-.^ z a a c Z Z Q %.Q Q %.=.&.&.,.:.:.:.$.$.$.$.$.$.+.#.&.Q x 4 n v W / R i i a i v m n n i & i % i i i i i i i i i i i i i i i i i i i i i i i i i i i i i i i i i i i i i i i i i i i i i i i i i i i i i i i i i i i i i i i i i i i i i i i i i i i i i i i i i i i i i i i i i i i i i i i i i i i i i i i i i i i i i i i i i i i i i i i i i i i i i i i i i i i i i i i i i i i i i i i i i i i i i i i i : i c n Z R n z x N D D #.%.=.=.;.;.;.=.;.=.=.=.=.=.=.=.=.=.=.$.&.#.#.%.%.%.%.Q N N N I N U ;.;.#.#.%.-.%.#.D ....#.....Q Q W N Q Q Q #.%.%.%.-.%.#.#.#.%.%.%.#.Q ~ R . ` nXkXrXpX .l c % T z.E * v ^ Q z n 5.b.:.| U I Q %.D Q B %.%.U Q #.D N D N Q Q Q Q v v N N I n L R z % b W Q S Q W W Q -.Q Q D n b Z R Q W n P % % j.l.d r p p r p r r r r r r r r p p s p 7 7 s p 7 r r r r r r r r r r r r 7 p E E O X 7 7 @ 7 7 7 r @ r r @ r r 7 r p s p r r r r p p 7 @ @ 7 7 7 r r r r 7 7 7 # # # # # ",
"r r r r p r O O O X X X O O O O O O O @ @ 7 7 7 7 7 7 @ O r p r r r r r r r r 7 r @ @ 7 r p r X O 7 r 7 7 7 7 7 7 7 7 7 7 7 8 8 @ O O O O O @ 7 7 7 7 r r r r r 8 u r r r r u & *.! u # b W W W Z z z n n N W n I I I I I W W E 0 p d d b n c n m m n Q Q Q Q Q Y Q Q N v N S N N N N Q Q -.-.-.-.Q #.-.Q v z z n n Z i q A d.C p i o < <X7XmXbX@.l ~ k.;...$.j.j.j.=.#.Q Q Q I N I U I I I I I U Q #.%.=.=.-.-.W z a a c n n S N #.$.$.$.$.:.:.2.2.2.2.2.2.1.2.1.$.$.2.#.M l N ! -.~ S l q z q : & z z & % i i i u i i i i i i i i i i i i i i i i i i i i i i i i i i i i i i i i i i i i i i i i i i i i i i i i i i i i i i i i i i i i i i i i i i i i i i i i i i i i i i i i i i i i i i i i i i i i i i i i i i i i i i i i i i i i i i i i i i i i i i i i i i i i i i i i i i i i i i i i i i i i i i i i i i i i i i & & z n b n b z v N S Q %.%.=.=.$.$.=.&.%.%.&.=.$.$.$.$.$.$.$.$.#.V N %.-.*.Q Q W W W Q Q Q h.;.%.#.Q Q Q Q Q %.D Q Q Q Q ! W n i i z z b n I W Q Q D Q *.%.%.Q Q ^ R . [ HXkXrXpX .M c % T z.g.q v h.~ i n l.M.:.} U I Q -.N l x -.h.Q B Q Q S Q S ^ Q W Z z v N W W L R R n & b W Q W W W W ! -.-.h.! n c z & 4 z : ; o & j.C.c 8 p r r r r r r r r r r r r r s r @ r h h p p p p t t p p t t t t p r p E E @ O 8 8 @ 7 7 7 r @ r r @ r r r p p g s t s s t p p r @ @ 7 p r r @ 7 7 7 7 7 7 7 # # # ",
"r r r r t r O O O X X X O O O O O O @ @ 7 7 7 7 7 7 7 @ O r s r r r r r r r r r r @ @ 7 r r r X O 7 r @ @ r r 7 7 @ 7 7 8 r r r @ @ @ O O O @ 7 7 7 7 7 r r r r @ 8 r r e r u i *.S i = b W b R R & i n n n W n I n I n n L L n i u d b b n c c z m n W Q Q Q Q I Q Q N N N N v n n n W W ^ ^ Q Q B Q -.W n v i z z c i q Z d.C p u   6 4XwXlXbX@.& ^ h.%.B D =.=.=...B N N N N N I I I I L L L I U Q %.*.*.! ! W a a a c n n S x D ;.=.=.;.2.:.$.$.$.$.$.=.=.=.=.$.$.;.%.N M B Q Q W n l z v c 4 4 z m q % i i u u i i i i q i i i i i i i i i i i i i i i i i i i i i i i i i i i i i i i i i i i i i i i i i i i i i i i i i i i i i i i i i i i i i i i i i i i i i i i i i i i i i i i i i i i i i i i i i i i i i i i i i i i i i i i i i i i i i i i i i i i i i i i i i i i i i i i i i i i i i i i i i i i i i i i i i i : b n n n b z z v S Q Q %.%.%.Q %.-.-.%.#.%.=.-.%.%.#.#.%.=.=.%.N N Q Q Q ! Q W R v v v N -.=.=.%.Q U %.%.%.Q Q *.*.Q U Q W v P P n n R E W ^ ^ Q Q Q -.-.%.Q Q W n . [ HXkXrXpX .M c % T z.E q l -.~ % z j.b.$.} I I Q *.N x v -.h.Q S Q Q W Q N n S W n n S N N I L L R c % b R W N S W W Q Q -.-.Q n n n z l x m f ; : ..l.c 7 r r 7 r r r r r r r 7 7 r r s 7 O 7 s p r r r r 7 r r r r 7 r r r r p h j @ O @ @ @ 7 7 7 r 7 r 7 @ r r r p t s t r t s p p p r 7 7 r p r 7 @ @ 7 7 r r r 7 - r - ",
"r r r r r 7 X X O O O O O O O O O @ 7 p p r 7 r 7 8 7 @ O 7 p t 7 r r r r r r r r r r r @ r 7 X O r r @ @ t s r 7 @ O @ 7 r r r O O O O O O O O O O O O O O O X X @ @ @ - p b R v x % $ b W n ^ n i i n n n I L I n L n i z z % i u h b b b i z z m n W Q Q Q Q Q Q Q Q ! W W R W W R L L n n v N v Q ~ ^ ~ ^ z i i c i q Z d.Z i &   6 pXeXlXbX+.& L R I I W Q D D Q W R W W R W W W W W W W I n N N Q Q W S Z n i f a z n n n v Q -.-.-.;.;.=.;.;.=.=.=.-.-.-.;.-.-.-.-.~ Q I z z z i i b R R W I W L z : i % u u i i i i i i i i i i i i i i i i i i i i i i i i i i i i i i i i i i i i i i i i i i i i i i i i i i i i i i i i i i i i i i i i i i i i i i i i i i i i i i i i i i i i i i i i i i i i i i i i i i i i i i i i i i i i i i i i i i i i i i i i i i i i i i i i i i i i i i i i i i i i i i i i i i i i i i i : c R R R n i i z v N W W S N I Q -.-.-.-.-.-.N N N N N N D %.-.-.Q Q N Q ! W R n z z v S k.j.2.1.2.l.l.l.;.} l.l.l.=...#.#.S S Z Z A S S S S S N N N S N N N n n z . [ HXkXrXpX .M c % P z.E & l -.~ % & *.h.=.B W W Q *.D D Q -.*.Q ^ W W W ^ c & c ^ ^ W N W W W R T R c q c W S v n W W N N N N x v W h.k.S S n P z & 2 . % X O O X O O O O O O O @ # r p p @ O O O O O X O X X X O O O O O X X O O @ O X O @ @ 8 r r r r r r 7 7 p p r r r t @ O 7 t t t r # @ r r r 7 7 # 7 7 r r r 7 7 # # - ",
"r r @ 7 r 7 X X O O O O O O O O O O 7 s s r 7 7 7 7 7 @ X 7 p t @ @ r r r r r r r r r r @ r 7 X O 7 7 @ @ r p r 7 @ O O @ 7 r t @ @ O X O O @ O O O @ @ @ @ @ @ @ @ O @ - r d W D ! ; $ Z ^ n R c c c n R L L L I n L n i z b i i u d d b b i i c b n n W W W I U Q Q Q Q N n n n n n b b m m z m n I I I ^ R : i i i i q A ~ A z 4 . 1 vXaXlXbX+.& P n m L L n n S R R R T R R R Z Z N W W W I n N W W S Z n n n i d a z n n n n W ! Q Q -.*.Q =.=.-.-.-.-.-.-.-.%.Q Q ! -.! n b z z a i c R Z W I W I z i i i u u i i q i i i q i i i i i i i i i i i i i i i i i i i i i i i i i i i i i i i i i i i i i i i i i i i i i i i i i i i i i i i i i i i i i i i i i i i i i i i i i i i i i i i i i i i i i i i i i i i i i i i i i i i i i i i i i i i i i i i i i i i i i i i i i i i i i i i i i i i i i i i i i i i q q q q i & z R W R Z z c c b Z W R n n n I Q ! Q Q Q Q B N B B B V B %.! Q W v v W ^ R R n a z z n -.-.1.1.$.;.l.l.=.V j.l.j.*.D D D D S S S S S S Z Z Z S S S Z N N S z z q . [ HXnXrXpX .M c % T z.E q z ~ ~ i 0 S D D v b b S Q D *.-.! S W ^ Z b n n a % i n Z W S n n Z R R T c i z R W n N W W N Q N N v n ^ d.h.N N b n : * G G 0 X @ @ O @ @ @ @ @ O O @ # 8 r 7 @ 7 @ X O 7 @ O @ @ @ O O O O O O O O O @ O O O @ @ 8 p t r r r r 7 r s s r r t t @ X @ r t t r 7 7 p p r 7 r 7 7 7 7 7 7 7 7 # # # ",
"7 7 @ 7 r 7 O X X O @ @ O X X O O X @ p p 7 @ 7 7 7 7 O X 7 p r @ @ 7 7 7 7 7 7 r 7 r 7 @ r 7 X X O @ O O @ 7 @ @ @ O O @ 7 r p p r 7 @ 7 p p p s s g h h h h h h r O @ r r u b S.S.b $ R S q o i R R R W R v W W n I n z n ^ R i 0 d d b b i i c b b b v v v v x N W N v z z i i i z z z z z m v N v x m m z & i q i i q Z ~ A l l . 6 vXbXbXHX+.* i ; : : i i q i i i u f d f c b c n N N N N R R R R R n Z Z b i c a z n n Z Z W W S N B D B B B B B B N W W Q Q Q Q Q Q Q I W Z n v z b n v n N W L z q i i u u i i q q i i q i i i i i i i i i i i i i i i i i i i i i i i i i i i i i i i i i i i i i i i i i i i i i i i i i i i i i i i i i i i i i i i i i i i i i i i i i i i i i i i i i i i i i i i i i i i i i i i i i i i i i i i i i i i i i i i i i i i i i i i i i i i i i i i i i i i i i i i i i i i i i q q q & c R W R R n C b b n R R R I N V V Y Y Y V V &.&.,.5.5.,.,.2.Q v z z c S R Z C d 0 i q q v l N N x 4 m L n i n n n v c z c c q w a a i q q q % % % % % % % % & l q . [ HXbXrXpX .x c % T z.E % : n n = # a q c q i u c W W W Q S S W W c % i % i % i i l S W & q i i a i 0 + c Z W W W n n W ! U Q Q W W R n v S n R % 4 C.S.R d h h h H g h p r r 7 7 7 7 @ O 7 p r O 7 g s p p s p r 7 7 r 7 r 7 O 8 p p @ X O O 7 p p r r r r 7 r s s r r t p r O @ t t r r r p s s s p p 7 7 7 7 7 7 7 7 # # - ",
"r r @ 7 r 7 O O X @ 7 7 O X X O O O 7 p p 7 @ r 7 7 7 O X 7 s r 7 7 7 7 7 7 7 7 r 7 7 @ @ r 7 X X O O O X O @ @ @ @ @ @ @ 7 r p p r @ O @ p s p s s h h h H H H E r O @ y y u z S.S.i   W W c % % W W L ~ W m W Q N N m & v ~ W 0 0 a d b C i i b n b b c v m z z W ^ v l z z l l l z z 4 4 4 4 M V x 2 4 2 2 v z q i i q C ^ C q z   6 vXbXbXHX@.* : : : & 2 l l q q 0 i s f d d a c n Z W W R n n n n n n C C b i c a a Z Z R Z W R n n N N Q B B B N W W W W N B Q Q N N N W S N N n z v n n W W ^ I z % 0 % u u i i i i i i q i i i i i i i i i i i i i i i i i i i i i i i i i i i i i i i i i i i i i i i i i i i i i i i i i i i i i i i i i i i i i i i i i i i i i i i i i i i i i i i i i i i i i i i i i i i i i i i i i i i i i i i i i i i i i i i i i i i i i i i i i i i i i i i i i i i i i i i i i i i i q q q q & b W R R R R R c a c n n Z I Y N V V V V V V %.%.6.l.5.&.%.;.-.v l v n Z A C b d a d a i c & v b z i d P P f b n n n b c i u a a a i i i q q & & * * 2 2 4 2 & 4 q . [ HXbXrXpX .M z % T z.E u u b c p u u 0 q 0 p u c ^ E L W W W W R a % % % i % i i z W S & & i a d d u % i b W ~ W v v ! ! N N W W W W S S Q v R % 4 S.S.R d H h h H s g s t r r p r 8 @ X 7 h r X @ s s p s s p 7 @ 7 7 7 p 8 X @ d p O X O O 7 p p 7 r 7 r 7 r p s t t r p r O @ r 7 @ @ p s p p s s p 7 7 7 7 7 7 7 r r r r ",
"@ @ 7 @ O O @ r 7 @ O O O O O O O O 7 p p r 8 7 7 @ 7 @ X 7 s r @ # 7 7 r r 7 7 7 7 7 7 7 7 @ @ @ O O X O r g s s s s s p r 7 @ r r r r r r r r r r r r t t p t p @ O - r r i q D v % + Z ^ i + i R L W ~ I n I N W Q v & v ^ W 0 0 a b b Z c b z b n n n n n n n W ^ v z v W ~ k.k.z 2 S.S.Q B l.l.l.l.j.U N N W z & q i T ^ C % u   6 vXvXbXHX@.* -.z.l.b.j.} D & l c a u p p a d d d f c b z n z b R R n n n b a i c n z z n T C c c b n n I I I I I I I L L N N N I N N N I N v v n S Z R W W I W I b i i i u u i i i i i i i i i i i q q i q i i i i i i i q i i i i i i q % q i i i i i q i i i i i i i i i i i i i i i i i i i i i i i i i i i i i i i i i i i i i i i i i i i i i i i i i i i i i i i i i i i i i i i i i i i i i i i i i i i i i i i % i i i i i i i i i i i i i i i i i i ; ; i i i i i i i i i i i i i & b W R R E R R n b b n n R W n n n n N N N N N N N N N Q S N S n Z W Z c c b a a u a b b z z c n d ; u f f f i a i c i i b a i i a i i l 2 N b.b.b.M.M.M.v.b.j.B.k.  [ HXbXrXpX .2 z ; P k.E + ; W b d i a a q i u 0 z W P % % v b q i a a i d a a z b v z & z c c d d d u % i Z n n n v n W I Q Q Q W W W N N Q v i i z D -.a p r p r r r p p r r r r r 8 # O 7 r 7 7 r s s r r r r r r r r r r 7 O O @ @ 8 8 X X 8 s p r r r r r r t t r r r r r r r t t t r r r p s r # r 7 7 7 7 r 7 7 7 7 7 7 ",
"7 7 @ O O O @ r r @ O X O O O X O O 7 p p r 8 7 7 @ 7 @ X 7 s r 7 7 7 7 7 7 # @ 7 7 7 7 7 @ @ @ @ O X O O r s s s s s s p p r r r r r r r r r r r r r r t t p p p 7 @ - r = ; l D N i # b W a % z W I W Q N N W N Q Q v & v W Z % 0 c b Z R b b c b b b v n Z n n W ^ Z v n W ^ C.k.2 2 S.3Xj.V b.b.b.b.l.%.D Q N v z % 0 T ^ T u u   6 vXvXbXHX@.* k.C.b.M.v.1.=.x l v i a u a a d d d c z f z z z v n b n C b c b z z b c z b T b f i z n W W I I I I I I I I W I I I N N N I W N n n R R R R W I W W b i i % u u u u i i i i q q 0 0 q i i i i i i i i i i & i i i i i i i i i i i i i q q q i i 0 i i i i i i i i i i i i i i i i i i i i i i i i i i i i i i i i i i i i i i i i i i i i i i i i i i i i i i i i i i i i i i i i i i i i i i 0 0 i i i i % i i i i i i i i i i i i i i i i i i i i i i i ; 0 i i i i i i & i & c R R R W R W n v n S n n N Z Z Z Z Z S S Z S Z S n Z Z Z Z W W S S Z n c c a d d d C b z c a a u % u u i b a i q c c c b i % % i & z v 2 M Z.M.M.M.M.M.M.M.C.C.k.. [ HXnXmXpX .l c ; P k.E # ; L b b b C c i i u i z W P + % c n i a d a a c b b b b z l & z b c d d d u # i n n n n m N N Q ! -.Q W W W S S v c a + & D N a p r p r r r t r r r r p r 8 @ X 7 r r r t s p r r r r r r r r r r 7 @ O O @ @ 7 O O p s t 7 r r r r r r r r r r r t r t t r r r r r s s r @ 7 7 7 7 7 r 7 r 7 7 7 7 ",
"7 @ @ O O O 7 r r @ O X X O O X O O 7 p t 8 8 7 7 7 7 @ X 7 s r 7 7 7 7 7 # @ @ @ 7 7 7 7 @ @ O O X O @ @ r p r t t t r r r r r r r r r r r r r t t t t r p p p r 7 @ - r = ; z B D i $ c n a a b W N N Q N N Q W Q Q v & c W R % % b n R E b c n n b c b n Z Z n L R R n v v v N ! -.%.j.l...} 1.:.:.:.$.B B Q S ~ ^ z % T / b u u   6 pXrXbXHX+.. #.j.1.1.x.j.j.D v z i a a d a a c z z z z z x x v v z b n d b R Z v n Z n n R R L n W N v x N N N N N I Y Y Y I Y Y I n n L m m z f b T R T W I I I v a i % i u u u i i i i i i 0 0 & i i i i q q i i a i i a a i q % i i i i i i i i i i i i i 0 0 i i i i i i i i i i 0 i i i i i i i i i i i i i i i i i i i i i i i i i i i i i i i i i i i i i i i i i i i i i i i i i i i i i i i i i i % % i i i i i i i i i i i i i i i i i i i i i i i i i i i i i i 0 i i i i q % i : z n n R W R n n v v x x x x n Z Z Z Z Z S S S S Z Z Z Z A S v z v S W S Z Z b T T T R n v Z C C h d d % % c z & 2 N W Z R c i ^ k.^ L I N Q ;.;.2.:.X.| :.l.%.-.W . ` nXbXrX4X) l c ; P k.E u ; n z f d c a c c d a n W P # i b b b b b a c a b R R Z n n n c n n b b P i + i R S S W I W I Q Q Q Q W W W S S S k.d.+ o *.*.a p p p r r r r r r r p p p 7 @ X 7 r r r r p t r r r r r r r r r r 7 7 @ O O @ @ O @ p s r @ @ r r r r r r r r r r r r r r t t r p p s s r @ 7 # # 7 7 7 r 7 7 7 7 7 ",
"@ @ @ @ O O @ r r 7 O X X O O O O O 7 p t 8 8 7 7 7 7 @ X 7 s r @ @ @ @ # # # # @ @ @ 7 7 @ @ @ O X O 7 7 r r r 8 7 7 7 7 7 r r r r r r r r r r r t t t t r t p r @ O - r = ; 4 =.-.i X c n c a c Q N S Q N N Q Q W Q v & c W R & & b Z R W n b Z n n b b n Z Z L n Z R Z b z z & N l.k...B B } } } } } ..} Q #.Q k.h.b % T ^ b 0 i   6 <X7XbXHX@.. N %.B } 4.b.j.Q W b a d a c i z x x x l 4 x 2 2 x v z c P R Z W R S W W R W n n S Q Q B 5 2 V G G G V G G V 5 5 5 M M x x x m m z i f P R E W I W I c i i i i u u i i i i i i i i i i i i i i q q i a c d a a a a i : i i i i q q i i i i i i i i i i i i i i i i i i i i i i i i i i i i i i i i i i i i i i i i i i i i i i i i i i i i i i i i i i i i i i i i i i i i i i i i i i i i i i i i i i i i i i i i i i i i i i i i i i i i % i i i i i i i i i i i i i i q q i i a b n Z n n n S N 2 2 2 2 2 * * 2 2 2 2 2 2 2 2 2 2 2 2 2 2 2 2 x S ^ S Z W R R T R W R n S Z A C b z & & l 2 2 2 D ;.*.-.W 4 k.D.k.I Q Q %.B B #.B G 3 V $.x v n . [ bXbX-X4X) l c ; P f.E + % N l z z x l l l l x N ! E u u b b C Z b z n c n W W W W W ^ c n n P T T d + a W W W Q ! ! I Y U U I n L W S S ! B.k.= + -.k.a p p p r r r r r r t p p r 7 @ O 7 r r r r r r r r r r r r r r r r 7 r 7 O O @ @ O @ p t 7 @ @ r r r r r r r r r r r r r r t t r p p s s r @ # # # # 7 7 7 7 7 7 7 7 ",
"@ @ 7 @ @ @ @ @ r 7 O X O O O O O O 7 p r 7 8 7 7 @ 7 @ X 7 s r r r 7 @ @ @ @ O O O O O O O @ @ @ X O r r r r 7 r r r r r r r r r r r r r r r t r r r t t t r r t @ O @ r r i 4 b.l.: X n W c % z Q I Q ! N N Q Q W W v & z R n z z n n R W Z R R Z n v v n n n W L L W W Z v z I v Q Q B %.%.U #.#.#.#.#.#.Q Q Q Q W z % R / T q c * 3 >X~.nXHX@.* W -.Q #.$.j.-.^ ^ L b b i b Z Q -.=.=.=.2.j.2.$.=.-.I z b R Z Z Z S W n b W D } } ..1.4.0.0.q.q.x.v.x.v.x.0.y.y.c.c.j.2.2.=.=.;.-.N v v n n I I W I z & i a u u i i i i i i i i i i i i i i q q q i a c c c c c z a a a a i i i i i i i i i i i i i i % 0 0 i i i i i i i i i i i i i i i i i i i i i i i i i i i i i i i i i i i i i i i i i i i i i i i i i i i i i i i i i i i i i i i i i i % i i i i i 0 0 ; ; : i i i i i i % i i i % i i i i i i i i a a a a a a i q i a a b n R n n W v V =.l.5.2.3.<.y.y.y.y.y.y.t.y.w.y.y.y.y.<.,.#.-.%.S N S W Z R R c n W W n S v A x x D =.1.1.0.0.0.M.M.3.=.B 2 2.C.2.} $.} B =.%.#.Q Q B B B Q W R . [ bXnX7X<X) l c % P f.E * G c.x.j.4.j.j.j.4.j.j.4.1.D q i d b C R n c n n n Z S R n n n v n n P T T i % i W W N Q Q ! I I U Q I I R W S N S b d f u N S i p p p r r r r r r r r r r 8 # @ 7 r r r r r r r r r r r r r r r r 7 r 7 @ @ 8 @ @ 8 8 r 7 7 7 r r r r r r r 7 r r r r r t t t r p p s s r @ @ 7 7 7 7 7 7 7 7 7 7 7 ",
"@ @ 7 7 @ @ O O 7 @ O O O O O O O O 7 t r 7 8 7 7 @ 7 @ X 7 p r p r 7 @ @ O X X O X X X X O O @ @ X O t p r r 7 r r r r r r r r r r r r r r r t r r r r t t t r t @ O - r r ; & C.C.i   R W d + z ! Q Q ! N N W Q I R b % i n c n b R Z R ^ R W R R n n n L n n n n n L R W L n m m W Q N U U U U U U U Q Q U N W W W z & R / R q v * 3 :X^.bXHX+.o L ^ Q #.U #.Q Q ^ W R n i n ! h.l.b.b.b.Z.Z.Z.C.C.B.-.z z n R Z S W W c z Z ;.=.=.1.j.M.V.Z.@X@X@X@X@X@X@X@X%X%X%X1X@XV.M.b.b.l.j.*.N v v v N I W I z & i a u u i i i i i i i i i i i i i i q q i i c c c c c b b c c c c a c a i i i i i q i i i i i % 0 0 i i i i i i i i i i i i i i i i i i i i i i i i i i i i i i i i i i i i i i i i i i i i i i i i i i i i i i i i i i i i i i i i i i 0 i i i i i 0 0 ; i i i i i % i i % i a a i i i u i i i i i a a c c b c i q i c z z n R Z W Q 2 V b.1X@XZ.%X@X@X@X%X%X%X%X%X%X%X@X@X@X@XV.y.l.l.l.N x N W n R n z b W W N S ^ A l l =.C.Z.M.1X1X@X@XZ.c.1.V 3 j.C.j...$.....#.Q Q Q Q W N v W W Z . [ bXbX-X4X| l c i T k.E * V M.@XZ.Z.@X@X@XZ.Z.M.M.j.D & i d d b Z n n S S S N n n n n n n n n P T T f % i W I N Q U Q I I Q Q I N n n n S v o O s d z l i p r p r r r r r r r r r r 8 7 7 8 r r r r r r r r r r r r r r r r 7 7 8 8 8 @ 8 8 8 8 7 7 r r r r r r r r @ O r r r r r r t t p p p s s r @ 7 7 7 7 # 7 7 7 7 7 7 7 ",
"@ @ @ 7 @ @ O O @ @ O O O O O X O O 7 t r 7 7 7 7 @ 7 @ X 7 s r 7 # @ O O O O @ @ @ @ @ @ @ @ @ 7 X O t s t r r r r r r r r r r r r r r r r r t r r r r r t r r t 7 @ - - - % 4 b.C.;   R W d + z ~ ^ Q W v m I W n n z i d T c R n L n L W L W R L n v n R L n m n W n L W W W : m I I Q Q I I I I Y I Q Q Q Q Q Q W z & Z / Z a a * 6 :X^.rXvX+.* R W Q %.#.$.#.#.Q Q Q v & v S ! *.=.1.2.l.b.0.3.3.l.! m m n n S S W W n b R W W Q Q %.;.5.l.l.5.3.3.0.0.y.0.y.t.y.v.y.3.3.2.j.;.-.Q S n v n W N I I c i i i i i i i i i i i i i a a z a a a i i a a c c c c c b c z c c c c c c i i a a i i i i i i i i i i i i i i i i i i i i i i i i i i i i i i i i i i i i i i i i i i i i i i i i i i i i i i i i i i i i a a a f f d d a a a i i i i i i 0 i i a a i i a a a a a a a i i i i i d a i i u i u u i i a f f a a c c a a a n d i z b v N Q B $.j.b.y.0.y.v.v.n.n.n.n.n.n.n.m.n.y.b.V.y.+.&.%.-.%.Q N v v n b z b W W N S T d % i W 6.l.y.0.v.v.v.5.,.&.B 3 ;.C.;.B B B %.S Q ! Q W n n v v W Z . [ GXnX-X4X| x a 0 T k.E O : ;.2.2.2.5.2.&.&.2.2.=.D T u u f f c n n N S D S N N W W R L n n n P T T f + z W I Q Q N U U I U U N n n W S Q S + $ f f z v u p r p r r r r r r r r r r 7 7 @ 7 7 r r r r t r r r r r r r r r r 7 @ @ 8 7 @ @ @ @ O @ 7 r t r r r r r r @ @ r r r r r r r r r p r r p 7 @ 7 7 7 @ @ 7 7 r r 7 7 7 ",
"@ @ @ @ @ @ @ @ @ O X X O O X X O X @ r r 7 7 7 7 @ 7 O X 7 s r X X X X O @ 8 r r r r r r 8 7 7 7 X O p s r r r r r r r r r r r r r r r r r r r r r r r r r r r t r e e - $ + & =.l.*   R R c % z ~ ^ W n 4 z n L m b d f T ^ R Z v n n n W n L W L n v n R R n v W Q W I W ^ W z n L m I I I Q I I I I I I U I I Q W z & R ~ Z a 0 % 6 :X!.^.<X5 o I W Q %.#.#.$...#.Q ! v & v S S D B } } } ..:...$.&.N m m z z W W S S W Z R L L L I N U #.%.+.+.} V V | } | | | | @.@.@.$.$...B B S W n n n Q N I W n z a i i i i i i i i a i a a c b b c c c c c c c c n n c c a i a a c c c a i i a c c a i i a a a d c c c c a a a i i i i i i i i i i i i i i i i i i i i i i i i i i i i i i i i i i u a a a a a i i i d d c c b b b b b c c a a i i i i i i i d c c c c c c c b c c c d c a i i d a % i i i u u i i a c a i % & i c c c R c % i i z v B l.b.$.V | @.| $.@.:.:.>.@.X. .X.:.:.| ,.l.:.3 V 2 V B.B.N & v z z z b W I N N f d b n m x V $.| @.| +.+.#.U 4 4 Q 6.#.Q Q Q Q Q Q W W W W Z c v ! n . [ bXnX-X4X| l a % T k.C r = v 2 2 2 2 < 2 2 2 2 2 q p r u f i i b n S D D D Q W W W L L n n n n T P i + z W N Q Q N N Q I I I N N W ^ ~ ! n % # r u v v q u r p p r r r r r r r r r 7 # O O 7 r r r r r r r r r r r r r r r 7 O O 8 8 O O O O X O 7 r r r r r r r r r r r r r r r r r r @ @ @ @ 7 O X O @ @ @ @ 7 r r r r r r ",
"r @ @ @ 7 @ @ @ @ O O O @ @ @ O @ O @ r r @ 7 @ 7 @ O X X @ # r X X X O @ 7 r r r r r 7 7 7 7 @ 7 X X r p r 7 r r r r r r r r r r r r r r r r r r r r r r r r r r e e r r 8 ; & j.j.&   d ^ i * v W W n n n v v n n d p s C Z v n n n L L L L L n n n n N W W W I I I I U Q W W i z W R W Q N U Q U U U U U U Q I Q W z & R ~ Z i i * 6 :X*X7XuX| * N Q Q Q #.#.#.%.Q ! Q z & v S Q ! #...#.=.=.1.1.;.%.Q Q n m m n N I I I N v I I W I N B %.%.%.#.#.#.} B #.;.$.:.:.$.$.$.:.=.$.#.#.Q Q N N v I I I I n m c f a i i i i a a a f f f b b b b b c c b b b b C b d d d d c d d d b c d a d c d a i i q i a c c a c c c d d d a z i i i i i i i i q i i i i a a a i i : : i a i i i u i i i i u u a a a a u u u i a d c b c c c c c c b c c a i i i i i a c b b b i d d b b b c c b c a a i i a a i i i i i a a i a a i i i a c b n d a i i % & -.Q %.=.$.} #.=.=.$.$.$.&.2.&...+.$.$.2.2.2.l.2.V V N Q -.z.v q b c a a b W W n n n n b n I Q %.$.$.2.$.$.=.%.Q x 2 -.l.-.Q U I Q I Q Q W W W S N v *.N < [ bXbXwX4X) l c o R f.T # ; n v N N M M 5 V N v n n d 0 u d u c Z n I N N N N N N n n n n L L P T T i + q W D v D D N Q I L I I U W R E ~ n * % f i v *.a # p u r p r r r r r 7 7 r 8 @ O @ 7 r r r r r r r r r r r r r r r @ X O r t 7 @ @ @ @ @ 7 8 r r r r r t r 7 7 @ 7 7 r r r 7 # @ @ @ @ @ @ @ @ @ r r r 7 7 r p p p r ",
"r @ @ @ r 7 @ O O O O @ 7 r t t @ O @ r r - - - @ @ X X X X X X X X X O @ r r r r r r r r r r 7 7 X O r p r 7 r r r r r r r r r r r r r r r r r r r r r r r r r r t r r r r = & j.j.& o b / z * & W E a z ^ ~ W v i f d s u % % n L n L L L L L L L L R W W W W W W U I U Q W W b z R Z S Q Q U U U U U U U U U I Q W z & R ~ n i : . 1 :X-XwXpX| * V %.Q Q Q Q Q %.Q ! ! z & v N W ! *.#.#.$.$.=.=.=.=.*.Q Q N I I I I N I I I I I U I N B %.%.-.=.;.=.B V %.l.l.l.2.;.$.$.$.#.$.%.%.Q B N U U I L W I n m c a a a i i i a a d f f d b b b b b c c c b C C C b b b b b b c c c b c d d c c d d c a i i a c c c c c c c d d z z i i i i i i i i i i i i a a a a z i i i a f a a i i a a a a a a u p a d a a i u a a c b c b c c c b n n n c c c a a a c c b c d i u d d b b b c b b b c c a a a a a i i i a a a c i i i d b b a n c a i : : v B.l.D M B *.-.*.%.-.#.U &.l.j.#.#.#.#.;.5.5.l.2.V #.l.l.x z z b c C n c b R W N I W R n W W Q -.=.$.2.$.$.;.-.Q v 2 ! -.Q U Q U Q I Q Q Q Q Q S N h.*.v . ` vXbXwX5X| v a + T d.^ % i R R I Q U #.U #.Q W W ^ A a u d a c R n I N U I N n n n n n n n L P T T a % c & v S S S ! N W L I %.%.Q n P ~ W l & u i ;.l.z = u u r r r r r r r r r r 8 @ O @ r r r r r r r r r r r r r r - r @ X O r p r r r 8 8 8 r t t t r r r t 8 @ O X O @ 7 7 # @ O X X X X O 7 r p p p t r 7 e t s p r r ",
"r @ @ r r r 7 O @ O @ @ 7 r r r @ O @ r r - r - O @ O O X X X X O O O @ 7 r r r r r r r r r r r 7 O O r p r r r r r r r r r r r r r r r r r r r r r r r r r r p p p r r r r = ; =.h.* o n ^ z * q R R % i W Q N *.N i i = r p f P L L L L L L L n R L W W W W W W Q Q U U Q W R z z W W n N B N U U U U U U Q Q I Q W z & Z ~ C i : . 6 :X>XwXpX| * N %.Q Q Q Q Q %.Q ! ! z & v n W ! -.%.%.$.$.$.=.=.=.-.%.Q I I L n L I L I W I I W I N Q %.Q %.*.;.*.B v #.j.2.2.2.;.$.$.$.%.$.=.%.%.Q U Q Q n n I W n b n f d f a a a d c c d b b b b b c c c c c c b b b b n c c c c c c c c c c c c c c c c a i i i a c c c c c c c c c c a a a a i i i i a a a a z a z z z a a a f c c d d a d d a a a a u a a a a a a a i a a b c c c c c b b b b b b b b c z z c c c a i i d c c c b b c b b b c a i i d a i i i a b d a i i a c b b d C b d % % & v z.l.D V B ..#.%.%.#.Q B %.2.;.#.B B B #.;.;.;.$.V #.l.l.x m z b b b C b c n L N I W R L W W Q -.=.%.;.$.$.-.Q Q v 4 ! -.Q Q Q N N U Q Q Q N N W ^ S ^ Q < ` vXbX<X1X} z i % R ^ A % i R W Q %.U #.#.#.Q W W ^ C i 0 n c n R n I I I I N n n n n I v n L L P T d ; d % a R T R E n W N B *.=...Z n ^ W v v ; i h.k.a = u u r r r r r r r r r 7 7 # @ # r r - - r r r r r r r r r r r r @ X O r p r r r r r r r r t r r r t t r @ O O @ @ 7 7 # @ @ @ @ O O @ 7 r p r t r r r r r r p r r ",
"r 7 7 r r r 7 @ 7 7 7 7 7 7 @ @ @ O @ r - @ - @ @ # # # @ @ X X @ @ @ @ 7 7 r r r r r r r r r r 7 O O r p r r r r r r r r r r r r r r r r r r r r r r r r r r p u u p r r r = ; -.;.* o b ^ x * z b c i a z v Q Q B x z i f r $ P L L L L L R L n n n n L R W W W W Q Q U Q W R z z ^ W z x N U U I U U U U U I I W W z & R ~ C i % * 5 2X>X9XuX| * N %.! Q Q Q Q Q Q ! ^ z & v Z W ! -.%.%.%.$.$.$.=.%.%.%.Q I I L L I I n N W I N I W N Q -.%.Q D B B B N B #.#.#.&.#.%.%.$.%.#.%.%.%.Q Q U I n n I W n b b f c f f a d b b c c b b b c c c c b b b b b b b c c b b b b b b b b c c c b b c c c c a i i i a c c c c c c c c c b c c c a a a a c c c c c c c c a a a a c c c c d d a i a a d a a a a i i a a b i i a c c c c c b b b z c z z a z a i i c c c c d d n n n b b b c b b b b c a i a a i i i a c b i a c c a a c C b b d i % % & -.Q %.=...V B #.D B Q Q Q %.#.B U Q B B U Q B B V B Q Q Q ~ n c b a b b b n n m m R n n n W Q *.%.%.=.$.%.*.Q W z 4 ! h.Q Q I x x N U Q I v x Q z.~ ^ v . [ vX4X' y.M q i ; c v v 0 i R W Q Q U #.U U N x v Z a % i R R E W W W W I I I W W L L n v N I L R T d u # f ; % ; $ = i n S D ......S Z o v k.k.; % k.z.a # u r r r r r r r 7 r r @ O @ # # r r - # r r r r r r r r r r 7 r @ X O t s r r r r r r r t r r r r t t t r r p r r 7 @ # 7 7 r r u r r 7 # @ O @ r p s r @ O p p r ",
"@ 7 r r 7 7 7 7 7 7 r r 8 # @ O @ O @ r @ @ - @ r r - # @ @ @ O 7 7 7 7 7 7 r r r r r r r r 7 7 7 O O r s p r r r r r r r r r r r r r r r r r r r r r r r r r p u u u u u ; ; : l.l.* o b R z * z c a d d u f W -.D M G x & ; f L n n L L L L L n n n n n n L I W W Q Q U Q W W b c R n z v N N I I I I Q Q Q Q W W W z & R ~ C 0 % * 5 4X>X7X<X| * N %.Q Q Q Q Q Q Q ! ~ z & v R W Q Q Q %.%.=.$.$.$.%.%.%.Q N I I L n n R W W I L I W I Q -.Q N N N N D Q N N #.%.%.%.%.%.%.%.%.#.Q Q ! Q W N v v R R n b n c c c c d b b b b c c c c c c c c b b c b v v v b v b b b b b b b b b b b b b b z z c c c a a a c c c c c c c c b C C n b b b b b b b b b c c c c a a a c c c c c b b c d d d d d b a a i i i a a i i a c b b b b n n b c c z z z a i i i z c c c a c n n n n b b b b b c b n n c c c a c c c a a q a c b a a b C c a a i i : 4 -.Q %.#...B #.#.v B Q Q U Q Q Q Q Q B N N N N N B B Q Q v ^ n b c a b b c n L v v W R R W W Q Q %.%.=.*.*.%.N n z l Q ~ W I N x v Q U W N v v Q k.Q W b . +.5X6X@.| M x z z z a C 0 a E W Q Q U Q #.Q N v v Z b 0 q R W W W W W W I I I W W R L n v N N n L P b i i f : n b o % f c Z S Z S S A C o l h.h.& & j.l.a # r r r r r r r r r r r @ @ 7 7 7 r 7 7 7 7 r r r r r r r r r 7 r @ X O t p r r r r r t t r r r e e e r t t t p r r @ @ @ 7 7 r r r p r r # @ O @ r s s t 7 O p r r ",
"O @ 7 @ @ @ 7 7 7 7 8 8 @ @ O O @ O @ r @ # r # # # # # # r r r 7 7 7 7 7 7 r p r r r r r r r r 7 O O r p r r r r r r r r r r r r r r r r r r r r r r r r r r r u u r r u ; ; : C.C.& o f b i o i b c i # $ = ; & * 2 3.Z.;.& z n n n L L L L L L L n n n n L L N W Q Q U I W W z a n R ~ -.N 2 N I I I I I I I W W W z q R d.C i %   6 4X>X9X4X| * N %.Q Q Q Q Q Q Q ^ ~ z & v W W W W Q Q %.=.$.$.%.%.%.%.Q N I I v z i n R R W L I I N W Q N N N N N N N N N %.%.-.%.%.-.-.-.;.%.U I Q Q W I v v L R n b n c c c c c b b b b c c c c c c c c c z b v n n N N W R Z n n n v b v v n n n n v b i a c c a i i a c c c c c b b b n n b b b b b b b b b b b b b b d c c c c c b b b b c d d d d a a a c c b a i i a a a c b b b b b c c c c c c c c z z z z c c z i i z c b b b n b b z z c n n b C C C Z C c i i a i i a b C b c b a i % : : z ! ;.....$.#.#.#.D N N N N Q ! Q Q S I S N Q I N N N Q Q v S z z b R C z c R W n N W W W W W W Q B #.%.#.*.Q N v z & ^ h.! ! N x x 6.Q W N W N v v v Q W % . 5 5 < 5 B *.-.! n p p 0 a R W W Q Q Q #.Q N v n R C q & R W W W W W I I I n n n n n L v n n n L L z : z . m B.k.x m * % i a i l v v q c S *.! & l l.C.a # p r r r r r r r r r 7 7 8 r 7 7 r r r r r r 7 7 r r 7 7 7 7 7 r @ X O t p r r r r r r r e 7 e 7 @ @ 7 r r r 7 r 7 7 7 7 7 7 r r r r 7 7 7 7 r r r r r r r r r r r ",
"O @ @ O O @ # 7 8 8 7 @ O O O @ @ @ @ # @ # r # @ @ @ # r r p p 7 7 7 @ # 7 r p @ 7 7 7 r r r r 7 O X 7 p r 7 r r r r r r r r r r r r r r r r r r r r r r r r r r r r r ; ; i 4 C.C.& o f f i o i n a + + = = , * 2 2 4.1Xb.3 N n n n L L L L L L L n L L L L L n I Q Q I I W R q c b R k.k.x 2 N N I W W W I I W W W z q A d.C i % * 3 2X>X9X4X| * N %.Q Q Q Q Q Q Q ^ ~ z & v W S N W W Q Q %.%.#.#.#.%.%.Q N n W b % % b R n R n N n v N W N N S W N N n N I I Q Q Q %.-.-.-.-.Q W N I W W W n v L L b b n c c b c b b n b c b b c c c c b b b v v n N W W W W W W W N n n n N n n n I N n n z z c c z z i i c b b b b b b b b b b b b b b b b b b b b b b b c c c b b c c c c c c c c a a a c c b c b b z i c c c c c c c b z z z z z c c c b b c c c c z z i a z b b b n n v v c z c Z n b R C Z R R b a i a i 0 i b C b a b b a % % % & ! %...#.=.#.#.*.-.N S N N ! ! Q W S W S n W W n W N N W W ^ q q R ^ C a b W W n n Z Z R R W W N N B %.#.*.Q v v z & W ~ ~ ! W x x -.Q W N W W z * v v c ; ; ; o & x %.;.h.-.Z p t 0 i R L I Q U Q Q Q N v n R c % & W W W W W W N I n n n n n n n n n n n L L z & 2 . V Z.b.| | < i % # % i i i i q n ~ ! & 2 b.S.a # r u r r r r r r r @ @ 7 8 r 7 7 7 r r r r 7 7 7 7 7 7 7 7 7 7 r @ X O r p r r r r r e 7 7 7 e @ @ @ @ 7 e 7 @ 7 7 r r 7 7 7 r r # # @ # 7 7 p r r 7 7 r r t r 7 @ ",
"@ @ O X O @ 7 8 8 7 @ O O @ 0 p @ O @ @ @ @ r @ r r r # # # @ # 7 7 7 7 @ # 7 r @ @ @ 7 7 r r r 7 O X 7 p r 7 r r r r r r r r r r r r r r r r r r r r r r r r r e e e r u i i l Z.Z.& + f K f # # i % * z L L L 4 j.c.M.1Xv.3 M n n n L L L L L n n n n n L L W n I Q U I I I R z b c i ^ -.N Q N N N I W W I I W W W z q A f.C 0 i * 5 2X,X-X4X} o N ! Q Q Q Q Q ! Q ! ~ z & v W R N W W N N Q %.%.#.#.%.%.Q n n W n & & n ^ n Z n N n v N Q W Q W N n n W W n N I Q Q U Q Q Q Q U W I W W W W n n L L b c n c n b c b n n b c b c b c b b b n n n n N S W W W W W W W W W W W W W W W W W N n n n n n b b z z c c b b b b b b b b b b b b b b c c b b b b b b c c b b b b c c c c b b c c c a n b b c b b c c b b c c c c c b b b b b c c c b c c c c b b c z z c b n n n n Z n Z n b n W R n Z C C R R b a a i i i a a c b b a c d % % & z -.D #.*.#.#.h.h.Q v W ! ^ ^ ^ W ^ W W n z n R n W Q Q Q N ^ z z R ^ n i n ~ W c c n n Z W W W W N Q %.%.-.! N N b q n b z v W Q -.v N N n N W n z v W C u p r u E I -.#.B v a p p u z R R W Q Q Q Q Q W Z R R b % q W W W W W W N n n L R R L n n L L L n L L v 2 &.b.b.Z.V.n.V.c.-.m % : z & % i z q & z & l Q ^ a # r u r r r r 7 r r O O @ 7 7 7 7 7 r r r r 7 7 7 7 r 7 7 7 7 7 r @ X O r p r r r r e 7 e r r e @ @ @ e r r r r r 7 7 @ @ 7 7 @ # # # 7 7 7 7 7 r r r r r r t 7 7 7 ",
"O O X X O @ 8 p 8 8 + X X + 0 T # X X # # # # # - # @ # r r r # 7 7 # # 7 7 r r O X O 7 7 r r 7 r O X @ r r 7 r 7 r r r r r r r r r r r r r r r r 7 7 r r r p r e y e r p u 0 l 1XS.l + h E u + @ + q . 2 #.-.U ..3.M.Z.1Xb.V N n n n n L L L L L L L L n n L L I I W I I Q ^ R z c a c W Q Q -.N n n N I W W W W W Z z q A f.C a % o 3 :X=X-X<X} * N Q Q Q Q Q Q I Q ! W z & b n R W W I N N N #.#.%.%.%.! Q N n W n & q Z ^ n Z n n n n N W ~ ~ W W W W W R L W I I N N W W Q N I W W W W W W W R n b b b b b c c b b b b b b b b c c c b n n W W W W S S W W Q I N I W I I W I W I W W W I n R E R n c z c b b b b b n n b c b b c c b b b c b b c b b b b c c b n n c c c c b b b b b c c z b b b c c c z z i b b z z c b z z z z z z b c z z c b c c b b c z n L R n n n Z n n n n Z Z n n R Z Z R Z b c c i q q i c Z b c b c i i ; % z Q Q #.#.#.*.;.;.-.n ^ h.d.~ ^ ~ ~ ~ R b c b Z Z n W Q ! ~ W b c b ^ b i n d.d.S q c z z n W W W N Q -.*.-.! Q ^ b & b & q n Q -.h.x N N N W W R n n W R 0 0 p u E ^ ^ ! v & a a p q a R Z W Q Q Q Q Q W W R n a q & N W N W W W n n n n L n n L L P L L P L n x 2 1.@X@X@X@X@XXX@XA.2 2 2 . 2 2 & * * i & % i c T d @ # r r r 7 7 7 r 7 O O 7 8 @ 7 7 7 r r r 7 7 r 7 7 7 7 7 r r @ r r O @ r r r 7 r r @ 7 r 7 7 @ e 7 r r @ 7 @ 7 7 7 7 7 7 7 @ @ @ # # r 7 7 7 @ r p p r r r s 7 7 7 ",
"O O O X X O O O @ O X X i C u a @ X X @ @ # - # r # @ # r r # # 7 7 7 7 7 7 r r O X O 7 7 r r 7 7 O X @ r r 7 r r r r r r r r r r r 7 7 7 7 7 7 r @ 7 r 7 r r 7 7 e e e r r 8 q F ..& O p f i % % % 2 C.b.b.l.$.V } ..1.l.%.& 4 n n L L L L L L L L L L n n L L v n Q Q Q I W n z c a c W Q Q Q W N v v v v v z v v n i q A d.C a i o 2 $X&X-X<XV * N Q Q Q Q Q Q N W Q Q n v Z W n z v N W I N N B B U U Q I n v W n i q b b z z z z z z z v v z z z m m b n n n n n v v N N N W W W W W I W W W R n n b b b b c c b b b b b b b c b c c b n n W W W W S S W I W I W W W W W W W I I W I I I W n R R n z i z b b c b b b b b c b c c c c c c c i i c c b b b b c c c c n n b n b b b b b c c c b b c b b n n R W Z b b Z R R b R n n L R R Z n n n n b b c b c z b n R R n n n n n n n Z Z n n Z b b Z Z b c c i i c c b b b b c c a a c z n ~ Q #.#.%.%.%.Q Q v Z W Z Z Z Z Z n c i i a c c c z v v n n b b Z n c z b Z Z v c c n R W W L n W N Q Q Q W W W z i i % z S W Q Q N N N N W N b i c R n 0 a a a ^ W N W v c a a c q z R W W W x x N S W W R b i q & N W I W W N n n n L L n n L L P L P P L n x 2 $.Z.M.9.q.w.w.m.V.,.,.,.;.&.V U k.-.~ v & & % u + O r u @ @ @ r @ @ @ O O @ 7 7 7 7 r r r r r 7 7 7 7 7 7 7 @ O @ r r @ 7 r r r r 7 7 p p 8 # 7 7 7 @ @ @ @ r r 7 7 7 7 7 7 @ 7 @ @ @ # r r 7 7 p 7 @ @ r t r 7 7 7 7 ",
"O O O O X X X X + X X % b T i + + X X X X # # @ # # @ @ # r # # 7 7 7 7 7 7 r r O X O 7 7 r r r 7 O O 7 r r 7 r r r 7 r r r r 7 r r r 7 7 7 r r r 7 r r r r p r O 7 e e r e e p l l * o % % * . . . 2 SX3XM.b.} V V M N ! n o & n n L L L L L L L L L L L L L L n n W ^ I I N n z c c c R W W Q Q W v v z z 4 4 z c b i q A d.C a i o 6 $X&X-X4XV * S Q ! Q Q Q Q N N Q Q Q W W W v m z N W I N N N N N I I N m v n Z b z z i q & & & & & & & & & q z z z z c b b v n v v v v n W W W I I I W W W R n n n n n b n n n n n n n n b b b n n n n R W W W W S S S W W W W W W W W W W W W W W N N W n R R n z i z b c b b b b b b b b b b b b c z z q i c b b b b n c c c c b n n n b b b b b b b v m z z z b n R W W n b b R W W W W R W W W L R W W W R n b b c c z c n L Z Z n n n n n n n n n n Z b c b n b c c q c b n b b b b c b c n R L R ~ Q Q Q Q Q Q N N n n b c b n n b i q q i i a z z z z z z z z b n b b b b c z c n c n W W E n n W N N N W n n Z i a q q Z W N S v Q W N I W N z & b n b : u u 0 R I 4 x * a a w w q z W W W S l & N N S W R c i i & N W I I I n n Z Z n n n n L L n L P P L n m & %.C.3.| | ) | v.V.V.V.A.Z.b.} l.Z.C.z.#.G 2     o X r r O O O r @ @ O O O @ 7 8 r r r r r r r 7 7 7 7 7 r 7 @ O @ r r r r r r 7 p 8 # # @ + 8 8 # # # # r r # # 7 7 7 7 r 7 7 7 @ @ @ @ r r r 7 r # O O 8 t r 7 7 7 7 ",
"O O O O O O X X + + d b i i 0 % + X X X O r p O @ @ @ @ # # # # 7 7 7 7 7 7 7 7 O X O 7 7 r r r 7 O X @ 7 @ @ @ @ @ @ @ @ @ @ @ @ @ @ @ @ @ @ @ 7 @ 7 7 @ 7 7 @ O 8 7 7 r e e r & & z a b l ..=.c.1.X.M.v.4.b.M M x m L ^ L % % z b n L L L L L L L L L L L L L W W W n x n W R a c c c R W N I Q W N N N N N N N N S z q A d.C a i o 2 $X+X*X4XB * S Q ~ ! Q Q D U Q W Q ! W n z z n n N N N I I I I N N v m v v n S R n c z c n b v v v v v c z c b b b c c b b n L L n n N W W W I I I I I W R Z n n n n n n n n n n n n n n b n n n n R R R W W W W N N N N n n n v n W W W W W W W W v v n n n n b c z z c b b n b b b n n Z n n n n b b b c b n Z n b b b b c c c b c c c b b b b b b v n n v v v n n R W R n n n c z n ^ W L W W W v v R W W W Z n v b c b b b n n n n b n n n Z Z n n n n c c c b b b c i c b b b c b b b b b n R L n W Q Q Q Q Q Q N n W Z b z b n b c i z c b b n n n n n v b b v n n R n b b n n n n c c c n R E R n I W N S n n R a a i q c v N -.Q Q Q Q W W W v z b b b : u i i W M l.C.z 0 j C q i z W W W Q N N v v n R n a i q & n W I I n n n Z Z n n n n L L n L L P L L m & %.C.l.B +.V V 5.>.9.<.:.2.&.| 3.l.l.l.j.x.4.} N i O @ @ O O X O O O O O O O @ 7 7 @ @ @ @ @ @ @ O @ 7 7 7 7 @ @ @ r r r r r r 8 # p d u + u u + # @ 8 0 u u @ @ 8 7 7 7 r r r 7 @ @ @ @ 7 @ @ @ 7 r r 7 @ @ 7 7 @ @ @ ",
"O O O O X O O O # u f.^ 0 + % 0 X X X X @ u s @ X X X @ @ # - # 7 7 7 7 7 7 7 7 O X @ 7 7 r r 7 7 O X X O O O O O X X X X X X X X X X O O O O O X X O O X O O X O O O O e y e -   * ^ -.! B Z.5X1X3XZ.3 3 +.l.2 2 & b R ^ b + % i a n L L L L L L L L L L L L L n W W z & n ^ R i a a b W W N I W I N Q Q Q Q Q Q ~ ^ z & Z ~ C a i o 2 #X+X*X4XV * S Q ! Q D B N Q Q Q Q ! W v & z n W I n I I I I N n v v z z v n S W S v v Z W W W W W W W W R Z n b b c c z n R R W W W W W W W W W I I I I Z n n n n n n b b b b b v v v b n n L L L L L L W R W S Z n n n z z z z v W W W W L W W n z z z Z n b b b b c c b n n n n b n Z R R W R Z n n n Z Z Z Z S n n b b c c c b b b z b c z z m m v v W W W W W W W W W W W Z z & c W W W W W n m m n R W W R n n b c n b c b b b b b Z Z Z R R R n n c c i c b b c c c b b b b b b b b b c b L n n I I N N N N W I R Z n c c b b b b c b Z R W R W W Z Z n Z R R W R Z Z Z Z Z R Z Z b i i c L R R L W W N W N L E a i i q & & n k.k.B Q Q Q I I W S S Z m ; # % * 2 < 1XUX-.O p E i & z ^ ^ W ^ Q ! x z n Z b i % % : n I n n n n n Z Z n n n n L L n L P n P L m & Q C.l.N Q U I Y B V V M N U $.3.$.:.j.b.@X#XM.l.c @ @ O O @ O O O X O O O O O @ @ O X X O O O X X O @ @ O O @ r r r r r r r r r u a d 0 + + % + i + % + + # + 8 # # 7 7 r r r r - - # # 7 @ @ @ 7 p s r O X X @ O O O ",
"O O X X X X X O # 0 f.f.% o % o + O O O @ r r X X X X @ @ # # # 7 7 7 7 7 7 r r O X @ 7 7 r r 7 r @ O O O O O O O O O O X X O O O @ @ 7 7 7 7 7 7 @ 7 7 7 r r O O + O @ r r - = N 2 I ! %.+.3.m.q.m.b.V #.%.V N N v R R T d + + % i b n L L L L n n n n n n n L n W W m x I ~ R i a a b W W N U W I W Q Q Q Q Q ! -.^ z & Z d.C p i o 2 %X+X*X4XB * S Q ^ Q D D B Q %.Q Q ! Q N v v v v I W I I I n n n v v v v W N S W S n n W Z Z Z W W W W W W R n b n n b c n n n R W W W W n N W W I I I n n n b b b n b b n n n n n n n n n L L L L L n n R Z Z n n n n n b z z z m v n L L R R n v z z c Z n b b n n b b n Z Z Z n n n Z n S W W S n n n W Z n Z S W n n c a z c b n n n n v n n n n n L I W W W W W I N R n v v b b b n R W W L n b b v n R W R Z n n b b b c c c c c b n n n Z n n b b b c c b Z n Z Z Z Z b b n Z Z b b b c c n L n L I N N N n n n n n b c b b b b n b n Z W W W W W Z W W R R R Z n z n R R Z Z Z Z b b b b c c n W L I n N n L R a 0 C Z n c S h.-.B D Q B N N W W F A m : : L V V  .n.S.S @ t E b % z ~ ~ W W N W v v n R b i i a m I I n L n n R Z Z n n n n L L n L L n L L b & v z.-.N Q Q I I Q V U I n W ;.$.=.$.$.3.XXXX0.&.i O @ @ X O @ 7 @ @ @ @ @ @ @ @ @ @ O O @ @ O O O @ 7 @ O O 7 r r r r r r r r u p u u C R % o 0 % % b i 0 u + 0 # # 7 7 r r r r r r r - 7 @ @ @ @ 7 r 7 O X O O O O O ",
"O X X X X X X X + + d.d.% o %   + + # @ O O X X X X X @ @ # # @ 7 7 7 7 7 7 r r O X @ 7 r r r 7 r r 7 7 7 @ @ O @ @ 7 @ O O @ 7 7 r t p s s s p s p s s s H h r O # @ @ r r = : 1XM.l.5.B.A.>.)  .| Y U / 4 . ;.j.*.! Z C s @ # % i b L L n n L n n n n n n n n S W W W I Q ~ W i c a b W W S Q U I I I U U I N Q ! ^ z & Z d.C p u o 2 $X+X-X4XB % S Q ^ ! Q D Q Q Q Q Q ! ^ W S n z v n W I I I n n L n n n W W W W W N n n S S S W W W W W ^ W Z Z n n n b c b b n R W W S n v n N W I I N n n b b b b n n b R R R R R R W W L L n n n n v v n n n n n n n n R n R R b i z n Z R R b z c b b b n n n n n n n Z Z Z Z Z Z n n n n W W N N N N N N N N W W W W b a z c n Z R n R R L R R W W W N I I I I N N N z z z z n R Z b n W W v v v v v n Z S Z n n n n c b b b b b b n b b b b b b c c b b Z R R Z Z R Z Z Z Z Z Z Z b b n b c n L L W N N n n n n n n n c z n Z Z Z R n Z W W W W Z n W W W R Z Z b z q b R Z n n Z Z n Z Z n z a b W n N v N Z R R i 0 R ~ d.~ Q Q N D Q Q N N I W R A v m 4 U B.Z.M.OX| M i t H ~ Q & z ^ W S S v N W S Z Z b i a P n I L n L n n Z Z Z Z n n n n n n L n n L R b & v Q B B Q U Q Q Q D W R P R *.} B B V | n.n.+.Q % O @ @ O @ 7 t r t r @ @ 7 8 8 r 7 @ @ 7 7 @ @ @ 7 7 7 7 7 7 r r e r r r r r r r 0 b B.D.~ o % o % ~ E n d o + @ # 7 7 7 r r r - - - - 7 7 @ @ O O O O O @ @ @ O O O ",
"X X X O X O O O # % d.k.& * %   o + r r O X X X X X O @ # # # @ 7 7 # # 7 7 r r O X @ 7 7 r r 7 7 r 7 r r 7 @ O @ 7 7 @ O O @ r @ 7 t s s s p p p p p p s H h r X # 7 - r e - i b.b.l.;.6.A.@.| +.B ~ I Y 4 5 3.x.$.D c a p 7 7 # i n R L n n L L n n n n n L L W v n ^ W I W W z c a b W W N N Q U I I U Q U I N ! ^ c & R d.C u % o < %X+X-X4XV * Z W Q Q ! Q %.Q Q W Q Q W W N n v v n L L L R Z n R n N N Q W W W W W W N n n S S S S S W W n Z R R n c c c b b b Z W W S n v v Z W W R n n v b b b n n n b Z n n n n n n n R L n n v b b m b b v n n n Z n N N Q ~ N 4 z W R W Z z q c Z Z c b Z Z n b n Z Z Z n Z Z Z n b v n W W W N N N N W W W N N W W n b c b n R Z n Z R R R R R R L W I I I I I R R z z c c b n n z n W W v z n R n n n Z n n n Z n i c Z n b b b n n n n n v v b b b n Z W W Z Z W Z A R R R Z C b b n b b n L n L N N N N I I n n n z z b R W W W W W W W W W n n S W W W Z Z n b i z v n n Z Z n Z n n n d f z n L I n W R R R i i R R ^ ~ S D *.D Q Q W W W W Z Z Z m 2 B b.M.v.n.+.W a O T -.N & i W W n S n S Q Z n b i % a R I W L n L Z n n Z Z Z n n n n n n n P b T R b l n W N Q Q N I Q S ^ S n R W ;.;.#.+.+.+.v.n.+.%.: O + @ @ r 8 t t p 8 O O 7 r r 7 @ @ @ 7 7 @ O @ @ @ 7 7 r r r r r r r r r 7 8 p 0 % d.D.h.& q o & d.E b a X % + @ 7 7 7 r 7 7 e - r r 7 7 7 7 @ @ O O O O O O O O O ",
"O X X O O X X X % * d.d.z o   o X @ r 7 @ 8 7 X @ # # @ 7 r # @ 7 r 7 7 r r r r O X O X @ t r r r r r 7 r r 7 @ X @ 7 r s s r r r r r r p p g h j p p p p t p s h 0 7 8 y y e r 0 & j.x...U U N R ^ R L U 5.y.0.0.$.N R h 8 p 0 8 d b Z n b R P n n n n n P T P L n n n n R W R z z i z R ^ W N I Q U N N U Q I S Q W c q Z ~ C p u   < %X+X-X4X+.o z v x v v v v v m m n P L L L m z z m n R R R R E Z v N D #.Q N N N v v b m v v v v v n n n n b b b b b b b b n R n b b b b n n b b b c b z v z q c Z ^ ^ R R c l z x 2 2 2 4 z z i i z z i z v & z v l n N $.;.l.l.;.Q I W R R Z n n n n n n n n n n n v v n n n Z n b n R R W L z z x x x 2 2 4 i i b R ^ L R W R n c z i c b n n v v v n n L R W W n z i R R Z R R R W W W L n v b c v Z W Z n n n b b n z W n n R R W n v v M M x x x z : i m x x x x z b a a d d d C v c n Z W R n n I I N N -.-.Q -.Q n n z n ~ ! %.%.%.Q N v v N I n n n v n W Z n R W m * & v n n S W n c f d P h b b v v v v ~ ^ ; + i i z z N S D D Q W W I W I I I N n 4 B b.M.| 5 x i 0 0 A -.Q % a W Z n S N W W N W R b & i Z R N n n b b b b n n n n n n n n S c h H T ^ b q b c R R n Q Q W W R W B B &.3.c.3.0.y.0.0.c.5 N & o 0 X 9 f.j 0 p 9 O 7 t e - e r @ O O O @ @ O 7 7 7 7 7 r r r r r r r r r 7 @ X @ o n k.-.-.W o o o ; R n a + # @ # 7 7 r 8 7 r 7 7 7 7 e e 7 O @ 7 @ @ O X X X X X ",
"O O O X X X X O % * ~ ~ z & o % @ @ @ @ 7 r r O O @ 7 7 7 7 # @ @ 7 7 7 r r r p O X O O @ r 7 r r r r 7 r r r @ O 7 7 r g s r r r e r r r p p j p p t t t t t t j 8 9 7 e y y y t q j.x.$.Q U N ^ ^ E I U &.<.<.3...n b H s 8 p + + R W n R L b n n n n n n T P L n L L L W W L i z z z L W W I I I Y N I U Q N W Q W z q A d.C u u % 2 %XW.>XuX+.* n Z N n n n n v n n n L L I n n v b b b n R R R R S S D } ..B %.Q N v N n b v n n n n n Z R n n n n Z Z Z Z n n n b c n n b b b b n n n Z R v v v n Z R R R b v v v x x x 4 x z v v v v v z 2 v x N x 2 N B $.:.1.;.=.Q N n n n n n Z n v n Z n n n n n v v n n n n n b n n n b c v N N v M x x v m z z c n n L L n n b c c b n n Z n n v v n n n L n n b m Z R W R Z n n Z n n n n v b n Z S Z n n n n n n W Q v n R L W Q N V B M M V M x m m x M M M V N n b b C a a C c n v n W W R I I N N B *.=.Q Q N R Z i v ! ! -.%.#.U N N N N I N N I N n S Z n W W n 4 v I N v N S v m z d h b c v S V M D Q v z % i z v v N D B U Q Q Q Q Q U N #.U ! 4 } Z.b.| U 4 a p 0 A h.n % a R Z n S N N W N R R b & i R Z n n b c c c z n n n n n n Z R Z Z E K s b b v c a T T Z W S S L L I %.$.:.0.0.y.0.q.0.c.b.M z q o 8 X 8 T s t p 9 @ 7 r e - e r 7 7 @ O @ 7 7 @ @ 7 7 7 r r r r r r r e r r 7 @ + o b W ! k.N & % o % b b d i 8 # 7 7 7 7 8 8 r 7 7 7 e r r e r r 7 O O @ O @ O O X ",
"O O O X   X X X + % d.~ z q b f.d # O 7 8 8 # O X @ r r 7 # 7 7 7 7 r r r r t p @ O @ 7 r r 7 r r r r r r r r 7 @ 7 7 r h s r r r e e r r r r y t t r y y r r y s r O @ 8 r r r r q j.M.l.l.&.B *.D S W W I Q %.*.v c % ; i   & i o n P f E T c Z Z S S S S Z Z N n W W R W W R i c z z n W W W n n n N W W N N W Q W z q Z d.C i ; * 2 OXQ.wXpX| * S ^ Q Q ^ ^ ! Q Q Q Q %.%.%.%.*.*.Q v z d P P n n S Q Q Q B $.b.l.B N ! Q N S I W W W L R L R R R R R W W W n n c z c b n b b b b b b b n n h.h.h.! W n v v S ~ k.h.;.j.j.h.j.j.j.j.j.j.j.j.h.j.l.j.} V j.l.=.$...#.%.Q N v v n n n Z Z n n b b b n Z S Z Z n b c b n n n n Z z v ! k.h.;.h.;.;.h.-.W n c z Z n n n b b b b b n Z R Z n n v n v v v v n n n Z S W W n v v v n b n n Z n n Z Z n n n n n n n h.-.x z 4 & W B.l.l.l.l.l.l.j.k.k.6.k.l.l.2.$.=.;.Q W n c c ^ d.N v v W W R N S N #.Q -.;.Q D N v b i Z -.-.%.Q %.%.Q Q Q Q ! Q Q %.! ^ ! W W ! ! U I Q Q v 2 l *.#.S n n n b z S k.j.h.h.D N -.-.;.;.2.2.3.3.<.,.,.,.,.,.,.&.+.$.l.6.. 2 V 3 S.3XI & c w C f.P % i R Z S W N v W n R R c & i R R R n n n b c c z v n S Z n R R n n R b P R c & l & c b P E S S L I V $.3.<.3.<.<.>.<.3.j.j.& o # X - @ e J g k y r 8 @ @ @ r r r t p 7 O @ t s X O @ 7 r r r r r r r r r r y r 8 X X * o N B.-.W n % % i i i i 8 # 7 @ 7 7 8 8 r 7 7 7 r r r e @ 7 # @ @ + + + u p r ",
"O X X X X X X X o % ^ W z b R f.d # @ 7 @ O O @ O 7 r 7 7 7 7 7 7 7 p p r r r r @ O @ 7 r r 7 r r r r r r r r r @ 7 @ 7 h g r r r e e r r r r r r r r y y r r y y - O @ 7 8 8 r # % =.b.l.l.=.} ..} S W R T R R Z Z Z a o * . . . . m L f P T ^ Z Z S S S N N N W n I I R W W R q z z z S W W I n n n W W I N W W W W z & Z d.A 0 : o < %XW.9XpX) * S ~ -.%.-.h.-.-.*.*.*.=.$.$.1.1.=.Q n b d d P n n N W W W U =.Z.b.} B %.#.Q N W W W W W I I W I W I W W W W n b c f c c b c b b v n n n n v k.k.k.-.S v v v W -.h.k.j.l.l.l.l.l.l.l.l.l.l.l.l.l.l.l.} B j.l.$.#.D Q Q N N v v v b n b Z Z Z c c c n Z R R Z n b b b n n Z Z n l x ! j.h.h.h.h.h.h.-.Q n v l n n n b b b n n n n Z Z n n n n n n v v v n Z W S S S S n v v v b b n n n n n n n n n n n n I Q l.k.x 2 4 4 Q B.l.l.b.b.l.l.l.l.l.l.l.l.l.l.2.2.j.*.D N v v Q ! N v n W W n n S v *.#.#.*.B N N c b a n ~ ! Q Q Q #.#.Q #.%.*.Q #.%.Q Q ! S S Q Q Q U Q ! N l l =.*.D S n b b z N k.l.j.=.D D h.k.2.2.2.5.3.3.<.<.3.5.5.5.5.$.} l.C.k.* 2 3 1 %X3XU & a a C f.E # i R Z S W N N W n n R c % i Z n n L P n b c f i z n n Z n n n n b v b L R z l l & z d d T S S R I U +.5.y.5.<.y.3.y.c.l.k.i + # $ - - - y e 7 y y 8 7 @ 7 r r p p s r O @ s h X O @ 7 r r r r r r r r r r y r p @ + +   v B.k.h.^ q % % % u u # @ @ @ 7 7 8 7 r 7 7 e e e @ @ @ # @ # + + u u u p 8 ",
"o     # r - $ O + o c b R ^ 0 o @ O @ 7 @ X @ 7 7 7 7 7 7 7 7 @ 7 7 t t @ O @ O O X O O @ r 7 r r t t r r r r r 7 7 O 7 h h r r e e r y y y r e e e - - @ @ @ - y - X O + % % u = ; B ..U I B B } } D R R E T h p p a z 2 ,.3X$X}.m.3 4 i u a a c v Z Z b z v N W n n n n R ^ R i z i z S W n v n n W W W W I Q W W W z & R ~ C % i o 2 6X:X9XpX .2 S ^ Q U Q #.#.#.......} } } } } ..D S n b d n L L L L L I U } l.3.| | | B B Q W W W W W W W W I W I I N N I n b c c c b z z z z v N ! h.-.*.B N N v x v N S N N D #.%.#.#.$.$.#.+.+.+.} } ....B j.l.;.=.=.#.#.Q ! Q W v v n n n b b b n n n R T C Z Z Z n b n n n n n b n n b v v S Q D D D D D D D S S Z n n n n b b n n b n n n n n Z W R R R Z n n Z R W W Z n n Z Z Z n b b z c c a c b n n n v n I Q %.l.j.2 4 6.k.-.#.#.$.$.$.$.%.#.#.=.=.#.V V $.j.l.2.2.2.j.#.B v x Q Q ^ ^ ^ Z S S N k.j.h.h.Q D Q Z R i i v v ! ;.Q %.#.#.*.*.*.#.#.#.D ! *.! D Q S N N Q -.-.W W D D S n n n n b Z S D D D ! Q v N v N B #.%.$.$.#.#.#.#.%.Q N 4 x x v 2 V 3X5X[ 5 4 z 0 9 E f.T + i R S n W N W L n P P d % i n b b b b d d i i z b n Z Z Z n n n n n 4 & & x k.B l c a p f c c i d W V } +.| &.,.,.,.2.B v + O $ , $ $ - K g y y y r 7 7 p p p p p s t 7 r s s X O 7 r r r 7 7 r r r r r r r r 7 r 0 % % & z v h.W & % % % u p @ O @ @ 7 r 7 7 r r e 7 @ @ @ O r p # + o + R ^ u r + ",
"o o o ; p r # @ + X 0 a R ^ % X O O # 7 O O # # 7 7 7 @ # 7 7 @ 7 7 p p O X O X O X O X @ t r r r t t r r r r r r 7 X @ h h r r r r r y p y r - e - @ @ O O O @ k e X X o % i d - # v N m n v N N D W R R E T h H j + 2 < @.pX4X;X.X< . * % a a c c A A b a z n N v n v b R ^ E z z i z Z W n z Z R W L n W W W N W W z & Z ~ C * i o 2 6X:X9XuX .2 S W W U B D D D D D B B B } ..B D S W R b c n I L P P n I U #.;.:.| | ..} B Q W W W W W W W W I I I I I N I n n n n n b b v z x v S h.k.k.;.N x x x x v N N N N N Q #.Q ..#.} +.+.} | } } } #.} l.l.l.l.=.#.Q Q Q W n v v n n n n n n n n n R R n n n n b b n Z Z n c c b b n Z S n N S S S D S S S S W R W n n b b b b b b n b b n n N W W R R R R R R R R R n c c Z Z S Z n b z z a i a b n n n v N Q -.;.l.5.3 2 l.B.;.V B ........#.#.#...$...M M %.l.l.l.j.l.l.;.Q N x -.-.! W W W S N D j.l.l.j.-.-.Q n R z z z z S *.%.*.*.*.*.*.-.*.*.*.*.*.h.! ! ! D B N U -.-.~ h.S S S Z n b b n Z n S D S ! ^ v v v v N Q #.#.#.U U Q Q Q W v z z z : * | JXFX1 < 2 f p p E f.T + i R S n W N N L n P R c % & c c c c d d f i i c b n Z n n b b z b n 2 2 2 B C.D l a p p u i i d b N V 5 1 < 1 [ _ _ _ 1 < . .         $ r y e r y t 8 r p p p p r p t r p s s X O 7 r r r 7 7 r - - r r r r r 7 r # 0 0 o   & h.W & % i # r r O O @ @ 7 r 7 7 r e e 7 @ @ O O # u + % o + ~ d.a p # ",
"o a b i + + # $ + + a i C ^ 0 + + @ 8 @ @ r r X @ 7 7 # @ 7 7 7 r 7 s s O O @ X O O O X @ s p r r t t r r r r r t 7 X @ h h r 8 p p p p s s p r r r r 7 7 O @ 7 r 7 O + 0 0 u f $ $ x D R R P R n n n R T C d d a a v 5.u.+XuX9X,X>XOXA.x % a j A j C C C d z n n b n b b Z ^ R i c i z R W R n R W Z b v W W v n W W z & n ^ b % % * 2 V.+XuXpX .2 N W W Q Q ..D D Q Q Q W W W W W W W W R b z N N L P P P n N U #.$.4.x.j.;.#.Q W W W N L W W W I I I I I N I L n n n n n n W W S S D Q *.%.Q Q W N N N v z z v v v N Q Q %.%.} 2.3.2.1.1.1.$...} $.....$.B D S n n n n n n S S S R R n n n c c c c b b n b b b b b c b n n b c c c z z b n n W Z c c c b b c R L b b c b b b b n n n S W S n n b b b b b b c n b c c b n b b n b b b c c c n n L n v N Q -.;.j.l.2 2 ;.l.-.%.#.#.#.Q Q Q Q #.D *.*.N N B %.%.j.j.j.2.B M N N Q ! W v n W W v v D Q Q D Q ! n n R b n n z z v N S S S S D D S N D S S Z n n W *.%.#.#.*.Q W Q S S W R P d d d f n W W n c c S W S S Q ! Q D ..#.*.*.*.! ! ^ Z v W c   ) JXGX{ 7.5 i s p C f.A * i R W S W v z L P P T b % % c c c d d d d d a a c c c c a a a i z : & Q 2.=.l.S q a a a a i i : 4 5 @X5X<X<XwX<XwXwXwX&X+X%X%Xy.3.&.;.W a u @ 7 8 8 8 7 7 7 r p r t r r p g s X O @ 7 r r 7 7 # @ @ r r r e r t p r 8 u % % b k.! & * 0 + # @ @ @ @ @ @ 7 7 7 e - @ - - @ @ @ X + o % o * ~ d.u # @ ",
"q ^ d.i   X + O O O u u R ^ % X + + @ O @ h d O X @ 7 7 @ # 7 7 7 @ p p O X @ O O O O X 7 h s r r r t r r r t t s r O 7 h h 7 8 a a d p s d s r 7 r r r 8 9 O 9 9 O 9 r p p p p $ # x v L T h T P d d C n i q z l 2 5 v.$X>X9X9X9X>X2X1X4 % a s j a a C C c f z n b b b b R E R i a i c R ^ ^ ^ W W b i c W W v v n W z & n ^ b a + % 2 @.p.pXDXX.2 Z ^ W I B N D S W W W R R R L L W W W R n z N N n L P P n n x V ..j.b.M.l.;.Q W I n n n Z Z n n n N N N I I W Z n S n n W Q -.-.! Q S N N N N N W W W n z & z b n v n W ^ Q } j.l.l.l.l.l.2...B ..D D ..D -.b i & i v S W W S S W W R n m z b c z z z z z z z z z z n Z S n b f a a f z z b W Z c c c c c a W R v z z c c b b v n N W W N n i i a f a a a a a a c a a a a c b c c b b c c n n L I N N Q -.;.l.l.2 2 l.l.-.Q Q Q Q ^ ! ^ ^ ! ! *.Q N v z N Q l.l.b.j.B x v Z S S v z n ~ ^ v N v x x x W k.W R W n n n z z z v n S N N S S N v S Z n c z c W h.;.;.$.%.B v N v S Z Z n d b b n E n Z W z q W ! S Q ! ! Q Q #...#.#.Q Q ! ^ ^ Z c b * ) JXGX{ a.5 z a + h f.C % i R W S W z & R L T R b i % a a a d d d f a a 0 q q q % % 0 0 q i % * 6.C.l.;.^ c C C c z : : 4 6 < <XHXbXnXlXbXlXyXbXyXaXvXvXOXm.M.Z.l.z o X @ @ 7 O X X O 7 p r t r r p g s X O @ 7 r r 7 7 O O @ r r r r r r 7 r r u u u a k.S * * 0 + # - r - @ O @ @ 8 8 @ @ @ - r r # + X o X o   * k.d.u # + ",
"o n b f T i X O $ X d d d E 0 o % + + p 8 @ p O @ @ 7 @ O 7 8 @ 7 7 t r O X O O O @ O X 7 g g r r r r t t p p p s 7 O r s s r 7 p 0 p p p p p p r 8 O 7 9 O 9 O 9 9 9 9 8 e O r @ + *.k.c u d s d a b i m m 4 j.3.X.e. X.X;X,X,X&XU.OX@X4 & f g s A A A l n n z n n n a i C R d b b a a c b b R R R n z v W W W W N W z % R / d r 8 i 2 +.' pXpX..* Z d.T L W v N W R R ^ P f L m L n I W v v x -.h.N N R P L m B l.l.$.;.;.%.-.W W n v n Z Z n Z Z R W W N I W S v S -.! D Q S Q Q Q N N Q Q N W R Z R W R n c c c c b n Z Z Z n W Q W I N N n z v v b Z R b a c n n R W W W W N Q W N I n m n n n S n v Z ~ k.v v v v x v N v z i i z z m b b Z n b b b c b R R n n v v n n n n n S N N N D v v n b m z z z z b v b b Z ^ ^ ^ S S n n n W E n L L N N N Q -.%.Q Q x 2 N Q v N v n n n S S Z Z S S n Z Z b n Q Q *...#.*.W n b n Q n z z Z n v S x v S N v I W n S W R n n n v R n n R R n n Z v n R b b b c ^ *.=.1.....D x N S ! S ^ Z z n i v k.~ & v l & v v W n z L Q U U U #.Q Q W n n n i b d   ( JXbXW.:X) M q 0 d g.C % & W Z W n v b n L E T b a i z a i u d d d d d C a Z b i a d i a c c m -.l.;.! c C w a v Q N 5 1 s.Q.uXHXlXyXyXyXyXyXyXsX8X0X9XI.n.M.M.j.D c % p @ 8 7 7 X @ @ 7 r r r r 7 r r @ 7 7 r r r r r r - 7 e r r r e e r r r r r u b h.Q z q % + # @ @ $ @ 7 @ O @ 7 # r r - # r # @ X X o % n n q n # # # ",
"o i a d R d + # $ X p u 0 c % o o X + d p @ @ O @ @ @ @ O @ 8 @ 7 7 p r @ X O O O @ O X 7 g g r r r r t t p p p s r @ 7 r p t r p 8 r 7 8 p 8 p 7 O X @ + O 9 O O 9 O O 7 @ @ @ @ + l.C.^ 0 # @ 0 T Z z 4 < 3 V.3X@X.X.X|.+X+X;X' 8.i.V.5 & + s p j w v v Z c n c c c c i i i u d C b c i i a b b Z n z c W ~ W Q W W c & R / d 7 p c 2 1 ` 5XFX..q C f.T R Q v n n n L L L m 4 x x x x x x x x k.l.V 2 v m n m B 1XC.V N Q D #.Q W W n Z Z c i R R W W W W W Q N l S k.h.Q Q Q N N Q Q I N Y W n n n n n L R R c i 0 a b a b C c n n b b b z q i a q q c c i % L n n n Z N S S S Q Q N N m 4 m Q S N N N -.B.D.v l l l l x x l z 4 2 4 4 4 z z z l l z v n W ^ n v v n n n S n S v v N M M M x x x x x x l l z 2 4 l x W h.h.h.! ^ W S W W W I m m v x x Q -.*.v z & * 4 l & z z b z i c c c z c v c b n n b v v v M S h.~ n a z n v v n v b v v v N W N I W L I W I W R R Z R z c b n R R n b b z b d d d z W =.....} } V 2 2 D *.*.-.S z v x ! B.k.* * * q v n v n m 4 m I Y B U U B v m : z z & u   ( JXHX<X<X_ V l q a E j % & R Z W W W R W R R L b z i q i i i d d d b T E b ^ R c b d a b c Z W =.j.*.S A + 0 q & B.A.< < <XGXbXbXlXyXyXyXyXyXyXsX0XR.U.XXm.M.M.l.! Z u 8 X O X @ O @ @ O 7 r r 7 7 7 7 s p r 7 7 r s g r r r r r r r e e r r r r r r a k.^ c q % + r # @ @ @ 7 @ O @ 7 @ - - - @ - @ @ @ O o 0 W R * % + # # ",
"o % 0 d E d O $ # $ d u u c q * 0 d u u 8 X @ @ @ @ 7 @ O 7 t 8 7 7 r r O X O X X O O X 7 s s r r r r t p p p p t r 7 r r r t p t r t r u u % ; o     & i % q * o % X O $ X O X @ o j.Z.F & i a 0 C l } X.>.9.}.OXi.i.i.m.u.9.t.r.L.p.u.) M & i d C c v Z Z u f b c c c a u i a d a b d i i z c c n n v v W Q W S n n z % Z d.h r p q V @.@.$X3XD w A E R R N x b R R n I N N } $...1.$...#.M v h.h.*...N x N v #.C.2.B Q Q %.B N N N W S n n Z A Z Z Z W W Q Q D v D h.;.D N Q Q Q Q Q U N N Q W W W R R R R E R n d i a d d d c n R n n b c c n n v v Z R n n W W W W W Q Q Q N Q Q U Q Q N B Q Q -.%.D Q h.k.D N V V B V D ..#.U B B B B B D D Q Q D N N D Q S N N S W W Q W Q N B -.%.#.#.$.....#.#.......} ........*.;.=.*.*.Q S W Q W W Q I I Q N N D -.! z b n n n n Z W c b b b z z v Z Z C b b n R Z n n N N W ~ ^ T b v N v m n R n n W N N N W W L n I N I W W W R R n R R n n R n i z f d u d d a n #.$.c.4.} ..D S v S ! ! N x x x N k.~ & l i c n Z z v n m N U B B } A.C.V l v v v & f , ( HXnX<X4X .V z 0 a A c % % n c S n v v n n n n n b z z i i a d d f d b R b Z n z c a d d i -.j...N n c C a c & 2 c.9.[ ` <XbXbXyXyXyXyXyXyXtXeX0X,X.XXXv.j.j.j.~ E T s s r 8 7 t O O @ O 7 r t r 7 7 7 p t r r r r r 7 r r r r r r r r r r r r r 7 7 u Z c b b 0 % u # # @ @ # @ O O # @ 7 7 @ @ # @ @ X X o 0 d.~ * o + @ @ ",
"+ + + i R i X X X X u i a c & o Z d.T o X # r # @ @ 7 @ O r g p 7 7 r 7 O O O O O O O O @ p p 7 7 r r t t t t t 7 r r r r r r r r r p = o       . . . 5 B 5 5 < . .     ,   + = + o x.Z.F & q * q * 2 c.n.2X5X}.w.w.w.q.v.:.3 5 u.p.e.m.9.3.V * % & z q q a p p i i % & i i i i i 0 0 0 % i z q z & & l z l z x v l z q % C f.T $ s S ..b.y.@.0.z 0 a c c v 2 l z I m 4 M 3 3 j.1XZ.1XZ.b.l.V V V G =.b.#.G V 3 M V 4 U %.V } B B 4 2 2 x l x S v v v n W Q Q W *.D D Q D N N N %.N N N N x 4 x N N N N N N n v n R n i 0 a d 0 i c R n c z v N n S S S W W W ~ S N W U Q I I Q N B B Q =.;.;.;.%.6.l.l.*.N B B %.=.;.;.;.#.=.l.j.5.l.l.l.j.2.h.h.l.l.j.D V V B %.Q Q Q -.! *.Q %.#.;.l.l.l.c.c.b.M.b.b.M.b.b.b.c.b.b.j.=.} ..#.#.D N B D B B Q -.-.-.Q N S ! ^ i m W ~ ! ! -.-.S z b R v l x S Z Z b i i v N N N Q W N v z b W x x x l W k.k.k.-.N x x Q I n I I N N N N R R R R R n i q z z z m b b u s b c N B c.1XZ.2.l.C.B.& z n W S N N N x x v b W n n n A Z Z c z v v 4 V G 3X3XB 2 v 4 2 * u   ( HXnX).4X .l i ; d A c % % b z v z & & * & i i q & & & i i i d d a i i c i z z i c a c d z z.C.V * & 0 0 A v . 3 7.a.vXbXbXlXlXyXyXyXyXyXyX8X0XoX.XXXM.j.-.Q W R E J H J J J h h O X @ 7 r t p p r 7 7 @ 7 t p p 7 O X @ 7 r r r r r r r r r r r # @ 8 + % R E i % 8 # # @ @ # @ O O @ @ 7 7 @ 7 # # @ X X X % f./ % + @ @ @ ",
"@ X X u C u O @ X X f u a z v v n ^ b X O p 7 @ @ 7 r @ O r g p 7 7 7 7 @ @ 7 @ @ @ @ @ 7 r r 7 r r r r r r r r @ r t t r r r p t 7 p : x B | @.) ` ` a.p.a.a.7.[ [ [ [ 5 6   o o * j.M.N & q o q & G M.n.OX$Xw.@.<.5.2.5.+.4 B %X@X7.o.m.V.X.G N * i i # r s r i n n z c z q q q i z c c c z & v v v v N W N x n l z q q E f.T $ f #.| 3X6X` +.: 0 c v v N V #.Q x 2 V D } } 4.m.v.Z.b.j.j.B B ..V #.j...| | :.B U B +.} $.l.+.} +.B V B D Q S N N N S D Q Q N W ^ S v v N Q Q U #.%.U B B B V #.#.B B Q %.Q N v W Z c i a a i i u d d c b n S W W N N W W W Q Q B B U U B B Q %.Q B #.%.;.j.2.$.;.j.;.#.B #.#.%.;.;.;.;.$.$.3.0.0.y.c.5.2.$.#...;.l.;...} } ..%.Q %.%.%.%.%.#.#.%.2.2.2.c.c.3.x.x.x.c.c.c.c.c.j.c.b.j.:.} ..$.%.Q D #.#.#.#.%.%.-.-.Q v n W W z z W Q *.*.-.*.Q v v N W #.#.V N W Q N M B %.%.%.Q W N S W W Q v B N N Q Q ! -.Q #.B U %.Q Y W U I N n n n R R R Z n n v x v D v z c c d i z Q $.3.M.b.$.2.l.k.c a n W Q %.Q B U v m z L b T C C E E d P d m Q B G S.S...N S v v 4 f   ` HXnX].4X| z u = d A c % & Z n S n z z : : q & z c v x v z i f b b c z c z n v v n f c b z l.C.} 2 i # h l v V ` Q.!.bXlXlXhXyXyXyXyXyXyXyX9X,X.X@XM.b.h.~ R b H J J J J g h g H r # @ 7 7 7 r r t r 7 7 r p p p 7 @ @ @ 7 r r r r r r r r r r r 7 @ # + + T C u i + + + + @ # # O O @ 7 7 7 7 7 7 # @ X @ 0 0 T R % 0 # # # ",
"7 O X # a 0 O O O @ h f c z k.B.Z c i + + 8 O @ e r r @ O r g p 7 7 8 r 7 7 r 7 7 7 7 7 r r r r r r r r r r r r r t t r r t p p 8 X o z ;.Z.1X2X<X<X<XiXvXvXbXvXbXvXGXvX5XV.< . o * ..j.l * i q & N } @Xm. .) | V +.$.#.#.U x %.3X1X` 1 $XSX1X3Xl.* : f s p s d b k.z.h.^ n l z * z n n W S x l ~ k.h.! h.B.z.-.Q v v a q R f.h r : V  .FXFX1 < : 0 v F D $.2.b.l.2 x j.l.b.b.| 3 ) >.4.3.j.=.;.;.=.V 2 | w.v.@XA.2 5 &.+.Z.1X| < +.A.A.l.b.l.l.N D D D Q #.B x v ^ W z z W Q N B ;.l.l.j.l.l.l.l.j.2.$.2.2.=.U Q N N W n q q a d u i d E ^ ^ Q -.Q M M B B M M B B V V B B %.;.;.%.#.$.$.1.j.2.2.#.B V V B #.B #.%.B B ;.2.1.3.<.<.<.<.:.} V M B B } #.2.l.j.2.B B B #.#.%.%.#.#.$.$...| <.y.<.>.>.>.>.>.>.:.:.,.:.$.$.$.$.$.$.=.%.#.%.$.$.$.$.#.%.*.S z z c z W I N U %.%.$.$.N x 4 M %.C.b.V M Q 6.2.2.2.3.2.l.=.B Q l.z.;.B ;.j.j.j.*.l 2 x B l.C.l.l.;.U U Q U N n n I N Z S W ! -.*.B } #.B 2 & b c * & =.S.X.3 3 3 B N m n i c v V } B V B %.! m b b R C C A C T E n 4 M 5 3 ) ) | } N -.B V m . [ nXbX).4X| z p = f A c % i ^ ^ h.~ ~ Q z : % & S k.k.k.~ R c c n n n b n S ^ W ^ W a z z 2 $.3.#.B c u u * B m.OXGXnXbXkXkXkXyXyXyXyXyXyXeX*X.Xi.n.l.k.~ E d p s g J g.g.s t p h h h # X X O @ 7 r 7 7 7 r p s p r r r r r r r r r r r r r r r r 7 @ @ @ + i d T E 0 + + + + # # O O @ 7 7 7 7 @ @ @ O X 8 p u u a % u # # # ",
"r O X @ 0 + O X X X s u z 4 k.C.^ q % + + @ O r r t p 7 O r g p r 7 8 r 7 r p r r r r r r r r r r r r r r r r r t p t r r t t r + + l V 3.OX+X=X*X0X8XyXyXyXyXyXyXyXbXaXwX=X_ 3 * * ..-.i + % c v #.$.Z.Z.,.B %.N *.;.....D z N 3X1X| 3 %X2XOX$X0.3 4 o d h a A v -.k.-.! v 2 l l v l l -.-.x 2 Q -.-.Q -.z.k.! ^ z l i q C f.C - 4 | o.JXFX` 6 : % v ....$.3.b.b.V B =.;.l.l.+.| ..1.2.2.2.2.2.U N } |  .9.n.1XZ.1 5 +.+.Z.%X9.| @.5.c.5.5.l.j.B ..%.%.%.%.B x v ^ R & z n N N B %.2.l.2.2.2.2.3.3.<.,.<.2.$.} #.B N N v z l q z & & z W *.*.#.=...V V } | } } } | } } } B #.;.;.%.=.;.=.1.j.3.l.&.#.#.U #.B M %.;.#.V $.2.2.5.<.<.,.,.,.+.B B #.B B %.;.2.j.j.} B #.#.%.$.$.$.$.$.$.X.@.<.0.3.<.<.3.<.3.<.2.2.2.&.+.+.#.+.#.#.$.%.%.#.$.$.$...#.$.=.D z i c a W U N V =.;.$.2.B V V V $.A.M.| V #.2.3.3.3.3.3.c.&.V V ;.l.$.} 2.j.j.;.%.V M V B l.l.l.l.%.V N ! U I n n I N N N S Q *.=.......$.V v x z l l %.Z.:.) ) | +.N N z z S D } :.X.X.X.3.l.N v v Z v N v I N 2 V +.)  ._ _ _  . .@.y.@.,.Q   [ nXbX).4X .x u = f h a % q ^ W ^ ^ Q W z : & l S h.k.h.~ W n b n n b b n S ^ W ~ W z z v M +.+.$.&.v ; p % B %X=XbXkXlXkXkXlXyXyXyXyXyXaXeX&X.Xu.c.;.~ R E h p s g g g.g.t p r p T E # X X O @ 7 7 7 7 O 7 s s r 7 7 7 r r r r r r r r r r 7 7 r 7 @ # X O % 0 E d.% % % % + 0 # O O @ 7 7 7 @ @ @ @ O X @ d u 8 p 0 0 # @ @ ",
"@ O O @ 0 u 8 8 - # f i b & Q -.Z % 0 @ O 8 8 8 7 r t 7 O r s t r 7 7 r r r t r 7 7 7 r p 7 r r r e 7 7 r r r t r t t t t t 7 O C ^ z.C.V.}.I.U.*X0X8XyXyXyXyXyXyXyXyXyXaXbXvXUX< * x N : % W B.j.2.2.j.;.U Q n S ! h...D D b v 4 5 V | >.9.w.e.m.b.6.o i c * v v S S D -.S l c z.k.v M b.C.-.v S v v N N N N N S l q q w E f.T ; 4 ) o.GXGX5X5Xm q F l.l.3.0.v.0.v.,.V | | } 2.2.;.B V M V :.3.B < A.3Xm.9.v.M.V.1XA.5 | @. .1XFXZ.5 5 +.B V V B #.;.;.;.;...V N ^ n & m N Q -.k.%.#.$.2.$.....| :.3.3.c.c.3...+.&.&.B #.k.h.S z z v S Q %.=.2.1.2.2.3.3.3.j.M.b.b.b.b.l.;.$.;.2.$.2.2.1.1.j.1.;.%.#.#.B V B V l.C.j.B B } +.3.,.,.,.,.,.$.$.$.%.#.#.%.#.B #.&.&.$.%.=.=.;.;.2.2.$.,.3.<.<.0.<.,.,.:.:.:.:.,.,.&.%.%.%.+.#.#.%.%.%.#...$.1.:...| ..=.D v c n b n U V } j.c.3.5.l.&.2.5.,.j.c.:.,.,.3.3.4.<.3.3.3.,.} V B #.;.l.j.l.#.l V ;.=.M 3 2 2 +.j.V 2 W %.U N N N N N N Q Q #...$.j.x.c.j.l.h.x z W Q B 2 | b.b.c.2.U I 2 M j.b.c.b.v.M.M.b.2.V N 4 & & 2 V 5.5 . 9.5X5X5X4XpXpX$XOX1X2X2X5XZ.. ` nXbX<X4X| l i = u H p + % Z c v x z z W ~ ~ ^ S S S v b c b v n n n n v n S N ^ ^ c n l.c.b.,.2.;.z ; ;   @.FXiXyXtX[.].].'.yXyXyXqX(.~.!.K.e.>.;.n a C E a 0 t 8 8 g g 7 p 8 8 s E @ X O 7 r 7 7 7 r 7 r p r @ O @ 7 r 7 7 7 r r r r r r 7 7 r 7 @ 7 @ # # o a A + i % % % u # O O @ @ 7 7 @ @ @ O X X @ h p @ 0 + X @ @ @ ",
"+ O O # u r # # # % a q z q S h.b p 0 O 9 9 w r 9 t j 7 X r p y 7 r 7 e y r e r r 7 8 8 r 7 8 r 7 # 7 r r r r t t p p r p r X @ b ^ k.B.C.V.V.OX#X:X9XaXyXyXyXyXyXyXyXyXlXbXvXvX1 . & m * 2 :.b.b.l.j.#.k.! n W N Q -.*.Q n n m 4 M #.#.#.:.4.0.v.Z.j.2 2 4 x 2 v v F ! ! n c c z.z.G G S.S...d.A c v n B B M v S q a w C A d.C i 4 3 7.FXGXFX5X#.* ^ z.j.3.w.i.r.}.u. .)  . .4.j.k.W m N 5 >.t.5 1 V.5XZ.:.2.A.Z.1XZ.3 5 ,.| 1XJX@X) 5 Y I N N I N =.=.h.l.1.} V ! N 2 2 N ! -.6.#.U #.;.=.B =.} ..2.j.j.0.4.:.$.$.$.} } l.l.v l l v S *.=.&.&.2.3.,.<.3.j.b.M.M.b.b.b.l.2.=.$.1.$.1.3.1.j.j.1.%.+.&.&.V $.B V b.b.j.} } |  .,.2.5.$.,.,.:.,.$.2.=.#.B Q %.#.&.&.6.%.Q ;.&.$.2.&.;.2.3.<.>.>.>.:.2.3.2.:.:.,.$.+.&.&.&.+.$.2.B ^ ! ;.1.X.>.>.| | $.2.} V v i L N +.| | <.0.0.c.3.2.2.j.l.l.2.2.:.0.3.>.3.3.<.3.<.,.} V N N k.z.l.b.*.l N h.=.M 5 < < +.5.V l Z -.U V V V B N x B #.B V =.l.c.x.j.b.l.x & W -.v G =.b.j.j.j.D N 2 V ,.b.b.v.n.V.M.b.b.3 2 m : * . +.b.) 1 ' pX<X4XpXpXvX$XOX5X5X4XDXOX1 _ vXFX4X5X| < & i ; d d @ u n i v x v x L W ^ ^ R Z Z Z b n n n N S n v n v V N *.^ a v 5.m.0.c.2.~ s = . 1 [ vXiXaXyXtXtXtX[.tXyXtX8X7XT.+Xn.M.j.k.n c C T s r 7 @ 7 g p r 7 7 7 h H r O @ @ @ @ 7 7 @ 7 7 p s @ O 8 7 7 @ r r r - e r r r r r r @ O @ O 8 X + T C + # 0 u 0 # r @ X # O @ e @ @ @ O X X # p p 0 # + o O @ @ ",
"O X X $ # # + @ O + a i c l W d.d @ @ O 8 O O O O 9 t O X p s @ @ 7 7 7 e e e e r 7 8 r 8 @ 8 r r r r r r 8 r t p 7 O O s h @ O H T T W U #.2.v.w. X.XT.R.yXyXtX_.8X_._.'._.7X<X5XUX&.. 2.c.:.c...=.;.l z z i : v N S N N n n n ! N m m W -.$...1.4.:.$.=.4 : m c c v v S W R n n N 1.1...} v Z j a A Z v x M -.Q S Z q q A d.A % 4 V ) vXpX' @.3 * A ^ D ..9.#X+X:X$X%XOXn.q.x.j.*.v N l.c.i.r.n.9.m.V.| 5 B } | b.M.b.Z.5 3 @. .u.1Xb.M I N N R n ! ..*.j.=...=.;.;.;.%.V M %.%.U V V D *.D D ......=.j.l.3.:.$.$.$...$.b.j.G v S S v N %.%.B } } ..$.:.1.4.4.<.@.:.:.2.=.2.j.2.1.1.2.1.1.j.$.B %.b.b.2.,.......1.j.c.b.y.y.y.5.2.+.@.@.@.>.3.:.1.2.;.2.;.+.} B +.+.+.2.5.3.@.,.:.3.v.m.V.b.c.3.1.:.:.:.2.,.,.5.$.:.:.:.:.1.;.h.h.#...:.X.X.M.V.Z.Z.b.l.%.i : l.5.<.<.0.0.<.<.:.+.#.U } } ....| <.<.>.0.3.,.3.3.:.V V v N ^ ^ Q %.Q v D *.V 3 3 Z.A.5 4 l a R ^ %.V #.C.k.M Q B Q N N B #.} } } V B Q ! ! Q v V ..=.1.j.3...$.c.y.y.<.+.} | B B V 2 N W * z Q 5 6XFXpXpXuXpX>X' ' @.@.) 3 v.m.p.p.+X5X=X` ` $X3X| 2 4 % i E r 8 d k.~ ! N N x N m m m n n Z Z b b v v N Q ^ ~ ! ! *.D *.! b I b.V.@.| M L p   y.vXwX-X0X0X8XtXtXyXbXyXyXeXeX*X8.e.X.=.S R a d s g h g p @ @ r t p p r 7 p s r O p d p @ @ @ @ 7 7 s s @ O 8 r r 8 r @ @ - - $ O X X # p r 7 r 0 u O O d d # u # p # + + O X r @ @ @ @ @ @ O O X 8 u u 8 # + X O O @ ",
"+ O O + # # + $ o + a i i q S d.C 0 # X X $ O O O r r O X r H p O 7 @ 7 r r e r 7 7 r p 7 O @ r 7 r 7 7 7 r r r t 7 7 7 s g @ @ H H T L n U =.l.c.n.L.I.T.aXaX8X0XsX8X8X8X8X8XwXGXJX[ < v.Z.c...-.Q Q & % i c a z v N N N N v v ! S b n E / / %.#...4.l.j.z u f f f z z x I Q Q x 3 j.j.M z P u d 0 b R R n n 6.%.U N & & C f.T u z U +.UXUX) 5 2 & C A n V ,.1X2X2X2X3X1XV.0.j.j.Q l N A.m.|.U.L.n. Xm.@.| Y 5 ..c.c.Z.S.3 | | ) u.5Xm.| ..v ^ E T Q D U %.%.6.&.j.2.2.5.$.} } | V } V G B V V N v V D h.l.k.%.&.&.&.$.=.j.1.| l S ! Q S *.*.D ..} } ..$.2.2.<.@.@.>.2.;.;.-.-.;.%.&.2.;.,.2.&.B j.C.M.v.>.X.>.X.X.0.m.m.m.n.i.y.<. .7.7. . . . .X.X.1.1.X.| ....| >.>.>.@.@. .7.7.w.u.V.V.n.q.<.>.4.4.3.>.:.>.>.@.<.>.>.3.X.,.$.$.=.Q Q D $.M.@XOXOXn.c.=.v v b.y.y.v.y.v.c.j.$.#.B B } } | X. .>.>.@.<.<.3.3.l.=.D D v v W W L L I W S v l G 5 1X1X3 2 z p C F ! S k.D.z.v x n v S D F } } V D D D ..h.D V %...:.3.>.:.X. .o.m.n.c.2.} M v n q c c Z z l 4 5 ' rXHXbXGXvXpX4X) ) 5 U 2 2 j.b.q.7.Q.FX4X` 1 5X3XV 2 : & u T u + l k.h.Q V B B V 2 4 N v m v n n n m v v W ^ ^ ^ Q Q Q %.%.N Q C.b.$.B v c u . OXGXrX^.(.(.(._.eXaXGXbXvXiXpX+X7.0.$.! c h r p s t s h r O @ 8 7 s s r 7 7 8 7 7 s h p r 7 r 7 r r t t @ O 7 t r r 7 @ @ r - O O X X + r p r p p a + + d d 0 u # 8 @ O O O @ r r @ O @ @ O O @ @ # r # # # + X O O O ",
"o o o + = r # # # % a 0 i i W d.c + o   o = , , , , $ $ @ O k t O 7 @ @ r r r r 8 8 p r @ O O e 7 # r 7 7 r r 8 t t g p p p @ @ g h T R R W ! h.2.3.w.r.G.9XeX0X0X9X0X0X0X0X7X-XeXuX=X2Xe. .M.M.h.2 & q c d T b c v S S S S n v A A C Z P P I ~ &.$.c.M.l.z f y f P R m x N %.;.&.$.2.&.Q W K f P z n R R R v N B %.6.4 & n f.H # f m M +.+.+.&.l & Z ^ S v V ,. . .| | +.| | $.k.Q l V A.m.I.|. X X X}.>.5 V } | | } $.#.D =.1.>.>.m.x.1...l v v c N B I Y ( Y Q 5.5.,.<.0.0.y.V.m.@Xm.0.0.c.b.5.6.2.:.$.$.%.#.+.$.%.&.;.=.$.1.#.N N %.;.*...h.h.=.$.$.:.,.,.@.@.@.:.,.2.;.=.=.;.$.,.,.+.+.+.$.1.j.M.x.@X@XOXOXu.w.w.n.e.e.n.e.w.9.t.@X#XOX|. X}.m.m.m.n.n.m.m.t.9.m.@Xm.w.t.m.e.r.u.q.9.>.>.>.9. .9.q.m.m.m.n.9.9.t.>.m.%Xt.>.9.+.6.B N C.@Xm.}.r.r.7. .V l S c.0.0.0.:.X.$.} } #.%.;.2.4.0.0.0.v.v.t.t.v.t.c.j.j.h.-.S l N v L L I Q S z N l.v.1X3X5 & b T C S v n Z R d.d.S S Z ! k.h.j.j.;.*.;.=.} ..2.$.V 1 :.V.m.m.@X}.}. .| } } D Z C h C d C z 2 B V 1X<XeXbX!.H.a.a.5.3 4 v n l & M V +.y.t.%X+X8.' 7.<.4 & % d p p C * l k.h.B V $.$.3.2.j.l.#.x m L n n v v v n L m m m n N #.#.} } j.h.N v z z z < L.GXiXaXaXaXqXyXaX&XG.' ` 7.m.t.X.=.Q E d K y s t 7 t h r O @ 7 @ p p 7 r 7 7 p s r @ 7 p s p r t r r @ O O 7 r 7 r r r r @ O X X u d 0 X + 8 O @ # + + d d u u # # @ + O O # p r @ X @ - @ @ # @ # # @ @ @ O X O O O ",
"o O o + # r = # # # i i a i ^ d.c o   * & .   . .       % 0 j 9 9 8 @ @ r r 8 t p p 8 8 7 @ O O @ # r r r r r 7 t p h g p p @ O H J H T C C R ~ -.l.c.w.7.:XuX,X9X9X9X9X9X9X7X~.^.~.bXJXp.1 @.S.=.* * v Z C C C C C C b n R E E g.g.A S N x U %.5.} 3.Z.b.z d d i R ~ N x B -.6.;.j.;.#.Q I ; f z n E n b Z v M 5 5.A.4 . n f.j p n R W     -.k.x * S h.F v x 2 2 2 2 2 2 5 U ;.k.Q x U A.V.m.i. X X X Xw.) ) | ) 3 G 2 l -.h.j.0.x.c.j.2.} l . 2 3 G B #.I L L +.&.5.<.9.u.}.#X#X;X2X#XL.P.OXQ.p.p.a.7._ _ | | | } #.;.2.=.2.l.C.+.3 +.5.2.2.j.2.2.2.3.3.,.@.+.3.4.4.,.:.>.>.>.@.@.@.@.@.@.@.3.x.w.O.w.#X2X:X:Xp.w.t.n.v.x.v.x.u.r.L.:X4X:X$X#X#X#XOX@XOXQ.%X+XL.K.+X:X#Xm.m.OX}.}.m.q.@. . .7.7.' ' 8.OX%X%XOXu.w.w.7.%X5XQ.7.@.[ +.< V 1X1X XK.O.7.@.} M l F b.x.b.c.X.....} #.%.2.l.b.v.v.M.b.b.A.M.m.n.n.t.3.j.h.h.D x M x 4 5 V #.N 2 #.Z.OX$X2X` . * i i 4 2 4 m z L -.-.N v #.j.j.c.b.c.v.@.+.| | y.b.3 < | V.@X%X3X3X3X} V v Z ^ g.h p p b * . 1 _ _ vXGXiXiXQ._ @.B 4 : i z m 4 & 2 2 5 c.y.a.p.P.7.1 1 < 4 # r p a c & l k.h.D V #.X.V.M.M.M.$.5 4 m n Z Z n n b z a f i : m N } X.X...! c & z m 2 . K.GXbXaXbXbXaXbXGXL._ 3 5 V =.=.-.! n d s K y k @ O r H p @ @ O O 7 7 @ r 7 7 s H @ X 7 H H p r s r @ X X O @ r r r r r r X   + o i R i o + 0 O X + X + d d u u + + @ # + O + # r @ @ r p = # r # # + @ + + @ X O O O ",
"i i d i u = # # + + u i a 0 a b a u z 2 V A.y.t.u.V.A.2 . * j 0 + 8 @ @ 8 r 8 t p p 8 8 7 7 @ O O @ r # r t t 8 @ r H h r r r r g g J J H T E f.d.k.l.3.7.m..X.XoX.X+XT.T.!.-XwXwXeX<X<X+X$Xa.y.$.2 v Z Z C C C d C C C n n b b A E A S M 2 5.A.5.$.:.j.-.z C d a n S v x N I n N N Q D v z f f f b n z N k.;.%.+.} #.2 & z E d % i d b a c R ~ l * N h.S v S c b R L z m x N N %.N v N 6.,.b.m.u.m. X Xi.w.7.>.q.9.3.;.z.S ! D } | 5 ,.A.c.5.:.9.9.| V B B W ^ Q #.&.@.>.}.+X8.] =XiXwXW.!.&XW.!.W.U.P.P.}.n.q.,.#.#.;.$.} } &.,.@.@.@.<.<.<.<.0.0.<.0.0.y.y.v.c.x.b.M.m.m.i.i.p.L.p.p.e.9.9.q.n. X.X|..X+XQ.OXp.a.t.u.v.v.v.v.u.w.8.OX+XI.I.L.L.i.8.r.7.a.%X+X+XU.U.I.i.u.y.@.y.0.9.<.<.9.w.e.p.P.+X+XOXP.i.r.}.r.r.p.+X#XL.8.Q.%XOX` _ #X#X;X;Xi.9.+.U S v F ..:.2.2.$...$.$.} } #.&.2.3.x.c.j.h.2.>.>.w.n.v.b.l.B V *.;.2.<.<.@.0.y.$.5 | V.OX|.OXm.%X%.* Q &.V 4 4 ^ W m N Q D $.1.>.:.,.@.7.}.V.s.V.@.) y.Z.y.t.9.>.@.@.,.M N Z v A C E E C n B 1X$X:X=X+X=XQ.OX@.| Q v C a p p i i z m m N 6.<.t.L.#X$X$X1X5 & i = 8 j w * 2 ! Q Q #.5.c.>. .w.n.3.+.U 4 n b b c c a c b T f ; z N $.x.x.2.^ z : I Y l.%X;X*X*X!.&XP.Q.:X5X .2 * % 0 c c v c u s J J y 8 7 @ 7 p p 7 7 @ @ @ O O 7 7 r p h r 7 s H s r 7 g p O X O O @ r r r 7 r r X X C R Z Z i o % b C d a 0 0 u p u u + O @ # + + + O # @ @ 8 r # # # # # @ @ @ @ @ X O O O ",
"C R E C u 8 # @ # @ p 0 u + + @ e K ^ x ,.SXDXpXpXDXFX@.. o % @ O @ @ @ r r 8 t 8 0 8 8 7 r @ O O # # @ 7 t p t O 8 J g @ 7 r s 9 t g H J J J E f.k.h.l.c.q.7.L.XX XP.H.Y.!.<XuXwX>X' ` +XFXW._ #.l Z c b b C a i b Z Z n v v v v S l M 2 3 v.1X0.>.#.M v i C q c v c c c b b i c % Z Z v c b a c a z l #.b.b.2.2.2 2 2 z i m z i C C 0 0 a c h.2 2 G ..V M S S R ^ ^ L I N N V V V N M 5 V c.b.m.i.}.L.p.m.}.}.I.|.OX@XS.m * & < . . @.%X$X%X#X:X#X>.G } B B F *.D #.|  .#X#X] ` *XGXeX~.~.~.~.*X*X&X;X;X#X Xe.X.3 3 B G 2 < < < ) @. ._ _ _ _ 7._  . .>.9.9.<.3.y.M.@X%X%X#X+X;X&X+X.X.Xi.w.r. X#X4X:XP.K.r.L.i.i.u.w.t.a.a.a.9.7. .e.i.u.i.m.m.e.>.w. .q.$X$X;X;XL.7.9.v.y.:.&.+.@.>.w.i.L.P.+X>XuX4X+XK.r.8.#X.X#X+X.XP.U.U.,XpX:X` ` I.|.:X2XXXc.%.N n b v x V B B } | 5 V } } } +.+.+.+.$.=...| | ) 7.u.v.b.l.G G 2.b.V.OX+X+X@X@Xv.@.7.i.L.{ { :XFXu.1 ,.@X9.3 2 I P f b Q =.X.| | ` ` ` ' :X:X$X6X[ < V.5X@Xw. .1 < < < 2 l x x l v D ..#.< @.FXFXvXpXH.a.@.+.5 l v w j j j p p p h P P v N +.v.m.$X5XFXJX+.* f p 7 p 8 0 & R Z ! k.b.Z.) 3 X.v.b.l.6.v z a u f i i d P R f = f L ;.M.M.c.%.* . +.5.3XJX4X] { a. .< 1 @.n.< .   O 7 9 O o o   # s h p w p r @ @ 7 r r r @ X O @ @ 7 r r p p s h s p 7 @ p r O X O O @ r 7 r 7 7 r O 0 ~ k.^ S z * i ^ ^ E T d p p p u 8 8 O + 0 + # # O + @ # # # @ + + # @ @ @ @ @ @ @ O O O ",
"u b T d u # # # # + u # u + 0 # y y h m } %X}.|..X#X5X .3 B n i O @ O O e r r t 8 8 p 8 r r e @ @ # # @ 7 t p p p t g p 7 p p r k k k g g g J g.T f.d.! ;.b.v.m.XX X|..XU.&X:X;X>X:Xr.o.:XuXW.a.$.z b c C b b b b b v x x B =.j.l.;.2 V V G x.Z.x.X.V W ^ u a a a C C a b C T C d b A C c c l c j c n V } 2.=.=.*.S F c q q n i i i a a A c A x V B } $.=.....! ^ ^ R b v v v N N M N N V V l.:.@. .L.OXOXOXI..X.X.X|.n.5.4 . 6.Z.V.s.y.p.p.a.OX.X+X9.>.v.M.x.j.j.D 2.3.@.OX:X8.] wXbXeX7X7X7X7X~.*X&X&X;X;X+X+XOXw.t.@XOXOXOXQ.OX$X:X=X=X=X=X!.=X=X=X:X2X$XOXm.m.p.p.m.m.m.m.P.L.I.I..X;X+X|.|.I.I.+X+XP.+XL.L.i.m.u.e.u.r.8.a.n.x.w.n.m.u.n.n.n.v.w.q.w.w.@X}. X|.u.9.v.M.v.c.c.c.y.u.i.I.|.+XU.;X;X&X.X.X.X|..X.X.X.X.X.X&XU..X>X>X] { <X#Xp.n.>.2.%.N U +.%.,.<.<.9.t.u.t.t.w.w.y.t.t.t.y.y.y.9.9.w.7.9.t.3.2.k.x V c.n.p.|..X.Xn.u.q.9.9.i.L.+X+X;X;Xi.9.9.w.>.9.2.v m L m l.M.m.m.OX@XOXOXU.+XU.L.p.a.9.m.@Xi.e.w.X.>.>.>.<.,.$.:.j.c.3.| 3.<.9.@XOXOXQ.a.5.U U S l l A j j j p p d T d P W N #.3.0.V.}.$X3X+.& % u r p r u i R n ~ -.=.j...G } =.*.-.! 4 c i s d d i a n R d ; K L #.M.b.@.5.4 . y.V.OX@Xi._ @.,.V M < 5.A.< % X 7 7 9 9 C i o X p p a a 8 p 7 O r t 7 @ @ X X 7 @ 7 t r r s s p p p r @ 7 7 O X O O O p 7 y e @ 7 O % R S S Q v & c W c C d p 0 u u u p p + + u # u p + 0 u p 0 # # # @ + @ @ @ @ @ @ @ O O @ ",
"+ a d u # + @ @ + # u u + O u E p t p c v N V V | <.<.m.V.y.y.+.; r O X e - e r t r 8 8 8 r r r - # O O @ r s g g.s 7 O 7 r 7 s t g g 8 8 s g E J E E Z N C.Z.m.m. XL.+XuX&XG.K.K.K.8.o.&XuX9X>XA.* z z b b Z c b n & x 2 #.3X%X1X@X< < %.l.j.1.1...D W T f = p s d d d d d C C c d i b i c q c a a W k.#.B G *.! d.E a w a c % % i b a A l l 2 h.2.5.5.l.l.l.l.j.v x v c n n f Z z v l k.h.x G 5 < u.2X#X;X:X;X:X:X#X) 5 2 . 3XJXGXJX4X' [ @.@.OX XOX#X#X5XXXv.c...3.M.m.OX$X;X=XvXGXbXbXbXaXaX-X:X>X*X>X-X=X=X*X>XuXbXbXnXbXnXHXHXHXnXbXbXbXnXbXnXbXbXHXHX!.H.W.Q.a.' 7.w.9.<.9.w.7.#X4X>X>X=XI.H.K.8.W.P.P.}.e.m.n.n.n.n.e.n.n.M.q.m.n.m.u.m.n.u.t.w.w.w.7.@.4.1.=.2.M.@XXX@X@XXX XL.I.:X>X+XW.W.U.U.+X+X+X+X.X.X.X+X+XW.U.U..X+X+XuX4X4X5X_ 6 3 5 5 3 1 7.a.+X+X.XG.,X>X,X,X,X,X>XwX>X+XU.U.Q.I.H.I.p.7.<.V G l l V M.@XOXOX.XXXq.| :.b.V.m.OX2X:X+X+X#X%Xm.1 x.SX3X2 V 2 3 %X4X4X<XvXvXvXGXpX_ w.o.o.$XDXn.o.7.w.m.#X$X$X$X$X$X$X$X$X2XOX .n.3X@X< < < 4 Y k.z & l l l l l q c 0 i a d n n n S B j.:.| | v.A.2 . q % p r p H d i z ~ *.x 2 *.z.N & c i c a q C p d a Z v S ^ R d d i v b.M.:.| 2 . %XvX@.< < < . * 0 + * =.5..   o @ O 9 a D.z.o   X X a A 8 t 7 O 7 7 O 7 @ O O 7 7 7 8 7 @ p H r X O s p X X X X X X @ 7 7 y 8 X @ p a & * ! k.S l z i i u p u p u u u u u 0 + + u C T a d d a u u 0 @ O # @ + + @ @ @ @ X X O ",
"+ p a u + + @ @ + @ 0 u u u p d p p p d b R R n I 5.5.y.y.t.i.@.. = $ @ - O e e r r t 8 7 7 7 7 # @ @ # r p s s h r 8 8 p s @ r t t t r p H J J g.E E ^ W l.l.b.m.}.p.P.:X&X&XU.&X,X.X.X;X>X&X#Xl.2 v x v z n c n m v x 2 | A.m.$XOX_ +.+.+.%.*.*.! S R n ; = d i i d d d n n W z z W n v Q l v z c W ~ N D D S S R A a a h h d # ; a i S v v l =.&.&.,.&.;.j.j.;.$.D v v n d T d c v N -.D x v B V c.@Xm.OX}.}.|.}.u.@.+.2 < A.5X4XuX+X7.a.y.y.}..X.XU..X>X.X}.t.0.0.u.m.u.p.p.Q.:X<X>X>X>X,X;XQ.p.L.H.U.U.&X-X-XR.7XaXrXyXyXyXrXrXrXrXyXyXyXyXyXyXrXmXiXiX^.^.^.^.!.W.Q.u.t.v.v.n.w.}.+X;X:X+Xa.p.I.L.I.L.L.}.q.n.v.n.n.x.v.q.0.0.0.t.t.t.9.y.9.9.<.<.@.@.@.@.=.h.;.=.3.v.n.m.r.i.}.L.r.+X#XOX+X+XW.U.U.U..XP.+X+X|.P.P.P.U..XOXm.}..X|.OX%X@.5 5.V.a.Q.W.W.W.>X-X!.R.wXeX9X7X7X7X8XeXeX7X7X7X-X^.!.=X=X+XOXy.G #.B V c.y.9.9.0.x.1.#.=.2.l.c.n.@X X}.L.m.m.y.} j.S.C.2 M B 3 }.#X+XW.=X=X=X6X%X .9.0.w.XX$Xn.w.0.9.q.m. Xm.m.}.i.}.}.}.OXm. .>.Z.b.3 B W R ^ E n v v M G V N N W v m v v B D ! F Q %.$.@.+.5.c.5 2 l & i u f p d z n *.-.D v S ~ C C C u a a b Z c C c v l F D S n Z c S j.j.$.+.x < %XFX9.< < & ; = t O * h.b.5 2 & i 0 + q ^ W   o a 0 a w p p r 7 7 7 @ 7 O X O @ 7 7 7 r r r s t @ 7 t r X X O @ X X 8 r 7 r 7 @ # u i q * ! k.Q S c i i u u u 0 8 0 u u 0 # + + 0 a d a d a u u 0 # @ + + + @ # # # @ @ X O O ",
"O # u # @ @ @ @ @ + @ 8 d C d u p p p p a h c c l ;.l.b.n.OX$Xm.4 z X $ $ $ r @ e r t t 7 @ 8 8 # O @ r g s p p r 7 7 t h s O X 8 8 r r h E J E g.J T E R Q U 5.v.u.9.a.p.+XvXvXvXvXpXpX:X#Xo.| 3.$.#.V v M v v z z.S.6.< < < 1 P.+X:X$X) < & z c b Z S v * . & & & & * * * 2 2 2 M l.l.l.c.| G 3 & z n n b Z Z z z c a d j g g f f n v ! D D B V V Y V M V V V } l.j.N v n u d P n & 4 x v W ~ k.h.F G l 2 2 V 5 ) | j.6.& . 2 1 _ s.OX;X+X+XU.U.oXU.U.&X=XH.{ r.m.m.t.9.) 1 ) 1 1 1 1 1 ` ) ) 3 G ) 1 1 ` 8.:X>X,X>X~.!.^.^.^.^.~.~.~.~.~.~.~.R.~.!.~.!.!.wXiXtXtXiXiXuX+XL.OXOXOX}.7.' 8.I.p.m.m.m.}.m.m.m.m.>. .| X.| 3 ) 3 5 5 5 3 6 1 3 6 ) V V B } } | | B B B B | +.) ) [ ` ) @.| 3.3.m.+X+XU..X+X+X.X.X+X.X.X+X+X+X+X#X0.V 5 ) | | ) 6 1 :XHXGXGXbXbXbX).qXqXeXbXbXbXbXbXaXlXbXbXbXbXbXbXbXbXbXGXGXvX6X` @.| 3 M 2 G l l z v v c & 2 B | X. . .| | $.} V N n z 4 v l.l...:.|  .) 1 < < 3 <.3.3.>.,.3.:.4.4.:.:.:.+.|  .| |  . . .@.@.| | <.| < 2 l & l 2 M V V | ,.c.b.5.5.5.l.b.c.b.b.k.*.k.=.2.5.$.| ..M V 2 * % % % % b S D *.*.D Q b i u r r d d i * & * 2 2 2 2 M B V 4 4 & z Q Q U Q n . $XJXt.. * o @ - 8 O l C.@X@.) $.l.M     . .   o R T 0 O d s j p 7 @ @ O O X X @ 7 7 8 8 r O O @ @ 7 p p X X @ @ O O @ 8 r r 7 8 8 8 % * o S ^ ! h.Z 0 i 0 # + + + @ 0 u + + + + + 0 i a a u u 8 # # @ @ + @ # # 8 # @ @ O O + ",
"X @ @ + + # # + @ @ @ 8 d T d p p p r r r 8 w a v *.l.j.0.OX$Xu.< x   o + X r y e r t r 7 8 8 7 8 X O s H s t t 8 7 8 t g p O X 7 7 7 # d E J E J g.E T R R N 6.&.5.5.y.u.OX5X<XuXuX<X5X@X@X4.} } l.&.V M N N v z k.D.&.5 3 1 _ I.W.:X:X_ ) 2 b d C Z S B M 3 3 3 3 M V 5 5 V | | +.5.+.c.0.>. .) 5 5 4 W b b c m m m n n h h H f : z z *.*.$.#.U U U Y Y U } } } l.l.B v W n n z V } +.3 V N I h.h.F v Z b i v V G G l.k.l & 2 6 +.b.u.}.K.&XoXT.T.U.T.-X*X!.U.U.U.U.P.H.' _ 7.a._ _ @.X.9.0.X.V #.B ) @.' P.4X&X&X&X,X*X-X*X-X*X*X*X*X*X*X*X*X0X0X*X*X!.~.9XiX8X8XeXiXwX&XU.&X+X.X+Xp.7.p.i.@Xv.b.v.n.n.M.m.M.0.| <.V.y.7.7.[ 7.@.7.[ 7.7.a.@.@.@.@.@.@.X. .@.,.&. ._ ) ) [ [ @._ @. .+.2.2.M.}.P.P.P.P.OX|.}.}.}.}.|.|.}.}.V.l.N B B } X.3 9.` :XGXaXbXbXbXbXqX8X8XqXaXaXlXlXyXyXyXyXyXaXyXyXyXvXvXiXvXbXvX<X] p.7.@.3 l A c h f C R n z c *.=.1.1...D Q *.*.k.~ P d c v h.j.=.V 3.n.7. . .+.+.,.,.&.&.&.-.%.2.j.;.=.%.! Q %.%.%.&.$.+.+.&.2.<.<.| | | X.X.X.5  .@. .7.9.9.y.5.5.,.5.2.:.c.x.l.D k.%.=.&.#.V B } ..V x v v z z Z Q ....D D Q v i f f > : : I 5 ) 5 5 ) ) ) | @. .| V M V U I N W b . $XJXt.. % X X O @ X l b.Z.t.q.q.m.:.3 2 . * 2 & W ^ u @ p p d h r 7 @ X X X O @ 8 7 @ @ 7 O O @ 7 r p r X X @ 8 O X O @ 8 8 @ # 8 u % * o c n ^ z.R + i % # + + + + 0 u # # + + + + 0 a u u 0 # # # # # @ @ # # 8 # @ @ O O o ",
"X O O @ @ # 8 @ + 8 u p a d d i 0 + + 0 0 8 p E ^ -.*... .q.}.m.V.b.< . o + O O e r r r 8 8 8 7 r X X p H s r t t t s p s p O O @ @ @ X r d h E J g.T @ + o   * * o & 2 3.@.1 < 7.@.6 < 2 2 q o x 6.-.v N -.h.! Q N M 2.@X@XOX@X$X+X.X.X X1X=.l b R n v =.b.M.M.b.M.b.b.b.v.v.v.Z.b.5 3 <.v.2X5X5X5XV.6 V N I v N x M N n b d d n m N V l.l.b.c.5.5.5.5.5.5.3.3.3.3.c.} G h.z.l.3.1XFXFXOXm.) 5 V M V V v n n m N l V j.k.x 2 } ..+.,.) ) _ >X>X9X9X*X*X*X~.eXbXeX(.).eXaXaXaXiXvX-XW.+X+X$X:X$XZ.b.1 1 +X<X>XwXU.` ] >X,X,X;X+X=X&X&X*X*X*X*X*X*X*X*X!.*X-X&X*X0X0X0X0X0X~.0XeXiX9X>X;XOXi.) 3 V B } } | | | | ) ` OX5XvXnXnXnXnXbXnXbXnXbXbXpXW.+X#X#X#X#XXX#Xa.s.Q.+X+X+X;X:X>X4X2X .3 5 } | | ) ) ) ` ` ` 6 ) ` ` 3 ` ) | +.U x B } | q.w.5X4X>X9X7X).).).).8X8XqXqX!.F.!.^.^.^.~.).).qX).E.J.J.H.J.!.!.^.7XvXiX<X2X) V F A n m N B B B Q ;.*...*.D c Z W S A A a d z x 4 5 5 1 %XFXaXaXaXDX5X) 6 4 Y m m m z x v l z i p s a a i z z 4 2 V ,.y.q.m.XX2X2X2X:X2X2X2X:XOX9.@.+.5 3 G 2 G k.b.h.M B V V V B #.*.-.-.;.h.l.l.j.N S ! #.D B } #.U M M Y 5 < V 3X2X<X>X:X:X:X:X:X:X:X:X#XOXy.@.( I R i . $XGXy.  + @ @ @ @ X   l < A.1X@X#X$X%XA.#.%.h.Q ~ d.a s @ @ p h p p 8 X X X O @ 7 @ O X O r s g s p 8 X X X 7 8 O X O + X O X X # d f % o i q W k.R + u u u u 0 0 u u u u u + + % + + a u u 0 0 8 8 # # # # # # # # @ + o o o ",
"X O O O @ @ @ @ 8 p a d d a u 0 % + @ r 8 O 8 C R ^ Q #.$.0.n.m.m.t.1 < . % O $ r e r r r r 8 7 r X O p h s r r t p g s s r X O 7 @ @ X @ s h E f.f.E O X X     + X o * b.3.. < &.+.4   & * l l I Q ! n N k.k.-.~ N 2 l.@X@X$X}.m.m. XXX@X@X1.3 M S v x #.l.b.b.b.b.b.b.c.y.n.n.1XZ.1 3 3.v.5X5X5X5XOX_  .5 V B Y B B B B V M N N V B } 3.0.c.c.5.5.5.5.5.y.0.0.y.<.0.X.} j.l.j. .OXGXpX&X+X_ ` [ ) ) ) 3 1 5 3 3 3 | <.y.) 1  . .| @.| 1 @.5X:X>X,X9X7X-X~.eXaXtX~.(.qXtXyXaXaXbX9X!.W.W.+X=X$X@Xt.` ` =XiXrXiX!.] ' ;X;X;X$X:X;X&X&X&X&X&X&X*X*X*X7X-X&X*X*X>X*X-X*X*X0X0X8XeXeX*X*X=X#Xi.` | 5 5 3 3 >. . ._ _ ` W.iXvXbXkXkXbXkXbXbXkXnXnXlX^.^.=X*X*X&X&X&XQ.W.U.W.;X+X;X;X:X2X;X7._ _ [ ` _ _ _ _ [ ` ` ` ` [ [ ) [ @.@.) | 5 |  . .i.i.:X4X;X&X-X9X~.8X8X7XeXwXwXW.H.W.!.*X-X-X*X-XwX-XJ.J.U.W.U.U.U.W.-XbXiXrXwX' | } D +.+.+.@.@.:.:.} ;.Q ! Z c R ^ W F F v v x 5 5 ) [ ` #XpXpXaXaXpX5XV Y Y L m n v x v v v v c i d a c c c n v M B :.0.e. XXX2X>X>X>X:X=X:X$XOX9.@.@.| B V x v k.z.*.B B } } M B Q ! ! ^ -.;.l.M.c.D S Q Q B U +.V | @.) ` ` ` [ :X-X>X>X-X>X:X:X:X:X:X2X#XOXu.+.Y U n i . :XGXy.. + 8 8 + 8 % o * * C.1X@X#X#X@Xy.+.6.l.h.h.d.b T 7 @ 8 p p p 8 O X X O @ @ @ O X X t g p p r @ X X O 7 8 + X O + o o X   + f f # o % & n d.C % u p p u p u u u u a d 0 + % + + 0 0 0 0 u u u 8 # 8 # # @ # @ @ + o o o ",
"X X O O O O O @ C a p p a p 0 # - - - @ $ O @ # ; T ~ Q %.%.#.3.w. X3X1X3 . X # r e r r 8 8 7 # 7 O @ p h s t r 8 r p t p r X X @ O O X # d H E s O 7 X X O + + + + * V 1Xb.. * * * @ O i * %.C.-.2 M x V D ! N n N x V 3 @.@Xn.3 | j.,.| G :.c.2.j.%.N v x 2 2 4 x v V } >.x.m.1X@X2 2 I N #.| 8.H.W.uX4XOXu.9.<.2.2.2.2.3.<.>.j.j.c.3.v.t.t.v.x.x.x.x.0.0.q.w.9.>.0.j.=.#.N V ) a.uX9X9XeX<X<X<XwXuXiXuX<X:X=X:X=X=X=X:X=X+X:X:X$X:Xm.`  .@Xt.@._ +X,X-X*X~.-X>X*X*X-X*X~.*X*X*X!.W.&X+XQ.8.7.7.w.:X<XvXlXlXbXbXbXwXH.I.a.7.p.p.r.K.U.W.!.~.^.aXaXaXiXF.F.U.,X&X=X*X*X*X*X~.~.0X*X*X&X+XL.w.OX$X+XW.W.bXbXbXbXbXlXbXbXaX7X).).7X7X).).).lXnXbXbXbXbXbXbXkXkXbXbXvXQ.' r.m.m.v.n.t.OXvXGXbXbXmXmXvXvXvXvXvXvXvXvXvXvXvXvXvX<XW.;X#X+XOX+X;X+X8.7._ ` }.uX-X8X(.9X;X' ' K.Q..XI..XU.U.I.I..XOXI.H.=X4X|.e.m.p.I.H.J.iXbXwX<X$X+X+X+X+X+X+X#XOX9.&.m m c z S W N B ,.@.>.w.p.5X2X#XOX@.` ) ) _ @.#.2 U M v N D B B B B B #.#.B #.#.$.#.=.l.l.j.c.v.v.q.e.8.I.I.I.L.r.7.y.y.y.j.3.c.3.j.j.V l z * B l.2.3.2.$...l c c z v V X.n.4...S W W I Y V 6 1XFXpXuXpXpX<X!..XU.P.P.}.@.@.@.X.X.>.X.j.j.W ^ I n & . :XGXa.. + 9 9 O 8 p u f y b G  .r.r.u.b.B #.-.=.j.h.n P d p 8 8 8 @ O X X X X O @ @ @ O O 7 @ O @ @ O 7 O O @ 8 + X O o o o X o $ # # $ + % 0 a R d 0 a u p p u 0 8 0 0 d R a + % + + 0 0 8 8 8 8 8 8 8 8 8 # # # + + o o o o ",
"X X X O X X O @ f.h @ # p a u # O - - $ $ - - $ o R ~ I ! ! W j.0.e.5X5X1 . * X # r r r 7 @ @ @ 7 @ @ p h s t r 8 8 t 7 r r O O X X X X 8 h H E T X O O @ X X o O +   B 3Xb..   + r 7 7 %   :.3Xc.. 3 V B N W Z W z v N 3 2.Z.b.2 2 j.;.V < ,.b.c.0.$.V 2 * * 2 m m m v B X.n.m.1X@X3 & m P z 3  .8.;XGXpX=X+X7.7.w.q.w.w.e.r.e.x.x.v.0.v.0.c.v.v.x.x.c.x.0.0.9.0.0.j.l.l.D 2 V 6 7.:X>X<XuXpXvXvXvXvXvXvX<X=X<X>X7X-X>X=X=X>X=X:X:X4X|.`  .m.n._ _ ;X>X-X-X-X*X=X:X;X;X:X;X;X;X;X;X#X#X$Xm.@. . ._ 5XGXbXbXlXbXbXbXvX{ Q.a.a.p.a.a.8.I.W.+X=X=XvXvXiXGXG.{ ;X:X:X:X:X:X:X:X-X-X*X>X*X&X#X|.e.OX:X=X^.^.nXbXkXbXbXbXbXGXaX0X8X0X0X7X7X7X(.bXnXnXnXnXnXnXxXxXxXxXnXGXW._ 8.m.n.>.3.<.a.FXbXbXkXlXvXbXbXnXnXnXnXnXbXnXnXbXnXnXrX!.!.!.~.!.^.-X<X{ 7.@.3 n.5X2XuXuX4X2X_ ` i.OXL.|. XL. X|. Xi.i.L.I.:X4X}.w.v.w.p.8.H.bXaXbXuX:X&X*X~.!.*X*X*XW.a.9.< < 2 4 I I U 5 a.8.8.I.8.DX5X$X5X) < ) 5 5 5 3 } V V | | 3 | ) ) ) ) X.>.@.>.@.:.X.:.c.b.c.M.c.c.y.t.u.p.p.p.}.w.9.<.$.;.l.1.j.j.j.l.Q v m   M A.>.>.7.9.@.< < < < 3 1  .m.0.#.W I U V 5 3 < 3XFXFXDXvXGXiXU.+X X}.@XZ.+.V B ..| X.X.x.l.L T L L : . ;XGXa.. o O 9 % * & % f K d 2 X.m.y.y.6.-.-.! h.z.k.R d C h 8 X O X X O X X X X O @ 8 8 O O X X 7 O X @ O O + % . . . . . . . . . .   o , % & q c a u p p p u u % % % 0 C ^ C # 8 # + 0 u 8 # # # 0 0 0 8 8 r r # # o   . . . ",
"O o o o o X X O d d p p r = # # + @ @ $ $ X $ b n B V =.l.-.W v . | 1X:XOX$X<   # e r 8 8 @ @ @ @ X O p H p r t 7 7 7 7 @ O O O X O p p p T h @ @ X @ E T h E +   * . x Z.j.  + p t 8 O #    .$X X7.@.3 x W T T b R W v x N Q *.V F V V ..2.0.y.v.V.t.V.m.t.m.) N Q Q Q 2.j.0.x.n.M.V v m f b z M | w.}.+X4X<X=X>X,X&X&X&X+X+XOX}.n.9.c.} *.N D D V V B V 5 V +.$.$.;.B M N 5 +.A.)  .@. .@.,.&.,.@.@.@.7.a.p.I.U.>X>XG.G.U.+X.X+XP.8.OX#XOX+X+X+X=X-X-X*X-X-X*X=Xp.p.a.9.9.9.>.9.9.9.<.@.$.+.+.+.+._ _ =X>X9X~.~.7X9XvXuXP.L.L.s.a.I.L.r.w.@.@.7.7.8.r.}.}.w.o.9.>.@.@.@.@.7.7._ :X2X+X#X}.w.a.` Q.vXvXyXyXqX7XwX9XwXuX9X7X0X7X7X7X7X7X7X7X8XwXwXwX7X7XrX].].].rXwXwX<X<XW.+Xe.n.>.w.:X<XwX^.7X-X-X-X-X-X^.Q.W.&X!.*XJ.rXbXkXlXlXbXlXlXlXlXlXiXvX$Xq.>.| X.>.X.>. .n.q.m.}.L.P.i.}.L.i.i.i.i.L.L.}. Xe.n.m.u.u.r.r.I.P.K.8.#X>XwXrXeXeXeXyXeXrXpX:X5X[ < 5 4 A.pXwXiXeXpXpX` +.+.3 OX5XOXp.m.y.v.V.u.i.i.4X4X4X<X>X4X#Xr.a.w.9.<.3.@.y.3.} ..3 V B B +.| V.i.n. Xe.>.,.2.;.V V ..x S ~ z S v * +.9.OXpX4XuX<X<X<XwX9X>XuXi.) } N v M 5 y.%X5X2Xi._ e.m.r.r.{ 7.9.9.4.3.2.$.+.&.@.7.$X+XOX@X,.Y W f : . :XGXa.. * # : 2 2 Z.Z.2 & c & l N 4 * % % + + % 0 i c C 8 O 8 p # X o o X 0 p X @ X @ @ @ 8 a # O X @ X O   ;   @X4X+XW.<X<X4X<X4X5XSX6   6.C.l 2 * O e $ - O a n z R z b c u r - r 0 % # # # = ; 0 0 0 8 @ X $ $ X   < OX:X;X",
"X o o + + + @ @ g g s p r # + + 0 8 @ $ - X o W I Q ..;.k.h.^ n   3 m.OX:X5X5   # e r p 8 + O @ @ O @ p s p t t 7 8 r 7 O O O O O X p h h T p O @ X @ f.f.E f.0     . 3 b.l.o X @ 8 0 + #   3.2X#X:XV.5 4 P P h P n n v v v n Z S v 2 2 =.b.c.<.m.%XOXOXOX$X@X_ | } $.} ..,.:.3.b.b.V v i i d c z M :.m.+X4X4XuXpX<X>X9X,X,X=X+X+X|.9.<.*.S l v v x 3 3 < < < 6 3 %.} V V < < $.S.<.5 5 5 M V M 3 3 2 3 @.y.w.a.@X5X4Xr.i.#X#X@X#Xm.7.OX5X5X4X4X4X<X>X>X>X>X>X:X$XV.t.| +.,.:.0.@. ._ ) ) ` 6 6 6 ) 1 1 OX;X.X&X&X!.=XGXFX+Xi.OXOXQ.P.L.u.4.} B _ _ ' 7.m.m.o.` _ ` ` ) ) ) ` ` _ 2X4X:X#Xm.n.u.` =XHXbXyXqX7X7X-X>X,X,X-X7X7X7X7X7X7X7X7X7X7X9X-X-X-X-X7X^.^.^.-X7XaXbXbX!.U.L.u.w.w.#X#X&X~.!.!.&X~.R.~.!.H.H.H.U.Y.H.pXHXnXnXHXbXbXbXbXbXbXbXGX4X}.>.3 2 3 2 G ) b.V.@X@Xm.m.m.m.OXm.OXOXu.OX}.m.m.m.m.m.v.n.v.t.9. .7.w.#X5XvXvXvXbXbXbXbXbXbXvXFX7.< 6 2 A.GXbXbXbXbXpX3 < V 3 $XFX4XP.i.OXm.OXP.P.+XpXaXiXiXiXpX>XK.8.8.7.y.0.y.y.@.| 5 3 2 3 < 1 1 u.r.r.O.O. . .+.| 2 2 2 2 x W b n v N +.<.$XGXGXGXvXvXbXaXeXaXaXH.1 < < 2 1 ` p.4XpXFX9.3 X.:.| @._ @.$.$.$.$.=.=.&.+. .w.$X$X$X%X<.5.m z % . 2XJXQ.< .   o * } 5X3X3 . o % 0 + + O X X X O O X O u h 9 O r s r X o   X p p @ O O @ O 8 d d p O O +   .   . < <XbXaXqXvXvXbXGXGXGXFX6 . 5.3X... . * o $ - X % n n n R c z u = = u 0 0 8 # # = ; i q 0 0 O $ X $ o . < 4XpXpX",
"X X X O O O O 7 g g s t 7 @ + + O - O @ p + + ^ ^ W v v v n ^ v   V @XOX+X%X3 * # 7 r p 0 + O O O O O @ r r r r 8 r r 7 O X X O @ X p T h p 7 @ @ X O E E E f.+   %.1Xq.B v X $ r r w o O   4 | w.5XZ.2 : f T T R v x V V D D S W W v N %.2.,.@.<.y.t.q.e.w.e.m.}.i.OXOX@Xv.3 +.%.Q x S c A j u f 4 V @.@.p.p.i.i.a.r.I.U.,X9X,X*X&X7.9.#.S Z W l.M.}.|.OXOXOX%XV.+.) V.@Xm.Z.3.&.%.5 Y ,.>.n.n.t.y.@.|  .>.>.X.3.b.b.X.:.1.4.1.3.,.| @.y.0.<.<.y.9.9.y.y.9.9.9.:.,.3.} 1.4. .e.L.U.W.=XwXrX<X<XW.=X<X6Xa.p.a.p.p.a.7.s.p.9.t.n.w.#X:XXXn.4.} $.t.p.Q.+X#X;XW.W.&X;X&X+X&X;X;X;X&X+X|.r.w.7.@.9.p.;XpX>X7XqX7X0X*X-X,X*X7X7X).).7X-X-X-X-X-X-X-X-X7X7X7X7X7X8X7X7X-X7X).eXwX>X;XOXo.o.i.K.;X-X~.*X0X(.8XtXrX^.^.wXwXuXuXL.Q.Q.s.V.V.Q.Q.Q.!.=X&X;XOXm.v.>.:.<.@.5 5 &.+.@.<.>.4.4.1.4.1.1.j.$.2.:.,.2.:.,.,.+.$.+.5.,.+.3.@.<.v.v.y.t.m.p.p.P.+X+X#X$X9.y.@.2 5.$X+X&XW.=X#X .+.,.| u.OXP.I. X}.}.OXP.U.H.=X*X!.!.-XwXwX>X>X:X:Xq.0.v.0.4.0.9.o.u.$X+X+XW.-X-X-X=X=X:X+XOXOXp.m.v.b.V x n n c n W B $.b.q.OXOX+XU.>XeX9XiX>X+X$X+X+X+XU.<XpXa.9.,.M -.k.-.=.$.,.%.;.;.$.#.;.;.*.$.4.n.x.n.c.V $.$.=.! z &.y.Q.<X%X3XB.  4 +.) y.S.i * 0 + + O O O O @ @ X X # a @ O @ # X   $ 8 @ 8 9 O O O X @ r u 8 r $ , . 1 $X:XW.W.eXeX8X0X&X8.Q.pXpXQ.OX[ ) _ 9. . .V.3Xl.  o % ; z b i n f u u # % 0 0 0 8 7 # # # % q 0 0 + ;   . 3 @X|.;X&X&X",
"O O O O O O 9 t H h g p r # + # $ e @ @ 8 8 0 E d.E c q * z ~ n o l V.p.L.m.V 4 @ @ 7 8 % + O O O O O O O @ 8 8 r 8 7 7 @ O X X X X s T p @ 7 p 8 O @ E E E E #   5.DXXX< ; $ - y 9 9 + 7 $ %    .5X1X2 : f h d n x l V ..*.*.*.W ~ ~ Q Q B B ..:.X.>.3.>.| >.3X2X2X:X:X5Xn.< 5 4 2 x B M S c 0 : % 4 3 5 ) ) ) | )  .o.r.>XpXuXuX:X' 9.5 5 5 6 V.:X4X>XuXpXuX5X5X` _ 2X5X5X5X0.< 3 V ,.9.q.XX#XOX@Xt. .| X.....B V V B #.V V } M B } 5 3 2 2 V 3 V V V V N N V V } } $.|  . .8.U.-XwXbXHXHXnXnXbXvXHXHXa._ 7._ _ [ ` ` ` _ 7._ ' #X>X.Xe.>.} ,.V.OX=X&X,X>X7XeX9XiXiXwXwXuXeXiXiXG.] _ _  .) <.$X+X;X!.~.~.~.~.-X-X-X-X7X).(.).).7X-X-X-X-X-X-X).).8X0X0X0X9X9X9X9X*XY.wXGXpX:X$X .0.>.o.$X:X>X9X0X0XtXbXbXqXrXiXiXaXFX' 1 1 1 3 5 3 ) ' ' ] { 8.8.P.P.r.p.p.a.1 < 6 1 1 ` ` ) 3 | 3 3 3 3 3 3 ) ) ) ) ) ) 5 ) 3 ) 5 ) ) ` ` 3 3 ) 3 1 ` ` ` p.i.p.@X%X1Xc.V 2.9.w.8.8.8.a.0.b.y.<.7._ 7.|.XXn.}.P.P.+XK.H.G.Y.Y.!.>XwXuXpXuXpX8.w.w.9.q.m.n.w.#XpXpXpXpXiXiXrXpXpXpX4X4X4X:X2X3X1X} M N n d d b Z l * . B +.) ` :XpXwXuXpXvXpXpXpXpXpXGXFX[ < +.n ~ k.h.h.=.=.%.&.;.;.*.-.h.! h.........j.F V j.j.! ^ 4 . Q.GXFXJXSXX & . . 3XUXZ   o + @ X @ @ O X X X X X O @ X X X   X @ p r O O X O X X u d +       . < ` vXbXbXbXaXeXeXiXG.` 7.5X6X1 1 w.7.1 < 7.#X5XFX}.< . * f % : i i r r # + * q 0 8 0 8 @ @ + % % % + % & 2 < ` FXFXW.H.U.",
"$ $ O X X O u C E C a ; # # + + - @ @ @ + + p A E E C h 0 b ^ i o 2 V.t.w.9.#.n @ @ @ @ + O O O O @ O O O 7 t p t t 7 7 7 7 O X X X j H p p p j p X @ E E d s = , 6.5XXX* = O $ 7 9 9 9 e $ = . ) 3XS.2 z c d i z l x N Q Q Q ^ ^ ^ Z v S D N N #...=.B ..*.D l.<.y.@.@.y.9.9.y.0.9.c.c.X.$.#.%.U U Y 4 V ,.,.,.3.<.0. .@.OX#X}.OXs.` [ OXW.W.Q.&X=XU.G.U.+X|.|.I.8.8.OX$Xp.o.L.OX}.#X}.w.q.n.q.n.v.0.....h.h.*.! ! Q %.%.%.+.$.+.$.1...=.2.$.#.*.*.! S S ^ d.! #.+.| 1XOX+X=X!.~.7X7XeXaXiXwXrXrXqXeXeX&XU.+X+XU.+X+X+X+XW.W.U.U.,X*XoX#Xu.)  .OXW.&X*X9X9X0X7X7X7X7X8X8X8X8X8XwXJ.I.L.i.m.M.m.}.P.>X*X-X~.~.~.~.!.!.-X-X~.).7X(.).7X7X-X-X).).).).qX8X0X,X&X&X&X&XW.8.+X:XOXm.M...j.j...b.m.OXI.W.*X0XeXqX^.).(.8X(.7X-XW.H.+Xt.) _ :X-X=X^.-X~.-X7X-X~.-X7X-X^.W.=X<X=X+XP.r.L.L.L.r.L.I.Q.=X:XP.H.W.=XQ.a.Q.:X=X=X=XU.U.W.W.+X4X+X8.J.I.H.+XOXr.u.y.l.*.! *.y.y.u.y.@.@.y.c.3.>.w.r.P.|. XXXm.}.|.|.I..X+X+XU.&X+X+X&X&X&X&XT.&X+X%Xp.@.<.@.9.@XOXOX+X+X+XW.W.Q.W.Q.p.p.9.y.y.b.} *.n c E h a R Z a a d.d.N B A.1Xm.i.u.t.y.9.w.9.a.p.V.@.+.+.N Q -.#.#.$.$.Q N B -.h.h.d.d.A Z S D S S S x $.1.! ~ 4 . s.vX>X$Xb.  3 l.<.<.D.b % % u u X X O X X X O X X X X X X X O O @ e e O 8 X @     % * 4 5.t.P.H.J.!.rXqX).).eXaX*XT.K.7.u.V.V._ _ $X2X}.a.w.7.i.:X#Xn.3.. & ; u i # r r # % & q 0 0 0 8 7 @ + % % # @ - & 5 n.}.:X:X>X&X=X",
"$ X X     o & l v l & * * *           % % + 9 j j j j h a d T 0 o v S.V. .) B ^ # @ X X X X O O O O O O @ r p g g p r r r 7 @ X O X p h h T h p 8 X O E E 8 O = , B.DXm.  - @ O O O + @ e X $   3 c.l.2 z b C a q x N Q ! Q W W d.! v l v N v v x x v 2 l S l 2 < 1 < < < >.5X$XOX#X1X@Xy.0.c.A.C.b.j.5 B 5.c.y.3.c.c.| | 9.@. .3 3 1 _ GXGXbXbXeX-XF.] ] 8.8.7.' .X+Xp.P._ ` +XFXDXFX5Xn.n.M.b.b.b.c.l.b.z.h.F ! *.%.2.,.,.@.@.<.<.>.@.>.:.$.} $.} N v S F F F } | <.FXFXFXvXiXrXrX9X9XwX-X!.!.).).7X7XiXwXuXiXiXpXuXiXuXwXwXiXwX-X!.,X4Xm.) @.%X:X4XuXuXeXeXeXeXwXwXqX8XeXeXwX9XuX4X2X2X2X3Xm._ ' W.J.!.!.J.J.J.R.!.!.-X-X-X7X7X).7X7X-X-X).).)._.yXeXwX>X+X|.H.H.{ ` ' ' ` ) | | ..=.2.$.$.) ` a.=X*X*X*X~.~.~.(.R.R.iXbXvXpX%X1 7.FXvXiXbXaXaXaXaXiXaXbXHXHXHXHXHXGXvXpX<X+X&XI.&XU.!.wXwXbXGXwX>XiXvXwX=XwXGXGXHXHXwX-XwX-XiXGXwXJ.!.-X!.W.I.` 1 1 ) | } }  .@.y.<.5 | b.C.j.4.q.i.}.L.i.+X|.OX|.r.K.;X:X+XI.I.K.G.G.G.G.8.wXuXuXpX%X) ) | @.c.y.q.t.9.9.w.7.7.7.@.@. .5 5 V ..$.k.S v A b v v i % 0 a C C v D #.2 2 < 3 2 4 4 2 5 < 3 +.+.#.B *.h.;.;.2.&.%.4 x ! k.k.d.E u b n 4 * . * . #.=.h.^ 2 . a.AXr.` 5 < | UXUX+.N c R E E d X O X X O @ O X O + X X X X O O X O 7 e h X o       . @.5XpXGXGXbXbX-X!.R.~.iXGX>X8.8.o.@.1 ) @.7.5XDX5XFX@X@.u.L..XSX1X< . : i # r r p 0 0 q i 0 0 0 9 7 @ # % # @ - $ o V FXFX7.' uX>XpX",
", o & 4 V ..| X.w.>. .| | | | | | :.5 . & 0 9 j j g.h j j h H s X q #.+.<.:.N Z @ O X X X O @ 7 @ O X O O @ r p g s r 8 @ @ X X X X t h h H j p s 8 p h h p p p   Q M.| * f i # r r + O r $ m =.$.} B x z c c c c v N N N I L R W W n v N N N D ..B #.$...$.$.:.:.| @.@.` q.2X.Xi. Xq.y.@.@.<.b.M.x.j.G ..<.0.q.w.q.b.:.:.5.,.v.u.8.8.8.iXiXeXeXeX8XR.J.U..X Xe.i.}.OX}.OX8.7.OX$X$X$X@X0.1.j.2.,.:.$.$.j.;.#.$...:.:.<.7.p.i.p.p.i.i.p.7.7.OXn.7.@.@.:...V } 1.j.| :.3X2X<X<X<X=X-X-X-X>X=X&X&X=X~.>X-X-X*X7X0X0X7X7X*X-X>X-X*X*X!.U.+X$Xy.3 @.V.OX#X;X;X,X*X>X=XW.-XwX9X*X-X=X:X:X%XOXOXXXXXXXQ.=XiXrXrXrX7XrX<XuX&XG.+X:X;X=X*X*X*X*X*X*X*X~.~.-XeX>X=X#Xt.7.+X<X!.Q.W.!.W.Q.s.@XV.+.<.<.<.a.a.Q.=X&XT.*X&X&X!.T.*XT.*XuX<XOXm.1  .5X:X>X>X-X>X>X>X=X>X<X<X<X4X5X5X5X6X6XQ.a.+X<X<X=X<XmXmXrXiX-X*X>X<X*X!.-XiXiXiXiX-X~.-X-X7XrX7X^.^.rXrX^.wXW.W.W.+XH.8.L.r.i.OXV.6 5 j.l.j.j.c.0.n.OXI.K.U..XP.K.I.#X:X+XI.I.L.P.K.H.P.G.=X,X;X2X$Xm.5.} $.:.3.3.2.,.$.,.&.$.:.X.:.+.V B =.2.2.j.....D N B V m m c a a v c ^ d.Z C c C 0 j j h Z D V 1.=.} } ..%.#.U +.Y Y : z S ^ ^ E d a m 2 < 5.+.,.5.} M L m @.@.<.Z.3.V 3 < ` 5X5X5 4 c C C h p 7 8 8 @ @ O O X X X $ + X   X X X e 7 p a * . V 5 @.a.W.wXeXyXaX9X<X=X+X;X;X;X+XW.H.+X|.i.t.y.9.w.$X3X@X3X%.4 5.c.M.%X@X| V * % # u 0 0 0 0 p i 0 + + + @ @ + % # - - $ $ 4 1X3X) ` p.a.:X",
"B B $.b.@X1X1X1X1X$X1X$X1X$X$X$X2XDXm.. . i 7 h g J j j h g g t O +   . ,.5.l % O X X X @ # 8 r 7 O X O O O @ 8 g s t 7 O X X X O X s H p p s h j h h @ O h h 8 $   . 2 c a 0 d E T i o $   2.3X2.. 2 & % 0 c c S D M 2 2 2 4 : & 4 x N %.=.=.;.2.2.c.M.n.n.m.n.m.v.n.V.@X@X X XO.7.1 1 3 ) ,.2.1.N.j.} j.t.e.r.m.e.n.>.,.<.>.@XFXuX4X4X:X-X-X~.8XeXaXaXpX4X#X}.@XOXm.#X#X@XOXu.` ) 1 3 G 3 3 1 1 1 1 1 1 1 3 @.@.u.w._ _ :X4X2X<X<X:X>X+X:XvXpXP.L.OXi.@.`  .@Xx.| | ) ` ` ` a.Q.I.P.W.U.U.+X+XW.U.U.U.J.T.!.U.T.U.U.U.W.+XU.U.I.P.P.p.m.9.5 V } |  .o.r.L.8.a.{ ` H.vXwX] ] +XOX` _ ` _ ` ` =XJXHXHXnXHXnXnXHXHXHX=X` p.#X+X:X+X+X+X+X&X&X&X&X&X+X:XL.8.9.) ` vXHXGXHXHXHXHXHXJXJXFX7.[ s.s.FXJXAX=X.XP..X.X.X+X+X&XW.;X;X7._ | } | t.@.a.7.8.7.8.7.' ' [ _ _ _ @._  .` ) ` 1 +XHXHXHXHXbXbXF.J.W.&XU.H.U.U.!.<X=XJ.W.J.J.U.!.!.J.wXGXbXbXbXnXbXbXHXbXHXbXpXpXpX4X:XOX1 1 5 3 ..*.h.=.0.}.U.J.U.U.U..XU.P.|.L.P.L.L.|.K.L.+X+XG.8.o.7.@XSX1X=.=.G G l x v l x x 2 2 2 3 3 2 5 $.>.9.w.9.0.,.5.5.5.6.I m z l l l * & % q q c a j k a w v G ..1.j.=.V l 2 2 2 4 : * z c q q c i 4 2 < _ FXFXvXUX< .   . @XSXb.< & * . < ` pX5X1 . b T + X p f.H f.h r 8 r 8 @ X + # @ X O O @ y y u & M 1 s.s.AXGXbXbXbXaXeXY.K.p.OX#XOX_ < OXFX4XpX5X1X%X1X1XV.b.5 x m b n -.=.5.y.1X1X*   ; i % 0 0 8 7 7 + o o O O O + % + - - - $ * . . . . < 1 V.",
") | >.c.b.b.M.V.b.Z.m.m.#X#X.X;X;XuX}.` V . % s g h g j J g g k O 0 o * j.k.& 0 @ @ O $ # # 8 8 7 X O X X O O t g s h r O @ @ @ O 7 t p s r p h h d p @ O p a 8 X + q q a a 0 a d ^ & * 2 < @.Z.-.: + a u 0 v v v D ..M 3 M V V M V U #.+.,.$.@.9.t.u.p.i.L.i.r.t.u.i.m. X X Xm.q.9.) 1 $.$.Q -.F h.D ..j.0.w.n.n.e.q.v.9.e.8..XpX>X;X:X:X;X+X+X,X>X<XuX4X:X+XL.V.m.@Xm.XXXXV.c.$.#.U B 5 5 7.7.[ [ _ [ { ' ' 8.8.=XW.8.8.;X;X:X=X~.wX-X!.-X<XwX!.W.W.W.H.{ 8.OXm.9. .>.t.@. .b.n.m.m.}.+XU.W.W.I.+XP.+XOXP.+XL.OXOX}.OXi.OXOX}.n.m.n.m.b.:.B B Q ....:.v.<.5.y.a.H.=XwX>XI.K.|.OXa.s.s.a.8.F.^.bXbXbXlXmXmXbXvXvXGX=Xr.L.m.}.OXM.Z.@XOX}.OXOX@Xm.@XM.M.t. .w.' uXiXvXvXbXvXaXvXbXvXpXW.H.W.=X=XvX$X#X|. X Xn.@Xn.V.m.V.V.Z.M.....F ..j.l.3.<.3.<.3.,.,.&.&.%.&.2.1.j.:.3.) 7.' =XvXiXbXbXbXbXT.U.&X&X.XU.U.U.&X>X,X.XY.&X,X.XU.U.W.=XpXvXiXiXvXvXvXvXvXiXwX>X<X4X;X:XQ.' ' _  ...d.d.^ l.V.J.T.U.T.!.U.K.I.L.P.L.L.P.L.L.L.P.+Xr.p.r.e.%X3XC.1.h.l S S q c Z v 4 #.$.|  . ._  .}.K.K.K.I.I.a.9.0.j.;.N N V G | ) | | G M V V V S v v M V D #.=.;.*.D S N v N N n & b a 0 C a v 5 ) ` 8.pXuX<X4X) V . 2 m.1Xl.n h X , . ` pX5X1 * i u 8 O 8 E T T h p 8 r p @ X @ # + X X X O y # i 2 @.` Q.=XpXnXrX<X4X4X4X}.m.n.n.V.M.| 5 M.3X$X$X%XZ.A.A.b.l.j.W R T p E f.~ k.5.Z.Z.3 2 z * * q + 8 r @ @ X o + @ @ + * % @ e - @ l M 5 *   . 2 &.",
"< c.1Xl.G #.B N M V 5 | n.XXXXoXU.Y.;XpX1X3 * % X p g k y k j g r p * 4 z.z.q 0 8 7 @ @ - r 8 8 @ X O X O @ 7 p g p H h s s r # g h s s p 7 8 s 7 O X X X O @ X X d E p 8 8 o + i z M } V.$X@.< 4 % + 0 a f.d.q * D b.b.j.j.l.l.l.l.l.5.5.5.3.<.y.m.m.m.i.}.L.p.9.y.e.i.m.m.m.n.M.b.:.3.Z.Z.%.v W n v 3 | 0.n.e.q.` ) v.%X$X.X;X.XP.L.L.p.7.o.7.o.o.o.' 8.K.H.P.}.}.}.7._ _  .| $.+.5 +.` ' FXvXFXvXGXvXbXbXbXGXHXbXGXGXGX&XL.U.H.7XGXaX^.^.^.~.bXbXbXbXvXiXwX&X=X+X$X2X1X<.| ....| G 0.@XOXW.U.#XOXOXOXOXOX9. .) @.@. .@. ._ ` ) | ) | | | | B D ....} +.} I 6 6XGX<XG.I.4X>X8.8.vXJXvXvXbXbXiX!.^.^.^.^.^.^.!.!.J.pXJX2X` o. .| | ) ) ` ` ) 3 V G G ..3 _ 4XwXJ.R.R.J.R.!.R.R.J.J.!.GXHX<X&XH._ 7.o.r.#X X) ) 5 +.| )  .| 3 | V 3 2 3 5 3 3 5 3 5 G M M x x x N D ;.=.4.@.2XvX-XJ.R.R.R.T.U.+X;X;X+X.X.X.X.X.X.X.X.X+XuXpX;X.X.XI.I.U.U.H.H.J.J.J.J.J.J.G.F.8.K.L.H.W.pXpX>X2XX.M A c -.V.+XuX<X>X;XW.|.OX}.i.m.m.m.m.OXm.u.7.m.m.m.w.w.x...G x z Z w R Z v x . Z.UX5X5XpXpXuXpXpXiXiXpXpX+X7.b.b.j.#.=.x.n.@X#X@X@Xm.y.0.0.x.j.l.j.2.2.2.5.l.j.j.j.j.k.j.j.k.k.q q a a d q N V @XpXpXDX>X` ` %X1XB.$.>.4.D C t 8 , . ` 5X5X1 & u + + @ p E h X @ p d s p @ X 7 8 + X X X O e f   . 3XFXGXbXbXHXW.< 1 1 3 c.M...| } #.I N ..1.3 3 2 2 2 2 x v ^ b a s p J f.E m M 5 V S.S.2 l * q 0 @ @ 7 @ X + # e $ o * % @ O @ X S SX3X*       o ",
"* k.S.z.c ^ T T E E n W l.Z.Z.@X.XU.+X4X2X_ 1 < & u H J g g h s g p % : ~ h.q 9 0 8 - - - r r r @ X X X O @ 7 t s p H h p p r @ H h p r 7 @ 7 s r X O 7 8 O O O X g f.g 8 7 O + n 2 <.w.#XpXy.< 4 % 0 u a f.d.v 2 #.l.2.2.l.l.j.j.j.j.l.l.j.2.$.c.b.b.b.v.b.t.y.5.5.c.c.b.M.b.b.b.c.>.>.M.M.:.} V 4 B V +.l.j.j.x.} ) m.%X+XoX.XV.b.@.7.p.p.a.i.n.n.q.w.a.p.Q.Q.U.U.J.G.] { { ' ' ' ' { ] { vXvXvXiXbXbXbXbXbXbXbXaXbXbXGX&XU.W.J.9XGXiX~.-X~.^.iXaXaXiXiXaX9X!.^.!.!.=X#X7.@.$.....F j.Z.@XXXXX}.i.OXn.m.Z.0.| 3.@.@.9.7.' ' ' ` _ ` _ _ _ _ _ | ..X.| | +.I 4 %XFX2X8.U.pXuXJ.F.iXbXiXvXbXbXeX^.^.~.^.^.^.!.^.-XW.pXJX:X` _ o. . .o.o.' _ | V D v v } _ ' wXiX&X&X&XT.T.!.T.T.!.!.U.GXGX>X,XU.7.r.r.m.XXn.>.| +.5 @.7.{ ' ` ` ` ` ` ` ` ` ` ` ` ` _ ) | | | B N n %.+.@._ :XvX9XR.~.R.!.W.P.;XOX+X+XP..X.XP.P.P.P.P.OX4X4X+XP.OXQ.P.U.U.U.U.+XU.U.U..X.XU.P.|. X|.K.U.iX9X-X<X_ 5 D v *.Z.@X5X5X6X%Xm.n.n.b.V.A.M.b.b.b.b.c.0.u.t.u.w.w.y.+.M v n T d W v l B 3 OX5X4X4X4X4X4XuXuXuXuXuXpX#X7.x.j.=.D 1.v.m..X.X|.OXp.t.9.w.q.9.9.<.<.<.,.,.,.,.,.2.2.j.j.j.j.h.z z c C C a Z V v.5X2X4X2X1 6 %X%XC.j...D R E g.9 X . _ 5X5X1 & + X O 8 p h p O 8 p d s r @ O r r + X X X O $ + * < 5XFXvXbXvXvXV.. < * M S.C.F S Z R E ^ *.-.n a i z c c T E T d a h C T H H b m m N S.Z.2 2 2 % % # @ 7 @ X @ r r $ X * 0 % p + * F SX1X. & % O + ",
"0 a E h h T H J H E T C R ! D } 7.+XI.G.;X4X$Xy.,.*   $ # p j j g r +   % & o o 8 @ # - - r r r 7 X O X O O O 8 s s H p X X X O r r @ @ O O 7 h p O O p p O O @ @ t h g k e O # & < 1X2XuXFXu.< m & a c a R d.^ Q %.%.B } #.#.D x v l l l l v x v v M M M 5 5 3 3 G G M M M M 3 5 3 | 1 q.q.$X3XZ.A.&.2 5 V M l.j.;...0.w.i.OXr.,.U 3 3 t.i.i. Xn.m. X}.L.L.I.H.U.*X9XiXiXbXvXvXiXiXiXvXbXvXbXvXJ.F.!.-X^.).^.).^.(.^.^.*X*X&X&X*X!.-X-X~.-X~.~.7X7X7X).).).~.~.~.~.~.-X=XQ.@X:.V *.F ....X. ._  . . ._ ) ) @.) ) 1 9.FXFXvXvXvXvXFXFXFXvXvXvXpX@Xm.@Xm.9.$.%.-.| ) 7.p.+XGXiXbXaX^.^.^.^.^.~.~.*X~.~.*XeXiXR.J.J.J.J.&X+XP.+X+X+X:X:X+XI.p.t.2.-.! l ,.5XpXaXaX>X;X&X&XU..XT.U.U.T.T.!.&X.X.XU.+X+XP.+X|.#X5X5X+.) 6XFXuXuXvXvXvXvXvXvXvXvXvXvXvXpX4X:XOXu.w.>.N Y Y &.9.7.+XwX9XsXeXeXwXW.OX7.7.I.+XP.P.P.P.P.OXQ.P.I.W.+XP.P.I.P.U..X.X+X.X.X.X.X.X.X.X|.XX.X|.|..XU.J.F.wXaXI.a.:.V N B 3 | 3 3 | V 5 G 3 V l G M G G G V } | ) @.9.w.9. .3 5 4 4 #.U l.b.Z.m.r.8.8.p.8.{ 8.G.8.8.8.8.p.8.9.2.=.*.B $.x.e.r.8.a.p.p.v.q.0.w.7.7.9.9.<.<.<.<.<.<.<.<.4.3.x.j.j.h.h.v q a a i v V M. .) ) 6.Y 6 < 2 l v c p r r 9 i   1 5X5X6   O O # 8 @ 8 8 T h s p p p r 7 e 8 + X o X X O     < DXFX!.J.` 1 5 %.-.v N v q 0 w 8 O @ # z / J y s s g s k g K h h E f.E h H d i u z N B M.S.N o + # + 8 O @ O - r O X + * + w o * B SX1X< . o X 7 ",
"k h j C g.g.f.g.E f.f.E E E A S ,.@XOXr..XuX4Xi.V.5 . * % a j C s r +   o * o X 9 # - - - r r 9 7 X O X O O X @ t p H p O X X X r r r 7 @ X 7 H s X X p p O X 8 r p C j y e 7 # m 2 $XuXDXFXV.< 4 & c c l ^ d.W S Q U U U B B B z c c c c c v c v v v v x v v G G G v v z z m 4 3 3 +.1 9.p.4XpX;Xi. .1 < 2 2 -.k.l.j.2.<.v.@Xy.$...G V M.m.i.|.P..X.X.X.X.X.X.XU.-XwXaXaXbXbXbXaXaXaXaXbXbXlXaXJ.G.!.-X*X-X^.~.^.~.^.^.~.-X*X-X9X*X*X-X-X*X*X0X*X~.~.*X*X*X*X*X*X0X*X-X-XW.OX@.| %.D D } } | |  .` ) ) ` 1 ` ` ` ` I.GXGXGXbXbXbXbXbXbXbXbXbXvXW.OX#X XO. .} =.#.V @.V.%XFXvXbXbX^.~.~.~.*X~.*X*X&X*X*XpXiX!.J.!.U.U.W.W.+X+XI.&X>X>X&X+XOXm.y.$.$.3 @.FXvXyXaXwX*X!.!.U.W.!.U.!.J.!.U.U.&XU.!.J.W.J.U.T.&XpX5X) ) 5XFXpXiXbXbXbXnXnXnXHXHXGXGXGXGXpXuX:X.Xn.q.} +.+.+.<.w.#X>X9XeXeXiXuX.X+X7.' K.+X|.P.P.P.OXP.|.+XP.P.P.P.P..X+X.X.X.X.X.X.X.X.X.X.X|.|. X XP.K..XP.I.J.iXiXU.H._ | ..V M V N v v v v v l l x l x v v v v G V V j.v.q.o.o._ ` _ ` @.7.u.V.OX#X}.8.7.a.a.w.a.w.w.t.t.w.9.9.b.;.#.B V $.v.u.u.e.9.y.b.A.c.j.j.9.9.9.9.9.9.<.<.<.<.<.<.<.3.3.2.h.k.h.v l b b a & 2 =.} 3 2 B.f., . q c C h y y 8 %   . _ 5X5X6   X @ 7 8 O O 8 g.H g p p p r r e e + o o O O $ $ . < DXFXW.Q.` . S C.j.$.*.2 c p k y y t = u T y k k g g g k y y g d E f.E d T h h 7 % Z Q S.SX! & % o + 8 O O O # r O X + % % + q * B 3X@X3 < * o 0 ",
"g J p E g.C f.g.g.g.E E E E E E W l.0.e. X.XoXuX4X%XV.+.2 & 8 8 g r u ; n C % o 0 8 - - - e 9 9 7 X X X O O X O O 7 g h p r @ X g H H g r O @ h p X X p p O O 8 @ p T p @ y t i   < $X4Xo.` t.3X;.& & q q v c v N M x 5 V B #.%.x v W n n W Z Z A A A A Z v v S F F S Z P L L I B.l.5.9.p.I.U.U.I.8.|.$X@XZ.b.N x v D V B } %.M B G 2 3 b.n.}.P.U.U.U.U.P..X|.|.U.U.T.R.R.^.^.^.J.J.J.T.J.J.eX9X*X&X,X*X*X-X*X~.~.!.~.~.-X!.*X*X*X*X,X,X,X*X*X*X*X*X*X*X-X-X,X,X,X*X*X-X&XK.p.y.5.#.l *.l.b.c.y.t.9.5XvXvXvX4XvXvXpX<XQ.W.Q.W.Q.!.!.W.!.!.^.7X^.I.|..X|..X$X3...2.S.c.<.9.p.a.8.{ &X&X*X*X&X*X&X&X&X,XoX.X+XU.&XU.U.W.+XP.U.+XOXI.K.K.P.P.L.t.0.3.3.) _ ;X!.!.~.!.!.-X>X&XU.U.W.&XU.U.U.U.U.U.U.U.W.U.!.Y.U.4X2X_ ) 9.i.I.J.H.Q.H.Q.Q.Q.H.Q.J.H.J.J.T.&X;X+X.X}.y.5.+.} 0.n.}.+XU.T.T.T.&XI.|.i.r.|.|.P.|.|.|.|.|.P..X|.P..XP.|.P.|..X.X.X.X.X.X.X.X.X.X|.P.P.P.+XU.|.L.|.P.&XW.wXpX.Xe.x.j.l.x S A R c v S N S B B V V V #.l.b.l.j.M.Z.@X$X#X;X:X:X:X#X$X` ` t.}.n.q.9.y.y.y.9.y.y.v.y.j.c.4.1.&.#.#.+.:.b.v.>.@.@.+.&.6.j.j.j.3.<.<.<.3.3.3.<.>.<.<.<.<.,.#.B N S D ! h.! Z R W Q ;.;.;.-.& + d d u 0 a s y y p q n 3X%X` 5   o X O X @ @ O p T h p 8 @ @ 7 t e e + o + @ O $     . @X+X8.Q.` . h.M.....Q S R J J J J T s s J k k g k g g J g k g p p h p 8 s g k g r i & & x 6.^ z o + 0 9 O o + 7 $ $ @ @ % % l * 2 | ) m.Z.& X + ",
"H h p E E E f.f.g.E J J J T E h E k.h.M.OXK.Y.iXaXuX:X>.2 * X @ p p u f ^ ^ 0 + 0 # - - - @ 9 9 7 X X X O O X O X O s h s p @ X H J J H s @ @ h r X X r 8 X X O o % h r O t C c . . $XDX<.< w.SXB.% o q 0 % o z * 2 < < < 5 | | | 3 | 3 5 #.4 x N v n n Z Z Z R n n L L n L I U C.A.m.}. X.XI.K.r.8.+XpX:XOXV.2 2 2 D x v v n n c l G 3 t.i.|.|.I.|.|.|.|.|.P.P.+XP.I.G.U.&X=X+XL.L.L.I.G.G.-X-X-X-X-X*X*X-X>X=X:X=X>X;X>X&X,X=X=X>X=X=X>X>X>X,X=X>X>X,X=X,X>X>X>X:X:X>X:Xp.t.b.M.h.G j.Z.A.V.m.r.L.GXHXHXHXnXHXHXHXiXG.U.H.U.U.U.U.I.U.J.!.-X=XW.|.L.K.;X2X>.3 y.1Xy.$.+.} +. . .#X$X:X2X$X$X:X:X:X:X:X:X;X#X#X+X;X;X+X+X+XOX#X%Xm.p.OX@XV.b.b.v.X.) o.+X+XW.J.J.R.9XuX=XU.+X+XU.+XU.+X+X.X+X.X.X|.U.W.J.!.pX4X6 | @.>.w.w.w.OXH.H.p.p.r.p.I.H.H.Y.J.+X;X+X+XOXm.b...$.b.C.M.n.L.I.U.G.G.I.|.i.|.|.|.I.|.|.P.P.+XP.P.P.I..XP.P.P.|.OX+X.X.XU.U.U.U.U.P.I.P.P.I.U.H.P. XXX XI.H.-XiX>X|.XXM.M.G S ^ ! N 4 5 3 6 3 3 ) ` )  .t.@X@XV.@X@X2X5X5X5X4X5X5X5X5X3 2 M.@Xb.l.b.b.c.y.v.q.0.y.2.j.l.j.;.&.#.;.;.j.M.c...$.$.$.$.$.2.j.j.j.2.j.j.l.l.l.l.j.j.5.3.l.l.=.S v v N k.l...M B #.$.y.:.:.... 2 A A r X i b a h t   Y JXUX< * % O X O X @ @ O p E h t 7 O O @ e - e + o + O O - y   . Z.OXa.a.1 . 2.1Xb.-.Z E E E E g.g.C A H J h d p a a s s g g g s t t 8 8 t j k h h $ $ = * %.l.N   o 0 9 O + + + @ - - $ @ % o   * 3 ) 6X3X& @ 0 ",
"p d T h T E E J J J E E J T E J E T ~ l.X.r..X&X,XU..Xu.3.Q o o @ r # # d a X o + O O O $ @ 8 r 7 X O X O O X O O 7 g s @ @ X X r y s g p 9 9 h j 7 7 p r O X X + O u p 8 p c n   . m.$X5 .  .Z.-.+ u u % i % z 4 l.Z.Z.n.V.@XOX7.7.%X@X%X%X| 3 5 4 4 m m b n P P P P L m n I Y #.2.M.m. Xi. X}.i.p.P.4X;Xr.i.@.2.;.k.z v Z c a a v l.0.m.r.P.P.I. X X}.}.}.P.P.L.}.OXL.}.}.@X}.m.m.m.e.XX.XU.&X-X-X&X&X+XL.L.i.}.i. XL.}.L.|.P.L.L.L.L.P.L.I.P.I.H.L.I.P.L.i.L.m.u.u.w.u.w. .3.j.=.V ..2.@.@.7..XI.>X=X-X!.-X^.!.=X&XU.+XU.U.U..X.X.X+XU.U.&XW.|.+X.X.X:X$X@.$.,.| } $.;.;.;.1.4.w.n.q.w.u.7.7.7.w.w.w.w.w.q.w.t.w.w.w.w.w.w.9.<.@.@.:.1.2.j.1.1.j.0.n.@XOX|.+X!.J.U.=X+X.X.XP..XP.|.P..X+X|. X X#X|.W.-X!.I.p.@.&.2.x.n.m.m.n. X|.}.}.m.m.i.P.P.H.H.U.+XOXP.i.7.0.| } j.j.j.c.n.p.p.P.I.H.L.p.L.P.L.I.|.|.I.|.|.L.|.|.P.P.I.P.OXi.L.|.|.|..X.X.X.XU.P.P.P.P.I.W.H.OX#X XXXI.I.W.=X+X+XOXm.x.2.-.W v 2 +.A.%X%X%X%X$X$X%XOXp.7._  . ._ _ [ _ [  .7.7.>.c.2 l D ..} V N V } | |  .| } B B Q N N B V } } ..b.b.2.$.;.;.#.B D D S S W W S S S S N B B B V D *.D l c b v *.h.V B l.Z.M.1Xm.m.t.0.2.l g.y $ i m 0 d g # > Y 6 2 q O X X @ X O O X r g.g 8 9 0 8 @ O @ @ + X O X O $ X o * V  .OX5Xp.A.+.$.B ^ E T T E J E T C E g.g h a p h h a p j p g g g t t k k j J O p @ - f , I k.v   + O O 9 + o O @ e @ $ O @ +   4 A.,.9.) * X # ",
"t h J J E E H H H J J J E H E J J J T ~ ;.3.e.OX|.L.r.@X@X@.<   + @ @ 7 7 @ @ O O X X O X X O 8 @ O O X X O O O X 8 p r O X O O e - y e k j j j j g h p = $ O   O X 8 a a a C T +   $.c.3 . V -.n u d r p @ , m 5 1XFXDX5XpX4X2XL.L.5XpXvXFX7.< 1 . < 2 2 v n R R L P L R L L I m %.C.Z.V.m.}.}.u.m.OX2X#XO.8.n.M.l.z.E % i d a w F 1XZ.%X+XP.OXOXOXOX@X}.}.#XXXOXOXOXOX}.OXOX}.}.m.m.m.m.}.}.|.uXuX;X$XV.,.5.5.5.0.0.0.0.0.0.0.<.0.,.3.b.0.9.0.<.5.<.<.<.<.<.3.:.:.X.X.| X.| | | } | 5 3 ) ) _ |.&XK.U.I.I.I.U.K.U.U.U.U.U.U.U.P.|.|.|.|..X.X.X.X.X:X2X2X5X<.5 =.D D ! *.%...| )  ._ ` ` ) V V | | ) ) | | | } +.+.| } +.#.B ..| :...G S S ! ! V l.1XV.#X#X#X+X+XOXOX+X+X+X#X+XOX#X}.OX+X+XOX+X+X|.OX+XvX<X{ @.,.2.4.4.n. Xm.m.}.L.L.i.m.V.m.m.}.i.}.OXL.L.Q.7.` 3 3 3 ..#.l.,.y.u.p.p.Q.OXV.V.}.}.|..X|.|.|.P.I.Q.P.L.OX|.P.|.V.V.OX|..X+X.X|.|.U..XP.|.}.m.OXI.U.Q.L.|..XI.U.P.H.+X$X}.n.b.l.k.n 4 +.) 5XFXvXiXiXvXpXvXpX' a.1 < < < < < < < < < < < < 2 * * * 2 2 2 2 2 3 1 < < < < 2 2 & & 2 2 3 2 | Z.c.5.5.2.j.j.D v C d c c c c c c c v v v l l l x x l l & q ! d.! D Z.SX5X5X2XOXV.V.A.i s p r ; % i d p d $ $   o o + X + o   o o O 8 g.j O O c a + X @ X X     $     o l * 2 2 %X4X4X3XB.v Z E T T T E E E g.f.E h d d d s s s p p s p p s s s s s s g t @ @ r p u u ^ k.T X O O X @ + X X @ 9 9 9 9 8 +   Y S.V.1 < o X p ",
"t h J E g.g.J J J E J J E J g.g.g.g.E E ~ -.3.V.m.m.q.e.n.q.>.} o O @ @ @ O O O X X X X O X O @ O O X X X O O O X @ 7 @ O X O O $ $ y k k j j j p 7 p r - - @ $ $ X @ 0 w a d d o   k.C.V . z ^ R b a r r = u n 2 2.b.w.w.e.w.7.@. .OXm.i.OXw.@.7.<.3.&.#.x v & c d d b b d d c b W -.;.,.:.0.t.9.y.0.n.u.w.e.q.0.:.-.n : m v c v v h...>.7.7.9.9.<.@.<.9.9.q.9.<.@. .>.9.>.X.@. . .@.@.@.| X. .7.}.q.<.&.Q -.U #.$.....:.....#.$.$.B B ..} ....V U B B #.#.Q *.#.#.*.=.2.3.3.3.<.0.v.m.m.m.t.w.L.L.L.|.}.L. X X XXX.X.XU.U.U.I.P.|.|.|.|.|.|.|.r.i.o.n.y.<.+.B N N Q S N V | @XOXQ.P.$X3Xv.| $.:.3.j.5.$...D Q N N B Q Q I N V } } #.N S R ^ S N #.3.0.9.@.7.w.w.w.w.w.w.e.w.9.t.9.t.p.w.r.r.w.t.9.y.9.OXp.@.,.#.=.j.4.m. Xi.t.L.i.i.7.9.<.>.<.0.<.w.7.o.p.+X+X$X%X@X@X<.,.j.2.y.9.9.9.9.<.9.<.t.u.w.w.i.}.|.L.|.OXL.OXa.p.r.t.y.y.n.u.e.r.L.:X;X+X.XI.L.u.q.m.P.I.P.I.P..XI..XP.L.+X#X Xn.n.5.k.n x V 3 %X$X+X&X&X!.=XW.W.uX<XOXOXOXV.OXV.V.V.OXOXOX@XV.V.V.V.Z.$.4 -.b.j.0.v.3.<.y.y.0.y.5.l.l.j.c.b.0.@.} +.#.#...D S c d d c v n n b c b n c v S ! *.h.D 2 l h.! c v N x $.x.x.x.0.@.,.,.%.: ; ; ; % % ; i u p O X @ 7 X O X X o % i % @ 8 H h r 9 0 8 0 8 + X # $ $ , o Q D * o & . 1XFXOX+.R c T T T f.f.g.E s r p f d E H s p p s s s p s g s s p t t t s r O @ r p p r p T 8 X O O X @ X X X O 9 9 9 O o % . 5 Z.V.y.<.& + p ",
"k J g.f.f.f.g.g.g.E E E J E J J J J E E ~ -.2.b.V.Z.m.t.q.V.@Xl.o O O O O X O O O X O O O X O O O X X X X O O O X X O O O O O X X o p p k k r g r $ $ X # T E 8 X $ X @ 8 p p p o   k.C.M * a C c c a c 0 0 0 + & l x x 4 2 2 x * * D N G 5 m.$X#X@X1X3X1X2 l C p p p d a a a a 0 q z l l M B $.2.3.>.>.<.0.c.<.,.+.5 < < 3 < 2 * * * * & 2 x Q M D M M 5 < < < < < < < < < 2 < 2 2 2 2 2 2 2 2 2 3 x 4 4 4 4 5 2 V 5 3 V 2 * 2 < < < . . 2 2 * l l l l l l c c A F h.j.b.M.Z.Z.@X#X$X4X5X4X2X#Xe.w.V.V.t.9.9.9.n.m.V.OXOXOXOX|.}.}.L.L.P.L.i.m.0.=.2 M l M 2 2 2 . < < < < ) 5XvXpXpXGXJX$X) @.n.v.n.x.=.D S x Z v z x 2 2 4 4 2 2 2 4 m m n n I 2 . < < 1 1 1 3 3 5 1 1 1 < 1 < < < < < < < 3 M v N V B } ;.;.-.h.j.:.n.i.s.p.u.m.n.3 2 G V l x 2 3 3 ` r.:XwXbXnXbXFXp.w.q.c.1.X.:.4.X.G G G 3 <.y.0.y.u.@X}.}.}.}.OX_ @.+.@.X.:.$.@.@._ p.uXuX,X&XI.8.@.| >.|.L.|.}. XXX|..XP.K.I.U.I.I.L.9.-.n v v V b.c.0.7.7.' { ] F.HXHXvXpXpXvXvXvXvXvXvXiXiXvXvXvXvXvXFXu.) V.3X2X$X$X$X6X2X2X2X2X2X1X$X$X$X2XZ.3 3 x v Z C c l & * * * 2 x x x 4 4 4 x x #.6.j.l.$.< 3 M.b.2 * 2 2 & * * * * * & * *       . . .     o $ @ O - $ O @ e @ @ p h T T T T J y e O O K J g X X X     x C.C.l + * * 3XJX7.. i n T d h E E g.H 7 X X @ d f.H d p p s s s p s s s s s p p s s r O X @ p p p @ @ X X O X X + X + O X O @ $ +     . 1 M.n.1X3X& 8 0 ",
"8 k h E f.g.h g k k h h h E J E J J E E ^ ~ -.l.l.j.y.0.>.c.Z.j.o O O O O O O O O O O O O O O X O X X X O O O O O O X X O O O X o o 0 p p t - p ; ; ; % o u a r X $ O O @ r r u o * l.C.V * i a c v v ! S F F v c i i c d i u d h a C ^ Q B j.v.n.n.n.M.b.G v i p p p a a c c l c v v n n N Q -.B } } $.$.$.,.,.+.y.y.@.>.9. .@.,.Y 4 4 : i C E C R R x +.y.y.y.5.,.,.5.5.2.:.2.$.$.$.$.$.$.$.%.S n n v -.l.+.| | y.y.3.c.,.$.c.y.9.t.<.+.$.=.*.V v D h.F F F F S D #.=.=.1.4.<.w.w.e. X X Xi.e.w.>.c.y.c.y.+.| ,.5.5.c.c.c.v.v.y.t.w.9.9.9.9.3.#.Q S S v B l.A.V.s.s.s.s.a.p.<X=X=X-XwXpX+X[ @.q.0.x.x...#.k.h.=.#.#.$.$. .,.@.,.A.A.+.U M M N 5 +.A.t.y.u.p.p.<.| v.t.t.n.9.u.9.y.y.y.V.V.V.,.S ^ ^ Q S Q -.! h.h.=.} 3.9.9.9.y.y.y.V.c.| | 5.5.5.3.9.w.P.>X9XrXrXwX<X8.8.q.q.n.M.x.X.1.x.j.} V ;.#.;.5.3.b.0.v.v.q.n.9.y.5.<.v.c.:.+.,.+.a.:X:X+XP.p.w.@.$.y.}.i.}.}. X X X XL.I.U.U..X+XP.w.2.S S v S h.=.j.0.OX$XQ.Q.!.rXpXW.+X+X+X+X+X+XW.W.W.!.!.!.W.W.+X$X@.) <.y.v.m.m.t.t.u.i.i.i.n.u.r.p.t.y.j.G S l j j j u & U 5.<.<.,.,.,.,.,.,.,.+.| 3.V.V.V.b. . .m.b.| +.B U x v n v c n b c c B } } | } } B S z + u = r @ - @ 8 O @ p f ; ; % d p - - $ - K s t 7 -   4 B.l.$.V & q o ; B.3X@.* c c d d H E J p t @ X X X ; d d d s s s s p p r t p s p r r r 7 @ @ @ 7 r p p 7 @ @ r @ X X + + 0 @ O O - , 4 +.) | 9.M.b.b.C.b a p ",
"O 8 t g J J p p O O t p g E H T E E E E E E ^ ~ -.Q %.$.} >.M.j.* + + O @ @ @ @ O O O O O O O X O X X X O O O O @ O O O O O O O + X + + + o           . % 8 r t 7 t 8 @ 7 @ @ ;   < y.b.3 . * : & 2 V b.l.b.b.=.D l % # ; ; ; = = = P n N N G G 3 G 3 3 2 * z z n c i c Z S S N v v N N v x x m n b v B V 3 3 3 3 V.$X$X$X#X$X$X6XA.6 5 4 : p r g 8 a * y.5X4XpX5XOX}.5XDX2X#X$X$X$X$X$X$X$X$X1Xl.-.#.G b.3X@Xo.m.#X$X:X2X2X2XpXvXiXiX4X+X%X%X%X@.| b.Z.:.5 B 5 2 2 < < < < < < < < < < < < < < 2 < 2 3 2.A.$.V M V V N v v v v V M M V M 5 5 5 5 V 3 5 5 < 3XJXGXHXbXbXGXHXvXJ.F.J.Y.G.L.}.M.M.3.3.M.v.| | v.OX}.OXOX%X$X#X$X@X=XFXFXm.c.} B V 1 p.JXvXvXvXvXbXQ.a.<XvXpXiXiXiXiXiXvXGXGXHXJXs.< v G G M N D B F D D N *.} } } +.5 | FXFX7.o.:X2X:X:X:X:X>X>X>X:X=Xa.8.w.i.e.e.OX2X@X .q.1XM.2 4 m m -.l.=.$.} } } V } Z.1X@Xm.OXOXy.+.&.+.+.5.3.:.X.$.$.#.B 3.@Xm.}.}.m.m.m.u.L.OX:X:X2X:X+Xe.x.h.F l v N M >.o.;XDXpXpXpX{ 7.) 3 3 5 5 5 5 3 ) 3 3 3 5 3 5 V V 4 m m 2 x Q S z z l l G G l 4 2 4 4 & v n A a a 9 d ; . A.DXpXpX5X2X$X$X:X2X2Xp.8.OX:X$X$X:XOX@Xi.u.y.V.A.l.&.x M M v N V v B 1X1X1X1X1X1X1X1Xl.4 z z a d d o o o           o % $ $ e e 7 0 X t H K o c.FX3X< l c Z a h   . . % u # i T E f.g.O O X X X X   O p s h s p p p r 7 7 r r r @ X X X O 7 p p r 7 @ p 7 p d 8 X O 8 0 0 8 r @ = . +.V.$X5X2Xv.l.S R E E d ",
"O 7 r g J h p t X O s g h g.h h C E E T E E E E ^ ~ -.-.} l.Z.j.& % + + + 8 8 7 @ @ @ O @ @ @ X O X X O O O O O O O O O O X O O 7 X X X + : & < 3 } 5 . * p k e 9 9 7 7 r # % 4 5 ) o.7._ ) 5 5 I . V l.j.b.j...S c i % # = u = - ; m 2 B ,.| @.>.@.@.<.+.+.+.5 v z & z v n v v v m v m v v x z C h b l v #.B 5 ) OX#X+X;X+X#X%X%Xs.) ) 5 V R T T p T 2 ,.2X;X:X:Xi.i.$X2X#X X#X|.|.|.|.XXOX XOX#.Q B G 4.@Xm.O.n.XX#X+X+X+X&X>XwX9XwX*XQ.Q.p.V.r.o.}.%X@.) <.y.9.@.[ [ 7.7.7.7.7.7.@.@.@.@.@.@.@.9.@.<.<.c...} D D S S A A C C A Z Z Z S N B +.+._ 9.7.7._ %XvXrXiXrXvXiXvXiXJ.J.J.U.P.i.m.M.b.;.;.l.0.@.7.L.OXP.#XP.P..X.X.XI.W.uXpX}.%X>.|  ._ 7.<X=XrXrXwXiXW.H.=XwX<XwX9X7X7X-X-XiXiXwXvXW.7.n.v.>.| B B #.B v N v W N =.c.:.<.@.5X5X7.8.P.+XW.W.+X+X=X+X+X%X%Xt.w.m.i.r.r.|.2X+X8.p.OXn.@.%.4 x -.h.S N Q S Q D N Z.Z.b.v.u.V.y.+.%.%.! -.h.*.*.! ! ! S =.b.q.m.m.0.c.3.>.w.m.OXOXOXOXi.w.j.*.F c c z 2 |  . X2X2X2X2Xp.u.@.$.$.$.$.$.$.$.$.$.=.=.h.! d.d.^ L L P n ^ d.C C h d a c c c f P f P f b R A A C + a ; . 5.5X:X:X;X+X+XOX+X+X+XL.8.|.#X+XP.+X+XOXp.u.<.@.,.,.,.| | X.X.X.$.$.$.M.m.m.M.M.M.C.Z.l.2 z z & i i q 2 V V 4 x 2 2 v % 0 8 r 7 @ 8 O s y r * 0.SX1X< 4 n c u J - , o + # o u E T H H O O X X O X X X 7 p s p p r r r 7 @ @ 7 r @ O O O @ 7 7 7 7 7 8 8 # p p # O O 8 9 9 @ r $ , . ,.2X2X4X$X>.k.d E E T p ",
"O O O 8 p t 7 7 O 7 J H H g.t r a C T T E g.E E T ^ ~ ~ Q j.b.#.& % % + + @ r p r 7 @ @ @ 7 @ X X X X O O O O O X X X O X X X O X X O @ b k.l.b.Z.UXSX3 .   @ O O 9 O @ p & 2 | FXpXpXpXpXpXpXDXS.f n Q B *.*.-.S A E H p p h d = $ . < $XpXpXuXwXpXwX<XuXvXpX_ 2 & % % % ; # # # ; % % % % i i 0 p a % S B.C.b.n.@XI.K.U.I.P.p.L.L.i.}.n.n.M.C.v z L 4 4 | ) ` 5 5 | } } } } | } | | | | | | Y L P m N D =.1.x.0.x.t.w.a.{ { H.H.H.U.I.p.y.@.@.m. XXX#XL.p.6XGXGXbXbXbXbXbXbXbXbXbXbXbXbXbXbXvXvXbXvXvXp.>.:.2.D S v n n v m n d j h C Z v B @.$X=XGXvXbXGX!.Q.W.H.H.H.G.8.U.J.H.I.P.|.i.w.>.$.*.Q } @.u.OX+X+X=XuX+XG.L.L.|.L.K.G.G.+X4XOX7.t.V.@.1 ` OXOXP.P.+XP.P.OXP.I.H.U.U.U.G.J.J.Y.U.wXbXbXGX4Xp.<.#.%.*.I L b L N b.1X#X:X#X}.u.>.9.@.9.9.7.@.7.7.7.@.@.y.9.y.t.w.w.r.+X:X+XH.H.H.W.FXUX>.3 3 N W b R a Z n l Q x 2 2 v S N x x v n R b c v c v v c D +.@.n.0.| } B 5 | @.| | | | | | ..S n c f f > Y %.%.| | )  .v.v.t.y.y.y.y.y.y.y.b.c.c.l.j.*.S W I I W W N n Z S C a 0 8 # % = #     * % o * * c R a a q * V x.o.w.w.e.u.u.u.e.w.e.w.e.n.q.>.>.>.w.n.V.) < 5 3 <.1X#X;X;X#X%X1XS.5 5 V V V V V N n & i % o + + -.b.1X5X3X3XZ.h.h.c A 9 9 8 7 e y 7 X - *  .#Xq.< & / d.p 7 7 p u # # X p f.H 7 @ O O X X O X X O @ r p r 7 r r 7 7 O O 7 r r r r p 7 O X O 7 r r @ 7 7 @ @ @ @ @ 7 7 $ - $ , . y.FX|.o.o.1.k.p y j d 8 ",
"O O O 7 p t 7 7 O @ H H H g.8 @ p T T T E E E E E E R ^ W -.l.Q * % 0 % + + p h r r 7 @ @ 7 @ X X X X X O O O X O X X O O X X O O O O O f k.l.j.V.SX3X3 M * , $ @ @ X # d & 2 | 2X2X4X4X4X4X2X5XS.# R ~ ^ ! W ^ d.C d a 0 p d i 4 3 3 1 $X4X<X>X>XwX<X<X<X:XuX_ ) V V x x 4 4 4 4 4 4 4 4 2 2 l q w a % b z.B.b.v.}. X|.|.L.P.}.n.n.n.n.n.n.M.M.B v i n m m U N N I Y I I W ^ W Q Q Q Q U U U I P P f a Z ! h.k.j.j.3.y.y.a.a.p.OXm.}.u.A.c.B $.m.#XXX XOXp.;XGXvXvXvXvXlXaXaXaXaXaXyXyXlXlXlXlXlXbXvXbX8.' w.0.:.} V V N x x m b h C A N V | @.#X=XvXvXvXbX!.J.W..X|.P.|.+X|.P.|.|.i.m.m.t.@.$.-.^ N #.y.m.}.P.:XpX+X8.p.p.L.r.L.8.K.:X:X+Xa.p.OXp.1 ) m.m.m.m.n.@Xm.n.OXOXi.L.P.P.U.U.H..XU.>XiXrXvXuXa.y.,.$.$.B I P L 4 j.1X#XXX#Xn.V.:.,.5.2.5.0.3.0.<.,.3.<.<.@.y.3.v.v.w.OX2X#XP.W.H.H.pXFXo.` ) M L f T C b c c S Q N v R E S D D N v R P C C c c v v D | @.m.c.B N I x =.;.#.B Q Q ..D N c n b f f = P / W Q %.=.$.b.j.y.0.3.3.y.y.y.y.3.3.j.l.j.*.S S W N N Q ^ S v A A j 0 9 8 = = % 4 M 5 V 3 5 5 } $.V l x G ..1.j.1.3.c.c.c.c.c.c.b.c.x.j.j.1.1.1.1.Z.C.V 5 #.2 b.1XXX#X#X@X@X%XA.4 L L I I I n n z d ; + 8 0 X k.y.$X2X#X1XM.*.d.A A 9 9 k r e e @ @ = .  .:Xm.. = E A C J 7 O 8 r #   r f.J 7 O X X X X O X X X @ 7 7 @ @ r r @ r O X @ r r r r p @ X O 7 r 7 @ 8 p @ X O # @ @ @ 7 @ e $ =   5.SXm. .X.=.^ s y p d 8 ",
"O O O O O O O O X X 7 @ X O r f.T J h T E J g.g.g.0 + % % o o z W R o o a # O O 7 r r r @ X O @ O O O X X O O O X @ @ O @ @ O O O 8 p H E T n z 2 3 V 3XSX5 < 4 L b P P E R m U +.| 5 5 5 V B B v R W n ~ R W d.d.% % % 0 q o M 1X#X#X2X7.@.9. .@.9.7.@.>.3 1 V.#XDX5X5XFX6X@.9.9.u.2X$X$X2X$X3Xj.v c i z i N #.$.0.m.u.7.i. Xq.B -.#.#.#.} $.#.v v c a a u r u : * z z i i i z z z ! Q I I m z c A w a u ; R W v B 2 b.c.9.0.q.c.x.M.3.V N S V M.M.M.n.t.t.r.p.p.' 8.+X&X&X&X&X!.!.!.R.!.~.!.!.!.!.!.*X-X>X<X>X2X5X@X3 ..S.C.v b b 4 l.Z.V.#X#X#X+XW.P.Q.Q.J.J.U..X|.|.|.|. XXX XXXXXn.x.4.N...v W d i m 2 2 5 | w.r.K. Xe.e.i.p.r.8.P.I.+XG.!.uXuXpX:X1 ) ..........4.:. .q.}.|. XI.|..XP.L.I.I.a.a.8.u.n.w.e.2X3X<.5 U U B | ) 3 5 | +.| 5 y.M.M.M.4.} ......B B B D x Q n I N V @.m. XK..X,X4X+X2X@.3 Y L L R W W D Q D B S ^ c h.S.=.M x z z c c q v F h.B 2 3 Z.2.* & o a l 2 2 z z i l l 0 i % a % % % : ; m z z v N V *.S S S S S S N B B B D v S Z C ^ ^ ! F ! F Z C C j j j h 0 + n x @.FXpXpXpXwXuX>X:X:X$X1X1Xl.2 M N N N N N N D S M v v v v v v v Z v F G G Z.1X..G V V 5 5 5 5 5 4 f b f b n a % + + 8 @ @ + + Z U | 5 +.} Q a H g g.j g.C a i % r @ $ *  .2XV.. , K a c p 9 9 j s @ X p E E J s O O X X O O X X O p 7 X X O X X X X X t s s g r O @ @ 7 7 r 7 7 @ 7 8 7 @ O X X + O O O O $ X   * < < 2 -.d.p s @ @ @ ",
"O O O O O O O O X X @ @ O @ r T s E J E E h g.C g.0 + + + o X % ~ n * o % 0 8 7 7 7 r r 7 @ O X O O @ O O O @ @ O @ O X @ @ @ 8 + 8 p H J J H d Z l B SX5X) 6 5 n P R P T R ^ L n n L L L L W S W W W R ^ R ^ ^ k.n   . * * 2 3 2X2X$X$Xt. .+.3.,.:.3.2.$.5 V b.#X4XpXpXpX$Xa.8.8.L.4X2X:X4X:X5X4.G v z i z I B 2.c.b.<.>.m.@X0.v ^ v Q I U I I v c c j p r t p i & % i u i d a q v W Q Q I z z c w w a d f f R n v F l.b.b.b.c.j.j.M.1.V N l D M.M.x.x.3.,.@.t.@.) @.V.OX#X#X#X#X#X+X+X+X+X+X+X+X+X+X;X:X>X<X<X2X5X%X .:.Z.C.F B M 3 y.@XOX%X%X#XOXOX}.OXQ.I.P.|. X X}.}.}.}.m.m.M.M.b.j.j.h.*.D v z m z z N l V 4.m.n.v.m.v.n.u.a.w.}.L.L.U.!.uXiXvX<X1 3 Q h.h.*.*...$.$.>.n.n.XXXXn.i.m.m.V.u.y.n.m.v.v.v.m.2X1X0.+.%.B G | | `  .) ) 6 ` t.V.m.M.j.......*.F D *.V B V 5 5 5 5 @.m.#X X|.;X&X&X:X7.) 6 V Q N N N v D D S S S Z -.S.l.5 4 4 2 2 2 3 < ) 0.) ) ) b.c.G 2 2 2 2 2 < < < < 2 2 4 < < < < 3 2 < 2 2 * m z n v Z A A C C Z Z n n S N n n Z C p E d.F S ! ^ R d h E j j s 0 % x 5 w.4XuXpXpXiXwX<X=X>X:X:X1Xy.5 x v N N N N N S S v v v c c c c c a a A v F M.S.h.v b P P n N V v P P P P P R a % 0 + 8 8 0 0 0 C v Y U N n L E J J J g h C R i * r r f *  .5Xb.. > ; % a h s w 9 h e X p E T J h X O X X O X X X @ r @ X X O X X X X O t s s h p O @ r r 7 @ 7 7 @ # 7 @ @ O X X O @ O O O O O X o o   & ^ ^ 0 0 @ @ @ ",
"X X X X X X X X X X 7 # O O O r K f.J g j j A g.f.0 + O + @ X # * 4 ~ ^ c a @ O @ 7 8 r p s r O O 7 r 7 7 7 7 r r 7 O O @ @ O @ 0 u p g J J J g g a S #.+.3XFX)   o 8 7 j E f.A q c Z E ^ ! ..*.Q n I I I I Y Y %.4 . 5.1XV.V.b.x.x.x.0.<.<.t.3XV.@.<.5.,.,.6.5.<.@.@._ ` [ 9.w.o.r.2X$Xm.w.) ) :.l.! & m * 2 b.j...} $.%.$.2.1.l.h.2 M 4 x : z a d d d p 0 0 q 0 a 0 p p p a 0 a v l l v x z q l c z : z : : W F v ..F F D N %.0.w. Xq.t.y.< 3 x.j...B V V &.A.5.+.+.5.,.,.,.:.:.:.X.X.:.X.X. . . .@.@.@.,.,.,.,.2.+.| } +.,.5.c.| 3 <.v.<.<.<.0.3.3.<.9.9.9.9.w.w.9.>.>.<.<.,.2.;.-.*.! W n n B } M.M.X.X.1X1X} < 4 2 5 } 5 | :.3.q.}.|.K..XP.I.L.OXn.< 5 Q W Q v ^ ! Q *...j.0.M.m.9.@.,.,.&.5.} V } B V V G } } 5 V 5 1 v.FXpXwX<XU.&X+X|. Xm.y.b.b.j.1.} } Q N 2.<.2X4X4X<XuXpX>X+X.XU.W.&X&X,X,X;X4X$XV.3.2.%.N v b n c c F h.A n m x B | @.5X5X4X<XwXeX-X<X$XP.L.7.7.%X$X5X4X4X4X4X4X4XuX<X-X<X>X4XpX4X:X$Xn.$.;.q a p p i i i : & & & & & & & i a h r T E n v N W P = = y @ p 0 c N 2.0.w.}.i.r.a.p.7.[ 7.7.7.w.q.:.Y Y %.%.%.%.%.%.%.%.#.#.#.#.#.Q Q Q *.*.! n z R ^ d C T T T R R R n L R Z n S S z * q C C o w f.A a w + q c / > o $ ; $ - - X u o o O X ,   X.SXb..   = & q a 9 w w g 7 X r g s h s p p @ X X O 8 p 7 @ O O X X O X X X X 8 r p j p @ 7 r 7 7 7 @ @ @ @ @ @ O X X X X X X O O O O O O X X + T T + + + O O ",
"X X X X X X X X X O r r @ O X X s E H s s p j E C 0 + O @ @ X +   & B.k.i i + 7 @ 7 7 8 p h p @ @ 7 r r r r p p s r O @ r 7 O O p p p s g g k k J H E x 3 UXJX@.. o + 8 k 9 g.f.w a j E ^ ^ F F R R R R W I Y %.&.3 . b.3X@X@X@X4.2.l.:.3.0.V.5XV.@.@.<.<.y.3.$.,.+.+.6 < ) y.9.e.i.2X1Xn.<.5 < B l.-.2 x 2 2 C.b...N h.h.N D h.l.%.2 2 2 5 2 2 z i i q & * . . . 2 * * * % q & * 2 2 3 2 2 2 . < < . . . & m m Z F F v M M 2 +.q.w.L.i.i.w.1 < 3.=.F G v B 6.C.l.-.Q Q Q Q Q D D #.B } ..$.....| | } | B B B B B } | @.| ) _ b.V.X.3 :.l.,.$.#.$.$.$.$.$.:.....:.:...+.+.+.+.+.#.Q ! W I L m N V  .XXXXo. .2X5X) < < 2 < < 2 U B h.4.b.m.}.P.L.p.8.p.9.1 < 1 3 3 2 V %.Q Q D D =.b.b.1.+.+.U U +.3 3 < < 3 3 3 < < < 3 1 1 L.GXbXbXbX~.T.&X>XL.n.y.y.b.l.2.| 5 +.} <.w.uXpXaXaXaXGXuX&XU.P.Q.+X&X&X;X4XFX2X@Xm.>.$.} N b d f u F d.R m 4 < 1 a.8.vXpXpXaXaXtXqXwX>X.X|.p.L.5X4XpXpXpXiXiXiXiXiXaXiXaXwXuXpXFXpX2X@Xw.| < . . . . . . . . . . . . < 2 . * % 7 h T z 2 v Y P , , f @ s 0 n S 2.v.n.m.e.m.w.9.<.@.,.@.X.>.>.4.2.6.&.&.&.&.&.&.&.&.;.&.&.&.&.&.;.=.2.;.%.n i u f s H T T C C C C C Z Z S S S Z v % q E E + 0 f.E 0 w 9 + i -.4 . . .   , ; $ # o O @ X o   $.5XA.. .     * C + O j s @ X @ r r s s h p @ X X O 8 d r X X O X X O X X X X @ 7 r d r 7 7 @ @ 7 r @ X @ @ @ O O X X X X X O O O 9 O O O O X @ s s X O O X X ",
"O O O O O O X X X X @ 7 p p @ X O t s E E p r p 0 O O O O O X o * 2 C.z.q a + @ 7 7 7 7 7 r 7 X @ @ 7 7 r t t r 7 O X @ s p @ O e e 7 7 r t k k t J C b x ,.9.V.S.*.o % f.j w w A j p s d d c c s J d d c i 4 ^ -.%.M %.l.1.1.:.M x 5.&.2.:.2.l.l.2.l.j.x.x.x.x.5.5.5.,.+.@.<.@.w.7.m.m.<.,.U m m i z l l j.l...=.=.*.W n n C c 4 Y 6.3.V.V.m.M.:.$.#.$.5.b.m.n.M.b.b.} V +.| c.@X@X@XXXo.7.1X$X#X#X$X6X@.. 4 ; i E c k.c.t.7.p.u.t.u.m.p.p.V.m.3 N v v S ! Q Q ! F ! ! ! ! h.-.#.l.c.3.y.t.t.w.y.v.b.v.n.n.m.m.n.m.e.t.a.p.a.u.V.} 2 *.z.k.k.h.=.&.,.,.,.1.=.-.=.-.=.&.%.%.%.&.%.;.h.B V B | <.1X#X|.|.p.p.+X+XP.OXOXV.m.V.5.2 S ! N Q %.,.[ Q.pX<XrXrX-X>X>X:X:X5X9.3 Y n L L n Q #.=.2.$.+.:. .m.5X$X:X:X=X:X6X:X+X+X+X;X=X*X~.7X7XwX>XuXpX7.@.+.+.U #.;.l.3.9.w.i.8.+XU.U.&X.X+X X}.i.7.7.$X:XL.L.p.m.y.@.u.m.n.v.j.#.n P d ^ v N Y s.6X=XiXiXR.!.!.!.-XwX-XL.}.}.m.n.n.}.m.L.L.I.I.P.P.P.I.H.H.H.8.K.r. Xo._ 7.p.Q.6X=X=X=X=X:X:X:X:X:X:X:X$X$X1X:.$.N n R ^ ^ N U 6.~ m P a 0 a 9 a a F 1. .@.9.$XV.@.7.>.4.4.4.j.1.j.h...=.=.=.=.=.=.=.=.=.=.=.=.=.=.=.&.+.&.+.Y I 4 ; f u u i a b Z Z Z Z Z Z Z A Z C d d H h 7 7 p 7 @ O H E n V y.3X$X3Xb.3 m i u 7 @ d T W -.2.1Xl.. 2 S.B.* 0 8 8 8 p # X # p p d d d d p 8 p p 8 7 8 X X O X X O X X X X @ 8 p h t 7 r r r @ @ O O @ O O O O O O O $ $ @ 7 7 8 9 7 @ @ @ O e e X O X X X ",
"O O O O O O O O @ X X O s T p X X O p E f.s # X O X O O X O X o . 2 S.C.b i + X @ 7 7 @ O @ @ O @ @ @ @ 7 r r 7 X X X 7 s p @ O @ @ @ @ @ 8 8 r t g.J h n U 5 1XFXt.. * ^ f.9 9 f.C p 7 r p d d y s p a l * * B ! ~ k.h.-.*...D * * -.k.j.2.l.=.l.l.l.j.c.x.x.M.b.l.2.6.5.5.5.c.y.<.c.3.$.Q L m i + & 2 G C.C.G D h.k.R b E E d o Y S.@X3X3X5X5X0.:...:.b.@X$X$X1X@X%X:.| +.| m.SX2X5X2Xr.i.5XFXpXFXFXFXs.< . * ; b Z C.A.OXL.L.u.m.u.V.p.OX5X5X< l l c S ! N l F F ! d.d.! Q Q #.b.Z.V.V.OX}.}.p.m.m.m.}.}. X XL. XL.L.L.}.P.V.A.D x ! d.d.~ ! -.$.$.$.%.%.%.! *.*.%.%.#.+.#.%.=.*.*.G G | | u.DX:XK.L.Q.I.I.I.:X4X:X:X2X3XA.< 2 2 < 3 6 1 1 Q.HXbXbXbXbXGXbXiXvXGX8.< 6 4 4 n z z x D =.#.#.:. .1XJXGXGXbXbXvXvXpXuX9XwXiX9XU.!.!.!.pXFXFXUX@.5 5 M V N =.C.Z.M.V.}.p.P.P.p.}.m.m.b.b.y.| @.%X2Xw.9.@.@.,.| 9.@X@X@XZ.2.Q T d z * 3 6 Q.HXHXbXGXY.H.U.G.&X4X+XL.i.m.n.v.n.n.n.w.7.7.o.7.7.9.@.@.9.<.y.y.>.| 1 < _ OX:XvXvXbXbXbXbXbXbXvXvXvXvXFXFX5Xt.5.V B N z Q ..)  .) 6 5 2 G * w r p ^ h.2.,.y.5X%X@.>.<.4.1.j.j.j.j.j.1.;.;.;.;.;.;.2.2.1.1.1.=.=.;.;.&.&.,.+.%.%.m * ; % % % i C A A C C T T C C C C T T H H r @ @ X # o W l.%.3 OXFXFXJX3XV 2 i 0 7 @ H E k.B.l.C.,.. 5 UXSX*   8 p O r # X # p p d d j h j h E h p 8 @ X X X X X X X X O X @ 8 p T p O r s t @ O O @ @ O O O O O O O @ @ 7 7 8 8 8 @ @ @ - $ @ @ X O O X X ",
"O O O O O O O O O X @ r h E p X O X 8 T H p r X X X O O O O X + . 2 B.z.% + 8 8 @ O 7 @ O @ @ 7 @ @ O @ @ r r 7 X 7 r t s s r e e y r p i 0 8 8 t e y H h n 2 Z.4XW.a.+.. : o i a a 8 7 e r r r u % z l.j.4.X.:.6.Q W L z n ! ! Z Z ^ ^ n x *.$.#.B B B Q ^ W W -...D W W W W I D D Q Q S R d d p i c D D z.k.c q c c i 0 0 0 a l G 2.,.b.m.m.Z.y.3.:.$.,.y.y.0.y.5.c.+.#.%.Y b.Z.m.@XOXe.t.m.m.V.u.m.Q.+X$XOXV.2.2 N l.} M.@X9.>.t.u.p.p.I.OXV.+.I c a Z W W L Z S W W ^ W W ! B &.3.t.m.m.L.L.P.P.P.L.L.L.L.L.P.L. X}.}.7.w.V.C.W z N B #.=.=.=.=.-.%.%.Q Q ! -.*.%.#.#.#.#.%.-.S S F #.$.} V.4X=XH.P.H.L.L. Xe.e.i.}.m.m.m.#XP.U.P.+XOX+XU.,X&X*X>X-X*X*X=X=X!.<XQ.s.V.<.2.#.*.h...D D Q W ^ #.c.@Xs.Q.!.iXuXW.H.&X,XoX*X!.&XW.W.Q.p.u.v.A.#.D D N B v x %.-.k.*.=.+.@.,.@.@.+.&.;.;.=.} } j.9.q.M.y.3.,.5 ,.y.0.c.c.#.B W n I 4 s.6X<XiXwX-X=XP.P.}.L.|.#XP.+XP.p.u.u.u.i.e.u.t.t.9.e.t.y.&.j.h.h.W L I 4 5.m.u.}.|.#X+X#XOXOXOXOXOXOXOXOXOX#X#X@X<.5.} Q Q 5 A.%XW.W.W.P.OX XXX| N i # c W n v N l.&.$.:.:.,.&.! Q Q #.$.:.$.%.$.$.$.$.$.$.$.$.$.$.$.$.$.$.#.=.=.=.=...M v c a 0 p a j a a u u u i i u u i u f f # + + + x ) i.@XOXOXa.s.y.l.5.z c E C 9 9 h T S -.-.%.V } X.M.l.2 d $ - e r @ X O @ @ 0 8 8 8 8 8 p t 8 @ O O X X O O X X X @ 8 8 8 p h p X @ r r r 7 @ O O O O O O O O O @ 9 9 @ @ O @ O O $ $ O O 7 O O O X X ",
"O O O O O O O O X @ H T T E p @ O X 8 H s p p X X X X X X O X o   . %.Q o o + O @ @ @ @ @ O O @ X O O O O @ @ @ X r s s H H H J J J J T b i 0 @ O y k e 8 0   1XpXwXvX%X. > o X O @ # 7 7 @ O X o   l S.Z.Z.m.3.#.6./ P + z k.W d.d.C a + o S k.x 2 2 4 * % ; ; l l l l q a c & l l l l a d h E a   W D.k.k.^ 0 8 0 + + 0 0 0 a k.F G G X.3.X.:.$.:.,.:.$.$.$.+...$.#.U %.U N 2.b.>.>.>.0.y.| 5 5 5 ) 1 OXJXFXJX3X. 2 2 2 S.3X3.3 0.V.m.L.|.i.V.b.k.C p a a z L L n b m b z b W -.Q } 3.V.@Xm.}.}.}.}.}.OXOXOXV.m.m.V.m.M.4.4.j.B.C z z 2 N %.%.*.*.-.-.! ~ ~ Q *.*.*.%.%.%.%.%.*.l l D j.2.} v.vX:Xr.OXr.}.}.M.X.3  .X. . .i.FXiXvXiXiXpXpXiX,XY.Y.Y.Y.H.J.H.H.W.G.uXJX5Xn.m.>.x.M.l.F v n R n -.#.5 ` ` { vXuX` ` U.,XoX&X+XW.+X%XOX1 6 5 M v D G 2 2 2 < < < 2 * 2 < < < < < < < . < < < 2 G G b.Z.l.l.2.2 B l.=.2.;.D D ^ N 5 6 OXFXvXpX<X] 7.p.w.m.e.r.e.OX4X=Xa.a.p.w.i.e.t.y.t.t.u.v.,.B F A f.u $ f * S.UX$XL.8.o.o.w. .@.@.7.7.7.7.7.7.@.@.9.>.3.} G } 3 $XvXpXiXaXiXFXFXFXm.l.m $ % % 0 q q * * k.l.$.-.6./ / k.-.=.2.-.-.;.;.=.=.=.=.=.&.&.&.&.&.&.%.-.h.;.-.h.h.h.d.d.C 8 @ 7 8 9 8 @ o O o o o o o +     + + o o Q <.5XFX5XJXy.. .   & q a f.f.9 7 s T b q & * . b.0. .| x ^ $ - e t 7 X X X X O X X X X X O O X X X @ X X O O X X @ p s p r p h p X X X O p s r X O O X O O O O O O + + @ O O X X $ X $ X O @ O O O X X ",
"X O O O O O X X O O r r T J h p p 8 p d h d p p 8 X 7 X X 8 O % M B -.-.o o + 7 8 9 9 9 8 8 8 7 @ 7 7 O @ 7 r @ O 7 s s p p p t y y g H d s p @ 7 7 7 t @ p d k.V.%X5Xt.< 2 , = e y y r p p p a z Q %.;.l.l.2.2.#.-.~ n & a E E C g.j s p 8 h ^ b z z N n b L n F F S S Z S R S D B D ! d p ^ S } } #.N W d.E h t 8 0 + 0 a r h S F ....=.j.1.1.$.$.$.#.$.;.$.&.&.&.%.#.#.%.&.&.l.3.2.2.2.2.2.$.=.$.} :.A.Z.Z.S.l.2 x x z h.z.-.} 2.c.y.y.t.n.v.*.d.C g g s d P P i c T a R a ^ R R ! h.;.2.5.5.3.3.3.5.5.6.6.5.5.2.2.j.2...*.h.h.R a a d d H E R N Q B B Q I ^ ! *.! ^ W W W Q V j.1.X.j.:.} 5.%XOX@.<.b.,.l.l.W N 1.c.3.<.u.2X=X=X>X,X=X>X,X&XU.U..X.X.XU.U.U.U.+X;X:X;X|.r.e.n.M.C.V N N v ^ ~ -.#.5.@.a.4X4X+X;XI.U.;X.X+XOXV.5.&.Y N I N #.} 4.w.7.7.7.8.8.9.y.p.p.a.a.8.8.H.8.a.p.a.t.t.) V &.C.-.x v z n ~ d.^ F S v ^ Q +._ OX5X4X&X+XL.L.i.i.u.u.n.m.m.#XOXp.t.t.u.u.u.u.t.t.t.u.t.9.<.=.W R b f P 2 V.2XoXU.K.a.t.y.y.y.y.y.q.q.q.q.v.0.3.,.@.@.i.r.L.r.OX$X#X+X#X#X#X$X%Xb.$.I m 4 n a i 0 i b S ^ F F S Z d.~ W ^ W E f.Z F ! S W R R W S D S W W R S Q ^ S S W R E C h p p p p 7 8 a a d % v S v S i i 0 + q q + n N B.C.C.S.*.o i u 0 0 w E E 7 X s K d p 0 % l #.1.c.5.4 L # O O 7 @ @ @ @ @ O X @ @ @ @ @ O O X X X X X O O X @ 8 t p t t k s t X @ @ r d p @ O O O O O O @ @ O @ @ @ O O O O O O O O O O O O O X X X ",
"X O O X X X O O X X O @ H T T h T H H E f.E E E f.p 8 O X O X b C.b.z.h.o X @ O 8 0 p p s p t t t p p r p s s p X 7 s s r r r r 7 r s h g s t @ r @ O @ 7 H h R . y.FXZ.. . % - y K K h h C E E d.B.h.U U %.;.%.%.-.-.n q a C C C j 9 9 h h d i z 4 x B Q %.%.#.=.=.=.*.-.%.-.$.:.X...%.n i x 2 >.3Xl.& C h p H H @ + + 0 s s H C R k.h.h.l.=.=.2.=.%.-.;.=.#.%.#.#.#.#.#.;.;.2.;.=.=.=.;.;.;.*.*.;.=.B 2 . < M N * v & * q a A D $.=.#.+.$.$...v q a w u b i & & * & z Z A c j C A R W n x x 4 3 G x x v m m z x x x v v z c b v q p j H g p i 2 2 3 3 3 3 2 2 2 2 2 2 2 4 4 5 3 @X1Xq. .@. .) ) ) | +.N L N v b & $.M.c.<.9.OXOX+XP.I.I.P.U.P.I.U.U.|.|.|.|.|..XU.U.U.U.I.I.}.@X@XS.$.Q B 2 x B B V } )  .@X%XFXFXP.o.L.}.m.OX@.< < < < 2 < $. .$X5XpX4XuXuXuX4XpXvXFXbXbXbXvXvXiXiXpXpXFX5X` 1 U %.* & q * i C C w a v Z d.-.y.y.OX#XP.r.L.i.r.u.u.u.u.u.u.i.u.e.w.w.t.t.t.y.u.u.u.u.n.u.t.y.2.B N R T P 2 V.4X,X&XU.8.9.<.<.<.<.9.q.q.x.x.3.2.+.&.| 9.5XpXpX5XOX_ _  ._ _  . .X...} &.%.! -.b i o o % a C C v v a a q 0 d u p s w w c q a a u 0 i a a a d u c z i a c b d d h j d d d d 0 + ^ ~ d.d.k.k.-.z.d.^ b i Z S Z i   % % * i 0 0 8 O @ 9 0 d d O X r K y 7 t p q * 2 5.A.B I + O 7 O @ r p r @ O O @ 7 r 7 @ O X X X X O X X X X s s g s t t t t 8 7 p p s h p @ X O O O O O @ O O O O @ @ O O O O X X X X X X O X X X X ",
"X @ 7 @ O X X X @ O O O H T T H H J h p d E E d C u 0 + + + X Z k.;.-.^ + O 7 @ r p p s g k k k t p t p p p r r O 7 r 7 @ @ 7 r r r s h g g s r @ @ O X O H H d 4 5.3Xb.} V   # y y s s h h H T ~ z.h.N N U -.! Q ~ ~ b 0 p h s T d O + i i m N V ..:.>.0.0.<.9.9.9.9.9.<.<.9.9.w.w.9.<.+.| | ) >.C.*.z a h J s d + % % o ; f ; u f R L L I n Y I I I I W Q Q Q Q ! Q Q Q -.-.-.Q ! ! ! ! ! ! ! Q #.;.j.#.V V %.B U Q & i q 0 C ! *.Q Q ! %.! W c v v N V M } :.| | | } ..x n Z C A A n z x v v B V v v n L L n n n n n C T H T n z u s d i l 3 ) )  ._ _  .) | ) ) ) ) ) ) _ _ @.OX+XI.r.H.p.a.p.9.) } m ^ ^ W N 2 0.@Xv.| @.b.u.u.p.}.OXp.r.L.}.P.P.}.}.}.}.}.|.I.I.I.I.I.}.}.m.v.b...#.B V $.3.<.<.<. .>.t.m.3X5Xt.@.m.u.y.y.7.o. . . . . .7.o.OX:X:X=X=X*X&X,X,X9XuXwXwXwXwXwX>XwXwXwXpXwX8.@.+.%.M 4 4 i b Z c % q i c ^ Q ,.y.V.OXm.n.n.r.i.i.i.m.m. XL.L.e.e.u.u.u.u.u.u.e.e.e.e.q.q.t.t.0.} D R T f 2 V.;XoXoX.XL.u.y.y.0.y.y.q.v.x.c.3.l.#.&.|  .3X:X#X1Xy.@.@.<.9.0.<.@.,.,.2.j.2.=.=.N c q % u u p p u d a d b d P f f h u f f i u u s p p p p y y p a a a a d a a p u u a a i i a i W n S S -.h.-.k.^ z c c a d i : x 2 z z C i 0 8 8 @ O O r p + O - y 7 O 8 a q   2 Z.S.4 : # 7 @ X 7 s s r 7 @ @ @ r p r @ X X X X X O O X @ 7 t t p p t t t t t 7 r s h p r @ X O O @ @ @ @ O O O @ @ @ @ @ @ @ O O O O O @ O X O @ @ ",
"O r h h r @ X X 7 7 7 7 H H H s h E d X + T C O X i C a a a 0 R z.*.n i X @ s s g g h g g s k K g s s s s t 7 7 p 7 O X X @ r t t r r r 7 7 7 O O O @ X X h E T L 4 < &.SXS.& f s s s d j g g g d R R W W N W Q ~ d.d.T p s H h d f # +   * N 5.Z.3X3X3X1X1X1X1X1X1X1X1X6X6X6X6X$X$X$X$X$X$X$X3Xj.2 x R d T h 7 % % & * . . . .   , * * . . . . . . . . & v W n n n n v v v v v i q q & & & & & & * M -.&.&.&.&.;.-.Q * q 0 0 C c v z z b n P d % N 2 | X. .@XSX5X5X5X3XZ.2 * & 0 i a q & v ^ ! D S Z R T T b c b b b z z z i i l & % # i b #.0.@X#X2X2X2X2X2X5X5X5X2X2X2X2X:X6X6XQ.Q.<XpXuX4XpXFX5X< * f y a z 2 < n.2Xm.| +.+.+.| @.m.V.@.) 9.V.V.m.m.m.V.V.m.m.}.}.OXOX}.m.m.v.X.} } =.%.;.S.1X$X$XV.v.y.@.:.+.+.+.+.) 5 +.6 p.DXDXFXFXFXFXOXL.I.I.K.H.H.G.H.Y.Y.Y.Y.Y.G.G.G.G.H.H.&X=XU.=XDXFXy.+.%.U Q -.n % % % i a z ^ 6.#.+.$. .9.n.m.m.m.n.u.i.i.i.L.i.e.e.q.q.w.q.q.q.u.u.e.q.q.t.t.0.c.1.h.~ T a x Z.2X;X;X&X#X}.0.3.<.9.0.0.4.4.3.j.2.$.$.V ) @Xm._ 5 V +.+.+.A.1XS.2.2.1.$.$.#.#.*.h.h.~ R d # O O X + o % 4 & & & & :     o       o o X X O O @ # 8 a C h p p 8 @ 8 + % * o o z n & 2 l x N v 4 4 2 . * *       x M 2 * z f.u X 8 @ O O X O @ o o X O O O 9 p 0 & Q 3XS..   u t @ X r s p 7 7 r r 7 r p r @ O X X X X O X O s s O O 7 r t p k k p @ # p s @ O O X 7 7 7 7 7 @ O @ @ @ 7 r 7 7 7 @ @ @ + O O O O X X X X ",
"O r s s r 7 # @ 7 7 r 7 h h H h s d r   + T d X o a b a c a 0 b h.S b 0 $ @ p y s s s g g s y s H g s s s r 7 7 r 7 O O O 7 r s s t t r 7 r r @ 7 O @ O 7 s h H P L 4 6.SXS.* % d h h h h g J J h C h T R n R n E E R a 8 p g g y y $ $ , . N 5.A.1X1X@X@X@X@X%X%X%X%X%X%X%X%X%X%X%X@XOX$X:X%X1X;.l c C h j 8 a * 5 3 3 ) 1 1 ) 5 3 1 1 6 6 1 < 3 3 < G x l n z b b C b Z Z C C C a i i u i i i 4 x Q ;.%.&.2.%.%.%.-.4 & % u d d b b b d d K f ; 4 | >.o.e.@X1X1X1X1X1XA.M 4 & i i i i + i C A R R R ^ E T n n n v v M V N M l l x v c z v Q 2.@X$X2X2X:X:X$X2X$X$X$X$X$X$X$X$X$XV.OX6X5X5X5X5X5X2X3 x s y p l 4 < w.$Xn.| +.B #.#.#.l.b.+.| y.V.A.b.b.m.V.V.b.V.A.V.b.b.b.A.A.5.#.N Q %.;.l.A.%X@X%XV.b.c.#.=.%.I Q %.Y 5 Y +.a.4X4X5X5X5XDX|.L.L.L.K.L.K.p.I.H.H.H.I.L.L.L.p.L.OX}.}.#X+X#X5XSX@.| ,.#.U -.n * : % : : : L ^ -.%.B } 2.l.c.b.b.v.t.n.}.}. X Xm.u.q.q.t.t.t.t.q.q.q.q.v.v.3.:.2.=.k.^ Z c v j.@X@XOX#X#X@Xx.3.3.0.0.0.c.l.j.2.#.$.} &.$.b.V.| &.+.#.#.B l.C.C.%.%.;.;.*.*.-.h.-.~ ^ T u $ $ # + % * l B G 5 | | 5 < < 2 2 2 2 2 l & o + % % 0 0 0 p a p 8 @ @ 0 o * o 4 4 I Q 2 M B V x 4 4 5 3 ) 3 1 3 3 3 V | 3 4 & P ;   @ X X e - O @ o o X @ @ O r p 0 o -.3XS.&   # 8 O O 7 r r 7 r s s s p r 7 O O X X @ X X X @ p s O O @ r p g g p t 8 7 p p O X O X 7 7 r r 7 @ @ @ e e e r r r 8 8 @ + + @ O O O X X X X ",
"X O O O O 7 p s p s s r h s h h r X X   + u 0 + + + + 0 a % o + o o 0 0 u 7 r @ r t s g g s s p g s s s s p t r X O 7 r r 7 r s s s h H h H h p p r s r p @ @ s y P P L d.^ c i h d d s g g k k J E T T C T T 0 # # 0 @ O 8 g g K y $ $ $ o I B.V B 5 5 } } V V 5 V V V V V V V } | 5 ) e.m.) 5 N d.h p g r 0 * 2 S.3X1X2X2X2X2X2X$XOXV.Z.Z.%X@X@X@X@X1Xh.* & q % + 8 0 0 0 0 0 a u 0 0 0 u u 0 n Q -.-.%.&.;.%.&.%.;.Q W n b u = u p p 8 7 7 = m < 1X2X$X5Xe.1 1 3 < 2 B &.6.I m z f d u p h a a i i u i a R h.h.k.j.l.b.b.b.b.z.z.z.h.A z z M 5.>.w.7.w.w. . . . . . . . . ._ ) ) ) +.) ) ) ) _ @.2.-.7 s p q Q $.V.1Xy.| %.Q S ! Q Q %.#.B #.+.} } | | | | } V Y V 5 V B V V N Q W W W -.%.+.) ) | 5 V B x S c Z n n I n %.S.u.7._ _ _ _ o.i.r.}.}.i.m.m.m.u.p.p.p.p.i.m.m.m.m.t.9. .| >.| 3 3 V &.;.6.N W ^ ^ T ; % u ; u u : z n Q -.Q V B B | | <.n.m.n.i.q.0.0.0.y.v.c.0.x.v.v.v.b.c.&.B N N W c S S v x 2 3 |  .0.0.1.l.j.3.2.2.l.l.#.M V M G S.S.&.,.+.#.U Q %.Q ! Q v v v ^ ^ n z c z z c n b u # = i i W *.b.1X@X@X1X%XV.<.5.A.A.Z.Z.Z.S.k.v c Z v v j @ O 8 p 8 + 0 0 o * l k.k.k.-.-.-.*.Q x * * . >.5X2X1X1X1X1Xv.c.B.S.I   o # X @ X @ O O p 0 0 d H p X 9 p 0 o   m 4     # 8 t 7 @ 7 r p h h h J s 7 X X X X X X X X p p O O O X @ t g h g p r @ @ # @ O O @ 7 7 7 r r 7 @ @ r e e e r r 7 8 8 8 + @ @ @ 7 # @ O X O ",
"X X X X O r p s s g g t h s p t @ X X X @ 8 8 + O O O u a 8 + O + + 0 + @ O r r p p d h h h d d g h g s s s s t O @ 7 r r r r s p p g H h H H p p g J s s X X h f.J h E E Z R c C h j h g K K k g J H H h T T + O @ 7 7 @ t g g K y - $ X X R B.^ N v N Z R R b n n n n Z n Z n b n x V M.Z.#.m E f.J k e 7 p o * S.3X1X1X2X5X2X2X$XOXV.Z.Z.1X1X@X1X1X1Xj.* o + 8 8 8 8 8 8 8 0 0 u u u u u 0 q Q -.%.%.;.&.$.$.;.%.%.! k.E b = = = p 0 r 9 0 & V 5 $X5X3X5Xl.. & : : 4 N 6.%.U I m z c a a s a a q q i q v ^ z.h.;.j.l.b.c.b.b.b.b.z.h.A a d b k.6.3.3.3.3.$.#.#.#...} ....$.#.$.#.Q U Q U U +.| | C.k.0 p 0 + m 6.A.Z.l.B Q N S ^ ! Q Q *.Q V B B B V V V V V N N N N N N v z c R Z ^ S ! Q N B V N N v n n Z Z ^ Z z v v h.S.A.| +.+.+.+.| V.M.A.M.b.M.Z.C.b.V.b.t.v.b.b.b.b.M.j.j.*.! -.S v S h.*.S h.d.R E E h 8 t p p s p i i c L R R W W N N #.5.b.b.b.b.c.l.c.b.b.b.b.c.l.l.l.l.l.l.-.n L P R a A S v 0 # : v #.l.l.;.l.l.l.j.k.k.k.! v x 2 V 3XS.+.B %.U %.*.Q Q ~ ^ Z z b ^ ~ n c b a b a d d d r % & & *.l.Z.1X%X%X$X1X@Xy.b.A.A.Z.Z.S.S.h.l c ^ S v C 0 + O @ O + + + + % z B.k.;.-.k./ / / f     . 3.3X2X$X1X@X1Xc.5.l.C.N     $ $ # X # @ X # 8 8 h C p O 9 t 8 X % % o   + 7 7 8 t @ @ r s d d d d p @ X X X X X X O @ H s X X O O @ t s h s t 8 X X X X O @ @ 7 7 7 r t 7 @ 7 t r r r r r r 8 0 0 8 8 7 7 7 7 7 O O O ",
"O O O O 7 r p r r t p r h p 7 O @ r 7 X X 7 7 X X @ @ @ O @ r 7 X O p 8 r O 8 8 8 8 8 8 8 8 0 p r p r @ @ 7 7 O s 7 O O 7 r t p g g H H g H H s g s p 7 H 7 X h J s X O p 0 u p 8 8 7 r p s K K J k y g s p d r @ @ 8 7 O @ 7 @ e 7 O @ @ O i ^ ^ Z A E h H J J J T T T E E E T H E Z G M.Z.-.f.E y k y e 7 8 f.W %.} +.@.| @. . .X.| +.+.} +.| X.X.X.j.h.D W X 8 7 7 7 8 7 8 p p a C C C c c z z N Q %.;.$.$.2.$.;.;.! / c f P f f p p t w w l Z.Z.9. .+.V m b d f P P : N V 6.l.Q N Z C h h h % i Z R v l v S B V B } } | | } B D D v q w u i a z N v M v b Z b c c c Z ^ ^ ! S Q Q D ! ^ W W Q N W R C a p % ; z . * x N -.D ! S S W Q Q ! ! D Q S S N v N N n N N N N Q W Z R C a R c n N N n n R W Z S S S S v S D B N V N N N U x 5 B 5 5 V 3 2 M v x v Q } } $.=.=...N l l v v & v v & S N V M v S l c a a a w a a 0 a i a : % : f T T b R n n Q %.#.} B V N N M x x l M V B B v N W R n d K h 0 q q w 8 - - f I h.;.v v l V v v m b b z N ;.$.$.B #.%.I ! Q S W ^ R R ^ d d T T d a n b a 0 + 8 p u c Z n z.l.$.$.| | | b.5.V V +.#.+.#.V -.N 2 ^ z.h.Z C f.E 0 O 8 p + + % % o -.v x N n L T R $   B.SXA.X.o. . . .| | %.V %.l.S.6.  +   u f.d.0 O @ r X @ 8 t k r O X o # % + X @ r t h # X @ r p r p @ O X X O O X X @ d r 7 7 X O @ 7 7 p s s t 7 O O @ X X O O X O 7 7 r p r 7 r g K K s s s d j a 8 8 8 7 @ @ O O r p r ",
"O O O O @ r r p p p p s s r @ O 8 d O X @ @ 8 O O O 7 @ O 7 r 7 O O r r @ O 8 t p p 8 9 8 8 8 p r r 7 @ @ O O r h 7 O O 7 r t s H H H H H H g g H s s s p @ 7 p g.t @ @ O O r d @ @ 8 O r H g J k y k r p s p # + @ # # @ @ @ @ 7 9 O 9 + o q v A A A C E J J J J J J J T T T H H T l M j.C.k.f.E p 8 r 9 O p f.^ W N N B V 5 B B B N L L I I U B } ..$.*.k.^ o 7 7 7 7 @ O 8 i 0 c A Z W v & v v x U ;.%.#.;.2.$.$.%.-.-.E c d f d s p 9 9 w l 1X1X<.} U z h K H h d C b l V l.C.#.G v S Z C a + % E ^ b b v n x N 4 B 3 3 ) 3 3 B N 4 & q * & 2 * W i C p s h d d d d d E ^ ^ ! D ....Q D Q Q W E W b A C + 8 # p # o a ^ ~ W S ^ ^ ^ ^ ! ^ R R d.A A c c v d.S S S D S S ^ ^ d.a j c q c n v C C C Z N N V 3 G 5 V | | V G V v m 4 4 4 4 2 2 . * 4 l q q C A S S S d.d.d.q + * & & . 3 . < 3 1 1 1 2 < < < < < < < < < < < . 2 * * * i T ^ R R ^ ^ n R ~ n v z n c i i c i z c n c c b a b T P u d # i 0 8 r y - # c k.W i i z x z i f f a z N l.j.G B -.! ~ ~ ~ ^ R ^ ^ T T d C d d C b b C p 8 @ @ @ a T C Z k.z.! N m L ~ B.-.U x v I n I n W z * W B.k.n R d./ % + + % + + X i % v v v v N v C E $   B.UXS.| | X.) 5 5 U I I N S.SXl.* o o i B.k.* + 7 e 8 X 8 s 8 @ 7 X O u # X O 7 p p d 8 O @ 7 8 8 p X X X X X X X X O s p @ @ O X @ 7 r s s s r @ X X X X X X X X O @ 7 s h r O 7 H s H H g g h h s 8 t 7 e O X $ X s p p ",
"X X O 7 r p p r O 7 p s s r O X O 8 8 p r X O O @ O @ O X @ e O O @ r r O O r p @ 7 7 7 9 7 9 8 8 7 7 r p 7 @ r H s t r 7 @ 7 r 7 7 7 7 7 7 @ @ O O @ 7 @ X X @ t t r 7 @ e r O @ @ r 7 r p @ 7 7 e e @ r p p # @ @ @ @ # r s h d h a a 9 + ^ B.d.A A E h H J J J J J J T T T H H T B.C.M N n a a 0 0 p 0 + 0 C b R L L I I L L W R T P T T L I Q V =.l.*.N v i r 7 @ r p d b c R S d.h.l S B.z.S N Q ;.=.=.;.$.=.=.Q W R b a d a d s t 8 9 q l j.c.V x n f H g h h h C Z v v *.#.h.j.! v v A C u = E E % % : * & 2 4 B.A.b.v.b.b.} #.N * Q z.l.b.z.* & u p j p i i = = y s d C Z D ..D D Q W Z 0 u b c R Z u p r t 7 @ 0 a a c n z i n ^ b a E d T j C C C w w A S ! ~ ^ ^ d.d.A C C h a R n c E E ^ Q #.2.b.V.m.m.n.m.V.V.c.$.-.W 6.B.l.Q Q l.S.Q & i C a a c c l c c q i q i 4 . M S.A.V.V.@XOXOXOXOXV.V.V.V.V.V.V.V.V.OXV.V.b.Z.&.* & m i % i 0 0 i c a % a % u u u p p p 0 a C C C T b d d f % ; + % & 0 u - - ; * v q # O + % u d K h d c S D ....D l & & q i i i u i 8 # # 0 # + + + + + 8 9 8 r p C E C Z ~ ^ L R R P P ^ ^ W W z.z.R R b a W h.k.z.k.b v k.k.a ; o o 0 X p d.f.^ ^ ! ! D ! ^ R ; o v %.;.V $.c.4.5.6.I L ^ N ;.b.k.B l * * v q X @ e @ O X 8 h r O @ O X X X X O O O r T r X X # r 8 8 X X X X X X X O 7 h s @ @ O X O X O @ 7 @ @ O X X X X X X X X X @ O O @ r t s H H H g h g g g k s t r y y y y r # @ @ ",
"X X O 7 p p r 7 X 7 g h r O X O O @ 9 g r O @ r @ O O O O @ @ O O O r # X X O # 7 7 @ @ 7 e 9 8 7 @ 7 s h r @ r s h h p 7 @ @ 7 @ @ @ @ @ @ O X X X X O X X X O O 9 s y @ @ e O @ O @ O @ 7 @ 8 @ @ @ @ 7 r p r + @ O O # u d H H T C T 0 + d.D.h.v v A d T E H J J J J T C H h s ^ SXSXS c T b % % % 0 w 0 w c c R W L R R R L R R T T T T T L W N %.h.Q z z f u u @ # d R E R ^ ^ ! *.l V S.S.k.-.h.-.-.;.h.*.;.h.Q n b c a a a i p r 7 8 * 2 B #.l z b a h h j C A v A b c b & d.B.d.z c Z C - - E / % % & . * . V S.1X@X@X%X%X@.| 3 . ;.3X3X1X1X2 2 * * * * * & % # p s p d c S ! Q W ^ E P + 0 a i a i = s 8 9 7 8 t 0 p P f ; % n ^ d p d d s p j j h p 0 E E E ^ ^ ^ ^ ^ E a s H H d d ^ Z S *.$.:.y.OX#X%X#X%X%X%X1XV.:.2.$.l.S.Z.:.1.S.3X%.. & q 0 q q q o & * . . . . . . @.UX5X5X2X2X4X4X4X4X4X4X4X4X4X4X4X4X4X4X4X4X5XSXb.. . 2 * & 0 + % 0 q 0 + a 0 8 7 7 r r r 8 T C C d d d d b z i o * * . . . o o % o o + 8 @ @ 8 p H J T T R N x D *.M & * o   o * * o o + o o O O O @ @ @ @ 7 9 8 j C C E A Z W R R T T K E E E c ! S.S.^ c i o D z.l.k.z.n v z.k.z i + O # + T B.k.d.^ d.F ..D R ^ n * 2 l N V 1.M.b.b.B.^ ^ ^ W W Q *.j.=.* .   o X X @ O O O p H r X X O O X O @ 7 O O p T r X X @ 7 # # X X X X X X O O r s p @ @ O X X X X X X O O O O X X X X X X X X X X X X @ p H H H g g H J g g g t y s y s s r p O O @ ",
"O X X O @ 7 r 7 @ 7 r r 7 7 7 r 8 O 7 t 7 8 r @ 8 $ O + + + + o + # f d % o + + @ $ @ @ 7 e e 7 r @ @ p g r @ 7 7 s H h p r p p p p p p p t r r p t r r 7 r r p a 9 7 r e - r p p 0 @ @ 7 8 8 a 8 r r r r r p p p u p s s s d d d s s H f i R k.d.~ ~ W b T T s J J J J h C T T T n z.z.b T # # # + + + + 9 0 0 q i a c R R Z R R R R R T R T R R N W W Z R n ; u u a i d n W W W ^ l x S v D D v v z z n Q W v v S n z c d i u a i r r # # % & -.h.v c Z C A A A A A A A b u u u d T P i i i u # # b R Z W S N D Q B $.3.@X@Xm.u.t.t.3.5.l.2.2.+.&.$.} $...D h...-.v % p r e p 0 a c z z f u ; q q a f z f f K a p r r 8 8 @ p = u u u d s r 7 p r p p p p 0 0 p a a a z z z b f f d p p s p n ~ -.=.2.<.t.i.i.p.L.i.p.u.t.y.@.<.<.>.b.v.>.>.b.C.;.I x & z W W B 5 5.5.5.y.c.9.y.t.t.u.p.p.p.i.p.r.r.p.p.p.p.p.L.L.P.P.P.P.P.P.}.@X9.3 } B v ! Z R S q w p 0 0 u p r r r y t t p 0 a i i z i i & m 4 ;.5.2.2.;.B.v & & 0 % 0 8 8 7 r r p d T ^ W S ! *.D v c n W W W n q i a 0 % + @ # @ @ @ O 8 9 8 j j j A A Z S W R T T T E T E R ^ z.z.R R R z Q h.*.h.h.4 v W W L / u X # O 0 E b a c ^ v S v d P % o N k.S 2 N l.j.=.-.W E T E T q S l.j...D o + s r t t p r s H 7 X X O O X X O @ X X r p r r 7 @ X O @ X X X X X X X O @ 7 @ O O O X X O O X X X O O O X X X X X O @ 7 X @ @ O 7 s g p p r t g J k y y y 7 r X = = # u @ 8 r ",
"O X X X X O @ 7 p 7 X O r g h s 7 X 8 p p # + X o           .   . . 2 2 . .     + O # r r y y @ r 7 @ p s 7 O 7 @ p h h h H H h H H h H H H g g H h h h h H H T f.8 X e y y p i 0 0 + 7 r 8 r p p p p t t p s s H H H H H g s t K K s K H K P f ^ B.B.^ b h f J J J J J H T T R Z c Z C h J 7 r - - e r r 7 @ X + o + d ^ E R d.A Z R R R R L R T T P f f T d O # f T R E E W W ~ Z * & d.S o o o o o * i n z * * i a i a d a a a 0 # @ $ # % % ~ ^ c i c Z S S S Z A Z C 0 + # r O X $ + # # o i * o * h.z.k.l.k.z.Q . 3 S.1X<.@.V.%X%X1Xb.4 4 . . C.M.Z.M.M.C.C.C.d.+ O @ O 7 7 @ O + o X X + 4 2 q z b z f d c c u @ 8 9 7 @ @ = + X @ @ @ @ @ + + o o o   * o 0 %     .   .     o % % # # n k.j.l.3.<.y.v.t.t.y.y.y.<.<.5.,.@.0.>. .9.<.>.2.2.l.l.Q & N l.2.0.u.5X5X5X5XDXpX5X5X%X) @.| @.:.:.:.:.:.>.>.<.<.@.@.@.@.@.@.@.>. .>. .:.l.j.h.k.k.z.k.c 0 p 8 + + + p p r r r 7 8 o * * . * . . * v #.S.1X1X1X1X3X$.  o + 0 q + 7 7 @ 7 r a T ~ d.~ Q h.h.Z n z.z.z.k.! N v z i * o + + O $ e e r O 7 d j a b A ^ A Z S W ^ E T E T ^ E C C T E E E R n Z ^ Z q z & z d.B.u   8 8 + + o * + z & o # @ -   o W k.^ o z h.h.S v R T T E p X W B.l.C.z.+ + T h J H H s s d r X X O X O O O O X X @ @ 8 p 8 O X X O X X X X X X X X X X X X X O X X X X X X X X X X X X X X X O 7 r 7 @ X X r H s @ 7 @ 7 s g e 7 @ @ X @   %       0 p p ",
"X X O O X X O O r r 7 7 r p s s r X @ d u o % W n x x V V } ..| | | >.>.| | | +.4 o + @ @ r t r 7 7 7 p h r @ 7 7 r p s h H h s g g g g h h g g g s s h h s p p a 0 r e - - # % Z Z 0 8 t r p j t y y t s s g h h h H H h g g s J J K K H H T d T B./ % d T K J J J J J H d c c k.! Z T t k 9 7 - - - $ @ 7 8 0 i + % n ^ n q z b b n n v b b c n b d d d d d u % % % a c b c b Z q q i c c i Z c b q + i d a i u d a p p p 8 p p w % % % % ; ; n c i q v v v x n b c n b % % i ; ; u # # ; u % % q q q ! k.! k.^ ^ S x M l.l.,.:.y.b.b.b.j.V I Y 4 #.2.$.=.h.*.h.k.S % + t t t p 8 0 a c b n ! l.#.v v x z n b N S c + 0 a t 8 @ @ 8 d j 0 + 0 % % v v -.-.x x c b 4 2 +.,.+.+.&.+.#.2 2 N W Q M B =.;.$.&.2.2.5.&.$.&.&.&.U B } <.<.>.3.4.:.j.2.-.%.v . V l.2.>.w.OX#X+X+X#X+X+X#X}.9.0.5.l.;.2.2.2.2.2.2.2.2.2.2.2.2.2.2.3.3.0.<.<.,.%.-.h.Q ! ! F l 0 u u d R c a u @ @ p s u * S #.B } V B U U #.b.M.n.n.V.1X0.V z + @ w 0 8 8 8 8 0 0 b R Z ^ Z n ^ c a ~ W Q N S Q N x v z z n d # @ r r # O r H H h h T R Z Z Z b Z ^ R d.d T E T E E d h E T T E b a Z b z Z ^ f.p @ # r # + q n v S W b f d P ; o L k.R   i C C E c E f.J E s + b d.h.k.k.o O h g h J J g s s p 8 O O O @ O X O O O + @ @ @ O O X X X X X X X X X X X X X X X X X X X X X X O @ @ @ O X O O X X O @ r @ @ X X @ p p r p r p g g y 7 @ X X # o * . #.h.i p p ",
"X X O O O X O O @ t h h r @ 7 p r   @ i u o & z.l.l.b.b.M.@X1X$X#X#X#X#X#X#X1X1X} 2 * +   X # @ @ 7 7 p s r @ @ 7 @ @ r s s s s g s s g g g h g s r r s s 7 O O o 0 K y $ X o o z.z.E p s y g p r r r t s g g h J J H H H J J J h E h H H h E T b T 0 X p T H h J T C C f f 4 5 SXC.v i r p p O @ $ X X o 0 c n n z 4 n L &   o     o o . . .       o o o + + 0 i o   o + o o % % + a h O 8 f.f.f.E q O + u p s s s r @ @ X X @ O O o   .       o o + o . * . .         * . . * o * & + o o * X @ r T C A v c C a o c h.Q M 3 =.=.=.=.*.-.D x v 6.N & : % z c i % i a i d d h d j d Z Q ;.j.b.M.1XA.;.%.F N ~ ^ -.;.L : i a w 9 8 + p f.f.a + q * v l.C.3X1X<.$.=.;.} ,.@X3X2X$X$X5X1X) 3 Z.Z.B * 2 n W S S S A Z Z c c n n l . x %.%.%.;.#.D k.k.n v m * N l.2.j.2.3.<.<.<.@.@.@.@.@.@.:.1.2.=.2.2.2.,.2.,.,.,.2.,.,.,.,.,.,.,.&.,.,.6.-./ ^ i l q l q i u p E B.h.^ b + 8 T E * * j.S.Z.@XM.V.l.#.+.+.+.) @.u.#X@Xb.h.# @ 7 8 9 7 8 8 % + q c i n b i a d p i : : : L k.-.N ! k.k.z.k.i o + o % o u H H J H H K H T d u d E R C n E E H T T E T E E E H 8 + C C E E u r r p @   O o z k.h.l.z.B.k.k.l.N   z k.i o + @ @ s h T g.k h j 0 0 r d d T + 0 C j g J g K s p p p @ O X O O X X X X X O O X X X O X X X X X X X X X X X X X O X X X X X X X @ r r r # X O @ O X X O @ O O O O O O r h j s g g J g y 7 O O o   . 3 3XUXz p p ",
"O X X X X O O O O 7 p s s t r p + o # i i % * -.! %.=.$.>.y.m.m.m.n. X X X}.@X@X9.| B U v & % + # 7 7 r p r @ @ 7 O O r s s g g g g g g h H H H h r r p s r 7 7 + u s y $ @ % o ^ ~ a p s k g r r r r t g g g g g g h h J J J h h h h E T h T h d h u @ @ p g H H h b c f m N ..b.l.i u p 8 8 0 b m x v V N D #.$.%.#.%.-.U M N v N V V V V V V V N N M N D D D Q N N N N & * & * a u p @ 7 E p C C 0 + 8 p r s s s r r 0 + + i R F D } | } B V N N Q B M V V V 5 Y N V B } B B } V V B B B N v f $ s d p h C p d + 0 R v N x Q Q ! ^ R k.d.v S ! n R d d T u d d f d d s p p u u c n D $.4.x.v.A.l.%.;...F h.^ B U m : i c a w 0 + 8 E E i o * * x ;.;.S.Z.X.<.4.v.0.9.n.m.m.}.}.m.n. . .XX@X4.V m m b b C T h j E E C C R c * m / ~ W ! W n ~ d.c b v 2 N j.;.Q ! Q %.U &.+.5.,.3.3.$.l.1.2.j.2.&.,.,.,.,.&.&.%.&.%.&.&.&.&.&.6.6.%.Q / ^ P c c c c a a s r h d.S Z c o + b R z * Q l.2.3.3.b.b.$.2.+.&.+.+.t.@Xn.1.Q 8 8 7 8 7 7 0 i q 2 z R Z % u T C a d d f f ; P k.^ z W S ! z.k.c * 0 % * o % s K K K K J K K r r d E d C b d s H T d C C h H J s 8 w C C u a p p r p # + % o & k.~ ! Q ~ -.;.-.M 2 v W v c i p t p H g j J J p 8 s r s p s X O C T g g s K s r p p # O @ 7 @ @ 8 O X O X X X X X X X X X X X X X X O O X X X O X X X X X X X @ # r # @ X @ 7 8 O O O O 7 O O @ @ O @ p s s p t k y y 7 O o   * 2 3 1XS.c s p ",
"o O O X O O O O X X O $ K E r       & % u d # # + o * z v x x V X.X.:...| +.@.7.m.@X@X1Xb.. & + @ r @ X 0 + + # @ O O $ e y r 8 8 y g J J J h h d P f $ $ r y y s d s s p p p a O @ p s s p 8 7 @ @ 7 t s s s p t t p g h H h h H H H H H H h h p O O O @ O O J K J R &   *.C.z.W c s r # 0 % . 5.@XZ.V.@X@X@X1X@X@X%X%X%X@X1X1X@X%X%X%X%X%X%X%X%X%X%X%X%X1X1X1X%X1X1X1X3X5 . * % # @ @ @ @ @ r # O O @ r s s s d u d b & *   C.3X1X1X1X1X1X2X1X1X1X3X2X2X2X2X3X1X3X3X3X3X3X1X1X1X1X1X1X1X1X1XS.z h u = # X @ 7 7 7 7 @ + a Z c c d b C R R R R ^ ^ f.f.d a C h d d d h p # O @ % q v D h.......$.$.%.D h.*.~ d.^ ~ R i a c a C a 0 O p d # 0 + o i k.D *.=...x.1X#X$X3Xy.3 | 5 V | | Z.1X@X#X#XS.#.  & % o # r @ p a C C C Z Z R E R a i b b i b i i z 4 N 6.%.i i i i z m Q k.;.;.2.;.2.;.;.=.;.&.&.&.&.&.6.6.6.6.6.&.&.&.;.6.%.k.n & : : i i a a a a a p p p % & b n o + R T C b & * z ! ! D ..c.c.%.%.%.%.#.$.M G v C p 9 7 $ $ v #.} ..*.~ d O i ^ R b c i d d u d T b b a & & k.B.C a a O o + + d t O y J J r @ h T p + + + @ + + + 0 w a @ 8 r O 7 8 + A u # + @ @ + + + + X X 0 d a a a f d i i S -.v   D S.D.c d p 8 s t r r @ O d E h 8 + X + 8 8 7 8 @ @ @ @ @ O @ @ r h h 7 7 p p X X X X X O X X X X X X X X X X X X O @ @ @ O X X X X O O @ @ @ O O 9 9 9 9 O 7 7 @ O O O 8 9 + O O @ O X O y y @     . < b.5.=.Q a s k ",
"X X X X X O O O X O $ - s T u   % * o % % u p r r 7 8 i a b Z S -.=.-.-.;.&.,.9.}.XXXX@Xv.< 2 o @ r 8 O p @ + # @ $ O $ @ 7 8 8 r y s g h H h j u f p - @ r y y s s s p p t t p 7 r p s s p r r 7 8 8 8 p p p 8 7 r p j j j j j h h h h h h h H r @ 7 O O @ @ g J K d & 2 *.z.k.^ T p p # o z 2 ,.V.V.b.V.@X@XV.@XZ.Z.Z.Z.Z.Z.Z.V.V.V.V.V.V.V.V.Z.Z.Z.Z.Z.Z.Z.Z.@XZ.Z.Z.Z.} 5 2 & 0 0 7 p r @ @ u 8 # r p s s s u d z & 2 x 2 2.Z.Z.@XZ.@X@X@X@X@X@X@X@X%X%X@X@X@X@X@X@X@X@X@X@X@X@X@X@X@X@X@XZ.z d ; # = @ r r @ # 8 0 0 i a i d d b T R R R ^ ^ R E E a a j a a u p s p 7 8 u + c v S Q Q ! ! #.#.*.Q ! ~ W ^ ^ ^ C a a a a a a u @ p d # # @ # i ^ S *.=.=.3.@X@XV.@X5.V %.I U U #.b.Z.m.XXm.Z.%.* & % u = @ # p d b C C C b T T b f i a d a d d c z : n -./ d d d d d c W ~ h.h.h.;.;.-.-.-.%.%.%.%.%.-.%.%.-.-.%.-.-.-.-.-.W ~ v z c i d d p p p p p p s p + q a d + + C a a d 0 % c E ^ S =.b.5.#.#.Q -.-.-.v z a a a 9 0 ; . $.4.X.X.} Q z $ ; T b i i u 8 d p s T d d i % i d.d.C a w 0 8 8 8 p @ @ 7 g H r r p a d 8 8 8 8 8 8 0 0 a j 7 7 r r p p p h p r # @ 7 + + + + O O p d j d s p p p d Z W x 2 h.z.z.c c p p s s r 7 # O p C a u 0 O @ t 8 7 r 7 7 r 7 # @ # 7 r s s r r r 7 O O O X X X X X X X X X O O O O O O O O @ O O X X X O O O @ 7 8 @ O O 9 7 O @ 7 7 7 @ 9 9 7 7 + @ O @ @ @ r r r -   * 5 3 2.;.-.~ d g p ",
"X X X X X O O O X O @ O X   o   n B.^ * i 8 r s s s p u a R ^ ^ ! *.! -.-.&.$.@.9.e.m.}.@XZ.b.2 8 9 8 O 8 @ 7 @ @ @ + + X + % % @ $ @ @ @ 7 9 9 O O X X X O + + @ O X X X X X X X X O O O O X X @ O O O O O O O X X X X X O 8 p 7 r s H H h p r s h d @ O @ @ r - O + c D h.k.h.i T p d +   k.C.Q +.Y U &.C.C.M M M M M x x m m m m m m z v x x x x x x x x x m 4 4 M 4 N l.S.k.W ~ ^ ^ ! S x l i i i u u a a i i z z 2 x S.3Xj.x m m m m m 4 4 m m m m 4 4 4 x 4 M M M M x M x x M M x x N N m R T r + @ O + + u % 0 0 % % i z z z z i q % * * q % % % + 8 0 + % % + @ @ O 7 r r u 0 + + f / / Q U S N & z % i ; # # r r r r @ + o + b R f u # + % a z ^ -.-.*.M 5 M Q I n / W W ^ B #.$.$.| 5 * 0 p p @ 7 r p T h a p u r r r a a a d a a d h p h d 0 o 0 C R C b d d a a c Z l z x l z z z z v v c c c c c c + + + 0 q a l a c c a a a p p p p p t r 8 9 7 8 + 0 + 8 + O 8 O + 0 8 + 0 a a c x #.#.;.;.#.%.Q ~ b % + + 8 O * 3 ) @X2X2XSXc.. & o + ; + + # @ O r O X - $ + # o o q q q u + + + 0 % % O + O + o o a 0 + ; + # + + @ # r t s H H d j T h s s @ @ O O O @ O O O @ O O 8 s g g j H d d b z x h.S.*.l 2 * + X r r p O O @ X @ p 8 f.T + @ h H r 7 7 r r 7 7 7 7 r r 7 7 r r @ O @ @ O O O X X O O O O O O O O O O O O O X X O O X X O O O @ @ 7 O X X X X O O O + @ @ 8 7 9 9 7 7 7 8 8 t 8 @ O X   Q C.5.N v f T s s p ",
"X X X X X O O O O X + % %   *   W D.~ o u 8 7 H g g p p a b R R ~ ~ ~ ~ -.-.;.2.c.m.m.e.}.1Xn.< z 9 8 @ 8 7 r 7 7 8 + @ O o + + $ $ $ @ @ @ 9 9 9 O O O O + 9 9 8 @ @ O @ @ @ @ @ @ @ @ @ @ @ @ 8 8 @ @ @ @ @ O @ O O O O O 8 8 7 r s H T h p p p h s @ O 8 @ @ $ O # Z h.-.! ~ i b a a % * -.B./ ^ L W / B.B.m n n n P P P P P h K K H T T T C C Z Z Z R R R T h P L z : B.S.k.Z ^ ! d.h.D G l z z z z z z z z z l l 2 x S.SXQ d K H H K K K K K K K K d d d d b b b P b b b b f b b b b P P P T h @ O @ + 8 0 0 o o * * * * 2 2 l l l z l & & * % % # + + # @ 0 % + @ @ @ 7 r r u u i u f E P L W ^ ^ : & 4 & & * & z i & i % % * % b T d u ; % i % i R W ^ W m m b T T R f.R ^ ^ W W Q Q B x 0 p H g r p 8 8 E A c i i u u f i i i z c b c a 0 a a 0 0 j h E E C h a a a a a a c c c b n z i a j j j j a j a 9 0 9 w a j j j a a a j p j j p g p t r 8 8 8 + 8 + % o + 0 X O O 8 8 + 0 0 0 q v ! Q ! *.Q -.Q ^ i ; + + # O * $.w.1X2X1X5Xb.. *   o o o o o X + + o + + # ; + & o * * % q % * & l % * * o % + % % % % * o * % % % # = r y s K f T C E E H J @ @ @ O @ 8 + @ @ + + @ 0 p s s d C c c c 4 l h.S.Q * o % 0 X 7 e r @ O @ O @ 0 + f.E + @ T T r 7 7 7 7 7 7 7 r r r @ @ r 7 @ O @ @ @ @ @ @ @ @ @ @ @ @ @ @ @ @ @ O @ O O O O O X X X O O @ @ 7 @ $ $ $ X X + + + + 8 8 8 9 9 7 7 8 r t 8 7 @ O O   Q S.b.2 a y J k p p ",
"O O O O O O X X X + i & *   Q z.k.i i a u r r g g t r p p p 0 a i d c b n W Q %.1.:.0.q.n.@X}.q.=.* q 0 9 8 y e t r 8 7 @ O @ O O $ # # 0 0 0 p t 8 8 r r 0 w a h g s s s g g s h h h h g g g g h g g g g g s s s g h H h p @ X X X X X X X X O X @ O O 8 p a p g s u ; z & & z q * 0 q A ~ z * n ^ T T ^ ^ ^ P T P P P P P P b s g h H H T C C C C C C C Z C C E s T E b n b q q Z ^ ~ -.#.D ..%.%.=.;.;.-.h.h.! k.~ h.k.W W b C H J T H H H J T T T T J H H H H H J J J J J J J J J H H T T T A C 0 + @ @ r p 0 % b h.z.l.l.b.b.b.b.b.b.z.k.h.z c d f r - - - @ # @ @ @ @ @ r p u % & & & & o   , , o . . l.b.b.x.M.M.x.j.j.h.k.E z & % % + % # ; o + % : % % d d h h h C T a C b b b d i ; i a 0 w + + 0 0 c q l N Q %.Q ! ! Q -.-.Q Q ! S z & & q % 9 r 9 w g.E j d g g d s a a b C R E b i + + + + + + + @ + + + + + + @ + 9 9 w 9 9 8 8 + 8 + + + o + % % o & k.k.B.z.o o o * * o % % * % o + + + + + *   & * *   $ , $ ; B.A.@X1X3.| &.6.k.k.l.l.j.j.j.k.k.z * & o v z.h.l.k.C.z.*.*.-.*.j.b.b.l.z.4 L   + o   h.S.C.C.l.2 * % o + $ $ + b d.R b T H K r f a a c n b b b b b b C R R E E d.d.d.k.k.k.! N Q c c d T 7 7 e O O @ O X O + o + 0 + O p r 7 t 7 7 7 7 7 r r r r r r r r 7 # @ @ @ 7 7 r r r r r r r r r r r r - e r 7 8 0 8 O O O @ 7 8 e e e - - - $ O $ # u 0 8 8 7 7 8 8 8 7 t t 7 7 e k p l S b.=.o a e y k p t ",
"O O O O O O X X X + n & & * %.S.d.0 d T p p 8 t t r r s p 8 + u f d C T R W ^ Q ;.j.0.q.e.XX X}.b.2 & % r e y y k t 9 8 8 7 @ $ O O O @ 7 8 8 8 r r t t t t k j h h h h h h h h h h H H H h h h h h H H H H H H h h h H H s @ X O O X X X X X O X + + 8 a d C C h H d ; % * * % & o q q d.z.q   d f.E T E T T E T H C T C C C d a j h C C C A A Z Z n n n n n Z E p C R Z Z Z Z c A ^ ~ -.-.%.;.;.6.j.j.l.l.k.k.k.z.k.z.z.a a T h h h h h h h H h h h h h h h H h H H J J J J J J J J h H H h h C A 0 8 + + p a % % n k.l.C.C.C.Z.C.C.C.C.C.k.k.z n d s y - $ $ $ O O O $ $ @ @ o % o . * . * * . *   . 2 2 b.M.M.M.M.M.M.b.b.b.z.~ Z q % % * q % % % % % % o O r p s j h C C C C d C h s r @ r d q 0 % q * * G 2 G | X...X.$.$.$.2.:.+.$.,.+.2 . . & * + p 9 s C A a p p g g s d d d Z R E b : % # # # # # # # + + + + @ @ + + + + 8 + + + o * o   .   . . . . . 2 l.z.B.B.* * . . .   * . . * 0 X @ @ O % o * . . . . * .   . C.Z.C.C.%.4 -.z.l.l.l.l.b.b.l.z.B.v o * o v B.z.l.j.C.b.*.%.*...4.M.M.C.C.V N .     * l.1XS.S.b.2 * * . o o o   ^ z.^ c n c i n z x v N N N N N D N S S N N N S k.k.k.k.z.z.~ z c Z C p h r 7 @ X X O O + + + o O + 0 0 8 8 7 r r 7 7 7 r r r r 7 r r 7 7 r r @ @ @ 7 r r p r r r r r r r r r r e r r r r p 8 O O O @ 7 e e e r e e - $ O @ r s p r 7 @ 7 r 7 7 @ r r 7 7 k g d v D l.*.o 8 e e y t r ",
"O O O O X O X X @ o b z C.C.D 2 % d d p p p t g t t t s s p p p s s h T E R b l N k.2.0.u.XXI.|.Z.. . : y y y y k 9 9 r r r e 7 7 e 7 7 @ @ @ @ r p s s s y J J g h H H H h h H h h h h h h h h s g g g g g g h H H g g h g s p X X X X X X X X 0 C d b C C R C C R E R R T R Z Z Z A v R ^ % o a R C C E C C H E E T R ^ ^ ^ R R R ^ ^ Q ! h.k.l.l.l.l.l.l.l.j.z.A ^ q q ^ k.Z q a i i a : 4 m m m m m n n N N n b n b Z b E d T T C T T T T T C C C C C T T T h H H H H J J J J H h C T E C C + 8 O + 0 a R d.d.! ! ! Q Q Q Q I I W W W W W W W W n n ^ R a u - e e - e e @ # * z.b.b.M.M.M.v.M.b.M.M.M.l...V V U B N D Q Q ! W n R n c b i b R R W ^ E E + % 8 8 0 9 w w w w w + 0 % + # $ r ; $ o n C.C.b.x.M.XXXX}.m.m.m.m.m.m.m.m.m.V.V.v.A.B.C.^ % % O @ a l q 8 8 r r 7 7 8 + + % % * o + + + + + + + + + + + + @ + u p u u d f f z m l.l.l.c.c.y.y.0.0.x.c.M.j.j.c.3.b.c.c.c.c.b.c.c.b.k.O 8 X X a z l.C.M.M.M.M.b.;.%.l.l.%.N n L R P W W Q D ! Q W ^ ^ q o d b n W n Q S -.-.Q -.Q W -.;.=.;.3.v.M.b.M.M.b.2.U I U %.b.b.b.b.M.b.M.b.*.D S v v S *.z.l.c.c.b.b.b.b.b.b.b.b.c.j.j.3.j.x v v c z c n R a b h 7 t t r @ # + + u b C d d d d T E h d s p r r 7 7 r r r r 7 r r 7 7 7 7 # 7 7 r r r r r r r r 7 7 7 @ @ @ - - - @ 7 8 8 O O O O 7 r e 8 r r t 9 9 9 9 r g t r 7 @ @ @ $ X $ 7 r e y g g p o S l.h.* 0 J k r r r ",
"X X X X X O X O X X c z S.3XQ   i p p h p r H r y k s t t s s p p p h E f.f.c % R k.-.l.t.r.K.2X@X. . : f K y y e 9 t r r r e e O 9 O O O $ $ O # s H H K K K K s h H H H h h H H H h h h h H H H H H H H H H H h H H H H H g s X X X X X X O O 0 E R T R R f.E ^ R E ^ ^ ^ ^ ^ R ^ A A R b + o 0 C C C j j T H H H C E d.d.d.! ^ ^ Q Q Q ;.l.C.C.C.C.A.M.M.M.C.B.v W & l d.B.^ 0 0 + o % % * 4 4 2 2 4 4 4 2 2 l v n q E c a d d d h h T T C d C h h h h h h h H H H H H H h h h j j j C A A C X + o + a Z d.k.z.k.k.h.W v v z d d b d d c n Z k.d.Z Z k.h.Z c @ @ @ O O @ @ + + C.S.C.S.Z.Z.@X1X@X@X@XS.S.v : : z : % n W W W R b R n n n c W k.~ k.k.d.d.o o + + + O + 0 + 0 + o + o   o           U S.S.1X@X@X@X@X@X@X@X@X@X@X@X@X@X@X@X@X%X@XZ.1X%.  * * o % 0 + O @ @ @ O @ + o       .                               o * * * * * 2 * M S.A.A.Z.Z.Z.Z.Z.Z.M.Z.A.b.c.j.A.Z.Z.Z.Z.Z.Z.Z.Z.S.B.X 8 + + c x C.3X1X1X1X1XS.b.2.j.-.Q n P P f T P P b b Z C b T T u O d E T d T i Z W W ~ ~ R / ^ ^ ! %.$.1XM.@XZ.Z.1X%.2 L f R S.S.Z.Z.S.S.S.S.k.v n S v S h.C.Z.A.Z.Z.Z.Z.Z.Z.Z.Z.Z.A.b.b.c.l.z q i c a i i T T H d O O r g O @ X X p E R C E C T f.f.h p H d r 7 7 7 r r r 7 r 7 r r r 7 7 r r r r r 7 7 7 7 r r 7 7 @ @ @ @ $ - $ O @ 8 8 O O O @ 8 t r r t p w 9 9 9 9 t g r r # + o       X O # s H J h s X R z.! * 0 g.J 7 7 @ ",
"@ X X O O O X X r % d n W ^ m & i p p r t t s k k g s t p s s p r r T E w w C a T R W U :.q.r. XOX .+.4 ; r y y g s a a p s y s d 8 g K e y y y y T C h T H K K H H H H H H H h H H H H H H H H H H H H H H H h H H g H H h g g r r @ O O X O X # E E C C i 0 A A S ^ R d P R R R R F R 0 X f u a h h g s t s J H H T C E ^ ^ ^ W ^ ! Q Q %.=.2.2.2.2.2.2.2.,.6.h.E i ~ d.n R b a C f.d.l n h.j.3.0.x.x.0.4.4.4.j.} D ! ^ ^ R T d K H H H d d K h H H J H H H J H h h h H H H H T d h C C E d.d.n W W E P b T E E E E R R Z Z Z H J H H H H T C E Z C Z v v S ! Z C 0 + 8 + 8 b c ! h.-.-.;.=.=.=...;.;.-./ T f f f f f u d c i a ^ n R ~ n n Q ! ^ ^ ~ ^ R n c r r r r @ O % c q W ! Q *.*.=.2.<.9.>.$.%.6.6.%.-.%.%.%.%.%.%.+.Q %.%.&.5.&.@.V.b.V.V.y.4.1.1.#.+ $ - - O - $ # + o l C.j.x.x.9.<.<.<.<.,.,.<.,.,.,.,.,.,.,.,.,.3.5.l.5.5.5.2.$.&.&.&.&.;.6.6.%.Q Q Q Q I I I I Q W ^ ~ Q Q ~ / E y r X % k.z.-.h.j.h.*.h.=...#...D W T H J J J T T T T T J J J T p @ p J J H H b T R R T T P P P T R W W Q *.*.-.-.Q R P P P P ^ ^ ~ ! -.-.~ ~ T d T T d p c Z n N x n Y Y N Y N Y U Q I L L I f d d d d s s s s p p p p p p 8 @ d T b h a 8 p d h C h h d j h r r 7 7 r r r 7 r r r r r r r r 7 7 7 7 7 7 7 # O O O O O O O @ @ - r # # 8 8 8 O 8 7 O @ O O p 9 r k r O O + % i & D l.l.1.X...v : n i i a s r @ u R n * + p s p r 7 ",
"@ O X X X X X O s p d b P P ; + # 7 r r r t t k t t t s s p p p g p h j + 9 C T h T R n &.b.m.OXm.Z.C.m % r @ r a j Z c m m 4 4 5 V 4 : f J J J g.j j j C h d K H H h h H H h h h h H H H H H H H H H H H H H H h h g g g g g h h d 8 + X X X X u T T T C + o R ^ ^ R c i b R R R ^ ^ A + X s K s j s s s k K g.g.H h d C E ^ d.^ ^ ^ ^ ^ Q ! ! %.%.%.%.%.%.%.%.^ T m B.B.L n a b ^ B.z.Z ! C.S.Z.Z.Z.Z.M.M.M.M.j.=...*.! ^ ^ E H K K K K H J T H H h h K g g g s h H h d d h d d d b c b R d.~ -.k.k./ E d d d H H T C C C C C H H H H H H H H h C E C q 0 A k.^ ^ c % 0 0 p T a C R b b b z m n n W b z n d T d d f f r @ @ # # ^ T n R W ^ W ! ^ ! W W W W R p r r r # X # d ~ B.B.b.C.S.S.@X@X1X@Xc.B 4 z P f f f f b m m f P P b z m 4 5 5.b.V.V.M.M.Z.Z.C.  $ $ $ $ $ O # o * D 3X3X1X1X1X1X1X1X1X%X%X%X%X1X1X1X1X1X1X1X1X1XZ.Z.S.1X1XC.&.%.%.Q Q W W I L z z f d f f f d d f f f b b b P f f f   o B.D.W z Z n v n n n S S S A H K K J J H H H H H J J J h 8 7 h g.E h s h C C b b d P P d d d d b b b b b b h h h P J H d d b b P P T T s s H J p @ @ @ X + + o o % % o o % ; ; ; ; ; ; u u p p p p y y y y t p s s p 8 0 E f.T p 8 + @ a d d d d h h h t r 7 7 7 r r r 8 8 r r r r 8 7 7 7 7 7 7 7 # # O O X X X O O O @ - r @ 8 7 8 8 r @ 7 X X + o       o o       . 2 2 j.1X1X1X@X0.2.M 2 * * * 0 X $ @ p i + + 8 @ s r r ",
"+ O O O O O O @ r r s p u f # O # 7 7 7 7 r t s s t t s s t t s p p C h 9 + 0 p s h d % N l.5.<.2.h.~ + 0 p p C q S j.2.3.<.y.9.8.8.i.V.+.: H j j g.g.g.j h P d H H h h h H H H h h h h H H H H H H H H H H h h h H H H h h h h p p @ O X X 8 8 p h d d d 8 8 E A A A b d P T b a c A C @ X p p s s r e e e e s s s s d C C R E R R R R R E E R R W W W W W W R R P > / B.P f n b C d.d.v S j.k.h.6.k.k.;.;.h.h.h.Q ! ! ^ ^ ^ C H J J H J H H h H h h h H H H H s h H h d P P T P R ^ E R ~ d.^ P R ^ ^ E T T R C C C H H H H H C C C C h h h h h h h s t t h E ^ ! c + @ r s T H T H H H K K H h H C b ~ h.S S v R Z a a p r r ; b T E E Z W W ^ W S S S W W R f = r r @ X @ f u n W N D h.l.j.2.l.k.^ n b P T E E E E E T E T E E E T E W n 6.6.;.;.h.h.h.-.*.%.Q   o f d # + + z S B.l.l.l.;.j.k.k.k.h.h.h.h.k.k.k.k.k.k.k.k.k.k.6.h.z.z.-.N S S S S S A Z C C T T T T T T T T C h h T T T n b W ! * * h.z.Z c Z Z C C T T E A C H J J J J H T T C C T T T T C p 7 t j h g h h C C C C d h b T T T H H H H H K K H J J J H H T P P h H H J T T h T E g 8 7 8 8 0 u 0 u a i u 0 p a d d d j g p p p y y y k k y y p s s s p 8 + E f.d r r p p d s s s j h h h s p r 7 7 7 r r 7 7 r r r r r r r r r 7 7 7 # @ O O X X X X O X @ - r # 7 7 7 7 7 @ r + o % & M ,.>.>.9.>.>.@. .<.@.0.b.3.j.l...+.5.3.j.b.G 0 u O - r r # r 8 O p r r ",
"X O @ # @ O O O 7 @ r r r r @ X # 7 7 @ @ 7 p s h s p s s t t g t s T T 0 9 9 O 7 r u + n k.l.;.d.+ o o + p a a l h.S.Z.%XOX1X:X>X*XpXFXm.< v A j g.g.g.J H f d H h h h H H h h h h h h H H H H H H H H H H H h h H H h h h h s O @ X X X O p d 8 p 0 + u h h E A A E E R E E T X + p h p r r O p p 7 O O X X X X p d d b b n c C H H H T T T C C T C T T T T T P P P B.B.R ; b C d C C c v S l n L L W W Q ~ ~ ~ ^ ~ d.f.d.^ C J J J J J J h j j h h H H H H h H T h d b R ^ ^ ^ ^ ~ ~ ~ d.d.^ f f P P P b b C C C T H J J J J C C C C h h h H J g y k K J s p A R a O @ r p K J J K K J J K J J J H E B.D.! v h.z.^ a h h t r # X % R ^ R ^ ^ R W R ^ ^ ^ ^ R u = - = @ X O u @ X o     4 v x v v c b E E E H H H C C C C h h j h J h T T a C Z b b Z C b b n S.C.2 * W E i X a ^ n b i v m z c c c c c c c c c c c c c c c c a b b d a c C R A A A C A E A C j h h h h h j h h h h C E E E A Q k.6.z & n b Z R E C T T J J g C C H J J J J h C A C C T C C C E p O 9 r t g J h h T T C h h h h h h H H H J J J J J J J H H h T T H H J J J H E h C C a 8 r t t 9 9 0 w 9 0 0 9 9 r t k k k t s y y y y y y y y y p p p p 8 @ X p d p 8 p h T h h s s g h h g g s t r r r r r r r r r r r r r r 7 7 7 7 7 7 7 @ @ O O X X X O @ @ @ 7 7 7 7 7 r # u % * * . $.6X$X#X;X#X#X#X#X@X%Xv.5 2 2 4 V } 1X1X1X3XD o # O - y r O O 7 O r r 7 ",
"X O @ @ @ @ @ 7 t 7 r r r r O X @ @ @ 7 7 7 8 r p r t s s t t p s s h j p 8 8 7 7 r p r b ^ W W S + + C c a q q & S b.l.c.<.V.L.T.*X9XuX:Xw.| l A g.k k g.J y T h h h h h h s p h h h h H H H H h h h h h h h h h h h d j h s p @ 7 O O X X 8 r 8 s p @ r d h h C d d f i d d d X + p u p u # + p p 7 @ @ @ O O X % 0 n W S W b h H H h h h h C C C C h H H H H b n n d.k.b % d h g T E C Z W W R Z Z R L R R R T b P T h T T s y y y y k s g j p j j p p s s p p s u i n ~ -.! -.W W W W ^ E E T P P P T H H h H H H H H H H H H H H H H H H H h g h h h s d h T E d X O e y y K K K K J K K K H T T T f.f.T T f.f.E a C h a T d o + d b R R b R R A A A A A C 0 % # % + X O r p O $ = u f C C Z Z R T T H J j J g.g.E A A g.g.g.J g.h J E H E T h H T T C E ~ C.C.G l n i + + C E h R T P P E T T T T T T T T T T T T T T T T H H H T H T E T C C h h h h h g h J J J J J J J k g h j j C j C Q B.k.% u H p J T C h d s k J J T C H J J J H C C C h h H h C C h p r y y k k J k k g s s s K K h h h h h h H H H H H H T T C C T H H K K K K H h h A f.C p 7 r t r t r 9 k j s j k k k g k k k t t t y y y y y y y t t p p r 8 8 0 r 8 8 p h H H g g g g h g g h s s p t r 7 7 r r r r r r r r 7 7 7 7 7 7 7 7 7 7 @ O O X X X X X @ @ @ @ @ 7 r @ % o * V ..<.#XW.U.U.P.|.+X#Xm.@Xv...+.#.I U $.Z.M.b.Z.F & + O @ r r X O 7 @ r 7 7 ",
"X @ @ O O @ 8 r r 8 r 7 r p O X X X @ 7 r 7 @ O O @ 7 t p p t t t t t t p p p p s p s r p u # 0 q + + d.k.v o a i z v 4 M V } ) 8..XuXpXpXpXm.< * h J k J J h T h h h h h s r r h h h h h H H H h h h h h h h h h H h j j h s p r r @ @ O X O O p h h d p 7 7 p t 7 8 # + + o X O @ @ X X o o + p d p 8 8 0 8 + o o o ^ z.k.k.~ d g H H H H H T H H H H J J J H T T d d d % # s s g H H d T / d.a a i i i i i i u # @ @ X @ 7 @ @ @ @ 7 7 # + + X o o X o o o O X @ + 0 R k.z.h.k.W v n b C C C C b h H H T T J J J H H h H h h H H H J J J J J h H H h h h T E E E p X O @ e y k H H H T J J E h T T h H T h T h h j T E a E z.f.% + u u u u u h d d p p a a a 8 + + @ @ O @ # 7 X O p s p s H T T T H H J J g.h J E C j j j C H g H h J J J J E J J J H h H E b.C.%.Q i + + @ p h h T T s K K K K K K K K H H H H H H h H h H H H H H J H h j H H H h h J J g s s g g g g g g J J T H C C C c S S.B.% $ J H J H T T s 7 e J J T C H J H H C C A C h J J H h T T H h g K K k k y e e 7 e r y J H T T T H H T H H H h h h C C H T J J H J J J T C C f.k.f.a 8 @ O O 9 O O g g.s g g k k k k k y p p p p p p p s s p p p p p p s j p 8 8 8 p h g g g t p g h h g h h s s s p r 7 r r r 7 7 7 7 7 7 7 7 7 7 7 r r r 7 @ @ O X X X X X X O O O O @ @ + i o . 2.1X@X}.8.8.a.8.p.}.OX9. .3.l.2.l.j.M V B } ....S d.b u u u 0 @ 7 e @ e r 7 ",
"X O O X X @ r t 9 7 8 8 8 p @ O X X X @ # # @ O X @ # @ r s s s y k k k s p t p p p p p p p r p i o   ^ d.a   u T h d p C A F N 2.y.5X4X>XuXW.1 < & K J k H E h h h h h h s p t h h h h h h h h h h h h h h h h j H T h s p p p 7 r @ @ @ X @ O r p s s p r 7 7 e @ @ - # + + O 7 @ 7 O 0 i o o p g p @ 8 8 @ o o % % W d.d.k.^ s s H H J H h g H H H H J J J J h J E h p p t y J J g g h T E ^ d s p p s s s p u # + # O O + # + + + + % * * & * * * * & 2 *   O 7 7 @ b d.k.h.k.W n C h h H g J H H H h h h j H H H H H H H H h h h H H K K K J H s s H J T T A R a X O O @ 8 8 j h j j d h H T H T h H E H H J H T E T a C f.^ + o % u 8 # H h s p t p p p p @ 7 @ @ @ 8 8 + 8 @ 7 s h t t J J J g K H H H T C T E E H H H J H s H H H H g J g g H H H H T E B.l.k./ i # 7 @ r h H H H H E H H J H J H J H H H J H J H H H H H H H H h h H T H H H s K K K y p p s d h h H H d d p p b E R b ! z.z.q o C E C T C E h 0 0 C C T T H J K H C b C d s K K y s d n n C d s s s g t t 8 8 r t s K H H g g g h h h H H H H H H H H H H H d h C C C C d E f.E q q c a @ 8 8 8 a T p p p p p t t t t t p p p 0 0 t t r r r r r r r p p 8 8 8 8 p H h g g g g g g g g h h g g g s p t t t t r r r 8 7 r r 7 7 7 7 r r r r 7 @ O O O O O X X X X X O @ @ # % z G ..Z.m.@Xm.u.u.t.y.A.A.l.} $.l.$.;.j.V U n ! Q S v R h a c c q + O @ O 7 7 7 ",
"X X O X O @ r r 8 8 p 8 8 p 8 7 @ X X X O # # # # r 7 O @ s J J J J H s p p p d u i a % 0 i % ; % , $ b u d d p @ @ @ e r p p a A 4 +.@.L.>X=X5X@X<   K h j A A h h h h H H h h h h h h H h H H h h h h h h h h p h T d r 8 r 8 + + X O O X o o   o + o @ s p O @ X X X X $ p u p r d T d.k.z o r s r O O 8 @ + X R C i * q ^ a h d H H H d r @ H H H J J J J J J J h 8 O t g J J J J H h d b T h g s p p p r r s r p d p 8 8 # u u + o * z W -.l.z.l.l.C.B.-.m H J p O @ b Z b b c b C h J J g g J H J H H H T h h h h h H h h h h h H H H K K s H H K h h d d c C a + 7 7 @ 8 8 h T p 8 8 p p T h T H h T H H H H H h h E E h T b b # O # O @ 7 7 7 7 7 @ @ O @ 7 7 @ 8 p p + 8 8 8 8 p r 8 k e y y y t r p p 0 a C T T H J E h ; u r # r y H H H H J H J H d b v d.f.p r 8 O t 8 p f.f.s h J H H H H H H H H H H H H H H H H H h H H J H h d H H s y r - $ O X X O @ O @ O @ + + X + C d.d.d.d.q q 0 % A f.C E T E E C R ^ C T H J J H H C C % @ @ e e - O + o % u a d h h h j j h h h h h g J J J H H H H H s h H H H J H H J H H H C C C C E d d C a q ^ z.k.a i C i o X X o X X o X X X O O O O O O O O O O O O O X X X O O @ r 8 @ p J J g g g g g g g g g g g g g g s p p p t t t t r r r r r 7 7 7 7 r r r 7 @ @ @ O O + + O O X X X @ O +   h.1X| `  .Z.b.j.3.2.2.;.;.D x S -.-.*.=.h.-.^ R i C 8 O a R ! h.S * o O @ O O @ ",
"X O @ O O 7 r r 7 7 8 7 7 7 7 7 O X X X @ @ @ # @ r r X O p J J J J g p d d i c z 2 l M 2 5 < < & o o f d d d p @ @ @ e e t t r h d W %.c.@X$X5X3X3 * z T C A A C h h h H H H H H h h d H H H g s H h s s H h r 8 h T p 8 r p 0 + o + *     * . . 2 . * & % d O O O @ O O r p s d p p C f.z.A o r r @ O @ 7 @ O @ E C 8 0 d d b c d T T d T 7 7 g g g j h h h j g J J r @ t J g g g K J g h h h g j g g p p p s s r r s s @ @ 7 s - @ + o q ^ k.z.C.z.z.C.B.-.z C H s X O d a h C h h h h T H h g H J h H H s H s T H j H H d h h H H K K K H K s E h P T a c C C C 0 + @ @ @ @ 8 d h p 8 8 p p H H H H H H J J h H J h h T T h T T T u X % u + 0 7 @ @ @ @ @ O @ @ @ @ r p r O 8 8 8 p p t r r r t r r r p p p p d h T T J J J p p p p p r t H H H H H H H H T d ^ f.f.h 8 @ 7 8 + d f.E H H H H h h h h H H H H H H H H H H H H J H g J H h T p T h r r r @ 7 O O 8 7 @ @ 8 8 8 + + X C f.f.f.f.a 0 + 0 C T E T C C T T T C T h J J h h h h C u @ @ r r O O @ X 8 p g g h h g h g g g g h h h H H H H H H h h H H h h H H h H H s K H d H T h h h p u d i Z B.k.b i b z * o o o o o o o o o o   o + o + + + o X @ 7 O X O @ O O O r 7 O g f.g g g g s s y y k g s s s s g s p p t t p p r 7 r e e e r r r r r 7 r r r @ O + 8 O 8 @ X O X X X o   . l.1X3.) >.A.b.l.k.k.k.-.^ Z A R d.d.^ d.z.d.E T T d # @ i ^ n k.S o * * o O O @ ",
"O @ 7 @ 7 r r r 7 7 7 7 7 7 7 7 O X X X O X X X X r s 7 O @ t p E g @ O d ^ ^ ~ h.k.l.l.A.3X%Xy.;.z u f p s d 0 + @ @ - e e 7 @ 7 O u : 4 B | >.9.1XS.* o b R C j h h h K K K g h d d h h h K s s h g s s H s t O r p 8 O O + O + q d.d.*   #.A.b.A.b.b.h.* 0 7 7 t s s s s g s p d s a C C 0 X O @ @ O O X @ p r s p p j p u d b W d.f.T T 8 p g g g J h h h h s r @ @ @ r s h g g g g g g g g j h j j s p p p s s r @ O O @ @ - O O # o % i c W ! S v S n & o + O O X O @ @ j h h H H h j h H H h h s H T H J h H H g h H H H H H H H H H H K K f # % R ^ d.k.f.E p @ @ @ O O O r p p r p h h h H H J J J H h H H H H H H H H d r @ C d.a o % + + O O O @ @ @ 7 r s h r X @ d r # @ @ @ @ @ 7 @ 7 @ @ @ @ O @ @ @ @ @ @ @ O X p s s s s s h H H H H H H H H H h T E T H h s p + + 0 8 7 r s p H h H H H H h h h h h h h h h h H s H J g h h @ 0 h h 8 8 p j h H g s t 8 7 p p p d h 0 a T a h a @ @ @ 8 p 8 @ 8 @ @ # # @ @ # 7 7 @ @ r 8 + + u d h h p r r p p g g t t p g g g g g g h H H H h h h h H H H H H h g g H H H J T P T H s d J J H T r X O o o % % b W ^ ~ R b b Z Z Z R W W W R W W Z S ! d.A w h h g s g g t @ X @ @ @ r @ @ r g g s s s K K K s H H g p r r r r r 7 7 7 7 7 r @ - 7 7 7 7 7 7 7 @ @ @ @ @ + 8 8 O 7 7 O 8 % o   W -.l.C.c.0.c.;.*.! ! ^ Z c q 0 0 0 p C A A C C E T d u s s u o b ~ ! k.-.. o X O O ",
"O @ 7 r r 7 7 @ @ @ @ 7 7 7 @ @ X X X @ O X X X X 7 p r O X O @ E g @ O d ^ ^ ~ h.k.k.b.Z.3X$Xm.l.x i s r d Z & + + @ - @ @ + + 8 @ u i m N B +.,.SX3X2 & i s h g h J J J K K K h h h h h h h g s s g g s p t r @ 7 8 8 @ @ @ + o + ~ k.%   6.S.C.C.C.S.z.+ + t t s g g g g s s s H h p p 0 8 8 O O O O O X @ s s p p d d p p a b ^ d.d.C C s H H H K K K K K H d u + # # u h h h h h H H H h C h C T T d d d d p s p @ O # 7 @ - $ r r 8 # % % b n i % i f % O @ X O O O X X s h j h H h d d h H g H H h H h g H g h h h h h h h h h H h s d d H u # o % Z d.k.E T 0 O @ @ @ @ O 7 r r p j H H H H H H H H H H H H H H H h h h H r p E ^ i o + + O @ @ @ @ @ @ r r s H r O 7 h r @ O O O X O @ X @ @ @ 7 @ @ 7 O O O O @ @ O O r g H h h H H h H H H H H H H H T H h h H H d p + + O X O r s h s s g h h h h h h h H H H H h g h s H T h T h @ + a C u 8 d E T J J J g 7 @ r s r s h p j h p d p @ @ @ @ 8 @ @ 8 + + + + + + @ 7 @ X O @ + + 0 a a d h d r p s H H s r r p s h g g h h h H H H H H H H H H H H H H H H H H H H h P b h H H s h h T u X + % o   * n R E ~ R c R ^ W W W ^ ^ W W ^ E R ^ d.k.^ a h g s k g g t O X + @ p h r O r h h h h h h s s s s H g p r 7 7 7 7 7 7 7 7 7 r 7 8 8 8 8 8 8 7 8 7 @ @ @ O O @ @ X @ @ X + o o * k.l.l.l.c.c.2.D Q ^ ^ W C u + 8 8 0 a h h a a a E E s p H d u o Z ^ W z.h.. o O O @ ",
"O @ r r r @ O O @ @ @ 7 7 7 @ O X X O @ @ X O @ @ @ @ @ @ @ @ @ t r 7 @ + + % % o   l ;.2.y.t.Z.b.x % u # b ^ l o + @ @ @ @ % 0 o O + + # % % 4 2 ..X.c.C.v = y k g J J J k J J g h h h h h h h s s s g s 7 @ 7 8 7 8 7 8 7 @ + d.c ^ d.;   z I N B D Q ^ 0 p p p s s s s s s s s s 8 @ 8 8 8 8 8 @ O O 7 r p j d s p p 8 p d p 0 a c b d d u u # # + + $ $ $ o + o o     ; a % + % % % % % % % % % % % % + o o + # i 0 % % + # r @ @ + + + + + % + O + s H d r p d p O X O O 8 8 @ O @ r 8 @ O O 7 H T h h H H s r s H h h H g h h h H H H h h @ u B.z.R n Z ^ C s @ O @ @ @ r 7 r r p s h h h H H H H H H H H g s g H H H h H H p h a + R d.a X O @ @ @ @ O O p p r 7 p H s 7 r @ @ r r @ O O O r t p s p r r r r r p s h h s p g H h h H H h H H H H H H H H T T T H h h s p 8 + X + 8 7 7 p s p p p s g H H h h h h g s r 7 # p + X u 0 i E R % 0 E ^ R R T d K T J s u r @ + + + + % u + + 8 O 8 @ @ 8 @ 8 8 8 # # # # + # O @ O O + + a f.C d a 0 p d p u # # # $ O $ + + + + + + + @ o $ # # # # + # + # + # % # + # # + + + o # T h r @ 8 0 + + % % z ^ R a i R ~ R Z ~ ^ W ^ E ^ E ^ E + 0 i b C C C p s g g s s s s p u X o @ X O @ O 0 w 0 0 0 0 8 @ 7 @ @ r t t r @ @ 7 r r r r r 8 p p p p p p 8 8 7 7 e e @ $ @ r $ - - X + o   W v v B %.;.=.$.D N Z Z n c u 0 8 r 7 p T h @ 8 h h h h h s p s f u i b z z v v R X O O ",
"O 7 t t 7 @ O O O O @ 7 r 7 O X X X O @ O X O @ r O X O @ @ 7 7 O 7 p r O     X + o l ;.2.y.v.1XC.n & % o b d.v o + + @ O @ 0 0 8 8 @ @ $ $ - % z 2 | 1X1X4 X $ e k g J k k k J g g h h j h h h h s s g p @ O @ r 7 8 8 r 8 8 8 k.^ d.^ i o % % z l l l b d H s h g s s s s s g s p @ O @ 7 @ @ 8 r @ O r s d d p j h p 7 p j p + + + 0 d a i *           . . .           & & *     o o o                       * o % o o % o o + * * + + + o o O X X + p d d p p T p X X O @ X O X X O @ @ O X X O h J h h H H p 7 p H h h H H H h h h H h C C X a D.D.^ b b R p p 8 @ @ O @ t r r r p h H H H s H H J J H h s t r t H J J H J J d h @ O d.D.E O O O O @ @ @ @ s s 7 O p E H @ r 7 r s h r O O @ r s g h s r r s p p p s h h h h h h h h h H H H H H H H H H H h H J J H h d p + + X X + @ @ r t t p p s s h h H h h s s t 7 O O +   o o   0 k.k.o o d.z.^ b n T b b b b d %   o o o o o o o o O X @ 7 @ @ @ @ O + + 8 + + + + X O O O o + C z.E E C X + C d 0 * * * o o o                         o       o o o o o       o   o o o + d d 0 @ @ + + % * * b k.~ % 0 R E R ^ R E E E E ^ ^ ^ ^ X @ p a a a d h s g g s s s s d b +   o X X O X + + + + + + o X O O O @ r 7 @ @ @ r p r 7 r p p s a d a a p p t @ 7 e e r e r r - $ +   o   . D *.G l V D D D Q n b d u p 8 7 7 t r s J s X O p d p p h s t p h p + a i o q ^ ~ + O X ",
"@ p h s r @ @ O X X O @ 7 7 O X @ @ @ @ @ O O 7 @ @ @ @ @ O @ 7 t 8 r 7 X X O X X o * 2 V c.>.5 B % * % * R d.a o + + + O O @ @ O @ X O O O e - % & G x.b.* o ; @ e y y y k k k j h h h h h H H H s s s r O X @ @ @ @ @ @ @ O + C b C a 8 r d d C c C b T s s s H g g g g s t t p p r 7 r 7 7 r @ r 7 X O 7 8 8 8 p d d p r 8 r p p 8 p C Z d.~ ! *.%.$.=.,.:.,.;.%.-.k.-.-.-.-.-.-.-.-.-.-.-.-.-.-.-.-.-.-.-.-.! -.h.& & ~ W Z v S ^ ^ ^ R a a a a d s 8 @ 8 p p h p 8 p p r @ O 8 p r @ 8 r p @ O r p g J H h H s p p r r s s g p r p p p 0 u a a E T + + u p 8 r 8 @ @ X @ p y r r t s g h h H H h d h h H h h s g H J J g s s T H u p C C h a p @ O O O @ @ s s s p s H H s s p s h h p r @ X @ r p h g p s p t t p s h h h H h s g g g h H H H H H H H H H H H H H H J h p C f.C X + p p # @ @ 7 7 7 7 7 @ r 7 r r t t 7 @ #   P f.c o & b z v Z Z n W ^ W W ^ ~ ^ n n R R Z W ^ ~ W z v b d r p p p p p d a h T T C C C C C h a 0 i a C f.C 0 0 X X 8 0 R ^ Q Q Q Q Q Q Q Q Q Q Q Q Q Q ! ! ! ! Q S S S S Q W Q n z S h.^ R E T n C C d h h C E E Z b Z R E 0 u a 0 T d.C C C C C C d a u @ # r p p p p p t r 7 r r r # o o o   i f.C % A E E A A A v a p r t s s r O @ r r s p 7 @ p d p s d h j d d p p s r e 7 # @ O   *   4 -.-.=.j...=.l.b.k.! ~ ~ ^ C h h s p t t y 7 e t s p t p s d d s p t t y p p d a u 0 0 q a d u u ",
"O s T g r 7 @ O O X X O @ @ O X @ @ 7 8 7 @ @ # @ 7 7 7 @ O O @ p @ O X X X X   X O o   M C.<..     o % % E ^ u $ + @ + O O O O 7 r O @ O X @ O + o 2 B #.. .   O @ 7 r y y y k J h h h h h h H h s p p r O X O X X X X X X X X C C p 8 r s s s j p h d H p s K s s s g s t 7 7 @ r 7 7 7 7 7 r @ 7 @ X X X X X @ r p s d 7 O 7 h p 7 8 C R z.B.B.C.C.C.C.Z.Z.Z.Z.C.C.Z.C.b.b.b.C.C.C.C.C.C.C.C.C.C.C.C.C.C.C.C.C.C.C.D D z.z.z.! k.z.z.z.d.E E E T E C @ X O + r h p h H g g t X p h r O 7 p s O X X @ s E T E H H s 7 @ @ 7 t g r 7 8 8 8 + 8 C a a a + O @ X @ @ @ @ @ O @ s s r 7 r t r r p T C d d d d d h H H H H H H s r e s h d h 0 + d E d 7 @ O @ @ O p s h h s s h H h h h h h H s r X O @ 7 s h g h p p p s s h h H g g s t p s h h H H H H H h h H H H H H H H s p f.D.f.+ + p 7 X O O O O O O O O X X X O 7 7 7 @ #   ^ B.E o * o * k.z.b q ~ z.h.^ k.B.k.W W k.B.z.z.B.B.k.S Q Z E H H h d H T E E f.f.f.f.f.f.d.f.f.T h C C C C a X X + + X + d.z.k.k.z.z.z.z.z.z.l.k.k.k.z.z.z.B.B.z.z.k.k.k.k.z.z.z.h.! k.B.z.k.d.d.^ T C E E E f.d.k.d.d.Z i a d d + + E z.f.d d d d a p + O @ @ @ 7 8 @ @ @ r 7 @ @ 7 # + o   . * R B./ a ~ z.z.z.k.d.R C C d g H g r @ 7 s s g p @ @ p h s s s g g s s g g H p 7 O X o o * . . 3 M.Z.M.Z.=.=.b.S.z.d.d.f.E h s s s s t y e 7 7 @ 7 r s s s d h h t e y y e 7 s 8 + d u 8 p T C a ",
"X s E h 7 @ @ X O O X X O @ O O O @ @ 8 7 @ @ @ 7 7 7 7 @ @ @ O p @ O O X X O   X X X * N C.:..   + ; o + T E u X + # # @ @ O O O - O @ 7 O 8 7 r X : z N #.5.3 * + @ 8 r t y t s g g p p p s h s t r r 7 O X O O @ 7 @ O @ 7 8 C C u 8 g g k g g g h t g K K s H s s g s p r r r r r r r r 7 r 7 @ X @ 7 @ O 7 O r r 8 p 7 X @ r 7 O @ d a ~ ^ ~ ! *.*.*.=.=.=.=.*.;.*.*.;.;...*.*.-.=.=.=.-.*.*.%.%.%.*.%.Q D Q S Q & l ! F S v ! ! R ^ R d h h s H H 8 @ + @ @ g p p s p s 7 O s h r @ p h s 7 7 7 @ r s r s s J g r r r p h J s t p p p p a a d 0 p @ O p r r r # @ @ O @ s k e @ r r r r r p a C T T b a u p d h h H J H p H s H H a d d 0 d r @ O @ @ @ O p p p s h H h s s h h s h H h r 7 7 @ @ p s s s p s s s s s s s p h s r r h H s h h H H H H h h g H H H g H H h d f.C O @ p p r 7 7 O O O @ 7 r t r r r p p r 8 r + b f.R i 0 a i ~ ^ c b ^ ~ ^ b R ~ E b Z ^ W ^ Z Z d.^ b R c d p H H h H d d h T E C C C A C E E h p h C C T C 0 d 0 8 p p E ~ ! ! ~ ~ ! ^ ^ ^ Q S S S S W W W ^ ^ ^ S S S ^ W W ! S l S d.Z ~ C C C d d T h T C T E E R Z a a T d X X d C 8 8 8 p p u r @ O O @ 7 7 @ @ @ 8 O @ @ @ O o % z N v n W ^ Z b b E ^ ^ A C a 0 0 p r r r 7 @ 7 p t s p @ @ p s t y y y k k s s s 7 7 8 + o * v *.>.9.>.M.M.j.c.B D -.k.^ R f.T E h s s s k k t y t 8 7 r r r r s p p p t r y y y r p 8 p p r 7 @ d a u ",
"X p E h 7 @ X X X X X O O X X X X X @ r r O @ p t 7 7 r t 8 @ O O @ O X X X   O O X p i W C.j.. o o + $ + P d.a     X - X @ O X O O O O @ O O O O $ @ f * 1XUX,.  o % + # r r r r p p p 8 7 7 @ 7 @ @ 7 @ O X O X p H t @ r s d d d d g g g k k k g g g g s s K g h s s g t 7 r r r 7 7 e r r r O X @ r r 7 7 @ 7 7 # @ O @ @ O O @ @ O X @ p d u d i i f d i i b b b d d d d d d d d d d d d c f b z f f f i + + + + @ 8 p p p a a a a p p s s y K K s 8 O O O @ r p r r r p p p p p p s g g s h s p 7 O X X X r s H H h h h H g J g g H H H T E p X O @ @ t s H H p O r s e y y 7 @ @ @ @ @ O X C D.d.R d.+ 0 0 u d h H H H J H H h j d d d s p 7 O @ r r @ X r 7 @ 7 t g g s g H H g s g g s H t @ O @ r s h s s g s r 7 r H s p 8 7 s h h h h h h h h h H H H H H K g g H T u 8 o o 0 j H H h s r O X r g g H H H h h h g g H h d d h C C C C R R C A ^ R C u p p d C h d d h h h h C h h h H H H H H H h h h C h u + + a C h h h h H T T T T E E E E E E T b b b b b b b d T d i ; % % % + u a d d d d d a d d d d d d a a d a a a d d d d d d d d h h h d h h j 8 X O X X O O O O X X O O O X X O O X O O X X X X o   * k.B.B.D.~ i n a d a d d 0 O X X O @ @ O X O r p r r 7 @ 7 8 r p t y y y y r r r r X X O o o o k.S.@X%X@XM.c.l.;.x v n Z a p p a p s g g s t t s g g g k 8 7 7 r p p p t t k y y y p r 7 r p t 7 O p u u ",
"X p E g 7 7 @ @ O O O X X O O O X X @ r r @ @ r r 7 7 r t 8 @ O 7 8 O X X X X O O X @ a ^ k.Q M o o % + o T W o b i   # @ @ + O O O O O O O 9 O @ e $ $ % S.1XM.#.* o * % 0 # = 8 8 8 # 7 r r r 7 O O @ @ O O @ X r g t 7 r p p h d j g g g k k k k k k s s s s t s s s s t 7 r r r r r t r e 7 O X @ r 7 7 7 @ @ # 7 # 7 r r r @ @ @ @ @ @ r r H H s y s s y s s f s s s s s s s s s s s s s s p f p p f K p - e e @ e r y s s s s s s s s y y y y k t r 7 @ O @ 7 r p p t p s s p p p s s s s s p r 7 7 @ @ @ r t s s s h h g J J g g H s r p p p X O @ @ s K r r r 7 p s r y t e e e 7 7 7 @ X i d.E C C q a a a a d d s s s g g g h j d a p t r @ @ 7 8 8 @ r r r t s s g s p p s s g g s s s r 7 7 7 7 r s s s s s t 7 r p p t r t g s s h s g H H H h H H H H H J J H g s u 0 + o 8 p p t r 7 @ O O t H g s g g g h h h h g s p s p s p p a d d h C C C a p p s s s p p p p p p p p p p p p p p p p p p p d d d u + 0 a a p p p p s s h s h h h h h h d d d f s s d d d s s p r r r r r r r r p p s H h s s s s p s s p p p p p p s s s s s s p s s s a p p p p @ O 8 7 r 7 7 7 7 7 7 7 7 7 @ @ 7 8 8 8 8 @ @ @ + +   o k.B.h.k.R a C d h d d j p r r e r 7 7 @ O @ 7 r 7 r 7 8 7 8 8 7 7 @ e e e 7 7 r 7 O @ # o o * -.C.b.0.3.+.B Q I z a b C d p p j p g t r t g g p t g g r 7 7 7 8 p p t t k k y y r r r 8 r r r 7 @ r r u ",
"X p E s 8 8 8 8 @ O O X X O @ @ O O O 7 r 7 7 7 r 7 8 t t e 7 7 t 8 O X X X X X X O p d i % v B.k.* . * . . * m C.k.  * * + % X X X O O O O O O @ X O r ; . . 1XUXj.        o + @ O X X # r p r 7 O X O O X X O 7 p h h s s g h d d j g g g g g J J k J K K g s g H s @ @ @ @ r 7 r t p p t 7 @ O X O 7 7 7 7 @ @ @ 7 7 r r p p @ @ # - @ @ @ @ s s y 7 7 e 7 e 7 # # # # # # # # 8 8 8 8 8 8 8 8 % % u s d u # r 8 7 r t p s s s s s g s s y r y r r r r 8 + O X X @ p s p p s p p p p p p p p p p p p p p p p 7 7 7 r s H H h J K g J H r O @ O @ X O O @ g H r @ r s g H s g g y s s s s s r + % o + + 0 d.B.C a p p p t t y t s s j j p p p s t r 7 @ @ O O O @ 7 7 7 7 7 7 r 7 r s H g g g g g g t 7 O X O h g g g g r 7 7 8 h h t g H h p t p h H h h h h h g g H H g p r @ + O X X O O X O O O @ 7 s H g g h H H g g g g r 7 8 7 r r r 7 t 8 p p a p 0 0 s s s p t r 8 r r r r r r r r r r r - - r 7 r 8 7 @ @ + X O + X O O O O @ 7 r 7 7 7 7 7 7 7 7 7 r @ @ @ 7 # 7 # r - r r t p r r O O O O 8 s t 7 7 @ 7 @ 7 @ 7 @ @ O O O @ @ @ @ # # # @ # # 7 7 @ 7 r O O p s g h h h h h h h h h s s h h j j h s s s d i o & z.C.W v z f d p d s s s s s s K K t r @ O O O O O X X X X X O O X O O O O O O O O s p r O i i Z ! 2 .       o $ $ - y p p r p p p t t s s p p p k k p 7 O @ 8 8 8 8 r r y y y r e r r r 7 7 @ 7 r @ # @ ",
"X p T p 8 p 8 8 @ O O X X O O @ O O O @ 7 7 7 @ 7 7 8 t t r r t p 8 O X X X X X O O 7 p a i b d.~ l * G V 2 * n z.-.* 2 2 & + X X X O O O O O O O X O @ f z . C.3X=.4 &   o + O O O X X @ # r @ @ O X X O O O O @ 7 t p p p t t p p p p p s k k k y y y s s s p s H s 7 O @ 7 r 7 r t p p r 7 @ O X O @ @ @ 7 # @ 7 7 7 7 r r r @ - - r r 7 O O p s r 7 8 8 7 8 7 # # # 8 8 8 7 8 8 8 8 8 8 8 8 8 # 8 8 p s p @ 8 8 8 8 0 p p p p p p p p r r r r r # # 8 + + O X O 7 p s s p r r r r p p p p p t t t t t t r r 7 @ @ @ r s s s s s g g s 7 X O X O @ 7 7 r h H 7 X r H s s s s s y s s y s s 8 @ + o % + % d.d.a a 0 8 r r t t y t p s s s p p t t r r 7 @ O X 7 r t t r r r r r r r g h s s g p s g g t 7 7 7 t t s g g p r 8 8 h h p s g s t t p g h h g g g g g g g s y t r 8 O + @ @ O O O O X O @ 7 p g s s s g s s s s H t r 8 7 7 8 8 8 8 8 t p p r 8 p p p p t 8 7 7 r 8 8 8 8 8 8 8 7 @ @ @ @ 7 7 7 # 7 @ # @ O @ 8 @ O O O O @ e r e e e e r 7 7 7 r r r @ 7 7 7 7 7 @ 7 r r r r r 7 7 7 O O 8 p p 7 7 7 7 7 7 7 7 7 @ @ @ @ @ @ @ @ # # # # 7 7 7 r 7 7 7 X O p p s s s s s s s p p p p p p p p s h s r r p 0 o % k.D.S i a b H p h s p t t y y K J r 7 O O O O O O O @ @ O X O O O O O O X X X O O p r # + f n b W &     + = - r - $ e y y r p p p t t t t p p t t p p 8 @ 7 8 8 r r r r y r r r r r r r 7 @ @ e r 7 7 7 ",
"X 7 j r @ p 8 8 O O O O O O O O O @ @ O O @ 7 7 7 7 r r t t s g t 8 O X X X X X X X 7 h d a a % q W *.S.SX=.* m z W h.=.G v X + X X X O O O O X @ 7 O X X z * . . %.S.k.  o 8 X O O O O O @ O O X O O O @ p p r @ @ @ 7 7 @ 7 7 7 7 7 7 7 7 7 r e e e e 7 r 7 7 @ s H g g p r 8 8 r r r r r 7 7 O X X @ @ @ r # @ r r @ @ - r - e - 7 7 7 7 @ O 0 u 0 8 0 0 8 0 r r r r r r r r r r r r r r r r r r 7 r p s p 7 r 8 7 7 8 8 r r p p 0 0 8 8 8 8 # + + + + o o X 7 p s s s g p @ @ 7 r t p p p p p p p p t r r 7 r 7 @ O @ 7 7 @ @ p p 7 @ O X X X @ 7 p p p H h p X p H s s g s s s s s s g s r p p p p + X + X + + @ O O O @ @ 7 7 @ 7 7 8 8 7 @ @ 7 r r r @ O s s g g g g g g h s g H s 7 7 t g g g h h g p t O @ r g g s p p s 7 8 h h O O g g g s s g g g p p s g s r 7 r s 8 O @ 0 8 O O 7 @ O O O @ r s s 7 7 r r r t g H H g p r r r r 7 r p s t r p s p 8 p p p 0 8 8 8 8 8 8 8 8 0 8 8 7 r r r # # 7 7 r 7 r 8 O @ p p O O O O @ r r e r r r r r 7 r p s p 8 r p 8 8 8 8 8 8 8 8 8 8 @ 8 r 8 @ 8 p p 7 8 8 0 r 8 8 8 8 8 7 7 7 r r r r r r r r r r r r r r 7 X X r r r r r 7 7 r r r r @ @ 7 7 8 7 p h t @ O @ + X * ~ d.q o + # @ O @ r r r r e r y K @ O X O @ 8 8 p p p p @ X O O X O O O O O 8 p p 7 t p = i i % n = - - - $ - - X @ e y y p p p t p @ X O p s 8 X t p p p p p p s p r r e e e r r r 8 8 8 @ 7 r y r r r ",
"O @ r @ @ 7 @ @ X X O O O O X X O O O O O O 7 7 8 8 r r y t g g t r r # X X O X O X r H 8 @ d % i ~ *.1XSX..& m z I k.=...! X O X X X X O X X X X X X 7 X O i c & 6.D.k.    X X X O O O O O O X X O O O @ p p 8 7 7 7 7 @ @ 7 7 7 7 @ 7 # # # # @ - @ @ 7 7 8 r 7 y g H H p 8 @ 8 7 8 7 7 7 7 r @ X X @ @ @ r # # r r @ @ e r - e - 7 7 7 7 + O O @ + O + 8 + # # # # 7 7 7 7 7 # @ 7 7 7 7 7 7 r r 7 r t p t r r r 7 7 7 7 8 7 r 8 # @ @ @ @ + @ + + @ O X X X # p s r t s p @ O @ 7 r r r r r p p p t r r r 7 @ @ @ O O @ @ @ O p r O X X X O O @ @ p p a C C p X r d p s s s s s s s p g h p p r r @ O @ @ + O @ 8 7 @ @ @ 7 7 7 @ O @ @ 7 7 @ @ @ 7 r r @ O s s s s s g g g g g g g s r r t h g s g g g t t O 8 t g s p t t g 8 8 h h @ O h H g t r r t r 8 7 p p r @ O r s 8 + + 7 7 @ @ 7 r O O O O r p p @ 7 7 7 7 r p g h s p r r r e e 7 y t e 7 t s p r p p p p 8 7 8 8 8 8 8 8 8 8 r r r r r r r r r 7 7 7 O X O r s O O O O @ r 7 @ e @ @ 7 7 @ 8 p s r @ 7 7 # @ 7 r r 8 7 7 7 8 8 @ # @ X O p p @ @ @ 7 7 @ @ @ @ 7 7 @ @ @ @ @ @ @ @ @ @ 7 7 r r r @ O X O r @ r r r r r r r r r r r r r 7 8 s H k e @ @ @ + + C C i 0 r r e e e 7 7 r 7 @ r y g @ O O O @ 7 8 8 8 p 8 O X X O X @ O O O O @ r p r p p % b ^ * & 8 e r 7 @ r r O @ 7 r t t t r r r O X O 8 r 7 X 8 p s p s s p s s t r 7 e e r r r 8 8 8 @ 7 r r r r r ",
"8 O @ O O @ X O X X O O O O O X O O O O O O @ 7 8 8 r r t k s s e r s p O   X X p r O 7 8 r d + o b x N Q Q -.m & & 2 l ! d.+ O O O X X o X X X O O O O @ O O # & & m f # @ O O O O O O 9 8 @ X O O O O @ @ @ @ @ r r @ X X O O 7 7 7 7 # # # # = r r r 7 7 p s g g s s s 7 O O O @ 7 7 7 7 7 7 @ X X @ @ @ r # # r r @ @ - r e 7 7 7 7 7 # @ @ O @ O O - - - - r r r r r r r r r r r r r r r r e e e e e e r r r r 7 # r r r r r e @ @ O O O O X X O O O O O O O 7 7 @ 7 r r @ O @ 7 7 7 @ @ @ O O O O O O O O O O O O @ 7 7 7 O # @ X X X O O @ @ X + % 0 A f.8 X O @ O @ @ @ 7 @ @ @ @ r p r O @ @ r s h j h j g g g g k k k g g g g p p s p r e e 7 r 7 O X s g g g h g g g s s g g g g p t 7 @ 7 t g g g g p g g g p t 8 7 t g h p g g s g h s 8 @ O O O O @ 7 7 7 @ @ 7 r p p p 7 8 t k r 7 O X O O @ r 7 r r r 7 r r r r r r 7 # r r r r e e e @ @ r r r r r r r r r r - r r r r e e e e r r r # # # 7 7 r r r @ X @ p s 8 7 7 7 r p r 7 r r r r r 7 p d s r - r r r - r r r r r - - - r @ r @ X @ p t @ @ @ 7 r 7 @ @ 7 7 7 7 7 7 r - - - r r r r t t p r X O O @ r @ r 7 7 7 7 7 7 r r r - @ @ 7 7 e r e @ @ O O @ + 0 u # # r 7 7 e e 7 7 7 7 7 8 r r @ 7 @ O @ @ @ X @ p p O X @ 8 @ @ @ O O X O O @ O O X o k.S...* O O O O O 0 p + O O @ 7 r y e e X O @ @ O O @ 7 8 p p p s s p p p r e e e e r r 7 8 8 7 @ @ 7 r e e e ",
"p O X X X O X O O O O O O O O O O X X O @ O O @ 8 r r t t p t r 8 r H s X   X X O h r O @ 7 p X % i Z Z n k.B.W * & & n ~ R + O O O O X o X X X X O X X p @ X p % : d # @ 7 O X O O O O 9 9 8 X O X X @ @ X X 8 7 t t @ X O O O 7 7 @ # @ # # # # # - @ @ @ 8 p H g s H H r X X X O 8 r r r 7 7 @ X O @ @ @ # # # r r @ @ - - e 7 7 7 7 8 @ @ O X O O O $ - - - - - - - # # # # r r r r r r r r r e e e e e e r r r @ - r r r r e 7 @ @ O O X X X X X $ O $ $ $ @ @ @ @ @ @ @ O @ 7 @ @ O X X O O O O O O O O O @ O O O @ @ @ O X X X X @ O X O r # X O o 0 R k.u O O O O @ O O @ @ @ O @ t s t @ r O r g p g h g g g g g J g k k g g g s p p t r r r 7 7 @ O O p g h h g g g g g g g g h h p 8 7 7 7 r p s g g g g g s t r 8 7 r g h g g h g h g p r @ O X O O O O O O 7 7 @ O 8 j p O O g g 7 7 O X O O @ @ O 7 7 7 7 7 r 7 7 # # # r r r - - r - e r r - # r y r e e e r r r e e e e e e e e - # # # # @ 7 7 7 @ 7 @ X @ r p 7 7 7 7 r p r @ 7 @ @ 7 7 @ 8 p s e $ - e - - e - e e e - - @ @ @ r @ X @ r r X O O @ @ $ $ O @ @ @ @ @ @ # # # @ @ @ 7 r r t t r X X @ r r @ r r r r r r r r r r - @ # r e @ @ 7 @ e @ O 7 O + 8 @ @ r e 7 e 7 e 7 7 7 8 8 @ @ @ 7 7 @ 8 8 @ X O 8 p O X O @ O @ @ @ O O O O @ X +   o z.SX=.  + O O @ 8 w a + O o X # t y y r X X O O O O @ 8 t s p r s s p p r r e 7 e e r r @ 8 8 8 @ @ 7 r r r r ",
"r @ X O O X X X X X X X X X X X O O O + X X O @ 7 8 r p p p t r 7 r J J g s s j j h 8 O @ @ O @ X X @ T ^ c % c S ^ l c Z d O @ O O O X X X X X O X X O @ 7 7 O X % p u @ X O @ r 7 7 7 8 r 8 @ O X X O O X O @ 7 r 7 r g r X X O @ 7 7 7 # # 8 @ O r p r @ 8 7 7 t s h s s p r X O 7 r r 7 7 7 7 @ O O @ 7 7 # # @ 7 7 # # - - 7 7 7 7 7 # # # O @ O X @ r @ # # # # # # # r r r r - - - r r r - - r r r r e 7 7 r 7 r r 7 7 7 7 7 @ @ 7 r r r X O @ @ @ O O @ @ 7 @ @ 7 @ O O @ @ O O O O @ @ O O O O O O O O X @ @ O O O @ @ O O @ 7 8 7 7 7 O @ r 8 @ @ p d a f.d X p d r s s y t g s 8 7 7 r r r t s g g g g g g g J J J g g g g g s s g g p t s t @ @ @ O s s s s g g g g g g g g k r 8 r t k k s g g g g g g g g g g g g r @ X @ r r 7 @ @ 7 7 9 9 O 9 9 t r r r r t t r 7 t 8 @ 7 r 7 O O @ # O X O O X # @ # 7 7 r r r r r r r - - - - - - r r r - - - e e e e e e r r r r r 7 r r r r 7 7 r r r r 7 7 7 7 7 @ X @ p s t r r 7 7 7 r p r t r r 7 7 7 7 7 e r e e e e e e e e e r r 7 7 7 @ @ O O O @ @ 7 7 7 @ @ @ 7 7 7 7 7 @ @ # # # @ 7 7 @ r s r O O X O @ r r r 7 r r r r r r r r r r 7 7 7 7 r r @ @ @ O O @ 7 # 8 7 7 7 7 7 7 7 r 7 7 8 8 8 8 7 O O O X @ 8 @ X X O O X X X O O O @ @ r K t O @ O X + * j.1XM . X O O O @ + 9 O   X O # y e @ @ X X O X X O r r r t s p t r p s p r 7 @ 7 7 O X O O O X O O @ 7 8 r r ",
"r O X X O X X X X X X X X X X X @ O X o o + @ @ @ 7 9 r p p t y r r H J H J H H j h p O @ @ X X O X O h E u * c ~ ! n n i d @ O O O O O X O O O O X X O @ @ @ O X 7 p 8 O X O O r r r r p p 8 @ O X X X X X O @ @ 7 7 r g t O O X O @ # @ @ 7 7 r 7 r p r 7 7 @ r t p s s s p p X O 7 7 r 7 7 e 7 7 @ @ @ @ # # # 7 7 7 r r r r 7 7 7 7 7 7 7 7 O @ O O # 8 7 7 # # # # r r r r r r r r r r r r - - - r 7 7 7 7 7 r 7 r r r r r r 7 7 7 r r r r @ @ @ @ @ @ @ @ @ 7 @ @ 7 @ O @ @ O O O O O @ @ O O O O O O O O O @ @ O X O O O @ @ 7 8 r 8 8 8 O 7 t p @ O O O T d.C X p s t s s y k g s r 8 8 t t y t g g g g g g g g g g g g g g g g s s g g s s s p 7 @ @ X p p s s g g g s g s g g p r r t k s s s g g g g g g g g g g g g 7 O O @ @ O O O O O O O O O O O t t t p p p p p r r r 7 7 7 @ O O # 7 @ X O @ O # # 7 7 8 r r 7 r r r r - - - - r - r r - - - - r r r 7 7 7 r r 7 7 7 7 7 7 7 7 7 7 r 7 r r 7 7 7 7 7 @ X @ p p p t 8 7 7 r r t p p r 7 7 r r r 7 7 r e e e 7 r 7 7 7 7 7 7 7 7 @ @ @ O X X O @ 7 7 7 7 7 7 7 7 @ @ # # # # # # 7 7 7 @ 7 r 7 O X X O O @ r 7 @ r r r r r r r r r r 7 7 7 7 r r @ @ @ O O @ 7 @ 7 7 8 8 8 8 r 7 7 7 7 7 7 7 7 7 O O X X @ 8 @ X X X X X X X O O @ @ O 7 s s 8 O O X o   c.1XM   X X $ X O O 9 O $ X   # g e O @ X X X X X O r p r t p p p p p p t r 7 7 7 @ O X X X O O O O @ 8 8 8 8 ",
"7 O X X O X X X X X X X X X X X O O X o o o X @ 7 7 9 r t p t r r r g h H H s p @ r @ X O @ O X O X X p d + o q q q ^ ^ c b % + + O O O X X O O O O O O @ @ @ O X 7 p r 7 @ O O 7 r r r r r # O O X X X X O @ 7 @ 7 @ 7 p t 7 7 7 7 7 7 7 @ @ O 7 @ 7 r r p p 7 7 7 7 r r p p 7 X O @ 7 7 7 7 7 7 r r r @ @ @ # 7 7 7 7 r r r r 7 7 7 7 7 7 7 # O @ O X @ 7 7 7 # # # - - - - r r - - - r - r r - - - - 7 7 7 7 7 7 7 7 7 r r r r r 7 7 r r r r p 7 @ O @ 7 7 @ 7 7 @ @ 7 O O @ O O O O O O O @ O O O O O O O O O O O O @ r r r r r t t t t t t 8 8 t r O O r p d E a @ p s s g g y s g g t t p g s s g g g g g g g g g g g g g g s g g g g g g s s s s 7 @ @ X p s H H H g g g g g g g g k p k s s g g g g g g g g g g g g g g s t t s r @ 7 t p p t t t t p p p p p p p p p p 7 O @ 7 @ @ 7 O X O @ O X O O X @ @ # 7 7 7 7 7 # # r r # - r r r 7 7 r 7 7 - # r r r r 7 r r r 7 7 7 7 7 7 7 7 7 7 7 7 7 7 7 7 7 # 7 @ X @ r p s t 8 7 7 r r r p p t r r r r 7 @ @ @ e e e r r 7 7 7 7 7 7 7 7 @ 7 @ O X X O @ 7 7 7 7 7 7 7 7 @ @ # # - # - # r 7 7 7 # @ O O X O @ @ 7 7 7 7 7 7 7 7 7 7 7 7 7 7 7 7 7 7 r r @ O O X O @ @ @ 7 7 7 7 7 7 7 7 7 7 7 7 7 7 7 @ X X X X O 8 @ X X X O O O O O O @ @ @ @ r t 8 O X O o   j.1X4   o X X X O O 9 O $     % g e O @ X X O X X O 7 p r r r p p p r r t r 7 r 7 O O O 7 @ @ @ @ @ @ O @ @ @ ",
"7 O X O @ O X X X X X X X X X X X O + * * o   O @ 7 7 9 8 r r r 7 7 p s h h 7 7 X X X X O @ @ @ O X X @ u + o * o q d.~ b b o X + + @ @ X X X X O O O O @ @ O O X # p p r 7 @ O 7 r 7 7 7 7 @ X X X X X O O @ @ 8 7 @ @ 7 7 r r p r 7 7 7 @ O X @ @ @ @ r s s r @ @ @ @ 7 7 8 @ X O @ 7 7 7 7 7 7 r r r @ O @ @ @ # @ 7 # # - - 7 7 7 7 @ # # # O @ X X @ 7 7 7 @ @ @ # @ - - - # # @ @ # # # # # @ @ @ 7 7 7 7 7 7 7 7 7 7 7 7 7 7 7 7 7 r r r p r @ @ @ 7 7 @ @ @ @ 7 7 O X @ O O O O O O O O @ O O O O O O O O O @ 7 r s s s p p p p p p k p s t r 7 X @ p d 8 p p p s g s s g s s g g s s g g g g g g g g g g g g g g g g g g g g g g g g g g p s t 7 @ @ X p s H H H g g g g g g g g g g g g g g g g g g g g g g g g g g g g p s g p @ 7 s g g g g g g s p p p p p t t t t 7 X O r 7 @ 7 X X O O X X X O X O @ @ # 7 7 7 7 - - - r r r r r r r r r r # # # r r r r r r r r 7 7 7 7 7 7 7 7 7 7 7 7 @ @ @ @ @ @ @ @ X @ r p p r 8 7 7 r r r r t p t r r 7 @ @ @ e e e e 7 r 7 7 7 7 7 7 7 7 @ @ @ O X X O @ @ @ @ @ # # 7 7 @ # # # @ @ - # r @ @ 7 @ X X O O @ @ - 7 7 7 7 7 7 7 7 7 7 7 7 7 7 7 7 7 r r r @ O X X O @ 7 7 7 7 7 7 7 7 7 7 8 7 7 7 7 7 7 @ O O X X @ 7 @ X O O O @ O O O O O @ @ @ @ @ @ 7 X O X   j.Z.x   o X X X O O O O     o + t y 7 # X X X X X O @ r p p p p s s s p p 7 @ r r @ O @ p r 8 8 8 8 O X O O O ",
"@ X X @ @ O X X X X X X X X X X X O o   & Z d O @ O 9 9 8 r r r 7 r t t H T s h 7 X X @ @ O O @ X O O @ 8 d d 0 + a ^ b R Z o + o + + @ O O O O O O + O O O O O X @ 7 r 7 7 @ O 7 7 @ @ @ @ @ X O O @ @ @ @ @ O 7 @ @ @ @ 7 r r r 7 @ 7 7 7 # @ 7 7 7 @ @ r r O @ r r r @ @ @ O O O 7 7 r 7 7 r 7 7 r 7 @ @ @ O @ @ # 7 @ - - - 7 7 7 7 7 7 @ @ @ @ O X @ 7 7 7 # @ @ @ - - - - - - - - # @ @ @ @ @ @ @ 7 7 7 7 7 7 @ @ @ @ @ @ @ 7 @ 7 7 r r r r r 7 @ @ @ @ @ @ 7 7 7 r @ X @ O O O O O O O O O O O O @ @ @ O O O @ r t p p t p p t t t t t t p t p r @ @ @ @ p p s h g s s y g g y g g g g g g g g g g g g g g g g g g g g g s s g g g g g g g g s t @ @ @ X r t s s t t t p t t t t t s g g g g g g g g g g g g g g g g g g g s s g s r r g g p g g g k t 8 p p p p p p p p r X @ s p r 7 X X O O O O O O O O @ @ 7 7 7 7 r # # @ @ @ @ r - r r - - r r r r r r r r r r r 7 7 7 7 7 7 7 7 7 7 7 7 7 @ 7 7 7 7 @ @ O X @ p p t t t r 7 7 r p r t t r r r r @ e e e e 7 7 7 7 7 7 7 7 7 7 7 7 @ @ O O O @ @ @ @ @ @ @ @ @ @ 7 @ @ # # - - # # 7 # 7 7 @ X X @ O @ @ # # # 7 7 7 7 7 7 7 7 7 7 @ 7 r r 7 7 @ @ 7 O X X O @ @ 7 7 7 7 7 7 7 7 7 7 7 7 7 7 7 @ @ @ @ O O @ 8 @ X O O O O O @ O O $ O + + @ O @ r O @ o o l.S.x   o X X X X O O O $ , o % t t 7 # X X O X X X O @ 7 7 7 7 @ 7 r p t @ O 7 t 7 @ 7 @ @ 8 8 7 8 @ @ O O O ",
"O X X O @ @ O X X X X X X X X X X O     l z.d.O O O O @ @ 7 r r r r r 7 H E h T r X O 7 @ X X X X @ # # p E E d + 0 a 0 ~ ^ % % o X X X X O O O O O O O O O O O O @ @ O O @ @ @ @ @ O X X O X X @ 7 r r 7 7 O X X O @ 7 @ 7 r 7 r r 7 7 r r 7 # 7 7 r # O 7 7 X @ r t r @ O O O O O 7 7 7 7 r r r 7 7 @ @ @ O X @ @ # 7 @ # - - 7 7 7 7 7 @ @ @ @ # O X @ 7 # 7 @ @ @ @ @ @ # # @ @ @ @ @ @ @ @ @ @ @ @ 7 7 7 7 @ @ @ @ @ @ @ @ @ 7 7 r r r r r 7 7 7 7 @ @ O O @ r r r r @ O @ O O O O O O O O O O O O @ 7 @ @ O O 7 t p p p p s s p p t t p p p t p p r @ O X s h g s s s y s g y s y g g g g g g g g g g g g g g g g g g g g s s g g g g g g g g g s @ @ @ X 7 r r r 7 7 8 r r r 8 8 r p g g g g g g g g g g g g g g g g g g H s s H H s g g g g h h g k t 8 p p s s p p p p @ X 7 g s p r @ O O O O O O @ @ @ # 7 7 7 7 r r # # @ # @ @ r r r r - - r r r r r r r r r r 7 7 7 7 7 7 7 7 7 7 7 7 7 7 7 7 7 7 7 @ @ O X @ p p t t t r 7 7 r p t t r r 7 r r r 7 7 7 7 7 @ @ @ 7 7 7 7 7 7 7 7 @ O O O O @ @ @ @ # @ @ @ @ 7 7 @ @ # @ @ - # - 7 @ 7 7 @ O @ 7 @ @ @ # # # 7 7 7 7 7 7 7 7 7 7 @ 7 7 r 7 7 @ @ 7 O X X O @ @ @ @ 7 7 7 7 7 7 7 7 7 7 7 7 7 @ O @ @ @ O 8 r 7 O X X X O O @ @ O X   o + @ @ 7 @ r @ + % l.C.v   o X X X X O O X $     * p r @ @ X X O O X X X X X X X X X X O @ 7 O O 7 t r 7 r X @ 8 8 @ O @ p O O O ",
"8 @ X O @ O X O X X X X X X X X O   & S S W L O X X X O O @ $ $ r 7 @ @ h J r t @ O @ r 8 8 8 O + + + 8 p h E p @ 0 a i Z c l q c i + O X X O O O O O O O O O X @ @ @ O O O @ 7 O O O X O O X X @ 7 r 7 7 7 @ X X X @ @ O 7 r 7 7 7 7 7 7 7 7 @ @ @ # # @ 7 7 O O @ 7 7 @ O O O X O @ 7 7 7 7 r r 7 7 @ @ @ O X @ @ @ @ @ @ @ $ @ @ @ @ @ @ @ @ @ @ O X @ @ @ O @ O O O O O @ @ O O @ @ O O O O O O O O @ @ @ @ O O O O O O @ @ @ @ 7 r r r r r 7 7 7 7 @ @ O O @ t r @ @ @ O @ O O O O O @ @ @ @ O @ @ r r @ O O @ 8 p g s g g s s s s s s g g g p p p r 7 @ X t g s y s g y K y k k y g g g g g g g g g g g g g g g g g g g g s s g g g g g g t p g s @ O @ X 7 7 7 r r r r r r r 8 8 r p g g g g g g g g g g g g g g g g g g s s s g g g g s g g g p t 8 8 8 p s s p r 7 7 r @ 7 p g s r 7 7 @ @ O O @ @ @ @ 7 7 7 7 @ @ r r # # # # @ - r r r r # - - - r r r r r r r 7 7 7 @ @ @ @ @ @ @ @ @ @ @ @ @ @ @ @ @ O @ O X O 7 7 7 7 7 7 @ @ @ 7 r r t r r r r 7 @ @ @ @ @ @ @ @ @ @ @ @ @ @ @ @ O O X X O O @ @ @ @ @ @ @ @ @ @ O O O @ @ @ @ @ @ @ @ @ O O @ @ @ @ O O @ @ @ @ O @ @ @ @ @ @ # @ @ r r r r @ @ @ O O @ r 7 7 7 @ 7 7 r r 7 7 7 7 7 7 7 7 7 @ @ 7 @ @ O 7 r 7 O O O O O O @ @ O   o q % X @ 7 X 7 O O * Q j.v % + O X X O + @ O   : m q 8 r 7 @ X X X X X X X X O O O O O @ 7 r 7 @ @ 7 r r r r @ 7 8 8 O O @ 7 X O O ",
"d r @ @ @ O X X X X X X X X X X X   ~ S.h.    + X X O X X X X X X X X O h H O X r r s h d H H r p + + # @ 8 r O O @ u 0 q & ! k.d.E a @ @ O O O O O O O O O O O X O @ @ O O @ O @ @ @ @ @ # @ X X @ @ @ @ 7 @ O O O @ O X O r 7 X X X O @ @ @ # 7 @ @ 7 7 r 7 O O @ @ @ @ @ @ O X O @ 7 7 7 7 r r r 7 7 @ O O O O O O O O O O O O O O O O O X X X O X X O O X X X X X X X X X X X X X X X X X X X X X X O O O O O O X X O O @ @ O @ @ 7 r r r 7 r 7 7 7 @ @ O O @ r r O X O O O O O O O O @ @ 7 r 7 7 r r r @ X 7 e t s p t t s p p p p p p k k g p p s r 7 O X r H g y g g k g y k g y s g g g g g g g g g g g g g g g g g g g s s g g g g g g O 8 s p 7 O @ O r r r r r r r r 8 8 8 7 8 p g g s g g g g g g g g g g g g g g g s g g g g h h g g g p t 8 7 8 8 s s p r @ O X X r h J H p @ O 7 r 7 @ 7 7 7 7 r 7 7 7 # @ @ @ 7 # # # # @ - r r r r # # # - - r r r r r r 7 7 7 O O O O O O O O O O O O O O O O X X O X X X O X O O O O X X X X 7 r t p t t 8 @ @ @ @ @ O O O O O O O O O O O O X X X X X X O @ O O O O O O O O X X X X O O O O O O O X X X O O O X X X X X X X X X O O O O O @ @ @ r r r r 7 @ @ O @ p h h s p r r p p p p r r r r r r r 7 7 @ @ @ @ @ 7 t r @ 7 7 @ O O @ O X   i ^ z X X r O X X O o 2 V v R % @ O O + + 8 @   k.B.Z + r p @ X X X X X X O O X X X O O @ @ 7 r r r r r r r 7 r O X X @ 7 @ O X O O "
};
