/* XPM */
static const char *xpm_[] = {
/* columns rows colors chars-per-pixel */
"480 270 256 2 ",
"   c #060200",
".  c #0C0201",
"X  c #0D0805",
"o  c #08080A",
"O  c #120403",
"+  c #1B0303",
"@  c #140905",
"#  c #1C0A05",
"$  c #160608",
"%  c #1A0609",
"&  c #150909",
"*  c #1B0A0A",
"=  c #1C120B",
"-  c #1C0D12",
";  c #1B1515",
":  c #0B1014",
">  c #220403",
",  c #230B04",
"<  c #2B0C04",
"1  c #22060A",
"2  c #230C0C",
"3  c #2B0D0D",
"4  c #2A0505",
"5  c #320D09",
"6  c #2C1203",
"7  c #24110D",
"8  c #2B120C",
"9  c #261205",
"0  c #321404",
"q  c #33140C",
"w  c #34190B",
"e  c #3C1B0C",
"r  c #3A1806",
"t  c #250E11",
"y  c #2C0E13",
"u  c #290C16",
"i  c #310E13",
"p  c #380E14",
"a  c #251112",
"s  c #2C1213",
"d  c #2D1419",
"f  c #2B1918",
"g  c #321314",
"h  c #3B1514",
"j  c #341914",
"k  c #3C1A13",
"l  c #331519",
"z  c #3C161A",
"x  c #351A1B",
"c  c #3C1B1C",
"v  c #3A221B",
"b  c #2E2511",
"n  c #3C1D21",
"m  c #351C21",
"M  c #281C23",
"N  c #1A2729",
"B  c #3C2223",
"V  c #392727",
"C  c #2E2E2F",
"Z  c #191C21",
"A  c #431C0D",
"S  c #471C06",
"D  c #431C13",
"F  c #4A1E13",
"G  c #43161B",
"H  c #49161C",
"J  c #431B1C",
"K  c #4B1B1D",
"L  c #421415",
"P  c #511A13",
"I  c #4C230C",
"U  c #482207",
"Y  c #53250C",
"T  c #5B2B0B",
"R  c #572807",
"E  c #452114",
"W  c #4C2213",
"Q  c #44221C",
"!  c #4C221D",
"~  c #482B19",
"^  c #532413",
"/  c #5B2B13",
"(  c #562716",
")  c #593214",
"_  c #642C08",
"`  c #64320B",
"'  c #6A3309",
"]  c #763908",
"[  c #622D14",
"{  c #652B16",
"}  c #643113",
"|  c #6B3413",
" . c #693618",
".. c #7B3C14",
"X. c #733814",
"o. c #762B09",
"O. c #431D21",
"+. c #4D1F23",
"@. c #4C1B24",
"#. c #511E24",
"$. c #551F28",
"%. c #452223",
"&. c #4D2124",
"*. c #4C2329",
"=. c #482A2A",
"-. c #522225",
";. c #532429",
":. c #5B252B",
">. c #542A2C",
",. c #5C2A2D",
"<. c #582526",
"1. c #573229",
"2. c #542D31",
"3. c #5D2C31",
"4. c #5D2630",
"5. c #4C3334",
"6. c #543334",
"7. c #5C3235",
"8. c #5B3B3C",
"9. c #58373A",
"0. c #4B2F2F",
"q. c #62262D",
"w. c #632A2E",
"e. c #682A2D",
"r. c #683529",
"t. c #642731",
"y. c #642C32",
"u. c #692B33",
"i. c #682C36",
"p. c #643235",
"a. c #6A3234",
"s. c #64343A",
"d. c #6B343B",
"f. c #633A3D",
"g. c #6C3A3D",
"h. c #683C33",
"j. c #72373A",
"k. c #74372A",
"l. c #651D0E",
"z. c #7C4112",
"x. c #59423B",
"c. c #724635",
"v. c #796039",
"b. c #2E3D43",
"n. c #5B3D41",
"m. c #493D43",
"M. c #643D42",
"N. c #6B3D43",
"B. c #6B3D47",
"V. c #723D42",
"C. c #773B43",
"Z. c #2A474A",
"A. c #385558",
"S. c #334B4E",
"D. c #3C5A5F",
"F. c #5D4344",
"G. c #4C5254",
"H. c #644344",
"J. c #6B4345",
"K. c #654549",
"L. c #6A4549",
"P. c #6C4A4C",
"I. c #664949",
"U. c #734246",
"Y. c #75454A",
"T. c #744B4C",
"R. c #7A4A4D",
"E. c #7A454A",
"W. c #7B4D52",
"Q. c #754D51",
"!. c #7C5254",
"~. c #775254",
"^. c #72524F",
"/. c #455D62",
"(. c #496569",
"). c #59767A",
"_. c #53696D",
"`. c #6B7375",
"'. c #63615E",
"]. c #25413E",
"[. c #843B0D",
"{. c #823E2D",
"}. c #88430A",
"|. c #884514",
" X c #964B15",
".X c #984C09",
"XX c #A6550B",
"oX c #854835",
"OX c #964D34",
"+X c #965338",
"@X c #8B4E30",
"#X c #A3593D",
"$X c #AE6B20",
"%X c #D47523",
"&X c #89544F",
"*X c #A35A43",
"=X c #AE7151",
"-X c #966C5C",
";X c #E47B45",
":X c #D88B30",
">X c #EA8F33",
",X c #E4A224",
"<X c #FCD52D",
"1X c #FCE62B",
"2X c #F9E21C",
"3X c #AF8963",
"4X c #D58B55",
"5X c #E98648",
"6X c #EC8E4D",
"7X c #F4A84F",
"8X c #E19B66",
"9X c #F9E557",
"0X c #BE8F16",
"qX c #657D82",
"wX c #777C86",
"eX c #5D7D82",
"rX c #688589",
"tX c #748D92",
"yX c #7C9A9D",
"uX c #789498",
"iX c #73898D",
"pX c #7C9BA2",
"aX c #73999A",
"sX c #84999C",
"dX c #8F8E8E",
"fX c #839DA3",
"gX c #9099A3",
"hX c #88A4A8",
"jX c #9AB5B8",
"kX c #93ABAF",
"lX c #A8B4B7",
"zX c #AA9E95",
"xX c #CFB5A6",
"cX c #EFECA5",
"vX c #A7BDC3",
"bX c #9DBDC2",
"nX c #ABC5C9",
"mX c #B4CACC",
"MX c #B6CDD2",
"NX c #BBD3D5",
"BX c #B9D4D8",
"VX c #B5CFCF",
"CX c #B8D5DA",
"ZX c #C5D8DB",
"AX c #CFCFD0",
"SX c #FAF9D2",
"DX c #C9DDE2",
"FX c #D6E7EA",
"GX c #D4EAEE",
"HX c #E8F6F8",
"JX c #FEFDFC",
"KX c #F6F9F9",
"LX c #ECEFEC",
"PX c #E5DBD8",
"IX c #B5C1BD",
"UX c #7A7E7D",
/* pixels */
". . . . X X X X       .   . X X . . . .   . & .                             . . . . . . . . . . . . . . . . . . . O . . O O . . X   .   X X . . . . . . . . X . X X X X X     X . . . . . . . . . . . .         . .         . .               . . . . . . . . .         . . . X . . . . . . . . .     X   X . @ . & .   .   . X X . .   . . . .         X X X X . . . . o o . X     X X           X . O . . . & X X X X X X X X X X X X                     . . . . X X X X       X .   . . . . X X . . . . . . . . . . . . . . . . . . . . . . . . . .           X X . . O O O .     . . . . . . . . .         . . . .       .             . . . . .   X     . . . . . . . . .               X . . . . . . . . X X X X                       . @ X X o & X . & .   . . . o . . . . . . @ . . .         . . . . X X X X . . . . . . . . . . X & . . . . X .     X . . . . . . .                 . . . .         . . .     . .     . . . X o     . . O   . X X                   . . . .         ",
"O . .   . . . . . . . . . X X . . . . . . . .   & * ; a ; ; ; ; @ @ @ @ @ @ @ @ @ @ O O O O O O * * * * * - - * * O . . O O . .         . . . O . . . . . . . . . . . O & & & & * & . . O .               X X . . .       . . . . X X . . . X X . O . . . . . . . . . . . . . . . . . . . . . . . . .   .   O . . . X   . . . . @ . . . . . . . . . . . . . . . . . . . . . . .         . .     o   . . & . . . . . . . . . . . . . . . . . . . . . . . . . . . . . . . . .     .   X       . . . . . . . . . . . . . . . . . . . . . . . . . . . . . . . . . . . & @ . . . . .       . . . . . .       . . . . . .     . . . . . . . . . . . . . . . . . . . . . . . . . . . . . . .           . . . . . . .   . . . . . . . . . . . . . . . . . . .   .   . X X X o X     . O . . . . . . . .         . . . . . . . . . . . . . . . . @ . . @ . . . . . .   . . . . . . . . . .             . . . . . . . . . . . . . . . . . & . . . . . . . $ . .     . .   . . . . . . . . . . . . . . . . ",
"t u d d V V V V 5.5.5.5.0.m * . . . . . .   . t n.F.I.P.K.K.K.K.n.8.8.8.8.8.8.8.8.8.8.8.8.8.8.8.K.F.F.F.K.F.K.K.n.x O . . . .   X     . a x V 0.5.5.5.5.5.5.5.5.n.n.n.n.n.n.n.n.n.9.5.5.V B m l d d d d a % . . . . .     . . . . . . . .     . O 1 u d V V =.=.=.%.%.%.%.%.%.%.B B B B m m m B $ O . X .   . . .   X O $ t d d d f a a % % % % + $ $ $ $ $ * * * * * * a a a a d f s s t @   X         . . % a d d d d x x x x =.=.=.=.=.=.=.=.=.=.=.=.d d d d + + $ $ O O . . . X   X X X X X . . . . O O O O O O O O + + + + + + + + $ $ $ $ t t 2 2 s s s s d d s 2 O . &     . X X . . $ d d d d d a a a a d d d d s s s s s s s s * 2 2 * O O O O O O O . . . . . . . . . . . O O O . . . & $ $ $ a a a a d d d d d d d d d d d d d d d d l x a & X     . X X X . . O O O O O O O + + % * s s s s d d d d d d d d d d d d d d d d d 2 O . .   .       . . O t x m m m m m B B B B B B B B B B B B n n n n m m m m l l l d d a * . . . . . . & @ . % a f a a a a a t t t t t t t t % % * * ",
"H.H.M.M.L.L.L.K.K.H.H.K.F.F.0.* . . . .   . a 9.K.J.J.J.J.J.J.J.J.J.L.J.J.J.L.L.L.L.L.U.U.J.J.J.L.L.H.K.L.L.L.K.P.F.B O . . .       @ V F.H.L.L.K.K.K.K.K.K.K.L.L.J.J.J.L.L.L.L.L.K.K.K.K.K.K.K.L.L.K.K.F.5.s O . .     . . O O * * * * a f V =.9.n.M.K.L.L.L.L.L.P.P.P.L.L.L.L.K.K.K.K.K.K.K.K.5.a       .   .     . * 9.F.K.H.K.K.K.F.F.F.F.F.F.F.F.F.n.n.n.n.F.F.F.F.K.K.K.K.K.K.K.K.F.V &           . ; 5.P.K.J.H.H.L.L.P.P.P.P.P.P.P.P.L.L.L.L.K.K.K.K.K.K.8.8.8.8.5.0.0.=.$   . X       . . 2 V 5.5.5.5.5.9.9.9.9.n.n.n.n.n.n.n.8.F.n.n.n.K.H.H.J.H.H.H.K.K.K.F.6.x . . . X X X @ $ V F.K.I.I.I.I.I.I.I.I.L.L.L.L.P.P.P.P.P.P.P.P.H.H.M.F.9.9.9.9.n.9.=.d . . .     . . . . % B 5.5.5.5.5.n.n.n.n.K.K.K.K.K.K.K.K.K.K.K.K.L.L.L.L.L.L.L.L.M.K.F.5.a &         . . . x =.B 5.2.0.0.9.8.n.M.J.J.J.J.L.L.L.K.K.K.K.K.K.K.K.K.K.K.K.K.P.H.=.2 . .         . O 5.M.P.P.P.P.P.P.K.K.K.K.K.K.K.K.K.L.L.L.L.L.L.L.J.J.J.J.L.L.L.L.K.I.5.a . . . . . . . a 9.F.I.K.K.K.K.K.K.K.K.K.H.F.F.F.F.F.F.F.",
"M.M.M.M.B.B.B.B.B.M.M.M.M.L.H.0.O . . X . . 5.8.J.M.M.f.f.f.7.7.7.7.7.7.7.7.7.7.7.7.7.7.p.p.p.7.7.7.7.7.s.f.f.8.L.L.8.s O O .     # V F.J.M.B.N.s.9.7.7.7.7.7.7.>.>.>.>.3.3.7.7.7.7.7.7.7.7.7.7.7.7.3.7.7.M.6.a . .   . . . x 5.K.H.H.8.H.H.H.J.H.L.L.P.J.B.B.B.M.M.B.B.M.M.M.M.M.B.M.M.B.B.B.M.H.5.7 . . . . .     a n.P.M.M.P.L.L.L.L.L.L.L.J.J.J.M.M.J.J.J.J.L.L.L.L.L.L.H.L.B.J.B.J.J.H.B . .       @ 5.I.L.M.f.f.f.f.f.f.f.f.f.f.f.f.f.f.f.s.s.9.9.M.M.M.M.M.M.M.M.8.M.L.P.8.d . .     . . d 9.P.H.L.8.6.6.9.9.9.9.M.M.M.M.L.J.J.J.J.J.J.J.L.L.J.J.L.L.L.L.H.H.M.J.K.v .   . . . O m I.L.8.9.9.9.9.2.2.2.2.7.7.7.7.3.3.3.3.f.f.f.f.J.J.J.J.J.J.H.K.J.J.L.I.B . .   X   . . j 6.P.P.H.H.H.H.L.L.L.L.J.J.J.J.L.J.J.B.J.J.J.J.J.J.J.J.J.J.J.J.N.B.L.P.5.$   . X .   % 5.K.P.L.M.f.9.7.7.>.*.;.>.>.>.>.2.2.2.2.3.7.7.7.2.2.2.2.*.*.&.&.7.J.L.9.% . .   .   . 0.J.B.B.B.J.J.J.J.J.J.J.J.L.L.L.L.J.M.M.M.M.M.B.B.M.M.M.M.L.L.L.L.L.P.P.9.% . O . . . a 9.H.J.J.J.J.J.J.J.J.J.J.J.J.J.J.J.M.M.M.M.",
";.;.;.;.;.;.;.;.;.;.;.*.3.9.M.H.2 . . . . f H.M.7.2.;.&.*.&.&.K K K K K K K K K K K K K K O.O.O.O.O.O.O.O.+.+.+.*.*.*.l O . . . . s F.H.2.2.,.-.+.+.+.+.+.O.+.+.+.&.&.&.O.@.O.O.O.O.+.+.+.+.+.+.&.&.-.&.J *.*.B O .     . f 6.L.M.M.M.B.J.J.J.J.J.B.M.M.3.3.3.3.*.;.;.;.*.*.*.*.:.:.:.:.2.3.3.3.M.K.V . . . . .   . 5.P.M.s.s.N.B.B.B.B.M.s.2.;.;.>.>.2.s.s.s.s.f.f.f.f.f.f.f.f.s.s.s.s.f.J.H.2 .     . B F.6.;.O.+.+.@.@.@.+.+.+.+.#.#.#.#.-.-.@.@.O.O.-.-.&.&.&.&.&.&.O.&.;.>.M.F.a   X . . O 8.M.f.9.;.&.O.O.+.+.+.+.#.#.*.*.2.2.3.3.s.s.s.s.8.f.s.s.3.3.2.6.>.>.>.>.f.5.# . . . O 2 n.8.2.>.&.&.&.&.*.*.*.*.+.+.+.+.&.&.*.&.+.+.+.+.3.3.3.3.s.f.M.M.J.J.J.L.I.x O . .   O s J.J.J.J.M.M.M.M.J.J.J.J.M.M.M.N.s.2.3.3.3.3.3.3.N.N.U.J.J.J.J.J.N.N.J.J.H.V . . . . a 9.P.H.P.M.>.*.&.;.*.*.*.;.+.+.+.+.;.;.;.;.+.&.&.&.&.&.&.&.&.&.&.&.*.3.N.L.=.O .   . X V n.8.s.s.s.s.s.s.s.9.8.8.8.8.8.8.f.M.M.M.M.M.M.M.M.J.J.J.J.M.M.M.M.7.M.n.I.B O . O . $ 0.P.J.J.J.J.M.N.N.N.s.s.s.s.2.2.2.2.;.;.;.;.",
"+.+.+.+.+.+.+.&.%.%.&.&.O.O.&.7.B O . . . B 7.-.;.-.+.K &.-.-.-.-.&.&.&.&.-.-.-.-.-.-.! ! -.&.&.&.-.&.&.&.&.%.%.&.*.*.n # . . . O z 6.*.;.K H -.-.-.-.-.-.-.-.-.&.&.&.-.+.+.&.&.-.-.-.-.-.-.-.-.+.+.+.O.%.%.*.=.a .   . % 5.I.f.J.J.U.U.N.N.f.s.;.;.&.&.&.&.&.&.*.;.$.$.;.;.;.;.;.;.;.;.+.+.+.+.*.9.5.f . . . . . f x.f.;.#.&.*.>.>.>.>.+.+.+.+.;.-.+.K +.+.+.+.&.&.+.+.+.+.&.&.%.%.&.&.,.s.J.B .   . + %.*.%.&.O.K +.+.+.O.+.+.+.+.&.&.&.&.-.-.O.O.O.O.-.-.-.-.&.&.&.+.+.&.&.&.*.8.9.&     O V 8.>.K K &.&.&.&.*.*.*.$.*.*.*.*.O.O.O.O.&.&.-.-.&.&.&.&.&.&.%.%.%.%.+.+.&.*.7 . . . O m 9.*.$.2.&.&.&.&.-.-.-.-.-.-.-.-.+.+.+.+.+.+.+.+.#.#.#.#.-.-.;.;.2.3.7.9.P.9.7 . . O + 6.J.7.>.>.>.>.>.>.2.2.2.2.;.;.;.;.-.&.+.+.&.&.&.&.-.;.3.7.N.N.N.N.J.J.N.N.H.6.# . . @ =.P.K.9.2.@.O.O.+.+.&.&.-.-.&.&.&.&.&.&.&.&.O.O.O.O.+.+.+.+.+.+.-.-.+.O.3.J.K.% .     = 5.9.&.+.+.+.+.+.+.+.&.&.&.&.&.&.&.&.;.;.;.;.;.;.;.;.,.,.,.,.;.:.:.:.:.;.O.>.5.2 .   . v H.J.s.s.8.8.;.;.;.;.&.&.&.&.+.+.+.+.&.&.-.-.",
";.;.;.;.&.&.&.&.%.%.%.%.;.;.+.*.0.# . . + %.&.+.;.;.-.-.K &.;.>.-.-.-.-.-.-.-.-.-.-.-.-.-.-.-.-.-.-.&.&.O.O.+.+.*.+.O.O.2 . . O > *.J ;.K &.-.-.-.-.-.#.-.+.+.+.&.&.&.! +.+.+.+.+.+.-.-.-.-.+.+.+.K K K &.%.Q %.v . . . v P.M.J.B.f.s.7.>.;.&.K K O.&.&.&.&.&.+.+.+.+.+.$.;.;.-.+.+.+.+.+.+.+.+.&.O.=.x . . . . O =.9.;.-.-.*.&.+.+.+.#.+.+.#.-.+.+.-.-.+.+.+.+.-.-.#.#.#.#.-.&.&.&.&.+.+.;.,.6.@   . 2 %.O.H &.K K K K -.-.&.&.&.&.+.+.+.K K K &.&.&.&.-.-.-.-.&.&.&.&.+.+.+.O.+.+.0.x . . O 0.>.;.&.+.+.+.+.+.+.@.+.+.+.+.#.#.+.+.+.+.-.-.-.-.-.-.-.-.-.-.&.&.%.&.-.-.;.Q c O O . O %.*.@.:.+.O.K K K &.&.&.&.+.+.+.+.+.+.+.+.+.+.+.+.&.-.-.-.<.-.H L @.+.-.-.=.9.B . @ . c 7.&.K K %.K K K K +.+.+.+.K K K K &.&.+.+.&.&.&.&.+.+.-.;.;.;.;.;.,.>.<.-.&.=.2 . . f 9.6.=.>.@.+.;.;.-.-.+.+.+.+.&.&.&.&.&.&.&.&.-.-.-.-.-.-.-.-.-.&.&.&.;.+.-.7.J.m   . . f =.O.&.&.&.&.&.&.&.&.-.-.-.-.K K +.+.+.+.+.+.#.#.#.#.+.K K K #.#.#.#.-.H +.O.*.s . . O B J -.-.-.*.*.J K K K &.&.&.&.+.+.+.+.+.+.#.#.",
"+.+.+.+.+.&.&.-.&.&.&.&.&.&.&.%.%.7 . . 2 *.&.&.+.+.+.+.&.&.&.&.+.+.+.+.+.+.+.+.+.+.+.+.+.+.+.+.+.+.+.+.+.+.+.&.%.%.+.%.s . . . g &.*.+.-.-.-.&.&.+.+.+.+.+.+.+.+.+.+.+.+.+.+.+.+.+.+.+.+.+.+.+.+.+.+.+.+.&.&.%.B O . @ 6.8.f.7.*.*.&.&.+.+.+.+.+.+.+.+.+.+.+.+.+.+.+.+.+.+.+.+.+.+.+.+.+.+.+.&.&.&.O.n $ .   . # %.*.&.-.-.-.-.+.+.+.+.+.+.+.+.+.+.+.+.+.+.+.+.&.&.&.&.&.&.&.-.+.+.+.+.+.+.+.%.# . . j *.+.+.-.+.+.+.+.+.+.&.&.+.+.+.+.+.+.+.+.+.+.+.+.+.+.+.+.+.+.+.+.+.+.+.+.+.O.O.%.O . 2 %.%.#.#.+.+.+.+.+.+.+.+.+.&.+.+.+.#.#.#.#.+.+.+.#.+.&.&.&.&.&.&.&.&.&.#.#.-.! Q , . . 2 %.&.+.+.&.+.+.+.+.+.+.+.+.+.+.+.+.+.+.+.+.+.+.+.+.+.+.+.+.+.+.+.+.+.+.+.+.&.%.B $ . % O.-.+.+.+.+.+.+.+.+.+.+.+.+.+.+.+.+.+.+.+.+.&.&.&.&.&.&.&.-.-.-.&.-.-.-.-.-.-.*.j O O B %.&.%.%.&.+.+.+.+.+.+.+.+.+.&.&.&.&.+.+.+.+.+.+.+.+.+.+.+.+.+.&.&.&.&.&.&.&.>.0.#   O s =.O.&.&.&.&.&.&.&.-.+.+.+.+.+.+.+.+.+.+.+.+.+.+.+.+.+.+.+.+.+.+.+.+.+.+.+.+.&.z O . , %.%.-.#.+.&.%.%.&.+.+.&.&.&.+.+.+.+.+.+.+.+.#.",
"+.+.+.+.+.&.&.-.+.+.+.+.&.&.&.%.%.7 . . 2 *.&.&.+.+.+.+.-.&.&.&.+.+.+.+.+.+.+.+.+.+.+.+.+.+.+.+.+.+.+.+.+.+.+.&.! ! +.%.s . . . z -.-.K -.-.-.&.&.+.+.+.+.+.+.+.+.+.+.+.+.+.+.+.+.+.+.+.+.+.+.+.+.+.+.+.+.+.+.%.B O . @ 6.3.2.&.&.+.&.&.+.+.+.+.+.+.+.+.+.+.+.+.+.+.+.+.+.+.+.+.+.+.+.+.+.+.+.&.#.+.@.O.$ .   . , %.*.&.-.-.-.-.+.+.+.+.+.+.+.+.+.+.+.+.+.+.+.+.&.&.&.&.&.&.&.-.+.+.+.+.+.+.+.%.# . . d %.&.&.! +.K +.+.+.+.&.&.+.+.+.+.+.+.+.+.+.+.+.+.+.+.+.+.+.+.K +.+.+.+.+.+.+.+.%.O . 2 %.&.#.#.+.+.+.+.+.+.+.O.O.&.&.&.+.#.#.#.#.+.+.+.+.+.&.&.&.&.&.&.&.&.-.#.-.-.! ! , . . 2 %.+.+.&.&.+.+.+.+.+.+.+.+.+.+.+.+.+.+.+.+.+.+.+.+.+.+.+.+.+.+.+.+.+.+.+.+.-.&.%.+ . % O.#.#.+.+.+.+.+.+.+.+.+.+.+.+.+.+.+.+.+.+.+.&.&.&.&.&.&.&.&.-.-.&.-.-.-.-.-.-.&.j O O %.*.&.%.%.&.&.+.+.+.+.+.+.+.+.&.&.&.&.+.+.+.+.+.+.+.+.+.+.+.+.+.+.+.+.+.+.+.+.;.*.# . O x *.K &.&.&.&.&.&.&.-.+.+.+.+.+.+.+.+.+.+.+.+.+.+.+.+.+.+.+.+.+.+.+.+.+.+.+.+.-.c O . , %.&.&.+.+.+.&.%.&.&.&.&.&.&.+.+.+.+.+.+.+.#.#.",
"+.+.+.+.+.+.-.-.+.+.+.+.-.-.&.%.%.7 . . 2 *.&.&.+.+.+.+.-.-.&.&.+.+.+.+.+.+.+.+.+.+.+.+.+.+.+.+.+.+.+.+.+.+.+.&.! ! +.%.s . . O %.-.-.K -.-.-.&.&.+.+.+.+.+.+.+.+.+.+.+.+.+.+.+.+.+.+.+.+.+.+.+.+.+.+.+.+.+.+.%.%.O   + 0.*.O.O.+.+.#.#.+.+.&.&.+.+.+.+.+.+.+.+.+.+.+.+.+.+.+.+.+.+.+.+.+.+.+.&.#.+.+.O.$ . . . , %.*.-.-.-.-.-.+.+.+.+.+.+.+.+.+.+.+.+.+.+.+.+.&.&.+.+.+.+.+.&.+.+.+.+.+.+.+.%.% . . d %.&.-.! +.+.+.+.+.+.&.&.+.+.+.+.+.+.+.+.+.+.+.+.+.+.+.+.+.+.+.+.+.+.+.+.+.+.+.%.O . 2 %.&.#.+.+.+.+.+.+.O.O.O.O.&.&.&.+.+.+.+.+.+.+.+.+.+.%.&.&.%.&.&.&.&.-.#.$.-.+.%., . . t &.+.+.&.&.+.+.+.+.+.+.+.+.+.+.+.+.+.+.+.+.+.+.+.+.+.+.+.+.+.+.+.+.+.+.+.+.;.&.%.+ . % O.#.+.+.+.+.+.+.+.+.+.+.+.+.+.+.+.+.+.+.+.+.&.&.&.&.+.+.+.&.-.&.&.#.-.-.-.-.-.&.x O + %.&.&.%.%.&.&.+.+.+.+.+.+.+.+.&.&.&.&.+.+.+.+.+.+.+.+.+.+.+.+.+.+.+.+.+.+.+.+.! *.@ . O x %.&.&.&.&.&.+.+.&.&.+.+.+.+.+.+.+.+.+.+.+.+.+.+.+.+.+.+.+.+.+.+.+.+.#.#.#.#.-.c O . , %.&.&.+.+.+.&.&.&.&.&.&.&.&.+.+.+.+.+.+.+.+.+.",
"+.+.+.+.+.+.-.-.+.+.+.+.-.&.&.%.%.7 . . 2 *.&.&.+.+.+.+.-.-.&.&.+.+.+.+.+.+.+.+.+.+.+.+.+.+.+.+.+.+.+.+.+.+.+.&.! ! +.%.s O . O %.-.-.+.&.&.&.&.&.+.+.+.+.+.+.+.+.+.+.+.+.+.+.+.+.+.+.+.+.+.+.+.+.+.+.+.+.+.+.%.B O . + =.O.O.*.+.+.#.#.+.+.&.&.+.+.+.+.+.+.+.+.+.+.+.+.+.+.+.+.+.+.+.+.+.+.+.&.#.+.+.O.$ . . . , %.&.+.-.-.-.-.+.+.+.+.+.+.+.+.+.+.+.+.+.+.+.+.&.&.+.+.+.&.+.&.+.+.+.+.+.+.+.%.% . . d %.&.&.! +.+.+.+.+.+.&.&.+.+.+.+.+.+.+.+.+.+.+.+.+.+.+.+.+.+.+.+.+.+.+.+.+.+.+.%.O . 2 %.&.#.+.+.+.+.+.+.+.O.O.O.&.&.&.+.+.+.+.+.+.+.+.+.+.&.&.&.&.&.&.&.-.-.-.#.-.&.%., . . t &.+.+.&.&.+.+.+.+.+.+.+.+.+.+.+.+.+.+.+.+.+.+.+.+.+.+.+.+.+.+.+.+.+.+.+.+.;.&.%.O . % O.#.+.+.+.+.+.+.+.+.+.+.+.+.+.+.+.+.+.+.+.+.-.&.&.&.+.+.+.&.-.&.&.#.-.-.-.-.-.&.x O + %.&.&.%.%.&.&.+.+.+.+.+.+.+.+.-.&.&.&.+.+.+.+.+.+.+.+.+.+.+.+.+.+.+.+.+.+.+.+.H %.O . O v %.&.&.&.&.&.+.+.+.&.+.+.+.+.+.+.+.+.+.+.+.+.+.+.+.+.+.+.+.+.+.+.+.+.#.#.#.#.-.c O . , %.&.&.+.+.+.&.&.&.&.&.&.&.&.+.+.+.+.+.+.+.+.+.",
"+.+.+.+.&.&.&.-.&.&.&.&.-.-.-.&.*.7 . . s >.&.+.+.+.+.+.-.-.&.&.&.&.&.-.-.-.+.+.&.&.&.-.-.-.&.&.&.&.&.&.&.-.-.&.! %.-.&.x O . O &.-.&.&.&.&.&.+.+.+.+.+.+.+.+.+.+.+.+.+.+.+.+.+.+.+.+.+.+.+.+.+.+.+.+.+.+.+.+.%.x O . 7 %.&.&.&.;.;.$.#.&.&.-.-.&.&.&.&.&.&.&.-.+.+.+.+.+.+.+.+.+.+.+.+.+.+.+.+.+.+.+.%.2 . X . 2 %.&.+.#.#.&.&.+.+.+.+.+.+.+.+.+.+.+.+.+.+.+.+.-.-.+.+.+.+.&.&.+.+.+.+.+.+.+.%.% . . d %.&.! ! +.+.+.+.+.+.+.+.+.+.+.+.+.+.+.+.+.+.+.+.+.+.+.+.+.+.+.+.+.+.+.+.+.+.+.c O . 8 %.&.+.+.+.+.+.+.+.+.+.&.&.&.&.&.+.+.+.+.+.+.+.+.+.+.&.&.&.&.&.&.&.&.&.#.#.-.&.%., . . t &.+.+.&.&.&.&.&.&.-.-.-.&.&.&.-.-.&.&.&.&.+.+.+.+.+.+.+.+.+.+.+.+.+.+.+.+.;.>.B 2 . 2 +.;.+.+.+.+.+.+.+.+.+.+.+.+.+.+.+.+.+.+.+.+.-.-.-.-.-.&.&.&.&.&.&.#.-.-.-.-.-.&.x O + %.&.&.%.&.&.&.&.&.-.-.-.-.+.+.-.-.-.-.-.-.-.&.&.&.-.-.&.&.&.&.&.&.&.-.&.&.&.&.+.*.O . O B %.&.&.-.+.+.+.+.&.&.&.&.&.-.-.-.+.+.+.+.+.+.+.+.+.+.+.+.+.+.+.+.+.+.+.+.+.+.&.J @ . , z %.-.+.+.&.&.&.&.&.&.&.%.&.+.#.#.+.+.+.+.+.+.",
"+.+.+.+.&.&.&.-.-.&.&.&.-.-.-.&.*.7 . . s >.&.+.+.+.+.+.-.-.&.&.&.&.&.&.-.-.+.+.&.&.&.&.-.-.&.&.&.&.&.&.-.-.-.-.! &.&.&.x O . O *.-.&.&.&.+.+.+.+.+.+.+.+.+.+.+.+.+.+.+.+.+.+.+.+.+.+.+.+.+.+.+.+.+.+.+.+.+.+.%.g + . 7 *.&.&.&.;.;.#.#.&.&.-.-.&.&.&.&.&.&.&.&.+.+.+.+.+.+.+.+.+.+.+.+.+.+.+.+.#.#.+.%.2 . X . 2 %.&.+.#.#.&.&.+.+.+.+.+.+.+.+.+.+.+.+.+.+.+.+.-.-.+.+.&.&.-.-.+.+.+.+.+.+.+.%.% . . d %.&.! K +.+.+.+.+.+.+.+.+.+.+.+.+.+.+.+.+.+.+.+.+.+.+.+.+.+.+.+.+.+.+.+.#.+.+.c O . 8 %.&.+.+.+.+.+.+.+.+.+.&.&.&.&.&.+.+.#.+.+.+.+.+.+.+.&.&.&.&.&.&.&.&.&.-.#.-.&.%., . . y &.+.+.&.&.&.&.&.&.-.-.&.&.&.&.&.-.&.&.&.&.+.+.+.+.+.+.+.+.+.+.+.+.+.+.+.+.&.*.n % . 1 O.;.+.+.+.+.+.+.+.+.+.+.+.+.+.+.+.+.+.+.+.+.-.-.&.-.-.-.-.-.&.&.&.#.-.-.-.-.-.&.x O + %.&.&.%.%.&.&.&.&.&.&.-.-.+.+.-.-.&.-.-.-.&.&.&.&.&.-.&.&.&.&.&.&.-.-.-.&.-.&.+.*.O . O B %.&.-.-.&.&.&.+.-.-.&.&.&.&.-.-.+.+.+.+.+.+.+.+.+.+.+.+.+.+.+.+.+.+.+.+.+.+.-.J @ . , z %.-.+.+.&.&.&.&.&.&.&.&.&.+.#.#.+.+.+.+.#.#.",
"+.+.+.+.&.&.&.&.-.-.&.&.+.+.-.&.*.7 . . s >.&.+.+.+.+.+.&.-.+.+.&.&.&.&.-.&.&.&.&.&.&.&.-.&.&.&.&.&.&.&.&.-.&.&.! ! &.&.x O . O *.&.&.&.&.+.+.+.+.+.+.+.+.+.+.+.+.+.+.+.+.+.+.+.+.+.+.+.+.+.+.+.+.+.+.+.+.+.+.%.g + . # *.&.&.&.&.*.&.&.&.&.-.-.&.&.&.&.&.&.&.&.+.+.+.+.+.+.+.+.+.+.+.+.+.+.+.+.#.#.#.*.2 . . O 3 *.&.+.#.#.&.&.+.+.+.+.+.+.+.+.+.+.+.+.+.+.+.+.-.&.&.&.&.-.-.-.+.+.+.+.+.+.+.%.% . . d %.&.! K +.+.+.+.+.+.+.+.+.+.+.+.+.+.+.+.+.+.+.+.+.+.+.+.+.+.+.+.+.+.+.+.#.#.+.c O . 8 %.&.+.+.+.+.+.+.+.+.+.&.&.&.&.&.+.#.#.#.#.+.+.+.+.+.&.&.&.&.&.&.&.&.&.-.#.-.&.%., . . y *.+.+.&.&.&.&.&.&.&.-.+.+.+.+.-.-.&.&.&.&.+.+.+.+.+.+.+.+.+.+.+.+.+.+.+.+.+.*.n $ . + G ;.+.+.+.+.+.+.+.+.+.+.+.+.+.+.+.+.+.+.+.+.+.+.&.&.-.-.&.&.-.&.&.#.#.#.-.-.-.&.x O + %.*.&.&.&.&.&.&.&.&.&.-.&.&.+.+.+.&.&.&.-.+.+.+.+.-.-.&.&.&.&.&.&.&.&.-.-.&.&.+.%.O . O B %.&.&.-.&.&.&.-.-.-.&.&.&.&.-.&.&.&.+.+.+.+.+.+.+.+.+.+.+.+.+.+.+.+.+.+.+.+.-.J @ . , z %.-.+.+.&.&.&.&.&.&.&.&.&.+.#.+.+.+.+.#.#.#.",
"+.+.+.+.&.&.&.&.-.&.&.&.&.+.+.&.*.8 . . s >.&.+.+.+.+.+.&.&.&.+.&.&.&.&.-.-.&.&.&.&.&.&.-.-.&.&.-.&.&.&.&.&.&.&.! ! &.%.x O . O *.&.-.&.&.+.+.+.+.+.+.+.+.+.+.+.+.+.+.+.+.+.+.+.+.+.+.+.+.+.+.+.+.+.+.+.+.+.+.O.s # . # *.&.&.&.&.+.&.&.&.&.-.-.-.&.&.&.&.&.&.&.+.+.+.+.+.+.+.+.+.+.+.+.+.+.+.+.+.#.#.*.2 . . O 3 &.&.+.#.#.&.&.+.+.+.+.+.+.+.+.+.+.+.+.+.+.+.+.-.-.&.&.&.&.-.-.+.+.+.+.+.+.+.%.% . . d %.&.K K +.+.+.+.+.+.+.+.+.+.+.+.+.+.+.+.+.+.+.+.+.+.+.+.+.+.+.+.+.+.+.+.#.#.+.z O . 8 %.&.+.+.+.+.+.+.+.+.+.&.&.&.&.&.+.+.#.#.+.+.+.+.+.+.&.&.&.&.&.&.&.&.&.-.#.-.&.%., . . y *.+.+.&.&.-.&.&.&.&.&.&.+.+.+.-.-.-.&.&.&.+.+.+.+.+.+.+.+.+.+.+.+.+.+.+.+.O.&.x $   O h ;.+.+.+.+.+.+.+.+.+.+.+.+.+.+.+.+.+.+.+.+.+.+.&.&.&.&.&.&.&.&.&.#.#.#.-.-.-.*.x O O %.&.&.&.&.&.&.&.&.&.&.-.-.&.&.+.+.&.&.&.&.&.+.+.+.-.-.-.&.&.&.&.&.&.&.&.&.&.&.&.%.O . O B %.%.-.&.&.&.&.-.-.-.&.&.&.&.-.-.&.&.+.+.+.+.+.+.+.+.+.+.+.+.+.+.+.+.+.+.+.+.-.J + . # z &.;.#.#.*.&.&.&.&.&.&.&.&.+.+.#.+.+.+.#.#.#.",
"+.+.+.+.&.&.&.&.-.-.-.&.&.&.&.&.*.3 . . j O.&.;.&.&.&.-.-.-.+.+.+.+.+.+.+.+.+.+.+.+.+.+.+.+.+.+.#.#.#.#.+.+.+.+.! ! &.&.B #   O %.+.+.+.+.+.+.+.+.+.+.+.+.+.+.+.+.+.+.+.+.+.+.+.+.+.+.+.+.+.+.+.+.+.+.+.+.+.+.O.7 . . a %.&.*.&.&.#.#.#.#.#.#.&.&.&.&.&.&.&.&.&.+.#.+.+.+.+.#.+.+.&.&.&.&.&.&.&.-.#.$.*.t . . O 3 &.&.+.-.-.&.&.&.&.&.&.-.-.+.+.+.&.&.&.&.&.&.-.&.&.-.-.&.&.&.&.&.&.&.&.+.&.-.O.$ . . f *.&.-.&.+.+.+.+.+.+.+.+.+.+.+.+.+.+.+.+.+.+.+.+.+.+.+.+.+.+.+.+.+.+.+.+.#.+.+.z O . 8 %.&.+.+.+.+.+.+.+.+.+.+.+.+.+.+.+.+.+.+.+.+.+.+.+.+.+.+.+.+.+.+.+.&.&.-.#.-.&.c , . . g *.&.&.&.&.-.#.#.#.#.#.#.&.&.&.&.&.&.&.&.&.+.+.+.#.#.#.#.#.#.#.#.+.+.+.#.#.;.O.d $ . O s %.&.+.+.+.+.+.+.+.+.+.+.+.+.+.+.+.+.+.+.+.+.+.+.+.+.+.+.+.+.+.+.+.#.#.#.&.&.J 8 O O x *.-.&.&.&.&.&.&.-.&.&.&.&.-.+.+.+.+.+.+.+.+.+.+.+.+.+.+.+.+.+.+.+.+.+.+.+.+.+.%.# . O j %.&.+.+.+.+.+.+.+.+.+.+.+.+.#.#.#.#.+.+.+.+.+.+.+.+.+.+.+.+.+.+.+.+.+.+.+.+.-.%.% . + g O.*.#.#.#.+.+.+.+.+.+.+.+.+.+.+.+.+.+.+.+.+.",
"+.+.+.+.&.&.&.&.-.-.-.-.&.&.&.+.-.3 . . x %.&.-.&.&.&.-.-.-.+.+.+.+.+.+.+.+.+.+.+.+.+.+.+.+.+.+.#.#.+.#.+.+.+.+.&.! &.%.B +   $ %.+.+.+.+.+.+.+.+.+.+.+.+.+.+.+.+.+.+.+.+.+.+.+.+.+.+.+.+.+.+.+.+.+.+.+.+.+.+.O.7 . . s *.&.*.&.+.#.#.#.#.#.#.#.&.&.&.&.&.&.&.&.#.#.#.+.+.+.#.#.+.&.&.&.&.&.&.&.-.#.#.*.2 . . O 3 &.&.+.-.-.&.&.&.&.&.&.-.-.+.&.+.+.&.&.&.&.&.&.&.&.&.-.&.&.&.&.&.&.&.&.+.&.-.O.$ . . f *.&.+.&.+.+.+.+.+.+.+.+.+.+.+.+.+.+.+.+.+.+.+.+.+.+.+.+.+.+.+.+.+.+.+.+.#.+.+.z O . 8 %.&.+.+.+.+.+.+.+.+.+.+.+.+.+.+.+.+.+.+.+.+.+.+.+.+.+.+.+.+.+.+.+.&.&.-.#.-.&.c , . . g *.&.&.&.-.#.#.#.#.#.#.#.#.&.&.&.&.&.&.&.&.+.+.+.+.#.#.+.#.#.#.#.#.+.+.+.+.;.%.d @ . O s %.&.+.+.+.+.+.+.+.+.+.+.+.+.+.+.+.+.+.+.+.+.+.+.+.+.+.+.+.+.+.+.+.#.#.#.&.%.O.a O O x *.-.#.#.#.#.&.&.-.+.+.&.&.-.+.+.+.+.+.+.+.+.+.+.+.+.+.+.+.+.+.+.+.+.+.+.+.+.K %.# . O j %.&.+.+.+.+.+.+.+.+.+.+.+.+.#.#.#.+.+.+.+.+.+.+.+.+.+.+.+.+.+.+.+.+.+.&.+.! -.%.% . # g O.*.+.#.#.#.+.+.+.+.+.+.+.+.+.+.+.+.+.+.+.+.",
"+.+.+.+.&.&.&.&.+.&.&.&.&.+.+.+.-.3 . . c &.&.&.&.&.&.&.-.&.&.+.+.+.+.+.+.+.+.+.+.+.+.+.+.+.+.+.+.+.+.+.+.+.#.+.&.&.-.%.%.% . % %.+.+.+.+.+.+.+.+.+.+.+.+.+.+.+.+.+.+.+.+.+.+.+.+.+.+.+.+.+.+.+.+.+.+.+.+.+.+.O.7 . . s *.&.&.+.+.+.+.+.+.+.+.+.+.&.&.&.&.&.&.+.#.#.+.+.+.+.#.#.+.&.&.&.&.&.&.&.-.#.;.*.2 . . O y &.&.-.-.-.&.&.&.&.&.&.&.-.-.&.-.-.&.-.&.&.&.&.+.+.-.-.&.&.&.&.&.-.&.&.+.&.-.O.$ . . f *.&.+.&.+.+.+.+.+.+.+.+.+.+.+.+.+.+.+.+.+.+.+.+.+.+.+.+.+.+.+.+.+.+.+.+.#.#.+.z O . a *.&.+.+.+.+.+.+.+.+.+.+.+.+.+.+.+.+.+.+.+.+.+.+.+.+.+.+.+.+.+.+.+.&.&.-.#.-.&.c , . . g *.&.&.&.-.#.#.#.#.#.#.#.#.&.&.&.&.&.&.&.&.+.+.+.+.+.+.+.+.+.+.+.+.+.+.+.+.;.%.d @ . O s %.&.+.+.+.+.+.+.+.+.+.+.+.+.+.+.+.+.+.+.+.+.+.+.+.+.+.+.+.+.+.+.+.#.#.#.&.&.O.a O O x *.-.#.#.#.#.&.&.+.+.&.-.&.&.+.+.+.+.+.+.+.+.+.+.+.+.+.+.+.+.+.+.+.+.+.+.+.+.O.%.# . O f %.&.+.+.+.+.+.+.+.+.+.#.+.+.#.#.+.+.+.+.+.+.+.+.+.+.+.+.+.+.+.+.+.+.+.&.+.! -.%.% . # g O.*.+.#.#.#.+.+.+.+.+.+.+.+.+.+.+.+.+.+.+.+.",
"+.+.+.+.-.&.&.&.&.&.&.&.&.&.+.+.-.3 . . c &.+.O.&.&.&.&.-.-.&.+.+.+.+.+.+.+.+.+.+.+.+.+.+.+.+.+.+.+.+.+.+.#.#.+.&.&.&.&.%.% . % %.+.+.+.+.+.+.+.+.+.+.+.+.+.+.+.+.+.+.+.+.+.+.+.+.+.+.+.+.+.+.+.+.+.+.+.+.+.+.O.7 . . s *.&.&.+.+.+.+.+.+.+.+.+.+.&.&.&.&.&.&.+.+.#.+.+.+.+.#.#.+.&.&.&.&.&.&.&.-.#.;.*.2 . . O y &.&.-.-.-.&.&.&.&.&.&.&.-.&.&.-.-.-.-.&.&.&.&.+.+.-.-.-.&.&.&.&.-.&.&.+.&.-.O.$ . . f *.&.+.&.+.+.+.+.+.+.+.+.+.+.+.+.+.+.+.+.+.+.+.+.+.+.+.+.+.+.+.+.+.+.+.+.#.#.O.h O . a *.&.+.+.+.+.+.+.+.+.+.+.+.+.+.+.+.+.+.+.+.+.+.+.+.+.+.+.+.+.+.+.+.&.&.-.-.;.&.c , . . g *.&.&.&.&.#.#.#.#.#.#.#.#.&.&.&.&.&.&.&.&.+.+.+.#.+.+.+.+.+.+.+.+.+.+.+.+.;.%.d @ . O a %.&.+.+.+.+.+.+.+.+.+.+.+.+.+.+.+.+.+.+.+.+.+.+.+.+.+.+.+.+.+.+.+.#.#.#.&.&.%.a O O x *.-.#.#.#.#.&.&.+.-.-.-.&.&.+.+.+.+.+.+.+.+.+.+.+.+.+.+.+.+.+.+.+.+.+.+.+.+.+.%.# . . j %.&.+.+.+.+.+.+.+.+.#.#.+.+.+.+.+.+.+.+.+.+.+.+.+.+.+.+.+.+.+.+.+.+.#.&.+.! -.%.% . % s O.*.+.#.#.#.+.+.+.+.+.+.+.+.+.+.+.+.+.+.+.+.",
"+.+.+.+.-.-.-.-.&.&.&.&.&.&.&.&.O.g . @ =.*.O.&.+.+.+.+.*.*.&.&.+.+.+.+.+.+.+.+.+.+.+.+.+.+.+.+.+.+.+.+.+.+.#.+.&.&.&.&.%.% . % *.+.+.+.+.+.+.+.+.+.+.+.+.+.+.+.+.+.+.+.+.+.+.+.+.+.+.+.+.+.+.+.+.+.+.+.+.+.+.c 1 . . s *.&.&.+.+.+.+.+.+.+.+.+.+.&.&.&.&.&.&.+.+.+.+.+.+.+.+.+.+.&.&.&.%.%.%.+.#.#.#.*.2 . . O 3 %.&.#.#.&.&.&.&.+.+.+.+.+.+.+.+.+.+.+.+.+.+.+.+.+.+.+.+.+.+.+.-.-.-.-.+.&.&.c O . . a O.&.&.&.+.+.+.+.+.+.+.+.+.+.+.+.+.+.+.+.+.+.+.+.+.+.+.+.+.+.+.+.+.+.+.+.#.#.O.g . . 3 &.&.+.+.+.+.+.+.+.+.+.+.+.+.+.+.+.+.+.+.+.+.+.+.+.+.+.+.+.+.+.+.+.&.&.#.#.+.&.c + . . n *.&.&.&.-.+.+.+.+.+.+.+.+.+.&.&.&.+.&.&.+.+.+.+.+.+.+.+.+.+.+.+.+.+.+.+.+.;.O.s . . . 2 O.&.+.+.+.+.+.+.+.+.+.+.+.+.+.+.+.+.+.+.+.+.+.+.+.+.+.+.+.+.+.+.+.#.#.#.&.%.J 8 O O s %.-.#.#.#.#.&.&.&.+.&.-.-.&.+.+.+.+.+.+.+.+.+.+.+.+.+.+.+.+.+.+.+.+.+.+.+.+.&.%.2 . O a J &.+.+.+.+.+.+.+.+.#.#.+.+.+.+.+.+.+.+.+.+.+.+.+.+.+.+.+.+.+.+.+.+.+.&.+.! -.%.% . $ s O.+.+.+.#.#.+.+.+.+.+.+.+.+.+.+.+.+.+.+.+.+.",
"+.+.+.+.-.-.&.-.&.&.&.&.&.&.&.&.O.3 . O %.*.+.&.+.+.+.+.*.*.*.&.+.+.+.+.+.+.+.+.+.+.+.+.+.+.+.+.+.+.+.#.+.+.#.#.&.&.&.&.%.% . % *.+.+.+.+.+.+.+.+.+.+.+.+.+.+.+.+.+.+.+.+.+.+.+.+.+.+.+.+.+.+.+.+.+.+.+.+.+.+.c 1 . . s *.&.! ! +.+.+.+.+.+.#.+.+.&.&.&.&.&.&.+.+.+.+.+.+.+.+.+.+.&.&.&.&.&.%.+.#.#.#.*.2 . . O 3 %.&.+.#.&.&.&.&.+.+.+.+.+.+.+.+.+.+.+.+.+.+.+.+.+.+.+.+.+.+.+.-.-.&.&.+.&.&.c O . . a O.&.&.&.+.+.+.+.+.+.+.+.+.+.+.+.+.+.+.+.+.+.+.+.+.+.+.+.+.+.+.+.+.+.+.+.#.#.O.g . . 3 %.&.+.+.+.+.+.+.+.+.+.+.+.+.+.+.+.+.+.+.+.+.+.+.+.+.+.+.+.+.+.+.+.&.&.&.#.+.&.c + . . n *.&.&.&.-.+.+.+.#.+.+.+.+.+.&.&.&.&.&.&.+.+.+.+.+.+.+.#.#.+.#.+.+.+.+.+.+.;.O.s . . . 2 O.&.+.+.+.+.+.+.+.+.+.+.+.+.+.+.+.+.+.+.+.+.+.+.+.+.+.+.+.+.+.+.+.#.#.#.&.%.J 8 O O s %.-.#.#.#.#.-.-.&.+.&.&.&.&.+.+.+.+.+.+.+.+.+.+.+.+.+.+.+.+.+.+.+.+.+.+.+.+.&.Q # . O a J &.+.+.+.+.+.+.+.+.#.#.+.+.+.+.+.+.+.+.+.+.+.+.+.+.+.+.+.+.+.+.+.+.+.&.+.! -.%.% . $ s O.+.+.+.#.#.+.+.+.+.+.+.+.+.+.+.+.+.+.+.+.+.",
"+.+.+.+.+.+.&.&.-.-.-.&.&.&.&.&.&.3 O O c *.&.O.+.+.+.+.*.*.+.+.+.+.+.+.+.+.+.+.+.+.+.+.+.+.+.+.+.#.#.#.+.+.+.+.&.&.&.&.%.% . % *.+.+.+.+.+.+.+.+.+.+.+.+.+.+.+.+.+.+.+.+.+.+.+.+.+.+.+.+.+.+.+.+.+.+.+.&.+.+.c 1 . . f *.&.! ! +.+.+.+.#.#.#.#.+.&.&.&.&.&.&.+.#.+.+.+.+.+.+.+.+.&.&.&.&.&.&.+.#.#.#.*.2 . . O 3 %.&.#.#.&.&.&.&.+.+.+.+.+.+.+.+.+.+.+.+.+.+.+.+.+.+.+.+.+.+.+.&.&.&.&.+.&.&.c O . . a O.&.&.&.+.+.+.+.+.+.+.+.+.+.+.+.+.+.+.+.+.+.+.+.+.+.+.+.+.+.+.+.+.+.+.+.#.#.O.g O . 3 %.&.+.+.+.+.+.+.+.+.+.+.+.+.+.+.+.+.+.+.+.+.+.+.+.+.+.+.+.+.+.+.+.&.&.&.#.+.&.c + . . n *.*.&.&.-.+.+.#.#.+.+.+.+.+.&.&.&.&.&.&.+.+.#.+.+.+.#.#.#.#.#.#.#.+.+.+.+.;.O.s . . . 3 O.&.+.+.+.+.+.+.+.+.+.+.+.+.+.+.+.+.+.+.+.+.+.+.+.+.+.+.+.+.+.+.+.#.#.#.&.%.J 8 O O s %.-.#.#.#.#.&.&.-.-.&.&.&.&.+.+.+.+.+.+.+.+.+.+.+.+.+.+.+.+.+.+.+.+.+.+.+.+.&.J + . O a J &.+.+.+.+.+.+.+.+.+.+.+.+.+.+.+.+.+.+.+.+.+.+.+.+.+.+.+.+.+.+.+.+.&.&.+.! -.%.% . $ s O.+.+.#.#.#.+.+.+.+.+.+.+.+.+.+.+.+.+.+.+.+.",
"+.+.+.+.+.#.#.#.#.#.#.#.#.#.#.&.&., O O j *.*.+.+.+.+.+.*.*.&.+.+.+.+.+.+.+.+.+.+.+.+.+.+.+.+.+.+.#.#.#.+.+.+.+.&.&.&.&.%.% . % %.+.&.+.+.+.+.+.+.+.+.+.+.+.+.+.+.+.+.+.+.+.+.+.+.+.+.+.+.+.+.+.+.+.+.+.#.+.O.c 2 . . s %.%.! ! +.+.+.+.#.#.#.#.+.+.+.+.+.+.+.+.#.+.+.+.+.+.+.+.+.+.+.+.+.+.+.+.#.#.#.&.1 . . . 3 %.&.&.&.&.&.&.&.+.+.+.+.+.+.+.+.+.+.+.+.+.+.+.+.+.+.+.+.+.+.+.&.&.&.&.+.&.&.c O . . t O.*.&.&.+.+.+.+.+.+.+.+.+.+.+.+.+.+.+.+.+.+.+.+.+.+.+.+.+.+.+.+.#.#.#.+.#.&.O.g O . 3 %.&.+.+.+.+.+.+.+.+.+.+.+.+.+.+.+.+.+.+.+.+.+.+.+.+.+.+.+.+.+.+.+.&.&.&.&.+.*.c # . . c *.*.&.&.&.+.+.#.#.+.+.+.+.+.+.+.+.+.+.+.+.#.#.+.+.+.#.#.#.#.#.#.#.#.+.+.+.;.O.s . . . 3 O.&.+.+.+.+.+.+.+.+.+.+.+.+.+.+.+.+.+.+.+.+.+.+.+.+.+.+.+.+.+.+.+.&.#.#.&.%.J 8 O O s %.-.&.&.&.&.&.&.&.-.&.&.&.&.+.+.+.+.+.+.+.+.+.+.+.+.+.+.+.+.+.+.+.+.+.+.+.&.%.c O . O a %.&.&.+.+.+.+.+.+.+.+.+.+.+.+.+.+.+.+.+.+.+.+.+.+.+.+.+.+.+.+.+.+.&.+.&.+.+.&.%.% . $ s O.+.+.#.#.+.+.+.+.+.+.+.+.+.+.+.+.+.+.+.+.+.",
"#.#.#.#.#.#.#.#.#.#.#.#.#.@.@.;.z > . # g j *.*.&.#.#.#.#.#.#.#.;.;.;.;.;.;.;.;.+.+.+.&.+.+.+.+.+.+.+.+.+.+.+.+.+.#.&.*.c % . + z *.*.O.+.+.+.+.&.&.&.&.&.&.&.&.*.*.*.;.;.;.-.-.-.-.-.-.-.-.-.-.-.#.#.#.#.-.J g # . O 3 c &.%.&.-.-.-.-.&.&.&.#.+.+.+.+.+.#.+.+.;.;.$.$.$.$.$.#.#.#.#.#.#.#.$.#.#.+.O.n % .     2 c %.%.&.&.&.&.&.+.+.&.O.O.+.+.#.#.#.#.#.#.#.#.+.+.+.+.#.#.#.&.+.+.+.+.+.O.z y $ . O 2 c &.&.+.+.#.#.+.#.#.#.+.+.#.#.#.#.#.#.#.#.#.#.#.#.#.#.#.#.#.#.#.#.#.#.+.*.*.h 3 + O 1 z >.+.@.+.+.+.+.+.-.-.-.-.-.-.-.-.-.-.-.-.-.-.-.-.-.-.&.&.+.+.+.+.&.%.&.&.&.c s + . O s &.&.&.%.&.O.O.+.+.O.O.O.O.+.-.-.-.-.-.-.-.-.-.-.-.+.+.+.+.-.-.-.-.#.#.#.#.*.c 2 . . O 3 j *.;.*.&.&.&.*.&.&.! ! ! ! ! ! &.O.O.O.O.O.O.O.O.&.&.&.&.&.&.&.&.+.&.;.>.O.j 2 O O 2 c O.*.&.&.&.&.#.#.$.$.$.+.+.+.+.+.+.+.+.+.+.+.#.#.#.#.#.#.+.&.&.&.&.O.+.&.*.z g % O + 1 z &.&.&.&.&.&.&.&.&.&.&.&.&.&.&.&.&.+.+.+.+.+.+.+.+.&.&.&.&.&.&.&.&.+.;.;.&.O.s * . O 8 z ;.&.+.+.+.+.#.#.#.#.#.#.#.#.#.#.#.#.#.#.#.",
"+.+.+.+.#.#.#.#.#.#.#.#.;.;.#.*.j # . @ a g O.%.&.#.#.#.$.$.#.#.&.&.&.&.*.*.&.&.;.;.;.;.+.+.+.+.+.+.+.+.+.+.+.+.+.#.&.%.l % . + s J %.&.*.;.;.-.*.&.&.&.-.-.;.*.! ! ! ! ! ! ! ! &.&.&.&.-.-.-.-.-.#.#.#.#.+.c g # . O 3 j O.%.%.-.-.&.&.&.&.-.#.+.+.+.+.+.+.+.+.;.;.;.;.#.#.#.#.#.#.#.#.#.#.$.#.-.&.%.n % .     % s %.&.&.&.&.&.&.+.&.&.+.+.+.+.-.-.-.-.-.-.-.-.-.-.-.-.&.&.&.&.*.*.;.;.*.O.l y $ . O 2 g O.%.+.+.#.#.+.#.#.#.#.+.+.+.+.+.+.+.+.#.#.+.+.+.+.+.+.+.+.+.+.+.+.+.+.&.%.g 2 O O 1 g &.+.+.+.+.+.+.+.-.-.-.-.-.-.-.-.+.+.&.&.&.&.&.&.-.-.-.-.-.-.-.&.&.&.&.&.%.c f % O O y O.&.&.*.*.&.&.&.&.&.&.&.&.#.#.-.#.#.#.-.-.-.-.-.-.+.+.+.+.-.-.-.-.#.#.#.#.&.z 2 O . O 2 j O.&.*.&.&.&.*.&.! ! ! ! ! ! ! %.&.*.*.*.*.*.*.*.&.&.&.&.&.&.&.&.&.&.*.*.O.g 2 O O 2 z J &.*.&.*.&.#.#.$.$.$.+.+.+.+.+.+.+.+.+.+.+.+.+.+.+.+.+.+.*.*.*.*.*.&.O.O.z g * O O 2 l O.*.*.*.*.*.*.*.*.*.*.*.*.*.*.*.*.+.+.+.+.+.+.+.+.&.&.&.&.&.&.&.&.*.>.>.+.c a % . O 8 h %.%.%.+.+.+.+.+.+.+.+.+.+.+.+.+.+.+.+.+.+.",
"+.+.+.+.&.&.&.&.&.&.&.&.;.;.+.O.s # . O 1 g j O.*.$.#.#.$.$.$.$.+.+.+.+.+.+.+.+.&.#.#.#.+.+.+.+.&.&.&.&.&.&.O.+.-.+.J c a + . O 3 g z O.&.&.&.&.%.%.%.%.%.%.%.%.%.%.%.%.%.%.%.%.*.&.&.&.&.&.&.&.&.&.-.-.-.J j s + . O 3 y c *.&.&.#.#.#.#.#.#.#.+.+.+.+.+.+.+.+.*.*.*.*.*.*.#.*.&.#.#.#.#.#.#.#.-.O.c g % .     # 3 c *.&.&.&.&.+.#.#.#.;.;.;.;.O.O.O.O.O.O.O.O.*.*.*.*.%.%.%.%.O.O.O.O.z z g s $ . O 2 y z O.+.#.#.#.#.#.#.#.#.+.+.+.+.+.+.+.+.#.#.+.+.+.+.+.+.+.+.+.+.+.+.+.&.O.z g 2 . . % 3 z O.&.*.&.&.&.&.&.#.#.#.+.+.+.+.-.;.;.;.;.;.;.;.-.-.*.&.&.&.+.&.%.%.%.%.c g a % O O 1 z O.O.%.%.&.;.;.;.;.;.;.;.#.#.#.#.#.#.#.#.#.#.#.#.#.#.#.+.-.-.-.-.#.#.#.&.J g 2 O . . 2 g J O.O.+.&.&.&.&.%.O.+.+.+.+.O.O.&.&.&.&.&.&.&.&.+.+.+.+.+.+.+.+.+.+.O.O.z s 2 . O 2 j z %.*.&.&.&.#.#.#.$.$.$.+.+.+.+.+.+.+.+.+.#.#.+.+.+.+.#.#.O.O.O.O.&.O.c h g y + . O 2 l z &.&.&.&.&.&.&.&.&.&.&.&.&.&.&.&.+.+.+.+.+.+.+.+.&.&.&.&.&.&.&.&.&.*.+.z l a @ . O a j J %.%.+.&.+.+.+.+.+.+.+.+.+.+.+.+.+.+.+.+.",
"%.%.%.%.&.&.%.%.&.&.&.&.O.&.O.h 3 # . . # s y c *.&.&.&.*.*.*.*.O.O.O.O.O.O.O.O.O.O.O.O.&.&.&.&.%.%.%.%.&.&.%.%.;.O.J l 1 $ . O 8 y g j J J J J c z J J J J c c h h h h h h h h z z z z *.*.*.*.%.&.&.&.&.z g s # . O 7 3 l O.&.&.&.&.&.&.-.&.-.&.%.%.%.%.%.%.&.*.*.*.*.*.*.*.*.&.&.&.&.&.&.&.&.J c s 2 % .     # 1 j %.&.&.*.*.&.&.&.&.J H H J G z J J J c c c h j j j g g g g i i i i i y s s @ . . 2 3 g c O.*.#.+.+.#.#.+.+.&.%.%.%.%.%.%.&.*.&.&.+.&.&.&.&.&.&.&.&.&.&.&.&.c s s #   . * 2 g O.*.*.&.&.&.&.&.&.&.&.O.O.O.O.J J J J O.O.O.O.O.O.O.O.O.O.O.O.J J J J g 3 * O . . 1 g i k J J O.O.O.O.O.O.O.O.&.+.+.+.+.+.+.+.+.+.+.+.+.+.+.&.*.*.*.*.*.*.*.*.z g 2 . . . 2 s c c J O.O.O.O.O.J J J J J J J J J J J J J J J J O.O.O.O.O.O.O.O.O.O.J z j 8 # . O # s j O.*.*.&.&.&.&.&.*.*.*.*.+.+.+.+.+.+.+.+.#.*.*.&.+.*.*.*.c c c c z j g i g y O . O 2 l g O.O.O.O.O.O.O.O.O.O.O.O.O.O.O.O.&.&.&.&.&.&.+.+.&.&.&.&.&.&.&.&.O.O.z i y t O . . a j k %.%.%.%.&.&.&.&.&.&.&.&.&.&.&.+.&.&.&.&.",
"J J J J O.O.%.O.O.O.O.O.O.z i y 3 # . . 1 s s y g g g g l l z l g g g g i g g g g g g s g g j j J J J J &.&.&.&.O.G h g 2 $ . . 2 s s s g g i i i i i i i i i i i i i i i i i g g g g g c c c c J J O.O.z l s f . . $ 1 s y l O.O.O.%.%.%.%.O.%.J J J J J J J O.O.O.O.O.c c c c g g g g g g g g g 3 3 2 . .     O s g j h h j j j j j j g g g i g g g g g g g g g g g g s s s s i i i i y g s * . . . O s s g j z z z z z z z z O.J J J J J J O.O.O.O.O.O.O.O.O.O.O.O.O.O.O.O.O.x s 7 @     O 2 y g c %.O.O.O.O.z z z z g l l j g i g g i i i i g g g g g g g i g g g g 3 7 * . . . 1 l g g g j g g g g g g g g j l l l l l l l g g l l z z z z c c O.O.c c z c g g # .   . # s g i i i i i i g i i i i i i i i i i i i i i i i g g g g g g i i g g g g 3 s @ . . @ a x g z c c O.O.O.O.O.O.O.O.*.*.*.*.*.*.*.*.O.O.O.O.g g l l g g g g g g g g g a $ . O 2 s g g g g g g g g g g g g g g g s g g g g g g g g g g g g g s s s s g g i i l a O . . 7 g h c J J O.O.O.O.O.O.O.O.O.O.O.O.O.O.O.O.O.",
"5 5 5 5 i i g i i i i i g g g g 1 O . . + a s y y y y y y s s s s s s s s s s s s s s s s s s s i i g i h h h h h g g s % . . . # a s a s g g g g g g g i i i g g g g g g g i g g g g g g g g g g g z z y y 2 # . . O $ s y i z j h h h h h h h g g g g g g g g g g g g y y y y y 5 3 3 y y y y s a 7 2 . .     . 7 s g g g g g s 8 s s s s s g g g g g g g g g g s s s s s s s s s i i y s a * . . . O f g g y g s s s g g g g g g g g g g g g g g i i i i g g g g g g g g g g a a = @     . % s g g g g g g s g g g g g g g g s s s s s s s s s s s s s s s s g g g g s s * . . . % s j g q q 8 a a a a a a s s s s s s s s s s s s s s s s g g g l g g g g g g a @     . O 7 g i i i g g g g g s s s s s s s s s s s s s s s s s s s s s s g i i i i 3 7 O . . O 2 g y g g g g s s s s s s g g g g g g g g g i i y y g g l l s s s s s s s s s 2 O . . # a s s g g g g s s s s s s s s s s s g g g g g g g g s s s s a a a s s s g l s 1 O . . # 8 j j g g g g g i g g g g g i g i i g i i i ",
"g g g g g g g g g g g g g g g s + O . . O 2 y s s i i i i i i s g g s s s s s s s g g g y y y y 3 5 3 3 i i i i i i i s $ .   . @ 2 f f f s s s g g g g i i i i l l g g i i i g d d d d s s s s s s i i l d a - . . . O t d l g s s s s s s s s 8 5 5 5 3 3 3 y y y y y y y y y g g g g g g g s y f a * . .   . . % a 3 g g s s s s s s g g g g g g g g g g g g s s s s 8 8 s s s s s s s s - @ . . . . 2 s g y i y y y i i i i 3 3 3 3 g g g g g g g g g g g g g g g g g g g s a a % .       & s s y y g g g s s i i i i i i i s s s s s s s s s s s s s s s s g g g g s a & . . . $ 2 g g q 3 y s s s s s s s s d d d d d d y s s s s g g g l y s s s y y y y g 2 O     . O 1 s g g g g g g g i i i i i i i i i i i i i i i i i i i i i i i i i i i i y 2 . .   . % s y 3 y y s s s s s s s s g g g g g g g g y y y y g g g l s s s s s s s s s * . . . O 2 d s s s s s s s s s s s s s s s s g g g g g g g g s s s s s s s s a s g l 1 + O . . O 3 g g g g i 3 3 3 3 y y y y y y y y y y y y ",
"s s s s s g g g g g g g l g y 2 O . . . . * a s l l l l i i i g s s s s s s s s g g g g s s g g g g g g g g g g y y a a .     . O # a f f f s s s g g g g g l d d d s s s s s s d d d d d d s s s s y y l s * & . . . . * d d y s a a s s s s s g g g g g g g g g g g g l l l g g g g g g g g s 2 f f & . . . .   + t a s s s s s s s s s g g s s s s s s s s s s s s s s s a a s s s s s a * . . . . . O a x s l l l l l l l g g g g g s s s s s s s s y s s s s s y y y s s s f a @         O s s g l s s s s l l l l y i i y s s s s s s s s s s s s s s s s g g g s 7 % . . . . O % y s g 3 s s s s s s s s l l l l l l l l l l l l l l l d s s s s y y y y s * . X   . . + s g g g g g g g s i i i i i i i i i i i i i i i i i i i i i i i i i s s a % . .   . $ a l s s s y y y y y y y s s s s s 8 8 s s y y y y g g g s s f f f s d d d t $ . X . . % a d d s s s s s s s s s s s s s s g g g g g g g g g s s s s g g s s s s a + O . . . . 2 3 g g g g i s y y y s s s s s s s s s s s ",
"d d d d d s s s s s s s s y 2 % . . . . . O * a d l l l l l l d s s d s g g g g g g g g i i i i y y y y i i i s y t t % . . . . O O % t s s s s s s s s s s s s u s y y u u s s s s d d d d d d g g s s t * & . . . . . . % a f s s s s s 3 3 3 g g g g g g g g g g g g g g g g g g g g g g g s a = & @     . . . O * a s s s s s s s s s s s s y y s s s s s s s s s s s s a a a a d f - % . . . . . . $ % a d y y y y y y s s y y g g g g g g y y y y l l l l g g s s s d d d - X           . * 2 u d s s s s s s s s s g g g g g g g g g g g g g g g g g g g s s s f 2 O . . . . . $ 1 2 y l a a a a a a s s y y i i d d d d d d d d d d d y y u u u y y y y * @ . . . . . O * 2 s l l d d d s g s s s s g g g s l l l l l l l l l l l l l l y y y s O O @ X     . @ a d d d d d d d y y y s s s s s s s s s s s s s s s s s s s s s x d u t . . . . X X X O d d d d d d d d d d d s u u y y s y y y y y y y g g g g g g g s d s 2 % . . . .   . $ t y s i y i g g i i i i y l d d d d d d d ",
"d d d d d d d d d d f f a 2 + O . . . . . . . * d d d d d d d d d d d d l l d d d d d d d d s s s s s s s s s s a * & @ . . . . . O O % a a a a a a a a t t t t & & & & O O O O % % % % a a a a s s s a * & . . . . . . . . & a f s s s s s g s s s s s s s s s s s s s s s s s 3 8 8 7 s s s f * X .       . . . . O & % % % % % % % % % % * * * * 2 2 % % $ $ $ $ % % % % & & & & & & . . . . . . . . . . & a d d d d d d d d s s s d d d d d s s s s s s s s u u s s s s u a &             . $ $ * t d d d f f a s s a s s s s s s s s s u u s s s s s s s s s a a a & . . . . . . . O + * 2 a a a a a a f a d d d d d d d d d d d d d d d d d a a a a a a a & . . . . . . . O O + % 2 2 * * 2 2 2 2 a a a a t a a a s s s s s s s s s s s u 2 2 2 * O . . . .     . $ * * t a a a a s s d s s s g g g g g s s s s a s t t a a a a a u * $ O .       . . . . * * * * * * * * d d d d s a s s a a a a a a s s s s s s s s s s t % @ . . . . .     X & d d l l d d d s d s d s s f d d d d d d ",
"& & & & @ @ @ O O O O O O O . . . . . . . . . . % % % % % % $ $ $ + $ $ $ $ $ $ $ $ @ @ O $ $ $ $ % # % % % % % @ O . . . .       . . . . . . . . . . . . . . . . . . . . . . . . . . . . . . . . O . . . . . . . . . . . . . % = 2 7 7 7 7 7 7 * * * * * * * * * * * * * * * * @ @ @ @ @ O O @ .               . . . . . . . . . . . . . . . . . . . . . . . . . . . . . . . . . .         . .     . . . . . @ @ O $ $ $ $ @ @ @ @ @ O @ @ O @ @ @ O O . . . . O O O O O O O . . . .   . . . . . . @ @ @ @ @ X X . X X . . . . . . . . . . . . O O O O O O O O . . . X X       . . . . . O O O . . . X X X X @ O O O O $ $ $ $ @ @ @ @ @ @ @ @ X . . . . . . . X .     . . . . . . . . . . . . . . . . . . . . . . . . . . . . . . . . . . . O O . . . . .             . . . . . . . . @ @ @ @ 2 2 2 2 2 2 2 * * * * * & & & & O O O O O . . . .             . . . . . . O O O @ @ @ @ & & & & & & & % % % % % O @ $ $ $ & $ $ @ . . . . . .         X @ & $ % * * * * * % % % O O O @ @ @ @ @ ",
". . . . . . . . . . . . . . . . . . . . . . O O . . . . . . . . . . . . . . . . . . . . . . . . . . . . . . . . . . . . . .     . . . . . . . . . . . . . . . . . . . . . . . . . . . . . . . . . . . . . . . . . . . . . . . O O O O . . . . . . . . . . . . . . . . . . . . . . . . . . . . . . . . . . . . . . . . . . . . . . . . . . . . . . O O O . . . . . . . . . . . . . . . . . . . . . . . . . . . . . . . . . . . . . . .     . . . . . . . . . . . . . . . . . . . . . . . . . . . . . . . . . . . . . . . . . . . . . . . . . . . . . . . . . . . . . . . .     . . . O O . O O . .           . . . . . . . . . . . . . . . . . . .               O . . . . . . . . . . . .   . . . . . . . . . . . . . . . . . . . . . . . . . . . . . . . . .     . . . . .         . . . . . . . O O O O O O . O . . . . . . . . . . . . . . . . . . .     . . . . . . . . . . . . . . . . . . . . . . . . . . . . . . . . . . . . . . . . . .       . . . O O . . . . . . . . . . . . . . . . ",
"B B B B n B B B B v v v %.%.%.%.%.%.%.%.c z g y 1 * * * + + + + + # # # # # # # > > > > 1 1 1 1 l l x x x x x x 7 7 7 7 # # * # + + + + > > + + # + + + + + + + 3 3 3 3 x c B B B B B B n n c c x x x x x x x x a a a a # # # # # # # # 2 2 2 2 x x x x x x x x s s s s 1 1 1 1 1 1 1 1 3 2 8 8 s s s s x x x x c c c z n n c c c c c c c c c c c c O.O.n n %.%.%.%.%.%.c x x l 1 1 1 1 1 1 1 1 1 1 1 , # + + # 1 1 1 1 2 t 2 y x x x x x x x x 2 2 2 2 > > > # # # # + + + + + + + + + + + + + 1 2 s s n n n n B %.%.%.n n n n x x x x x x x x s s s s * 1 * * * * * $ % 2 a s x j l z l x x x a a a a 2 2 2 2 2 2 2 2 2 2 2 2 s s s s x x c c c c c c c c c c n B n c c c c c c c c n %.%.%.%.%.%.%.%.x x g s # # # # # # # # # # # # # # # # + + # # # 1 a s s l x l l d x x 2 2 2 2 # # # # # # # + + + + + + + # # # + * * + 1 s x c c n n n n n n B B B B c c c c l l l l 2 2 2 2 # # # # 1 1 1 1 2 2 3 3 x x x x x x x x d s a y 1 1 1 1 % 1 % # 1 1 1 1 s s s s x x x x x x x x x x x x ",
"!.!.!.!.!.~.~.~.~.~.~.~.W.W.!.!.W.W.!.!.&X!.W.T.T.P.P.P.I.I.I.I.I.I.P.P.P.P.P.P.P.T.T.T.T.Q.Q.Q.Q.~.~.~.~.~.~.Q.~.^.^.^.I.I.I.I.P.L.U.U.J.J.J.J.J.H.I.I.J.I.I.P.Q.Q.Q.Q.!.!.!.!.!.!.!.!.!.!.~.~.~.~.Q.Q.W.W.W.W.Q.Q.Q.Q.J.J.J.P.P.P.P.P.P.P.P.P.^.^.^.^.Q.Q.Q.Q.Q.Q.Q.Q.T.T.T.T.L.L.L.L.Q.Q.Q.Q.Q.Q.~.W.W.W.W.W.!.!.!.!.!.!.!.!.!.!.~.~.~.~.!.!.!.!.!.!.W.W.!.!.~.~.!.!.!.!.Q.Q.P.P.P.P.P.P.P.P.P.P.P.P.P.P.P.T.P.P.P.P.T.T.T.T.!.!.!.!.~.~.~.~.T.T.T.T.T.T.T.T.T.T.T.T.T.T.T.T.L.L.L.P.P.P.P.P.T.T.~.~.~.~.~.~.!.!.!.!.W.W.!.!.~.~.~.~.~.~.~.~.~.~.Q.Q.P.P.P.P.P.P.P.P.T.Q.Q.W.W.W.~.~.W.~.~.~.~.^.^.^.P.P.P.P.P.P.P.P.Q.Q.T.T.~.~.~.~.!.!.!.!.!.!.!.!.~.!.~.~.!.!.!.!.~.~.~.W.W.W.W.W.!.!.!.!.!.!.!.!.!.!.~.Q.L.L.P.P.P.P.L.L.L.L.P.P.P.P.L.L.I.I.I.L.L.P.Q.!.W.!.!.!.Q.Q.~.~.~.~.~.~.P.P.P.P.P.P.I.I.P.P.P.L.P.P.P.L.L.L.L.L.T.Q.Q.~.!.!.!.!.!.!.!.!.!.W.W.W.!.W.W.W.W.W.!.!.~.~.~.~.T.T.T.T.P.P.P.P.P.P.P.P.~.~.~.Q.Q.~.Q.Q.~.~.Q.T.Q.Q.T.T.T.Q.T.T.T.T.T.T.T.T.T.T.~.~.~.~.!.!.~.~.!.!.!.!.",
"V.V.V.V.V.V.V.V.V.j.j.j.U.U.C.C.V.V.V.V.U.U.U.U.U.U.U.U.U.U.U.U.J.J.U.U.U.U.U.U.U.U.U.U.Y.Y.Y.Y.Y.Y.Y.U.U.U.U.U.E.E.E.E.T.T.T.T.R.R.&X&XE.E.E.R.T.T.T.T.T.T.T.R.E.E.E.E.E.E.U.U.R.R.R.R.R.R.R.R.E.E.E.E.E.E.&X&XR.R.R.R.R.T.T.W.W.W.W.W.W.W.W.W.T.T.T.R.R.E.E.E.W.W.R.W.Y.Y.Y.Y.E.Y.Y.Y.Y.Y.Y.Y.U.U.U.U.U.U.Y.Y.V.N.N.N.N.N.g.g.g.g.g.g.g.g.g.g.j.j.V.V.V.V.V.V.V.V.U.U.Y.Y.U.V.Y.Y.Y.Y.U.U.U.U.U.U.U.U.Y.Y.U.T.Y.Y.Y.Y.Y.Y.Y.Y.U.U.U.U.Y.Y.Y.Y.U.U.U.U.R.R.R.R.R.R.R.R.R.R.R.R.E.E.E.E.E.E.E.E.E.E.E.E.E.E.E.E.R.R.R.R.R.R.R.R.E.E.T.T.T.E.E.E.E.E.E.E.E.T.T.T.Y.Y.U.U.R.R.R.E.E.U.U.E.Y.Y.U.T.T.T.T.T.T.T.Y.T.Y.Y.Y.Y.Y.Y.Y.Y.Y.E.E.E.Y.Y.Y.Y.g.g.g.g.g.g.g.g.N.V.N.g.g.g.g.g.V.V.V.V.U.U.U.U.U.U.U.U.U.U.N.g.U.U.U.U.U.U.U.U.U.U.U.U.U.U.U.U.U.J.U.U.Y.E.E.E.C.C.C.C.E.E.Y.T.U.U.U.U.Y.Y.Y.Y.Y.Y.Y.Y.Y.Y.Y.Y.Y.Y.Y.Y.W.W.W.R.E.E.E.E.E.E.E.E.Y.Y.E.E.R.R.E.E.E.E.E.E.E.E.E.E.W.W.W.W.R.R.R.R.W.W.W.W.W.W.W.&XR.R.R.R.R.R.R.R.T.T.P.U.E.E.E.E.E.E.E.E.E.E.E.U.U.U.U.U.Y.Y.Y.Y.V.V.V.V.V.V.N.V.",
"q.q.q.q.q.q.q.q.q.q.q.q.q.q.q.q.w.w.w.w.w.w.y.y.y.w.w.w.y.y.w.w.w.w.w.w.w.w.w.w.w.w.w.w.p.p.y.y.p.p.p.p.w.w.y.y.y.y.y.y.y.y.y.y.y.y.y.u.u.u.i.y.y.y.p.y.p.w.w.y.y.y.u.u.i.y.q.:.w.w.w.w.u.u.y.y.y.y.w.w.i.i.i.i.y.y.y.y.y.y.i.a.d.i.i.i.i.i.i.p.p.p.y.y.y.y.y.y.y.y.y.y.i.i.i.i.y.y.y.y.y.y.y.y.w.w.w.w.w.w.y.w.w.w.w.:.y.y.w.w.y.y.w.w.w.w.y.y.w.w.y.w.w.w.w.w.w.w.y.y.y.y.,.,.y.y.y.y.y.y.y.y.w.w.w.w.,.,.,.,.y.y.y.y.y.y.,.,.,.,.,.,.,.,.w.,.,.,.w.w.y.y.y.y.y.y.y.y.y.y.y.y.w.w.w.y.y.y.y.y.u.y.y.w.u.u.u.y.p.p.p.p.p.p.w.w.w.w.w.w.p.p.p.p.y.y.a.a.a.a.a.p.p.p.p.a.d.a.u.u.u.y.y.y.y.y.y.y.y.y.y.y.y.y.y.y.y.y.y.y.y.y.y.y.w.w.w.w.w.y.y.y.w.w.w.w.w.w.w.q.y.y.y.w.w.w.w.w.w.w.w.w.,.,.,.,.,.w.w.,.y.w.w.q.w.w.w.q.q.q.q.w.w.w.w.w.w.w.w.w.,.,.,.w.w.w.w.w.t.u.u.i.y.y.y.y.y.y.y.y.y.y.y.y.y.y.y.y.p.p.p.p.y.y.y.y.y.y.y.y.y.t.i.i.u.u.u.y.y.y.y.y.y.y.u.u.i.i.i.i.u.y.u.u.i.i.i.a.y.y.y.y.y.y.y.y.y.y.y.y.e.e.e.e.e.e.e.e.p.p.p.w.e.y.e.w.w.u.w.w.q.q.q.q.w.w.w.w.w.w.w.w.w.w.w.w.w.w.w.w.",
"y.y.y.y.w.w.w.w.w.w.w.w.w.w.w.w.e.e.w.e.y.w.w.w.e.e.e.e.e.e.e.e.y.y.y.y.w.w.w.w.w.w.w.w.w.w.w.w.y.y.y.w.y.y.y.y.y.y.y.y.y.y.y.y.y.y.y.y.y.y.y.y.y.y.y.w.y.y.y.y.y.u.u.u.i.i.i.i.i.i.i.i.y.y.y.y.y.y.y.y.y.y.y.q.w.q.w.w.q.q.w.w.y.y.t.t.t.t.t.t.y.y.y.y.w.w.w.w.q.t.t.q.q.q.q.q.y.y.y.y.y.y.y.y.t.t.t.t.y.t.u.y.y.y.y.y.y.y.y.y.y.y.y.y.y.y.y.y.y.y.y.y.y.y.y.y.y.y.y.y.y.y.y.y.y.y.y.p.y.y.y.y.y.y.y.w.w.w.w.w.w.y.y.y.y.y.y.y.y.y.y.y.y.y.y.y.y.y.y.y.y.y.y.y.y.y.y.y.y.y.y.y.w.w.w.y.y.y.y.y.u.u.u.i.i.i.i.i.y.y.y.y.y.y.y.y.y.y.y.y.y.y.y.y.y.u.u.u.u.y.y.y.y.y.w.w.t.y.t.q.y.y.y.y.y.y.y.y.y.w.w.w.w.w.w.w.w.w.w.w.w.w.w.w.w.w.y.y.y.y.y.y.y.y.y.y.y.y.y.t.y.i.y.y.y.y.y.w.w.w.w.w.w.w.w.w.y.y.y.y.y.y.y.u.u.u.u.u.i.i.a.i.w.w.w.w.w.w.w.w.,.3.y.y.y.y.y.y.y.u.i.y.y.y.y.y.y.y.y.y.y.y.y.y.y.y.y.y.y.y.y.y.y.y.y.y.y.y.y.y.u.u.u.t.q.q.w.w.y.w.y.y.w.w.w.w.y.y.y.y.w.w.w.w.w.w.w.w.w.w.w.w.y.y.y.y.y.y.y.y.w.w.w.w.w.w.w.w.y.y.y.e.w.w.w.w.e.u.e.w.w.w.w.w.y.y.y.y.y.y.y.y.w.w.w.w.w.w.w.w.",
"y.y.y.y.w.w.w.w.w.w.,.,.y.y.y.w.y.y.y.y.y.w.w.w.y.y.y.y.y.y.y.y.y.y.y.y.y.y.y.w.w.w.w.y.y.y.y.y.y.y.y.y.y.y.y.y.y.y.y.y.y.y.y.y.y.y.y.y.y.y.y.y.u.y.y.y.y.y.y.y.w.w.w.y.y.t.t.t.t.t.y.y.t.t.y.y.y.y.y.y.y.y.y.y.y.w.w.w.y.y.y.y.y.y.y.y.y.y.y.y.y.y.y.y.y.y.y.y.y.y.y.y.i.y.u.u.w.w.y.y.y.y.y.y.y.y.y.y.y.y.y.y.w.w.w.w.w.y.y.y.w.y.y.y.y.y.y.y.w.w.w.w.w.w.w.w.y.y.y.w.w.w.y.y.y.y.y.y.y.y.y.y.y.y.w.w.w.w.w.y.y.y.y.y.y.y.y.y.p.p.p.p.p.p.p.p.y.y.y.y.y.y.y.y.y.y.y.y.y.y.y.y.y.y.y.y.y.y.y.y.y.w.w.y.y.y.y.y.t.t.q.q.q.q.q.q.y.y.y.y.y.y.p.y.w.w.w.w.y.y.y.y.y.y.y.y.y.y.y.y.y.y.y.y.y.y.y.y.w.q.w.w.w.w.y.y.y.y.y.y.y.y.y.y.y.y.y.y.y.y.y.y.y.y.y.y.y.y.y.y.i.i.i.y.y.y.y.y.y.y.y.y.y.y.y.y.y.y.y.y.y.y.y.y.u.u.u.u.u.i.y.y.y.y.w.w.w.w.w.w.y.y.y.y.y.y.y.y.y.y.y.y.y.y.y.y.y.y.y.y.y.y.y.y.y.y.y.y.y.y.y.y.y.y.y.y.i.i.y.y.y.y.t.t.q.q.q.q.q.q.w.w.q.q.q.w.y.y.y.y.w.w.w.w.w.w.w.w.w.w.w.q.w.w.w.w.t.t.y.y.y.y.y.y.w.w.w.w.w.w.w.w.w.w.w.w.w.y.w.w.e.y.y.y.y.y.y.y.y.y.y.y.u.y.u.u.w.w.w.w.",
"y.y.y.y.y.y.y.3.3.3.3.3.3.3.3.,.y.y.y.y.y.3.3.y.y.y.y.y.y.y.y.y.y.y.y.y.y.y.y.y.y.y.y.y.y.y.y.y.y.y.y.y.y.y.y.y.y.y.p.p.p.p.p.y.y.y.y.y.y.y.y.y.y.y.w.w.y.q.q.q.i.i.y.y.y.y.y.y.y.y.y.y.y.y.y.y.y.y.y.y.y.y.y.y.y.i.i.i.y.y.y.y.y.y.y.y.y.y.y.y.y.y.w.w.w.w.w.w.y.t.y.y.y.y.y.y.y.y.y.y.:.:.:.:.:.:.>.>.>.>.3.,.3.3.3.3.y.y.y.y.3.3.3.3.y.y.y.y.y.y.3.3.y.y.y.y.y.y.y.y.3.y.y.y.y.y.y.y.y.y.y.y.y.y.y.3.y.y.y.y.y.y.y.y.y.y.y.y.y.y.y.y.y.y.y.y.p.p.p.p.p.p.p.p.y.y.y.t.t.t.y.y.:.:.,.,.3.y.y.y.y.y.i.i.y.y.y.y.y.y.y.y.y.y.y.y.y.y.y.3.y.y.y.y.y.i.y.y.y.y.y.y.y.y.y.y.t.y.t.4.4.4.4.3.3.4.4.y.y.y.y.y.y.y.y.y.y.y.y.y.:.:.:.<.<.<.<.<.:.:.:.:.,.,.,.,.:.:.:.:.3.3.3.3.4.4.:.:.:.:.:.:.:.:.,.,.3.3.y.y.y.y.y.y.y.y.y.i.y.y.i.y.y.y.y.y.y.y.y.y.y.y.y.y.y.y.y.y.y.p.s.y.y.y.y.p.s.y.y.y.y.p.y.y.,.3.3.4.4.4.:.4.4.4.:.q.t.t.t.t.y.y.y.y.y.y.y.y.y.y.y.y.y.y.y.y.y.y.y.y.y.y.y.y.y.y.y.y.y.y.y.y.i.i.y.y.y.y.y.y.y.y.y.y.y.y.y.y.y.y.y.y.y.y.y.y.y.y.w.,.<.:.:.<.,.>.>.>.;.;.;.;.,.,.,.,.y.y.y.y.",
"H H H H H H H L H H H H H H H H @.@.@.H H H H H H H H H H H H H H @.@.@.@.#.#.@.K K K K +.+.+.+.#.#.#.+.+.@.+.+.+.+.#.#.#.$.$.$.$.;.;.;.;.;.;.;.<.<.-.-.-.#.#.#.-.-.-.-.;.$.$.$.$.$.;.;.$.;.;.;.;.;.;.:.:.:.:.:.$.$.$.$.:.:.:.:.:.:.:.:.:.:.<.<.<.<.<.<.;.;.;.;.@.@.+.+.#.#.#.#.H H H H H H H H H J J J J J O.O.J H J J J @.@.@.H H H H H H H H H J J J J H H H H H H H H H @.@.J J @.@.@.@.H H @.@.J J +.@.@.+.@.@.@.@.@.@.@.@.+.+.#.#.#.#.#.#.+.+.+.+.@.#.#.#.#.$.$.;.$.;.-.-.#.-.-.-.-.-.-.-.-.-.-.;.;.;.;.-.-.-.-.-.#.-.-.-.-.;.;.;.;.;.;.;.;.;.;.;.;.;.;.;.3.,.,.,.:.3.4.:.;.;.;.:.;.;.;.:.#.#.#.#.@.@.@.@.@.@.@.H H L L L L L L L L L L L J J L H H H H H @.@.@.J H H H H H H H H J H H H H H H H H H @.@.@.@.@.@.@.@.@.@.@.@.@.@.@.@.@.@.@.@.@.@.@.@.@.@.@.#.#.+.+.+.+.#.#.+.+.+.@.+.+.#.#.#.#.-.-.#.#.#.#.#.#.#.#.#.;.;.;.;.;.;.;.-.;.;.;.;.;.;.;.;.;.;.;.;.;.;.-.-.-.;.;.;.;.;.;.;.;.;.;.;.;.;.;.;.;.;.;.;.;.;.;.;.-.-.-.-.#.#.@.@.@.@.H K H H H H L L H J J J G G G G K K K K H H H H ",
"G G G G z z z z G O.O.G G G G G O.O.O.J J J J c c c c c G G G G G G G G G G G G G L L L z z G G G G G G G G G G G G G G G G G G G G G G G L L L L L L L L L L L G G G G G G G G G G G G G G G G J H J J J J J J G G G G G G O.J J J J J J J J J J J H H J J H J G J G G G G G G G G H H H H O.J J J J J G J J J z z z z z G G G J J J J J J J J G z z z z G G G z z z G O.O.O.O.c c c c J J z z G G G G G G G G G G G G G G G G G G G G G G G G G G G G G H H H H H G H G H L G G G L G G G G J J J J G G G G G k z k k J J J J G G G G G G G G J J J J G G G G G G G G G G z z J H H H G G G G G z z z z z z z O.O.O.O.G G G G G G G z z z J J c c J J c c c c z J c z z z z z z z z z J J J J G G G G G G G G G J J J G G G G G G G G G G G G G G H H G G G G J J J H H H J J J J J J H H H H H H H H J H H H L L L L L L L L G G G G G k k k k k k z G G G G G G G G H H H G G G G G G G G G J J J J G J G G J H H H H H G G G G G z G G G G G G H H J J J J J J J J J J J J c c c c J J J J ",
"c c c c z z z z n n n n n c c c n n n n n c c z B B B B n n n n n O.O.O.c n n c J J J J J c c c c c c c c c c c c c c c c c c c c c c c c c c c c c c c c c J c c c c c n c c c c c n n c c c c c c c c c c c c n n n c n c c c c c c c c c c z c c c c c c c c c n n n n n n n n n O.O.c c n n O.O.O.O.O.O.O.O.n n n n n n c c c c c c c c c c c n n n n n n n c c c c n c n n B B B B B B B n n n n n n n n n c c c c c c c c c c c c c c c c c c c c c J J J J J c c J J J J c c c c c c c c %.%.B v n n c c c c c c B B v c c c c c c c c c %.%.B B c c c c c n n c c n c c c O.O.n c n n n c c c c n n n n n O.O.n c c n c c z c c c c c c c c c c c c c c c c c c c c c c c n n n n n n n n n n n n n n n c c c c c c c n c c c c n O.O.n O.c c c c c c c c Q Q J J J J J O.J J J c c c c c c c c c J J J J J J J J J J J c c c c c c c c c c c c c c c c c c c c c c J c n n n B c c c c c c c c c c c c c c J c c n c c c c c c n n n n c c c c c c c c c J J J c c c c c c c c c c c c ",
"a a 8 8 7 7 7 a a u u u a a a a a a a a a a a 7 * = = = * * * * 2 2 2 2 t u u t s 8 8 8 a s s s s s s f d d d d s s f f f f f f f f f f f g g g g g j j g j g f 7 7 7 7 7 = = = * * a 7 2 2 2 2 s s s s s a a a t - - - - * * * * * * # # # # # s a a s s a a a a a a t - - ; t t u u t s s d f s s s s s s g g s d d s f f s s s s a a a a a a s s s s s s s s s s s s s s s a a ; ; ; ; ; ; ; t t 2 2 s d d s s s s s s s f f a a s s f f s s s s s s s s s s s s a a s s s s a a 8 8 s s s s a 7 7 2 # # # # # # # # 7 7 7 7 s s s s s s s f t t a a % * * * * * * # # * * % s s s s a a a a a a t t * - - - a a a a a a a a f f f f f g j j s s s s s s s s s s s a s s s s s d d d d d d d d d d d d s s s * * * * * * * * 2 2 2 2 a t t t f f f f s s a a s f f s s s s s s s s s s s s s s s s s s s s s s s s s s a a a 7 7 7 7 = = 7 7 = = = = 7 7 7 7 7 7 7 s s s s s a a a a * * * * * * 2 = # # # # s s s s s f s s a a a a * * * * a t a a a a a a f j j j g s s g a a a a a s s s ",
"O O O O O O O O . . . . . . . . . . . . . . . . . . . . . . . . . . O O O O O O O O O O O O O O O O O O O O O O O O O O O O O O O O O O O O O O O O O O O O O O . . . . . . . . . . . . . . . . . . . . O . . . . . . . . . . . . . . . . . . . . . . . . . . . . . . . . . . . . . O O O O O O . O O O O O O O O O O . . . . . . . O O O O O O . . . . . . . . . O O O . . . . . . . . . . . . . . . . O O O O O O O O O O O O O O O O O O O O O O O O O O O O O O O O O O O O O O O O O O O O . . . . . . . . . . . . . . O O O O O O O O O O . . . . . . . . . . . . . . . . . . . . . . . . . . . . . . . . . . . . O O O O O O O O O O O O O O O O O O O O O O O O O O O O O O O O O O O O . . . . . . . . . . . . . . . . . . . . . O O O O O O O O O . . O O O O O O O O O O O O O O O O . . O O O O O O O O O O O O O O . . . . . . . . . . . . . . . . . . . . . O O . O O . . . . . . . . . . . . . . . . . . . . . . . . . . . . . . . . O O O O . O O O O O . . . . O O O O O O O O ",
"O O O O $ O O $ $ % * * 2 7 7 7 a a 2 % 2 + O O $ O O O # O O O # % % % 2 , , 2 1 2 2 2 $ $ $ + + + + O + + O O O + + + # # , , , , 2 2 2 2 , 2 2 2 2 2 1 1 1 % # 2 2 O O % % + $ $ + + % % # # 2 2 7 , 7 7 7 2 y t t t * * * & & % & O $ O O $ % O $ = O O O * % % % % O $ & & * % % % $ $ $ + + + + + + + + + O $ $ O O O O O # O O # + O O + + + + % a a a a 2 2 # % # + O O $ $ O $ # $ $ O % % % % 2 , , 2 2 2 2 2 * $ $ $ + + + + + + + + + + + + 2 2 2 2 2 2 2 2 2 2 2 2 2 2 2 t 2 2 2 2 % 2 2 + + 2 % + + $ $ $ % % % % 2 8 7 2 2 2 2 2 t t t t $ * * & & % & O % $ $ % - $ O $ * O O % $ $ $ $ + $ * % % * * * * * % % * * * % % % % % % % % % % % % % % O O + + O O + * % 2 2 2 2 2 * % * * * t * $ $ * # O O O O % # % % # 1 7 2 2 7 1 1 1 % # * * * O + + + + % + $ O O + + # , # # # # , # , , 2 2 2 2 2 2 2 2 2 2 + % % O + , # O + + + + * * * * 2 2 2 2 2 2 2 2 2 2 2 2 % * * % # % # O $ O O $ * % + + $ O $ * $ $ $ $ % % * t % * % $ % % % % # # # # + + + + + + + + * * * * ",
"f f f s a a a a s f s s s x B B l s l x x x x l t y a a a s s g s s s s 8 j j s l l l d d d d d d d d d d d d s s s a a s s s f s s f f g g j g g l l d s s s s a j j s 7 s j f f s s s s s s s j a 8 j g g g s l l d d m d d x f t t d d t d V m d a f s m V B d d d s d d d d d d d s s s s f s s s s s s s s s s s s f s f f s a a s s a a s s s d d s x B B d d d x x m x x t a a s a s s s s s s s 8 j j s l l d d d d d s s s s s s s s s s s a a s s s s f f f f j g g g s d d d l l l l s j g s a s s s s s s s l l l l x s s x s s g g g l d d x a a d f a s x d t d V B x d m d m B m d d d l l l d s l l l l l l l x l l l l l l d d d d d d d f d d d s f s s s s s s d d l d x n V d d d d x m m d s a 7 7 a s f f s s s s a j j a l l l l l l d s s d l d d d d d s s a a f f f f f f f s g s s s s s s s s s s s a g j s a g j j d d d d d d d d x s s x f f f g l l l l x s s x f 2 a d f t s V B f a s d m V B l l l l d d l d d d s f f d d d f f f f s s s s s s s s d d d d ",
"g g g g g g g g n z g 3 i j c O.c i 3 j z O.%.z g j c n l j g g q 8 s s j 8 8 j g l l g g g g g g g g g s g s s x g s s s s s s s s s s g g g g g g g g g s s s s s g c g s g g s s s s g g g g 3 g g 3 3 3 3 y g l l l s x x s l n c g 3 c %.c x s y s B %.n g g g g g n x l y y y y y s s s s s s s s s s s s a a a a s 8 8 3 y s s 3 g j j g B c g y y g c B c y 3 j g O.O.l s g x c g g s s g g g g j 3 3 j s s s s s s s s s s s s g g g s x g s 8 a a a a a a s s s s s s s s s s s s s s s s s x g s s s s s s s g g g g 3 g g 3 g g j g g l l l y d d y x B n l 2 c B x x s l c %.%.c y l l l l x l g g g l l g g g g g g g g g g g g g g g g g g g g g g j g g g j j g c l g 3 i l c %.c i 3 i g n O.l g j x x j g s s a a a s x s s x g g g g l l g g g l l l g l l l x j g a s s s s s s s s s 8 s s s s s s s s s s s s g c x g g g d d d s d s s s s j j s g s s g g g g g s l x s g c x s 2 c %.x x s s l c n x y g g g l n n l i s s s s g g g g g g g g s g g g y i y y i i i i ",
"z z z z &.&.&.&.J O.&.*.O.O.O.O.3.O.p G G ;.2.O.p z O.*.>.%.z i z c c c c J J c c c O.O.O.c J c c c c c c c c z =.%.O.c z c c c c c c c c c c c c c c c c z z z c z O.=.0.O.z c c c c z z z z z J c c J k k z z z z z z O.c c O.2.&.z z O.*.*.O.O.z O.*.*.O.O.%.&.&.&.%.O.O.*.*.O.O.O.J c c c c c c c c c c c c z z z z z c z z j O.O.j c &.&.J J O.*.=.*.*.*.*.7.O.h G h *.>.O.i j O.%.*.%.z i J J J J k c c z z c c c c z c z z z z h h h h h *.%.c z l l z z z z z z z z z z z z z c c c c z c z c *.=.O.j j z c z c J J J c O.c c O.c c c c c c c c n c c n 0.%.z g %.*.*.%.c z O.*.6.*.O.&.&.&.&.%.%.%.*.*.O.O.O.O.c c c c z z z z z z z z c c c c c c c c z %.%.z O.&.&.O.O.%.*.*.*.*.*.*.3.O.z O.G >.2.&.c c %.%.%.%.c c z z z z z c c z z c c c O.O.n O.z z z z z n n n *.%.c z z z k k z k z z z z c c c c c c c c c c h j c *.0.Q h j z z z z z z z c c z z c c c c z c z z z O.J J O.2.%.z h O.&.&.O.%.c J %.>.&.O.*.%.%.%.%.O.O.*.*.O.O.O.O.J J J c c c c c z z z z z z z z z z z z ",
"@.;.7.f.s.:.@.H L @.:.3.3.y.p.s.s.N.d.y.d.y.s.N.#.;.;.;.s.s.2.-.+.O.&.&.;.,.p.7.O.&.&.&.*.+.O.&.>.>.>.>.J &.2.7.f.2.*.&.&.%.O.O.*.%.%.%.%.&.&.&.&.*.*.O.+.+.&.;.*.*.*.*.M.9.;.O.*.&.;.>.&.&.&.J O.&.&.K >.,.p.7.&.*.*.*.O.+.2.J.2.:.;.;.s.s.3.3.s.3.s.N.s.s.s.2.f.2.;.O.H @.+.>.7.7.>.>.&.&.&.&.*.*.*.*.*.*.*.*.*.*.*.&.&.&.&.+.;.>.2.7.7.>.O.G z O.;.3.7.3.3.3.s.N.s.4.f.y.s.N.;.;.;.;.p.p.,.&.&.&.&.&.>.7.p.7.O.&.+.%.&.%.O.%.>.>.>.>.H &.>.7.f.2.*.*.&.O.O.O.*.*.&.&.&.&.&.&.&.*.*.O.O.O.&.*.*.*.*.*.M.7.;.O.&.&.;.>.&.;.&.+.&.*.*.&.>.3.7.7.+.*.*.*.J O.2.B.3.>.;.;.s.s.3.3.s.s.f.f.7.3.7.f.7.2.>.J J J %.>.7.7.>.;.&.&.&.&.&.&.&.&.;.;.;.;.;.;.>.>.&.&.&.&.>.>.2.7.3.;.O.G G O.>.7.p.p.p.p.g.g.s.3.s.y.s.N.;.;.;.;.f.f.2.&.%.%.&.*.;.>.9.f.O.%.O.O.&.O.O.O.*.*.*.*.O.*.2.7.7.>.>.>.*.*.&.O.%.%.*.;.%.%.%.%.%.*.&.O.J %.*.&.;.;.;.;.f.7.;.J *.*.>.>.*.;.*.+.*.;.>.*.>.7.7.7.%.O.O.O.+.+.2.U.3.,.;.-.3.g.s.;.f.s.f.g.s.s.7.2.f.3.;.+.G J +.;.s.3.2.,.-.-.-.&.&.&.&.&.*.*.;.;.;.;.*.*.+.+.+.+.",
"#.-.;.;.@.+.#.;.@.$.:.y.y.3.:.$.;.4.y.s.p.y.y.d.y.y.y.y.3.d.g.p.,.+.+.-.,.>.<.,.p.;.+.+.+.;.3.p.,.3.p.g.f.f.f.f.;.+.+.;.&.H K ;.;.-.-.&.-.+.+.#.+.H +.;.+.#.#.+.-.-.#.#.2.s.f.p.s.s.s.2.;.,.3.;.-.H H -.p.,.<.,.*.&.&.&.O.7.d.s.y.y.y.y.d.d.y.y.y.p.3.;.-.;.,.,.3.,.;.-.-.#.+.@.@.+.#.+.&.-.-.&.%.%.%.&.%.%.%.%.%.O.O.+.+.+.+.+.+.&.;.;.+.+.+.;.@.#.:.3.3.3.:.:.;.3.p.p.s.y.p.d.p.p.p.p.,.d.d.y.<.+.#.;.y.<.:.,.s.;.&.K +.-.,.p.:.,.p.d.d.d.f.s.;.-.+.;.+.J @.;.;.;.;.;.;.#.#.#.+.H +.;.+.#.+.+.-.;.;.;.3.s.g.p.p.s.s.3.;.,.3.:.;.@.@.;.s.3.:.3.&.+.O.O.+.3.d.y.y.y.4.:.d.d.y.y.3.3.,.,.+.,.p.3.p.,.-.K -.&.K +.K &.&.K &.&.&.&.-.&.-.-.#.-.&.&.-.-.*.&.-.-.-.-.-.;.;.<.+.K +.-.K -.:.,.,.,.<.<.<.,.y.y.p.y.p.d.y.y.y.y.<.d.g.p.,.#.+.-.,.,.,.3.p.;.+.H K -.,.y.<.:.y.d.g.d.f.f.,.-.O.-.-.+.O.&.;.O.+.;.+.+.+.+.+.H +.<.-.+.+.-.-.-.-.-.3.s.g.p.s.f.s.3.:.3.3.;.;.+.+.;.7.>.;.;.;.-.-.-.#.p.d.a.y.w.w.w.y.d.a.:.p.y.,.-.-.<.,.,.,.<.;.-.#.#.+.+.@.+.#.H -.-.-.&.&.&.&.&.*.*.*.*.&.&.*.&.#.+.+.+.",
"-.&.+.+.-.-.-.#.;.:.3.3.y.<.H L L L K :.y.y.p.3.p.p.p.p.s.3.p.V.d.<.#.-.K K ;.y.g.s.y.,.g.V.s.-.H #.:.3.p.,.;.-.+.@.+.-.+.-.,.p.s.,.-.K #.#.#.#.K +.<.p.d.d.,.#.+.+.+.+.+.;.3.p.3.,.-.H L <.g.g.d.y.y.d.,.y.<.K &.&.-.-.U.g.a.y.i.i.i.i.i.u.u.y.,.,.-.L H L L -.3.,.,.<.-.#.-.-.+.+.#.-.-.-.-.-.*.*.*.*.&.&.&.&.&.+.+.+.+.+.#.#.#.+.@.@.;.;.$.+.:.:.:.:.3.;.@.L L H @.:.y.p.p.y.d.d.d.d.d.y.y.C.a.:.#.<.#.K -.y.g.s.p.,.d.V.d.-.H #.:.w.p.w.<.-.-.@.+.;.+.#.,.p.s.3.;.+.#.#.#.#.K +.<.p.d.d.,.#.#.#.#.#.@.<.y.p.y.,.-.H L :.g.N.d.y.y.d.3.y.<.K +.+.&.-.U.g.a.y.i.i.i.i.i.u.u.w.,.;.-.+.L L L K p.s.,.,.-.-.<.<.K ! -.-.-.-.-.-.<.<.<.<.-.-.-.&.&.&.&.&.&.&.&.&.&.&.! K ;.-.&.K :.:.:.:.,.<.K L L L K -.y.p.y.,.u.u.u.u.y.q.i.C.d.<.#.#.+.K ;.3.d.p.p.w.d.V.p.#.H #.<.,.d.y.<.-.-.@.@.-.+.#.,.3.g.3.;.+.#.#.#.#.K K <.p.g.p.,.-.#.#.#.#.+.<.y.p.y.3.;.H L <.g.d.d.y.y.d.3.3.<.+.+.#.-.<.a.a.a.u.u.u.u.u.u.u.u.q.w.,.K H K L L -.p.y.y.<.#.#.-.<.K K K ! K K K O.*.*.*.*.*.*.*.*.*.*.*.&.*.+.+.+.",
"%.*.*.;.O.&.;.,.3.,.3.,.L H @.#.#.@.#.y.y.s.y.<.3.3.3.3.p.3.y.s.g.d.,.<.K #.#.+.<.3.p.,.p.:.:.p.w.w.w.w.p.w.,.<.<.#.#.-.+.p.V.g.d.p.y.,.#.#.#.#.K :.d.g.y.d.g.y.@.@.#.#.,.#.-.y.p.,.y.s.,.w.,.,.,.y.y.,.-.K H K -.>.p.d.d.a.y.y.u.u.u.u.w.w.u.u.,.-.+.-.H +.K h +.<.7.p.p.,.-.K -.*.*.*.*.*.*.*.c c c c x z x z z z z z &.+.*.*.2.*.&.O.O.*.:.3.s.3.3.:.H H @.@.;.+.;.y.y.d.y.<.y.y.y.y.y.y.y.a.j.d.w.<.H #.#.K <.w.p.,.p.<.<.p.w.w.w.w.y.w.,.<.:.#.#.;.@.y.N.g.d.s.y.3.#.#.#.#.K :.d.g.y.d.g.y.#.#.#.#.:.$.#.y.p.w.y.d.w.y.,.,.3.y.y.3.#.#.H H -.<.7.d.d.a.w.w.u.u.u.u.w.w.w.w.y.:.-.K -.! K L K :.p.h.p.,.<.K ! -.-.;.;.;.*.*.J J J J k k k k k k k k %.%.%.%.>.*.&.! J &.;.,.s.p.,.:.F K K K -.K #.,.y.p.y.-.w.w.y.w.d.y.t.y.g.s.:.#.-.K @.-.<.,.w.,.w.<.<.w.y.y.y.y.a.y.:.<.#.#.#.#.;.y.d.g.y.g.d.,.#.#.#.#.K :.d.d.,.g.V.,.K K K #.:.#.#.y.p.y.y.d.,.,.<.<.:.y.y.:.-.@.K H K <.p.d.d.a.u.e.u.u.u.u.a.u.w.w.,.<.K K H K H L K <.y.p.y.,.-.-.&.%.%.%.%.%.%.%.c c c c x x x x l l l l %.%.%.%.",
"g x %.=.*.*.+.;.O.H K L K #.$.#.#.O.-.y.p.y.y.<.K -.,.,.y.,.,.3.,.,.,.,.<.-.-.-.K D D D D D D K ! <.,.p.w.w.y.i.y.i.i.:.<.d.s.+.L -.,.,.#.#.#.-.K ,.,.#.H -.y.j.#.:.p.d.p.y.y.y.,.,.:.:.H -.K K H H K K -.-.-.-.:.<.<.,.y.w.w.w.w.e.:.K K <.u.u.w.,.-.H &.&.&.&.H H H &.;.&.&.*.%.B x s 7 2 # O O O O O O O O O . . . O + % 1 2 s d B %.%.%.%.*.O.O.O.J +.#.#.+.O.J #.t.i.i.y.<.@.;.3.3.,.,.,.3.,.,.,.,.<.-.+.&.K K H L D D L D -.<.,.p.w.w.y.u.u.a.i.:.;.d.s.+.L ;.p.3.#.#.#.#.+.,.,.K H -.y.j.$.q.i.j.i.i.i.y.w.,.:.:.H -.K K H H H K -.-.-.-.<.<.<.,.w.w.w.w.q.y.,.-.#.<.y.u.p.,.:.-.-.;.-.F F F K F -.! &.;.%.J c z s 8 , + + O O O O O O O O O O + + + , , 8 j v %.%.*.*.;.! ! F K #.-.#.#.-.-.<.y.u.w.w.<.#.<.3.y.:.y.y.,.,.,.,.,.;.-.+.+.L L L H H H H +.-.<.,.p.,.w.y.y.u.a.i.:.;.d.s.+.L -.3.3.#.#.#.#.&.,.,.+.H $.y.j.$.:.i.j.i.i.u.y.w.,.,.<.H -.K K H H K K -.-.-.-.,.,.,.,.y.,.,.,.u.y.,.#.K <.y.u.a.w.#.K -.-.-.-.L H H H ;.*.>.*.=.B x d s a * @ O . . . . . . . . . . O O O $ # ",
"+ + + + 3 5 c O.*.*.*.*.-.;.:.<.;.>.p.N.p.:.#.H @.+.;.3.p.3.;.L K K K K <.-.K K ;.&.&.&.%.&.&.;.;.<.,.w.y.y.w.y.u.q.y.d.V.s.3.<.y.y.,.<.#.#.#.-.-.<.:.p.,.<.w.j.d.a.y.w.:.:.,.,.y.,.<.<.K :.-.-.+.-.;.,.-.-.-.-.-.K F F K -.<.<.q.w.,.-.K H #.q.d.s.p.7.&.&.&.&.&.*.*.*.Q Q j , + + O O . O O # 2 2 3 8 x x x x B x x x 2 2 1 * O O O O 1 2 x %.%.%.%.%.*.&.-.+.;.>.y.C.j.q.#.H @.-.;.3.3.3.;.H H H H H -.;.;.K ! ! K K ;.;.-.-.;.<.:.,.p.y.y.y.u.t.y.d.N.s.,.;.3.3.3.;.#.#.-.-.*.;.,.p.,.<.w.j.d.a.u.w.q.q.q.q.y.,.<.-.#.:.-.-.+.-.>.,.-.-.-.-.-.#.K K K #.-.<.y.y.:.K ! K $.w.d.p.p.,.<.&.-.! -.-.! ! ! ! k 5 < > + + O O # , 8 a s g c c v v v v v j 8 8 6 2 + + + + > 5 c %.&.%.&.&.-.-.-.#.;.,.d.C.i.q.K H #.#.<.y.s.3.-.H @.@.@.@.-.-.O.H -.*.&.&.*.;.;.>.;.<.:.,.y.y.y.w.y.q.y.d.N.s.3.;.3.3.3.;.#.#.&.-.*.;.,.p.,.<.w.j.d.a.i.t.q.q.q.q.y.,.<.-.#.:.-.-.+.-.<.,.-.-.-.-.-.-.K K H +.-.<.<.:.:.-.+.K #.q.d.a.p.,.-.-.-.&.&.*.*.*.%.Q j , + + O O O O $ % 2 t a f d d d d x f d f * # % + ",
"f.7.*.J 3 > O + O 2 x Q *.&.&.-.;.;.*.K K #.#.<.#.-.<.,.<.K K -.-.-.-.-.#.<.-.K +.&.-.+.,.p.g.g.y.,.,.:.:.:.q.q.u.q.w.a.C.y.:.,.a.w.<.-.#.#.#.#.-.+.<.p.y.:.w.d.j.d.y.:.y.y.w.,.<.,.y.p.s.V.d.d.<.<.#.K -.-.-.-.K K +.K -.+.K K ,.,.:.-.L #.#.K -.;.,.;.&.&.&.&.*.%.c g + O O O + 3 %.2.8.M.J.U.Y.T.R.W.W.W.W.W.!.!.Q.T.Q.T.T.L.M.9.=.B 1 O . O . % j c %.%.O.O.*.>.;.#.K #.#.-.+.-.>.,.;.K H &.&.&.&.&.-.-.-.-.+.+.-.-.3.s.g.N.7.3.,.,.<.,.w.w.y.w.y.d.V.y.<.,.s.3.;.>.-.-.-.&.;.&.;.p.w.<.w.d.j.d.y.q.u.y.w.w.<.,.3.p.s.V.d.f.:.<.+.K -.-.-.-.K K K K -.#.K K <.y.,.-.H -.-.K -.<.<.<.;.-.K &.&.Q J k , + + # 2 j %.>.f.N.U.Y.T.R.W.W.!.!.!.!.&X!.W.W.R.R.T.T.J.7.>.Q < > + O 9 8 j v *.%.O.K *.;.;.-.#.#.#.-.#.<.3.3.;.H H ,.;.;.;.;.+.-.-.+.+.+.+.+.,.s.g.g.7.,.,.,.<.:.q.q.y.w.y.d.V.y.:.,.s.3.;.-.#.#.#.-.;.&.;.p.y.<.y.d.j.d.y.q.y.y.w.w.<.,.w.p.s.V.d.d.<.<.#.K -.;.-.-.O.&.;.;.-.+.O.H ,.3.;.+.L #.-.@.-.;.;.&.&.&.&.&.*.%.c j + . . O + y n 0.8.M.B.J.T.T.W.!.W.W.W.W.!.!.~.Q.Q.T.P.L.",
"W.W.!.&X~.P.5.%., + O O > q %.%.J %.*.K ;.-.#.#.#.p.s.-.L K +.H +.+.+.+.-.<.,.<.,.p.d.g.d.p.y.,.:.-.K H H K :.q.y.i.y.:.q.y.y.<.#.H K -.#.#.#.#.&.K +.#.$.<.w.i.,.w.w.y.a.,.-.K H K K K y.d.p.p.d.s.p.y.,.,.,.,.-.-.;.;.K +.&.-.H -.p.s.;.+.+.-.+.+.O.&.&.&.&.%.3 > + O , j 0.9.P.T.Q.R.R.Y.V.j.j.d.d.a.a.d.d.d.d.d.V.V.E.E.E.R.W.W.!.!.^.H.=.f O O O O 2 j %.%.c %.&.J -.-.+.K +.p.p.-.L H H L &.&.&.&.-.-.;.,.3.p.s.s.p.s.p.p.:.;.K K L #.<.w.u.a.y.:.,.p.w.-.+.L L K -.-.-.&.&.K K -.#.<.w.a.q.w.y.y.i.w.$.K H K H K ,.d.p.p.s.s.p.p.,.,.,.,.-.-.-.<.K +.-.-.L ,.7.,.;.-.-.-.-.-.-.;.;.;.%.J 4 4 > + > j 0.8.T.T.~.&XR.E.U.V.j.j.d.a.j.j.j.j.j.j.g.j.E.R.&X&X&X&X&X&XW.H.0.v # + O O , j %.*.%.=.*.K -.-.#.#.#.s.d.<.L +.;.+.-.-.-.-.;.;.;.;.,.y.s.g.d.s.p.,.,.;.K K L K <.w.u.a.y.:.:.y.y.;.+.H H -.#.#.#.-.&.+.+.#.#.<.y.a.q.t.y.y.i.t.$.K H K K K w.d.p.p.d.s.p.y.:.:.:.,.;.;.*.&.O.O.O.+.H ;.3.3.;.+.+.-.O.&.%.J *.*.*.*.3 + O O + f =.9.P.Q.T.W.E.Y.V.V.V.d.d.d.d.d.d.d.d.g.N.N.Y.Y.E.W.",
"d.j.U.R.W.W.&X&XQ.6.q + O O O , j Q =.*.;.*.&.&.&.-.-.-.&.&.&.&.&.&.&.&.K -.,.s.V.d.d.,.,.K -.;.;.&.+.K -.-.:.y.<.<.<.y.y.y.w.,.#.-.-.-.-.-.-.-.+.K +.-.<.p.d.y.<.w.,.<.y.y.,.-.<.-.K L -.,.-.&.;.p.s.d.N.p.:.-.-.-.-.-.#.#.#.#.-.#.K -.<.-.+.;.O.+.;.>.%.g , + O 3 %.6.T.T.T.U.g.d.p.y.y.y.y.y.y.y.y.y.y.y.y.y.y.i.i.i.i.y.y.y.d.g.V.U.R.W.!.&XI.5.3 + O . O + x %.%.%.%.%.+.K +.&.-.-.-.-.&.&.&.&.&.&.K -.,.s.U.s.s.,.<.K <.:.;.-.#.+.-.#.<.y.:.<.,.y.y.y.y.y.#.-.-.-.-.-.-.-.+.+.+.-.<.p.d.y.:.w.,.<.w.w.,.-.<.&.K L -.:.&.+.>.p.f.f.g.p.>.-.-.-.-.-.&.&.&.&.-.K K <.K +.-.;.;.&.*.Q Q w 9 + + 5 *.7.R.&X&XE.U.g.a.d.a.a.u.u.u.a.a.a.a.a.a.a.a.a.a.a.a.a.a.a.a.j.j.U.&X&X&X&XP.1.q < + + + 2 k Q =.=.*.;.;.<.-.-.-.-.-.-.-.-.-.-.#.#.+.;.3.s.V.g.g.3.,.#.-.;.;.-.+.K -.-.:.y.<.<.<.,.y.y.y.:.#.-.-.-.-.-.-.-.+.+.+.#.;.y.d.y.:.y.4.<.y.y.,.-.<.-.K H -.,.-.+.<.p.d.d.N.p.:.;.&.&.&.&.&.%.%.&.;.+.+.;.-.&.+.+.;.-.%.%.c 8 + O + < %.9.~.W.W.U.N.d.p.p.y.y.y.y.t.t.u.u.i.u.u.i.y.y.y.y.y.y.y.y.",
"w.e.a.d.j.j.C.U.&X&X&Xx.=.3 O + O > g Q >.*.*.&.&.&.&.&.&.&.&.&.&.&.&.&.;.&.K H H #.,.-.K H #.;.*.*.&.&.#.,.w.,.K K #.<.y.y.w.w.<.-.-.-.-.-.-.&.&.+.&.-.,.y.y.y.p.<.K H -.<.<.-.-.-.-.&.+.,.+.K K -.,.;.O.H H H -.-.-.-.#.#.#.-.&.-.-.#.;.-.&.O.*.%.h 4 + + 2 %.x.I.~.~.U.g.p.a.y.w.y.y.y.y.y.y.y.y.y.u.y.y.u.y.u.u.u.u.u.u.u.y.w.w.y.y.u.a.j.j.&X!.W.f.%.3 O O O + 2 x %.%.%.&.&.&.&.&.-.-.&.&.&.&.&.&.<.-.K K K K >.;.K L ;.,.-.-.-.-.-.,.w.w.K K #.<.y.y.y.i.<.-.-.-.-.-.-.-.-.+.-.-.w.y.y.y.y.<.K H #.:.:.-.-.&.&.&.K :.&.H K ;.,.<.K J J K -.-.-.-.&.&.&.&.&.&.-.K +.-.;.>.=.%.k < + O 9 %.x.T.&X&XU.j.a.a.u.u.u.e.u.u.a.a.a.a.a.a.a.a.a.a.a.a.a.a.a.a.a.a.a.a.j.j.j.j.j.C.&X&X&XN.>.g + O O < j v =.*.*.;.-.-.-.-.-.-.-.-.-.-.#.#.;.;.#.+.+.&.,.;.+.L &.>.-.;.-.-.#.,.y.w.K H #.<.y.y.y.y.<.;.-.-.-.-.-.#.#.+.#.-.y.y.y.y.y.<.@.H #.:.:.-.-.&.&.&.+.,.&.H K -.,.;.@.H @.O.&.&.&.&.&.%.%.%.%.;.;.+.#.#.&.&.*.%.j 4 + + 1 c H.T.&XW.U.d.y.y.u.u.u.u.y.y.w.w.e.t.u.u.u.u.u.u.y.y.y.y.w.w.y.y.",
"a.d.a.a.u.u.u.u.y.d.U.E.R.J.7.Q , O O , j J *.*.&.&.&.&.&.&.&.&.&.&.&.&.K K J K +.H +.L H H <.,.&.&.*.-.#.,.y.,.,.<.#.#.,.w.y.y.,.<.-.-.-.-.-.-.K +.-.;.y.y.y.w.-.K K #.p.p.,.-.-.-.-.-.H ,.-.H K J >.H O.+.&.-.-.-.-.-.-.-.-.&.%.%.&.-.-.-.O.%.s O O , c 7.T.W.R.J.s.p.y.w.w.w.e.e.e.e.e.w.w.e.e.e.e.e.e.u.u.u.u.u.u.u.e.w.w.y.w.w.q.q.q.q.e.u.u.y.C.E.R.T.7.k > O   O 8 k %.&.&.&.&.&.-.&.&.&.-.-.&.&.K K K K K H &.K K H >.,.&.-.-.-.-.,.y.w.,.-.+.#.:.y.y.y.w.<.-.$.$.$.$.-.+.+.#.<.y.y.y.w.-.K K #.p.p.,.-.-.;.*.*.K ,.*.H K J >.J K %.%.&.&.-.-.-.&.&.&.&.&.&.#.#.#.+.J c 8 + O , k 7.P.!.&XE.d.u.u.u.u.e.u.u.e.e.a.a.a.a.a.a.a.a.a.a.a.a.a.a.a.a.a.a.a.a.a.a.a.a.e.u.a.a.w.i.E.R.&XR.s.O.> + O # 9 k *.>.-.-.-.-.-.-.-.-.#.#.-.&.O.+.+.+.+.O.&.z K H ;.>.&.-.-.-.#.,.y.w.,.<.#.#.y.y.y.y.y.:.;.#.#.#.#.-.+.+.#.<.y.y.y.y.$.#.#.#.y.y.,.-.-.-.-.-.K ,.-.H K H >.J O.+.&.&.&.&.&.&.&.%.%.%.%.;.;.#.-.+.H h f O O > z 9.Q.!.T.Y.s.,.y.y.w.w.e.e.u.u.u.u.w.w.e.u.u.u.u.u.u.u.u.e.e.e.e.e.e.e.",
"a.a.a.a.u.u.e.e.u.a.y.y.d.U.&X!.P.6.j > + 4 5 J *.*.&.&.&.&.&.-.&.&.&.*.*.&.%.K K +.;.K &.K <.>.K &.;.>.<.<.<.,.;.&.+.#.<.w.y.i.y.,.;.#.-.-.-.-.+.-.-.w.y.a.i.<.#.-.<.-.<.,.,.-.,.<.-.K H ,.;.H *.K ,.K -.-.K K -.-.-.-.&.&.&.%.%.%.%.%.&.O.3 + . , =.J.W.&XC.C.y.y.y.y.y.y.y.y.e.e.e.e.w.w.e.e.e.e.e.e.y.y.y.y.y.y.y.y.e.e.y.y.a.y.w.q.q.w.e.u.u.d.i.q.a.V.U.E.T.6.j + O > 5 k %.%.&.&.-.-.&.&.-.&.&.*.-.&.+.K %.! >.*.%.J >.>.+.&.;.;.,.<.:.p.;.+.K -.<.q.y.y.y.,.<.#.$.#.#.-.+.#.-.w.y.a.i.<.#.-.<.-.<.,.:.-.,.:.;.+.J 7.;.J &.J >.H *.*.%.K &.-.-.-.&.&.&.&.&.&.&.&.;.H i > . 9 0.H.W.&XU.C.u.u.u.u.u.u.u.u.a.a.a.a.a.a.a.a.a.a.a.a.a.y.r.r.r.r.r.r.r.r.r.a.j.a.a.e.e.u.a.j.u.i.i.a.C.E.&XW.T.6.j 9 + , h %.&.+.+.+.#.#.-.-.-.-.-.-.-.&.+.&.O.O.;.O.%.H ;.>.O.&.;.;.<.<.,.w.;.+.+.#.:.y.y.i.y.3.<.#.#.-.-.-.+.#.-.y.y.d.i.<.#.;.<.-.<.,.:.-.,.:.-.K J 7.;.H *.K >.H *.&.%.O.&.&.&.&.&.%.%.%.*.%.O.;.;.J < + . + =.P.~.R.V.a.y.y.w.:.y.y.u.u.w.w.w.w.u.u.y.y.y.u.u.u.u.y.y.e.e.w.w.w.w.w.w.w.",
"y.e.e.e.a.a.a.a.u.e.e.e.q.w.y.g.U.E.!.W.>.5 + + j =.*.J +.#.-.-.-.&.&.&.&.&.&.&.&.J ;.&.&.z >.7.J &.G H 3.;.&.H -.-.-.-.#.<.q.y.y.y.4.;.#.#.#.#.-.-.y.y.u.y.y.-.-.-.+.-.H L -.p.,.H -.K -.7.>.J %.O.&.&.&.&.&.&.-.-.-.-.-.&.K %.%.%.%.%., + O 8 8.P.&X!.U.d.y.w.u.u.u.y.w.y.y.w.d.y.y.:.,.<.#.#.+.&.&.+.H H H J O.O.O.O.;.;.;.;.:.,.,.w.w.y.y.y.a.i.y.y.w.q.w.a.U.R.~.J.=.g + + g %.*.O.#.#.#.+.&.&.&.&.&.+.+.+.&.*.*.O.J G ;.9.&.O.H H p.;.+.H -.-.-.-.#.<.y.i.y.y.,.-.#.+.+.+.-.-.y.y.u.w.y.-.-.#.+.#.@.L #.p.,.H -.+.-.7.>.O.&.&.&.*.%.%.&.&.-.-.-.-.-.&.+.%.%.%.%.%.3 + + g 7.J.&XR.V.j.a.u.e.u.a.a.a.a.a.a.a.a.a.d.w.w.w.w.<.( P ^ ! ! ! ! 1.<.<.<.,.,.,.,.a.a.a.a.a.a.a.u.e.a.a.a.u.u.a.j.E.&X&XT.7.h 4 > c *.>.K +.-.;.>.&.&.-.-.;.-.+.K -.H ;.&.;.h >.,.+.K H K 3.,.#.H +.+.#.#.$.<.t.y.y.y.,.-.#.-.&.&.-.-.y.y.u.w.y.-.-.-.+.-.H L -.p.,.H -.K -.7.>.J +.O.&.&.&.&.&.&.&.-.-.-.&.&.O.%.%.%.*.*.< O O 3 6.J.~.W.U.d.i.u.w.w.y.u.w.w.u.a.3.3.3.3.3.;.&.+.&.O.H H +.K K K K ! &.-.<.<.<.<.",
"! ! ! ( w.w.w.w.a.a.a.a.w.e.a.d.y.y.d.E.!.&Xf.k + + q &.;.;.;.-.*.&.&.&.&.&.&.&.K H K H &.H 2.s.2.;.H &.s.;.&.;.&.-.-.-.#.<.q.y.y.y.4.;.#.#.&.#.#.-.y.y.u.w.y.-.-.-.-.&.+.K &.,.w.K #.+.s.s.&.G J J J J &.&.&.&.&.-.-.-.;.O.%.>.%.v 8 + O g 6.T.Q.Y.V.d.i.y.w.q.q.e.u.i.y.w.,.,.;.*.+.+.H L L G J J J J z z z z z k k k k k k L J H H H ;.;.;.:.,.,.,.,.y.y.y.y.y.d.V.Y.W.T.8.j O + g *.;.-.+.H &.&.&.+.+.+.+.+.O.O.J z %.G ;.N.2.&.+.;.p.;.+.*.&.-.-.-.#.<.q.y.y.y.,.-.+.+.+.+.-.-.y.y.u.w.y.-.-.-.-.&.+.O.&.,.y.@.#.#.s.s.-.G J J J J &.&.-.-.-.-.$.$.<.O.&.>.%.v 8 + + y 6.!.&XE.C.j.a.a.u.u.a.u.e.e.h.d.y.w.1.<.<.( F F F F P ( ( ! ! ! ! ! ^ ^ F F ! ! ! ! ( ( ( ( w.w.w.y.h.h.a.a.a.a.a.a.y.d.U.R.!.&Xf.J + > h >.;.*.&.&.&.&.-.-.;.-.-.+.K K K H ;.h ;.g.,.&.+.;.s.;.+.;.&.+.#.#.#.:.t.y.y.y.,.-.-.-.&.&.-.-.y.y.u.w.y.-.-.-.-.&.+.K &.,.w.K #.#.s.p.-.G J J J J &.&.+.&.&.&.-.-.;.O.%.0.%.v 8 + O g 6.T.T.U.N.d.i.y.u.u.u.e.q.q.u.y.w.,.&.*.*.*.O.J J J J J J J c z h h j h J J G L L L ",
"F F F F F F F F ,.,.,.w.a.a.u.u.a.e.w.y.d.Y.W.~.H.q + > c %.-.;.*.*.&.&.&.&.&.&.&.+.H L &.H -.2.U.f.s.p.3.&.O.;.&.-.-.-.#.<.q.y.y.y.4.;.$.$.+.#.#.-.y.y.y.q.w.#.+.&.-.-.-.+.&.-.p.y.a.p.N.:.L +.J J H H #.-.-.&.&.&.-.-.<.&.%.%.s O O 3 6.J.W.W.d.p.y.y.i.i.u.i.i.i.y.y.,.;.+.O.J J J J J J J J c z c c O.O.O.O.c c c c c c c c G G J G c c c J %.&.<.<.,.y.i.i.y.,.,.y.g.N.W.T.x.g O 4 z J +.O.+.+.+.+.+.O.&.&.+.&.J z O.O.&.7.g.f.s.s.3.-.+.;.&.-.-.-.#.#.q.y.y.y.,.-.+.#.+.+.-.-.y.y.w.q.,.#.+.&.-.-.-.+.&.;.y.y.a.y.V.:.L +.H H H H +.&.-.-.&.&.$.$.<.&.Q %.f + + 3 >.T.&XE.j.j.u.a.a.a.u.a.a.a.a.a.,.<.&.! F K ^ ! ^ ^ ! ! ! ! ! ! ! ! ! ! ! ! ! ! ! ! ! ! P P ^ ^ F F ! ! <.1.w.y.a.a.a.j.w.w.y.d.g.E.R.R.I.j O 3 k J -.-.-.-.-.-.&.&.-.;.&.+.L H -.L -.p.g.p.p.p.3.-.+.;.&.+.#.#.$.:.t.y.y.y.:.-.-.#.-.&.-.-.y.y.y.q.,.#.+.&.-.-.-.+.&.-.p.y.a.p.V.<.L +.H H H H #.#.#.&.*.&.-.-.;.%.%.B s O O 3 6.J.W.R.d.p.y.y.y.u.i.i.a.i.y.q.#.-.K O.c c c z z z z z c J J J J J c c j z c J J J H H ",
"&.! ! ! ! ! ! ! K K K K #.<.w.p.e.a.a.y.d.,.d.Y.R.~.6.3 + 5 O.;.*.*.*.&.&.-.-.-.>.:.K K O.@.L J p.f.J.3.&.+.O.O.&.-.-.-.#.<.q.y.y.y.4.;.$.#.+.#.#.-.y.y.q.q.:.K K +.+.&.+.+.O.H -.d.V.d.<.-.H +.+.+.+.+.#.#.#.-.&.&.-.-.O.*.v , . + %.J.&X&XE.i.y.y.y.y.i.i.i.i.y.:.#.H z G O.%.c c c c c c c c c n n n l l l g g g g g x x z z c c c c c c c c z c J K K <.,.y.y.y.,.<.s.y.d.Y.~.T.6.> + 3 c *.+.+.+.+.+.O.&.;.;.-.O.+.O.+.H J p.N.g.2.H H &.;.&.-.-.-.#.#.:.y.y.y.,.-.+.#.+.+.-.-.y.y.q.q.,.+.+.+.+.&.+.+.+.H -.d.V.d.<.-.H +.-.-.-.-.-.-.-.-.-.-.$.$.+.*.v , O , =.T.&X&Xj.a.u.u.u.u.a.a.a.j.u.w.:.-.K ! ! ! ! ! ! ! ! ! ! ! ! ! ! ! W ! ! F F D D D ! ! ! ! ! ! ! ! ! ~ ! F ! ! K F ( q.a.a.a.a.a.a.d.y.j.U.!.^.9., O 4 H ;.-.-.-.-.K +.;.>.;.:.K K K +.K K p.g.f.,.#.#.O.O.&.&.#.#.$.:.t.y.y.y.,.-.-.-.&.&.-.-.y.y.q.q.,.K K +.+.&.+.+.O.H -.d.V.d.<.-.H +.+.+.+.#.#.#.#.#.&.&.-.-.O.*.v # . + %.J.!.&XC.y.y.y.y.y.y.y.y.y.t.:.#.@.G H J O.c c c c c c c c c c c c l l l l a s s l l l z z ",
"0 w k E ~ ! ! ! ! K K K F F ! -.:.p.d.p.d.y.w.y.j.E.!.P.c > + j =.%.*.7.g.U.E.U.U.U.N.g.3.,.+.L L @.+.H J +.&.&.O.O.K K #.K w.y.y.p.y.:.$.$.*.$.#.-.y.a.i.y.w.K +.+.+.+.;.&.+.&.L H H K L L O.;.N.V.V.g.Y.Y.Y.Y.g.3.-.;.%.3 . O j f.&XW.U.p.3.y.y.y.y.y.4.:.<.#.L G G O.O.c n j x x x x a a s s * * * * O O O O O O O O + + + + 1 2 s x x c B %.z z c J J J J &.;.,.y.y.y.y.y.y.d.Y.!.T.v + + 3 %.&.&.;.N.Y.R.Y.R.Y.U.N.3.,.+.J L +.-.H H O.&.&.&.+.#.#.#.#.y.y.w.y.w.<.-.-.&.&.+.#.y.a.i.w.y.#.+.+.+.-.&.;.+.O.L L H H H H +.,.g.V.U.V.E.E.E.U.d.:.#.-.%.j + . k f.&XW.V.d.a.i.u.e.e.u.e.w.q.<.K K ! -.! ! -.! Q Q ! ! E D k k 6 < 6 q < < < < < < < < 0 0 0 0 r k E ! ~ ! ! ! ! ! ! ! ! ! ! ! ,.w.a.a.d.a.u.a.g.E.!.P.Q > > h >.&.&.3.U.E.W.V.E.U.V.V.,.<.K H L H +.H L +.-.-.&.&.+.#.#.#.y.y.y.y.w.<.-.-.&.&.#.-.y.a.i.y.w.K +.+.+.+.;.&.+.&.L L K K L H K <.g.N.V.g.Y.Y.Y.Y.g.3.-.;.%.2 . O g 8.!.W.N.y.,.y.y.y.y.y.4.:.<.@.@.O.J G O.O.O.O.x x x x x a * * $ + + + + + $ O X X . . O O O + ",
"6 < < < q q k k ! ! &.&.! Q Q K ;.-.:.p.w.p.u.q.i.a.g.Y.!.8.g + , c 7.!.U.g.d.d.y.s.g.U.U.Y.N.,.+.H H -.;.-.,.s.J.N.3.#.#.:.i.y.y.y.:.#.$.$.*.$.;.-.y.d.w.y.y.#.K -.p.J.U.7.-.&.%.%.J H -.p.U.U.V.d.y.y.s.s.s.s.W.U.7.%.> O 7 0.!.R.Y.d.s.y.y.y.y.y.y.3.:.+.@.G z c c n x l l s 1 # # + O O O O % % * * 2 2 2 2 t 2 2 2 % % % % % % + + # 2 g z z z c c c J J J G J &.;.y.y.y.y.i.y.d.T.~.8.g + > c 7.T.N.d.a.d.y.s.N.U.Y.Y.N.,.H H L +.+.O.;.s.J.J.p.#.-.:.y.y.w.y.,.#.-.-.&.&.<.#.y.d.y.i.p.-.@.;.3.g.J.7.+.-.&.O.H L -.s.U.Y.V.V.j.j.a.a.d.d.E.E.s.Q 4 + 8 9.W.&XE.d.p.a.y.a.u.u.u.e.w.<.#.K K ! ! ! &.! K D r q 0 5 < < 0 0 < , < 0 e k k k e k k k q q q q q q 0 0 0 e D ! ! ! -.! ! ! ! ! ! <.:.w.d.d.a.w.a.a.g.T.&Xf.g + < J 7.!.E.V.d.y.d.d.d.d.E.E.V.,.#.K H -.#.+.,.f.U.J.p.-.#.:.i.y.w.w.<.#.-.-.&.&.<.-.y.d.w.y.p.#.K -.p.J.U.7.-.&.&.O.K K -.p.V.U.V.d.y.y.d.d.d.a.W.U.7.%.> . 7 0.Q.Y.U.d.p.y.y.y.y.y.y.3.:.+.@.G z z z c O.c g s % % % % O . . . @ @ @ @ @ @ & X X X X X . . & * ",
"k w 0 6 0 < < 4 q k Q Q Q Q Q Q ! K ! >.<.y.p.w.a.w.w.j.V.&XU.*.+ > Q f.f.y.w.u.w.,.w.,.y.y.V.E.N.3.+.H ;.-.,.p.;.s.N.d.-.y.i.y.y.p.3.:.$.+.*.$.;.-.w.y.q.y.a.,.K p.g.7.,.7.,.+.*.O.;.s.Y.Y.g.y.y.y.y.y.y.y.y.3.3.9.%.+ + j x.&XE.d.3.d.y.i.i.y.y.,.;.&.O.O.c c *.%.c x t * O O + # , 1 3 3 3 y u u u u d d d d y y y y y y y y s y t 2 1 * + O 1 a x j c c O.O.h z z J ;.,.y.y.y.p.y.y.V.&XY.O.O + %.p.s.y.q.t.y.y.y.3.p.y.g.Y.N.p.-.+.&.+.;.p.>.s.N.s.<.y.i.y.w.y.w.<.-.-.&.&.-.#.w.w.u.i.d.:.H s.N.3.3.s.;.&.-.O.;.s.Y.C.j.y.q.q.w.y.w.w.i.a.p.1.c + + c c.R.&Xd.w.a.u.u.u.u.a.w.<.<.<.! ! ! <.-.! K k q < 4 5 5 q k D D D E 0 0 0 e D D D D D D D D D D D D D D e r q 0 0 0 k D ~ Q ! ! ! ! ! ! ! -.:.p.a.e.a.e.e.j.U.&XP.%.+ > Q f.y.q.q.u.i.i.i.i.a.i.C.E.g.7.-.K -.-.,.s.;.s.N.s.-.y.i.y.w.y.w.<.-.-.&.&.-.-.w.y.q.y.a.,.K p.g.7.,.7.,.+.-.+.;.s.U.U.j.y.y.y.y.y.y.y.w.w.3.9.%.+ O x H.&XY.s.,.a.y.i.i.y.y.,.;.&.O.O.c c O.n c c 2 % + O . . . . X & & & @ @ X @ @ & & X X X X X . $ * t ",
"E D k k q e e e < < < q k D Q Q Q ! ! K ! &.,.s.p.a.i.w.j.j.&X&X9.> + 5 ;.,.y.q.w.w.,.,.d.y.y.y.g.Y.U.,.+.-.-.H H ;.p.p.,.p.w.y.3.p.f.s.;.+.&.&.,.p.g.y.y.:.y.d.<.s.p.K H K K K -.y.g.g.s.y.3.y.3.3.y.y.y.y.3.2.*.3 O O =.T.&Xg.s.y.y.y.y.d.d.y.;.&.J z c n n B l s 1 + O + % * a 3 3 3 3 y y y y d d y u u y u y y y y y y y y y y y t d a % O O O + 1 g z J O.c c c J z J -.,.p.y.q.q.t.i.&X&X6., + 4 ;.y.i.u.y.y.y.y.p.3.3.p.g.V.N.:.+.-.-.-.L -.p.s.3.d.y.y.,.a.d.p.-.&.&.&.:.p.g.y.y.y.s.s.;.s.p.+.H -.+.-.#.3.N.V.d.y.:.y.,.w.y.a.w.y.a.s.*.5 + O =.P.!.j.e.a.a.a.e.e.e.y.,.<.K D ! ! Q Q ! D q 0 < 0 q k D D D L F F D D r q r A D F F F F F F D D F F F D D D D E D e e 0 5 5 q ! ! ! ! ! ! ! ! F K ,.d.p.d.u.e.j.j.&X!.6.> + 5 >.:.w.u.y.w.w.w.p.w.w.y.g.U.U.,.H +.-.+.L -.y.y.3.y.y.i.w.p.d.s.-.&.&.&.,.p.g.y.y.:.y.d.<.s.p.K H K K K #.y.g.j.a.y.q.w.w.y.y.y.y.y.y.3.*.3 O O =.P.!.V.p.y.y.y.y.d.d.y.;.&.J z c n c c x s 1 + O O . . @ @ @ @ @ & X X X X X X X X X X X X X $ . & - a ",
"D D D D D D D k q q 0 5 < < j v %.Q Q Q K F ! &.3.p.p.y.u.u.a.V.&XJ.g O 3 &.p.d.a.,.<.3.>.:.,.y.,.w.a.d.d.y.$.H #.<.y.d.V.a.y.y.3.;.:.f.U.3.O.p.J.p.,.-.y.y.y.a.U.d.,.;.H H *.:.j.j.w.w.y.y.y.;.3.,.,.,.y.d.7.*.+ . < 8.~.U.f.:.y.y.y.4.y.3.:.O.J z z z x j f f + + + # s O O a a y y y y y y y y y y y y y y y y y y y y y y y y y y y y s * O & * 2 1 + > y l c c c z c J J O.;.3.i.i.q.t.i.C.W.J.g O g *.y.y.y.y.3.3.>.,.y.y.:.w.y.d.d.w.$.H $.:.y.d.C.i.q.y.y.-.,.f.N.7.K 7.U.f.3.<.y.y.y.d.Y.d.:.<.H K *.,.g.d.y.y.w.y.3.;.p.7.3.,.,.p.p.2., O < x.!.T.d.w.q.u.u.e.a.w.<.P ! F K ! &.Q k q 0 0 0 w e e k D D F F F F F F F k q r E A E E D D D W E E E F F W W W ! D D D D ! D q 5 4 5 D E &.! ! ! ! ! F ! <.w.a.e.e.e.a.c.!.J.0 O q ;.w.e.y.,.,.>.>.>.,.y.,.w.a.d.d.w.K L $.:.y.d.C.i.q.q.y.#.;.f.g.3.+.7.J.p.,.;.y.y.y.a.U.d.,.;.H H *.:.j.j.w.w.w.w.y.<.3.,.,.,.y.d.7.*.+ . 1 8.~.U.d.:.y.y.y.:.p.3.:.@.H z z z c x x s O O O O O O @ @ @ @ @ @ @ @ @ @ @ @ @ @ @ & & @ & X O O . . t u ",
"D D D D D D D D k k k k k q < < q k Q ! ! Q J J K <.w.p.y.a.i.w.j.E.T.%.O > K ,.#.H L L L L K $.w.y.y.w.y.y.w.:.:.w.a.d.a.y.y.y.K H L L s.g.,.g.-.L L L #.,.w.q.j.d.p.,.<.-.>.,.u.u.q.y.,.@.H z h z J H ;.2.c O O v x.T.g.d.p.y.y.y.y.p.;.@.J z z z c B s 2 + + 1 2 y y s + O a y y y y y y y y y y y y y y y y y y y y y y y y y y y y y s * . @ * y y 3 1 > > 3 g c O.c c c J H -.y.d.y.t.q.q.a.T.P.c + 4 %.3.#.@.L z z L +.-.w.y.y.w.y.y.w.q.q.q.a.j.a.i.y.y.K H L L s.g.,.g.;.H H L #.t.y.t.j.d.p.,.<.:.,.,.y.y.y.y.y.-.L L k k H K K *.c , O c x.T.d.d.a.u.j.e.w.a.w.<.P F K K ! &.K q < 4 0 r e e A A A A F F F F F F F F k 0 r E I I E E E W E E E E F F W W W W D D F D D D F D k q 5 q Q ! -.-.&.! ! ! -.:.y.a.e.a.a.e.d.R.P.v O > K <.K L h q h k K +.w.y.y.w.i.y.q.<.q.y.a.j.a.y.y.y.H H L L p.g.3.g.-.G L L #.:.t.q.j.d.p.,.<.-.>.,.u.u.q.y.w.K H h h z J H ;.2.c O O x H.W.g.d.y.y.y.y.y.y.;.+.J z J c z j x 7 + . O O O O @ @ @ @ @ @ @ @ @ @ @ @ @ @ @ @ @ @ @ X @ X @ @ . . t u ",
"D D A D A A A D D D e k k e w q < 5 q k J Q ! K H K -.,.a.w.y.i.i.j.E.T.>.> + j h H K #.#.K H L <.y.y.:.w.y.y.a.,.y.y.a.y.w.w.:.K <.<.#.K a.y.y.K +.:.#.H #.q.q.u.u.y.i.y.w.,.y.q.q.e.w.K L H J %.%.H L G g # O %.H.R.d.a.y.,.<.3.,.:.;.G z h z z O.x # O + 1 3 s s s s a + O a y y y y y y y y y y y y y y y y y y y y y y y y y y y y y s * O O t s y y 3 1 > + 1 y l c c c c G H -.,.y.i.i.t.y.y.W.T.>.> + c k J O.-.+.H H h <.y.y.:.w.y.y.a.q.y.i.a.i.i.y.q.K #.<.K +.s.y.y.+.O.;.#.@.<.y.t.y.u.y.i.y.y.y.y.<.,.y.y.$.H L %.%.Q H L Q g + O %.J.T.f.,.w.u.u.u.a.y.<.K K F ! K &.K 4 4 5 q k A A A A A A A A F F F F F F F F k w r I I I W W ^ ^ W E E E F F E F F F F F F F D F W F D D k k 4 5 k ! ! &.! ! -.-.<.<.a.w.e.a.a.a.&XR.>.+ + q q k K ! %.J k h <.y.y.:.y.y.y.y.w.y.i.d.y.u.w.q.#.-.,.+.@.p.y.s.H +.,.#.H #.q.y.u.u.y.i.y.w.,.y.q.q.u.w.K L H J %.%.H L z g # O %.J.W.d.i.y.y.:.3.3.,.>.G z z c c j 7 2 O . . @ O O O O X X X X X X @ @ @ @ @ @ @ X X X X X X X X X @ @   . t u ",
"D D A D A A A A F D D e k k D k q 5 < 4 q k J Q %.! K K -.w.y.y.u.u.q.V.!.7., O k %.&.H -.#.+.K K w.p.,.,.,.y.y.:.:.w.w.y.y.:.K <.:.<.#.<.y.w.w.+.H ;.,.-.#.:.u.u.u.y.u.y.y.p.y.i.q.u.w.@.+.;.O.%.*.-.;.g O + 0.~.U.y.y.q.w.,.,.3.;.O.z O.O.c z g > + # 2 3 3 3 3 3 3 3 y O O a y y y y y y y y y y y y y y y y y y y y y y y y y y y y y s * . @ t s y 3 y y s 3 1 > > 3 g c c z G L L <.y.a.i.y.:.y.E.W.>.> O c J %.&.-.-.O.K H ,.p.,.,.,.y.y.q.q.q.w.i.a.q.#.<.,.<.#.<.y.,.y.;.H ;.3.:.#.:.a.i.u.w.y.i.y.y.y.y.y.y.y.H #.<.O.Q %.&.*.j . + 6.~.U.7.p.w.u.u.u.u.:.-.! D K ! %.D q 4 q k k D D D A A A A A A A F F F F F F F F e 0 r I ^ Y Y Y ( ^ ^ ^ I I I I F F E E F F F F F F A A D D D e D k q 5 k K ~ ! ! ! F F ! q.e.e.j.a.a.E.&X6., O Q %.&.;.;.-.&.&.K w.p.,.w.,.,.,.q.q.w.y.i.i.q.#.:.y.<.#.<.y.3.y.+.H ;.3.-.#.:.i.u.u.y.u.y.y.p.y.i.q.i.w.K +.;.Q %.%.&.*.g O + 0.~.U.y.y.t.y.y.3.3.;.O.G J c n B f 2 O . @ @ X X O O O O X X X X X X @ @ @ @ @ @ X X X X X X X X X @ @ @   . t u ",
"W W F F D D D D D F F D D D D D k k h 5 4 4 h J Q ! ! K H #.w.a.y.y.y.u.d.W.f.g O c *.-.-.-.-.;.s.d.,.<.K -.,.p.y.w.w.y.a.w.<.$.:.:.w.:.w.:.:.,.,.-.-.,.#.K $.q.u.u.y.y.y.w.<.#.#.-.y.d.y.#.+.-.&.J O.3 . + 6.!.N.i.u.i.q.a.d.,.O.J z c n x s > # 1 3 g y y y y y y y y y + O a y y y y y y y y y y y y y y y y y y y y y y y y y y y y y t a . . * s y y y y y s 3 3 1 > , s x c %.O.z J -.:.:.:.y.y.y.d.W.8.3 + v *.&.&.+.&.;.g.g.y.#.#.#.,.a.w.w.w.w.y.:.$.$.<.<.w.:.p.,.#.,.3.;.;.3.$.@.$.t.u.u.y.y.y.y.<.-.-.<.y.d.i.<.#.K %.%.%.c . , 6.~.U.p.y.y.a.u.u.a.<.K K K %.Q k q < q k K D D D D D D D D F F F E W W W W ^ ^ ^ W r 0 e W P P l.{ l.^ ^ ^ I I I W ^ ^ ^ ^ ^ W W W F F F D D D D D E E k 0 < 0 D &.! -.! F K -.e.a.p.a.a.a.d.!.f.6 O v &.-.<.#.+.;.g.d.,.-.-.<.,.y.w.w.y.y.i.q.<.#.:.y.y.<.y.<.;.3.,.-.-.,.#.H $.q.u.u.y.y.y.w.<.#.#.-.w.d.y.#.+.-.&.c %.3 . + 6.!.N.i.u.i.i.i.s.p.*.O.z h =.n s * % O O @ . . X X X X O O @ @ X X @ @ @ @ @ @ @ @ X X X X X X X X X X X X   . t u ",
"W W F F E E E E F F F F D D D k D D k k h 5 4 4 k K ! K K K -.w.p.y.y.y.y.V.R.f., + k J ;.K -.s.d.,.+.H L L H <.p.y.w.w.y.w.:.#.#.#.:.w.-.#.K K ;.7.3.<.#.#.<.q.y.y.y.y.w.<.#.K L L +.,.g.y.#.-.;.O.g O 8 H.T.d.y.y.u.u.i.y.;.J z z c B 2 , # # 7 7 8 3 y y y y y y y y y O O a y y y y y y y y y y y y y y y y y y y y y y y y y y y y y t a O . * s y y y y y 8 8 a 8 8 2 , > 8 z c c c J +.:.y.y.y.y.y.N.T.8.+ O c *.K K >.p.d.,.K K L L -.,.w.w.w.w.y.t.<.#.#.-.,.p.-.K +.@.:.7.y.:.;.#.$.y.y.y.y.y.w.<.#.H L K #.w.j.y.<.-.;.*.j + 8 8.~.N.a.y.y.y.y.a.w.<.-.! K Q E q < , k k k h D D D D D D D D F F E E W W W W ^ ^ ^ W r r e W ( l.l.l.l.l.( ^ ^ W W ^ W ^ ^ ^ ^ W W W W F F F A A D D E Q k 0 < < < < D ! ! F F ! <.w.r.r.a.a.y.U.R.f.+ + Q >.-.#.<.p.g.:.K K L H +.<.y.w.w.y.y.w.:.#.#.-.,.3.<.-.+.#.;.3.3.<.#.#.:.t.y.y.y.y.w.<.#.K L L +.,.g.y.#.-.;.%.s O 8 H.T.d.i.u.u.u.d.y.;.O.c c O.%.s 2 # + 2 $ . O . . X X X @ @ X @ @ X X @ @ @ @ @ @ @ @ @ X X X X X X X X X X X   . t u ",
"W W F F E E E E F F F F D D D D D D k k J k q 4 4 h D K ! K K #.,.y.u.y.w.w.g.~.8.> + g *.&.,.g.,.-.;.,.p.&.L K ,.y.y.w.w.y.y.-.+.K L K H +.-.+.K H H K #.-.q.w.w.w.y.y.<.#.K -.3.3.;.+.s.g.-.+.*.g + 3 J.&Xd.y.q.t.u.u.y.-.c k g %.c 3 + + % 7 a a 2 2 y y i y y y y y y O O a a y y y y y y y y y y y y y y y y y y y y y u y y y y y y t a . . * s y y y y a 8 7 7 7 s 7 2 # + 2 g z J J J &.3.y.y.y.:.,.N.Q.x.# O g Q %.:.d.3.-.-.7.p.;.K K w.w.w.w.y.y.q.#.K K L K H -.,.+.@.@.@.@.;.$.t.y.y.y.y.y.<.+.K -.,.,.<.#.a.i.:.#.>.j + 3 f.&XU.w.y.y.y.y.w.,.<.K H &.Q q < 8 w j k k D D D D D D F F F F F W W W W W W W ^ ^ ^ W r r A ^ { l.o.o.l.l.^ ^ ^ ^ ^ ^ I W ^ ^ W W W W ^ W E F E A A A E v k q q q 0 0 q D F W ! ! ! <.w.a.a.a.y.y.U.W.H., + k &.-.y.d.p.;.-.3.7.;.K H w.w.w.y.w.y.w.<.-.@.L @.+.-.;.+.O.H H @.#.$.q.y.w.w.y.y.<.#.K -.3.3.<.+.s.d.-.+.*.j + 3 J.&Xd.y.t.t.u.u.y.;.J j c %.z > + + % 2 a + . . O O . . @ X O O @ @ @ @ @ @ @ @ @ @ @ @ @ @ @ @ @ @ @ @ @ X X X   . t u ",
"W W F F E E E F F F F F D D D D D D k k k k D k 4 4 q k ! ! K H -.w.u.y.i.w.w.d.!.H.6 + k %.<.,.:.H K ;.,.>.-.+.-.,.y.y.w.y.y.-.#.+.+.+.&.&.+.+.-.+.+.-.#.<.y.w.w.y.y.3.-.K -.7.f.-.H <.;.3.&.*.h + > f.&XV.y.t.q.q.w.y.-.J j c =.s > # 1 2 a f 1 2 t a a y y y y y y a 2 O O t a y y y y y y y y y y y y y y y y y y y y y y y y y y y y t a O O * s y y y y y a a a 7 2 7 s s , + > s n O.c J +.<.y.y.y.q.y.g.~.x.3 + c *.,.y.-.K K ;.7.;.+.H w.w.y.w.y.d.y.#.-.-.-.;.K -.K +.-.+.+.$.;.:.y.y.y.y.,.y.-.K -.7.p.-.H -.y.:.<.-.c O , 8.&XV.:.w.y.y.y.p.,.K K K %.g 3 8 j j j v e k k k D D D D F F F F F F F F W Y ^ ^ ^ ^ ^ ^ r r S Y { l.[.OX[.l.{ ( ( ( ( ( Y I Y I I I I I W W E I I E E E E Q k q , 9 0 w q < q ! -.! K K <.e.a.a.a.e.p.g.R.f., + k K <.y.,.-.+.+.p.,.-.K :.w.y.w.q.y.y.<.;.;.+.&.+.-.-.O.-.+.+.#.#.<.y.y.w.y.y.3.-.K -.7.f.-.H <.;.7.&.*.j + > 8.&Xd.y.t.q.t.u.y.-.J z x B 3 + # 2 7 a a a # . . O O . . X X O O @ @ @ @ @ @ @ @ @ @ @ @ @ @ @ @ @ @ @ @ @ @ @ @   . t u ",
"^ ^ W W W W W W F F F F D D D D D D D D D D D D L q < 4 k Q K F K K w.w.a.a.u.a.V.R.x.> > k ! :.p.<.-.<.,.:.<.+.#.y.y.:.w.y.y.,.#.K K K +.-.-.+.-.+.:.$.;.:.i.y.p.3.3.3.#.#.#.&.7.-.;.p.p.&.*.j + > f.&Xd.y.y.y.y.3.<.O.O.J c c s * 1 y g y y s y y y y t t y y g s s f $ $ @ $ 2 u d d y y y y m u 2 y u y 7 7 a y y y y y u y y y y y s t t * O * t d y y y y y y y y a s s s 3 2 # + s n J z z @.:.i.i.i.t.i.d.&XI.+ + k K ;.p.,.-.#.3.-.@.+.;.y.y.y.y.y.y.-.+.+.K K -.+.+.&.-.+.;.#.;.:.y.y.d.,.,.p.#.-.-.-.3.;.<.y.y.;.%.k + > 8.R.g.y.w.y.a.w.w.-.K K *.>.g g g k c k k D k k k A A A F F W ^ F F F ^ ( ( ( ^ ^ ^ ( ( ( ( r r U R _ o.%X7X;X[._ Y ( ^ / / ^ ^ ^ ^ ^ ^ ^ ( ^ W W W W W E E E k 0 9 0 0 0 0 8 8 6 5 D ! ! F K <.w.a.d.u.w.d.d.!.I.< + v ! <.y.p.#.<.,.-.H #.-.w.y.y.y.y.w.<.@.+.+.+.-.+.+.-.-.+.;.#.;.:.a.y.p.3.3.3.#.#.#.&.7.-.;.p.y.&.*.j + > f.&Xd.y.y.i.y.y.:.@.z j c c s + O % t t t a * @ . . . . . . @ @ @ @ @ @ @ @ @ @ @ @ O X X X @ @ @ @ @ @ @ . @ @ @ @   . & * ",
"^ ^ ^ W W W W W E F W W D E E E D D D D k k k k D k 0 6 , j Q K H ! K ,.p.a.u.u.a.d.T.8., > J %.-.y.s.s.<.+.K K <.y.y.:.w.w.y.w.#.+.+.+.-.K +.;.;.+.;.$.;.4.y.3.3.,.3.3.#.#.#.&.;.s.g.3.H &.c > > 9.&XN.y.t.y.y.3.,.&.G J J c 3 O $ 2 y i y y s s s s s y y y a 3 3 2 7 O @ @ @ t s d d s s s g d y 3 a d s a 7 a a a y y y y s y y y s t * $ O O $ % 2 u y y y t t t t y y s y 2 2 2 % + s n z h G &.:.i.i.u.t.t.V.T.9.+ + J %.,.p.g.s.+.H @.#.<.y.y.:.:.y.y.<.#.+.+.+.-.+.+.-.-.+.-.#.-.y.y.y.y.,.3.y.#.#.-.-.,.s.d.:.H ;.c > > 7.!.g.y.w.p.p.e.a.-.K K Q Q c 2 3 s c c k k D k k e e D F W W ^ ^ W W W ^ ^ ( ( ( ( ( / ^ I S S S U S _ %X7X>X5X[._ { / / { { ^ ^ ^ ^ Y Y Y Y ^ W W W W E W E e w 8 6 6 6 6 6 6 6 3 3 < k ! &.F K <.w.a.u.u.u.u.g.Q.x., + v Q ,.d.s.p.-.H +.-.<.y.y.q.w.y.y.:.#.+.+.+.-.+.+.-.-.+.-.#.-.:.y.3.3.,.3.3.#.#.#.&.;.s.g.3.H &.c > > 9.&XN.y.t.y.y.y.,.#.G h z x a + 2 s a t t t a @ . . . . . . . @ @ @ X X X @ @ @ @ @ @ @ @ X X X @ . . @ @ @ . X @ @ O   . @ & ",
"F F F I E E E E A A A A r r r r e e e e e e e k k q 8 8 , > q Q K ! D <.w.y.a.a.w.y.d.!.>.> , k D K H L K K #.#.<.y.y.:.,.y.y.y.-.-.-.-.H -.-.+.;.;.+.$.$.y.y.y.-.:.3.3.#.#.#.-.G J J G &.%.2 + >.&XE.q.i.t.q.4.;.&.J z J c 3 + % a f t a s s a t t t t * * * % % % # # . . . . O O O + % % % % + # , # * - - # # # * * * * * * 2 2 2 * $ O . . . . O O % 1 1 1 t t t t t a a a a a = * + O 1 c z z J +.4.i.u.i.q.y.d.W.*.+ > c k J O.H L @.-.-.,.y.y.<.<.y.y.:.-.-.-.-.H -.-.H ;.;.+.@.#.y.3.y.-.:.3.3.#.#.-.-.H G G H %.J > + >.!.Y.y.w.y.y.p.w.-.-.K ! J q , , , 6 j k k D k v v k e e A E E A A A A A F E W I I I I Y I S S U U S S .X7X7X,X$X_ S Y ^ ( / / / / / / Y Y Y Y I E E E A e A e w 0 6 6 6 6 6 6 9 9 9 9 , , w Q ! F K <.w.a.a.u.u.w.d.!.1.> + j J H +.K H &.-.-.,.y.y.:.:.y.y.w.-.-.-.-.@.;.;.@.;.;.+.@.#.y.y.y.-.:.3.3.#.#.#.-.G J J G &.%.2 + >.&XE.q.i.t.q.y.:.#.J G c x t + O * a = @ @ @ @ . . . . . . . . X . X . . . . . X X @ X X X X X X X X X . . . . . . . .     . . ",
"S S S S S r r r r r r r 0 6 6 6 6 6 6 6 6 6 6 6 6 9 < < , , , < J J K K <.w.p.a.u.a.w.U.R.! O 8 *.J H &.+.+.#.#.:.y.y.:.:.w.y.y.<.-.-.-.-.K K #.#.:.#.;.$.y.3.y.K <.p.,.#.#.#.-.%.O.J J %.3 O j W.U.:.t.i.t.q.:.O.z z J c 3 + O O O $ $ O $ & O O O O O . . . O . . . . . . . . . O O O . . . O + < r 0 + + + + + O O . . . . . O O O . . . . . . . . . . O O O O O O O O @ @ X O O O . O O O a c z h z +.4.i.i.t.i.q.C.W.%.O 8 *.J z G +.;.<.#.y.y.y.<.#.y.y.y.-.<.-.-.-.H H -.;.<.K @.#.y.:.y.K <.y.3.#.#.#.-.O.J J O.%.3 O z R.E.y.u.y.y.p.p.-.K K ! %.j , + , , , 9 < 0 0 < 6 6 < < 0 0 0 r r r r r r r A A S S S S S S S U U U S S %X7X,X:X] S S S U U U S I Y Y I S S S S S e r r r 0 0 0 0 6 6 6 6 6 6 6 6 9 9 9 8 + > q Q ! F K -.y.a.y.u.u.q.U.!.Q . 8 *.D &.&.+.-.-.#.y.y.w.<.<.w.i.w.-.-.-.-.;.+.+.;.;.<.K @.#.y.3.y.K <.p.,.#.#.#.-.%.O.J J %.3 O j W.U.:.t.u.t.t.3.@.G G J c y + O O . . . . . . . . . O . O O O . . . . . . . . . X X X X . . . . X . . . O O O . . . . . . . .   ",
"S S S S U U U E E A r r 0 0 6 0 0 0 0 0 6 6 6 6 9 8 9 < 6 8 6 8 q Q &.K K <.,.y.u.u.u.w.E.P.j O j >.Q *.&.-.#.#.:.y.w.:.H :.a.y.-.<.:.s.s.<.+.:.d.y.:.;.3.3.3.;.@.;.p.,.,.-.+.-.&.*.*.%.g O 8 T.Y.d.u.t.u.t.:.H J O.c J 3 + + + O . . $ . . O @ & & & & $ $ $ $ $ $ O O O X X @ $ O O + + 2 O > @X4X8X4X*XS S @X=Xc.r , a a % + + + O $ @ @ @ @ @ X @ @ O + + + + + $ $ O . . .   . . . O O O O 7 x z z O.;.:.y.u.u.u.u.&XL.s O g *.%.&.&.#.#.#.y.y.y.;.H :.y.y.#.<.<.s.s.-.-.,.d.y.:.<.;.y.y.,.@.<.p.3.:.#.#.-.&.%.*.*.c O 8 P.T.d.w.w.u.y.,.;.H k J %.h 4 > 3 , , < < w q r r r 0 0 0 6 0 0 0 r r S A r r r r U U I I U U U I S I S R $X7X7X$XR R R U U U U U U S S S S S U Y I I I I I U U S A A A e e e r r r r r q q q 0 < 5 ! -.! K <.w.a.y.u.u.y.E.T.f O k %.%.*.&.-.#.#.y.y.w.<.H <.y.y.+.;.;.s.p.;.-.:.d.y.:.-.,.,.3.;.@.;.p.,.,.-.+.-.&.*.*.%.g O 8 T.Y.d.u.t.u.u.:.H G O.z c g + + 2 1 1 2 2 2 2 2 2 2 2 1 1 1 1 1 * % & & & % % % & . . X X . . . @ @ # # # $ $ $ $ O O O O O O O . ",
"( / ( / ( ( ( ( ( W A r 0 0 0 0 e e e e E E E v Q j k k w w j j < q J &.F K <.w.u.u.u.u.y.W.x.+ O c =.%.&.-.-.#.w.w.w.:.H $.w.p.<.+.-.+.,.3.-.y.y.#.#.$.s.s.3.@.@.;.p.3.,.-.+.-.#.&.*.c O + 8.~.s.y.i.u.i.q.+.G J c %.g + > s 2 t % @ . . . . $ & & & & & & & % $ * * * $ & & & $ % * > + < < c.8X:X%X:X8X$X4X7X7X8X=Xr g d s y y t t t a ; ; ; ; ; ; - t t t y y y t t % & @ .   . . O + + $ $ # 7 x c z G -.y.y.u.t.u.y.W.8.# O z =.*.&.#.#.#.y.y.y.;.L #.y.d.<.+.-.K ,.,.<.p.:.$.#.#.p.d.;.+.@.<.p.3.:.#.+.-.#.+.%.%.> + x.T.f.p.y.y.y.,.;.Q k ! %.j < 4 q q j j k k k A A A E E E E r r 0 0 r S S S F F I U U U I Y Y Y Y Y Y Y Y R XX9X7X}.R R R Y I I U Y U S S U R R Y T / / / / ^ ^ ^ Y W W W E F F A A D D D D e D q 0 5 k ! ! ! K <.w.y.u.u.y.p.!.x.+ O k =.%.&.-.#.#.y.y.w.<.L $.y.a.;.+.#.@.3.3.-.p.y.#.#.#.p.p.3.@.@.;.p.3.,.-.+.-.#.&.*.c O + 8.~.s.y.i.i.i.q.+.z c z c 3 > > s 3 y y y y y y y y y y y y y y y y a a a a t t t a X . . . O # * 7 2 2 2 2 2 2 2 2 2 2 2 2 t 2 2 2 ",
"/ / / / / / / ( ( ( W S r r r r E E E E E E E E k k D q k k k k 3 4 q Q ! F K <.e.e.e.u.:.g.P.=.O + v *.&.-.-.#.w.y.w.<.H K <.y.N.:.;.,.3.,.+.3.y.:.:.y.d.3.#.J @.;.p.,.,.;.+.-.#.#.&.4 + J ~.N.y.y.y.y.:.+.G h O.z j > + s s 2 s t & . . . @ & % % % % % % % % 1 1 1 1 % % % % % + + > 4 4 S =X%X%X%X%X:X>X>X>X>X7X8X} 5 s l i i y y a a a a a a a a a y y y y i i y y t * % O . . $ + * * % % @ @ 7 x l z J ;.y.u.u.y.:.g.U.0.O + %.=.&.&.#.#.y.y.y.;.H @.<.p.d.,.:.:.3.,.-.,.y.:.<.,.s.p.+.L @.;.p.3.:.+.#.;.$.#.O.4 O *.~.J.,.y.p.p.,.;.Q Q c Q k < < k k q q h k D D A F F ^ ^ W W S r r r S S S S Y I Y Y I U Y Y Y Y R R R R R _ XX9X>X_ R Y R R Y Y R R U U Y T } } / T / / / / / / / Y ^ ^ ^ W W I F F F F F D W e e k r 5 q K ! ! K <.y.y.y.y.:.g.T.>.O + c %.%.&.#.#.y.y.w.<.H H <.y.d.,.,.,.p.3.+.,.y.<.<.y.d.3.#.J @.;.p.,.,.;.+.-.#.#.&.4 + J ~.N.y.y.i.i.y.+.G z v j s + 4 g g 1 y y y y y y y y y y s y y y y y s s s s y y y s * @ O . % 2 a s s s s s y y y y y y y y y y u u ",
"[ [ [ / / / / / / ( ^ I S e e S A D A A F E D E D k k k k k k k k 3 4 q K ! K K e.e.y.y.y.w.V.T.j O 6 v %.+.#.#.y.y.w.<.#.K K -.p.N.s.p.,.+.@.#.y.y.p.s.3.;.L O.@.;.p.,.,.;.#.-.#.#.J + g T.T.y.3.y.y.p.-.J c z z j + + s 3 1 s y y * @ . . $ & % % % % % % % % 1 1 1 1 % % * # > 4 ) +X=X=X$X4X%X%X:X:X:X>X:X>X>X>X7X] 4 4 5 5 3 3 y y y t t t t t t t y y y y y y y y s t % O . . + # # # + $ @ O + 7 c c z G y.y.y.y.y.<.N.Q.x + s %.&.&.#.#.y.y.y.;.-.@.#.<.,.N.g.s.,.H K +.y.d.d.d.p.;.L +.O.;.p.3.:.#.#.;.#.#.z + 5 W.E.p.,.y.p.d.;.! Q Q Q q < 3 j k j k k D D F F A P A W W F I I U r r S S S U Y Y I I U Y Y Y Y Y Y R R R _ _ $X9X:Xo._ T ` T T T T T R R R } } } T T / / / / / / / Y ^ ^ Y I I I F F F F F F D D D e Q 5 < q D ! ! K p.y.y.y.p.,.U.T.j + , Q %.&.#.#.y.y.w.<.#.H K <.3.N.g.s.:.+.+.<.y.y.y.s.3.;.L O.@.;.p.,.,.;.#.-.#.#.J + g T.T.y.3.y.y.s.-.J c z x f + + g g 3 3 y 3 y y y y y y y y y y y s s y y y y y y y y y a $ . . 2 2 y s s g g g y y y y 3 3 3 3 y y y 3 ",
"[ [ [ [ / / / / / / ( ^ A r S I ^ ^ W F F F F D D D D D k k k k k q 5 5 h ! J K K w.a.e.w.q.u.U.T.+ O j %.;.#.<.y.y.:.K #.#.H H H ;.;.@.O.;.;.+.+.-.;.-.H L ;.+.@.@.y.t.y.<.#.@.;.h O + J.!.d.w.,.3.,.&.O.J c c j > + y 3 3 3 y s t t . . $ % % % % % % % % % % 1 1 * * $ O # O S #X4X8X7X7X7X7X>X>X7X7X7X7X7X>X>X>X:XXXz._ 0 4 < < 3 1 y s s a y y y y y y y y y y y y y a % O . @ % * # # + + # + + + % x B c H :.y.a.y.3.p.U.T.+ O c >.H #.#.y.y.<.#.-.#.H L H ;.;.H O.-.-.+.#.-.<.:.H L ;.#.O.O.y.y.y.:.#.;.,.J . # H.W.d.q.d.a.y.<.K K ! &.k < < j k k k k D D D A F F P P ^ ^ ( ^ ( I S r I I I Y Y Y Y R T T T T T T T R R _ o.l.0X9X:Xo.' _ ` T _ _ _ _ R R T } } } [ [ { { / / ( ( ( ^ ^ ^ ^ ^ ^ ^ ^ ^ F F F W D D D D k k w < j 1.K F F w.d.e.w.y.d.E.T.+ O j >.&.#.<.w.y.:.$.#.<.&.h O.;.;.+.O.-.-.@.+.;.;.;.H L ;.&.H K y.w.w.<.#.K >.h O + J.!.d.y.y.,.,.-.G k c c f $ 2 y y y y y y y y y y y y y y y y s s s y y y y y y y y y y t # . O t y y y y y y y s s s y y y u u u u u u ",
"[ [ [ [ / / / / / / / ( U r S ^ ^ ^ ^ F F F F F D D D D k k k k k k q 5 4 h %.J H -.w.y.u.q.q.a.W.*.+ < J ;.#.:.y.y.:.#.#.+.K K J H H J +.&.&.+.+.H H K K +.K +.+.@.t.t.t.<.#.O.*.> O B Q.U.u.q.y.2.&.J J J c g 1 > 3 3 3 3 3 y s t t . . $ % % % % % % % % % % * * % * $ + + S =X7X7X7X7X7X7X7X>X7X7X7X7X7X7X>X>X:X:X>X7X4X#XR 0 < q y s s a 3 y y y y y y y y y y y y y a % O . @ % * + # + + + + + + O a v n L @.,.p.y.y.y.N.W.*.O 2 %.&.K <.y.y.<.#.-.&.+.O.J L L J +.&.-.+.+.H L H +.+.+.+.&.O.3.y.y.:.#.&.*., O B Q.U.u.q.a.d.,.H K K ! K 5 4 q j k k k k D D D A F F P P ^ ^ ( ^ ( I S r I I I Y Y Y R R T T T T T T T T _ _ _ [.,X<X:Xo.o._ ` [ _ _ _ _ R R T } | } } [ { { { { / ( / ( ( ( ^ ^ ^ ^ ^ ^ F F F F D D D D k k w , 9 k Q ! D -.w.p.u.u.u.d.W.*.+ , %.&.-.:.y.w.<.#.#.+.&.&.H J J H +.+.+.+.+.H L H +.&.+.+.+.K q.w.q.<.#.K *.> O v T.U.u.q.y.7.;.G z c z g & O d y y y y y y y y y y y y y y y y y y s y y y y y y y y y y y 1 . O t y y y y y s y a y y y y y y y u u u u ",
"[ [ [ [ [ [ [ [ / / / ( U r S Y ^ ^ Y F F F E W D D D D D k k k k k k q 4 4 J J H F -.y.a.w.q.w.E.T.s O 8 %.#.q.y.y.:.#.-.-.K O.;.@.@.;.&.+.+.+.;.K K K +.;.K -.;.@.:.i.w.<.+.O.j O 8 P.E.i.q.q.y.;.O.J c c g 1 > 3 3 3 3 3 3 y s t t . . $ % % % % % % % % % % % % % % & + < @X8X7X7X7X7X7X7X7X7X7X7X>X7X>X>X>X>X>X>X:X5X7X8X=XR 0 q s s y 3 3 3 y y y y y y y 3 y 3 3 y a % O . @ % * + + + + % % + + O # a B G H +.3.p.y.y.y.E.T.s O g %.@.q.y.y.<.#.;.-.&.O.-.O.O.-.&.+.+.&.-.#.+.+.+.;.+.;.;.+.:.y.y.,.-.%.j O s ^.R.a.u.w.a.w.#.L K K K q 4 q j q k k k k D D D A F F P P ^ ^ ( ^ ( I S r U I I Y Y R R R T T T T [ [ [ [ _ ' o.$X<X<X7X}.o.o._ _ ` ` ` [ R R T | | | | | { { { { { / / / ( ( ^ ^ Y Y Y ^ F F F F D D D D D D w < , q k ! ! F -.p.d.a.a.y.R.T.j O j Q -.w.a.w.:.#.-.-.;.*.-.O.O.-.+.+.+.+.;.+.+.+.&.;.K ;.<.K :.y.w.<.+.Q j O 6 P.E.i.q.q.y.>.%.z O.c g , . & d u y y y y y y y y y y y y y y y y y y y y y y y y y y y y y 1 . O a y y y a a s s s s s s y y y s y y y y ",
"[ [ [ [ } } } } [ / / / U r S Y ^ Y Y F F F E E D D D D D k k k k k k k q 4 4 &.K L K ,.d.y.w.w.y.&Xx.+ + %.#.w.y.y.:.#.<.-.&.O.;.&.&.;.;.O.O.;.H -.-.-.K &.;.>.;.#.:.y.y.;.%.%.O O 9.!.d.q.u.q.,.%.J J c g 1 + 1 s y 3 3 3 3 y s t t . . $ % % % % % % % % % % % % & * * + ` 4X7X7X7X7X>X>X>X6X7X7X7X,X,X,X,X,X>X>X:X%X>X>X6X8X+XS 8 2 3 3 3 3 y y y y y y y y 3 3 3 3 y a % O . @ % * + + + + % + + + # O # x z J @.&.p.y.y.y.y.!.x.O # z ;.q.y.y.<.#.;.;.&.&.-.+.+.-.-.+.O.-.#.+.+.+.@.#.;.,.>.-.:.y.,.>.*.%.O O x.!.j.u.j.u.y.+.K +.&.! D 4 3 k k q k k k k D D A A F F P P ^ ^ ^ ^ ^ I S r U U I Y R R R R T T T T [ [ [ ` ' _ .X,X<X<X<X$Xo.o._ ' ' ` } [ R R _ | | | | | { { { [ [ { / / / / ( ^ Y Y Y Y F F F F D D D D D D w < , q < D ! D F ,.d.d.a.e.y.&Xx.+ , c -.y.i.w.<.<.<.,.>.H &.+.+.&.-.O.O.-.O.-.;.-.K -.;.,.:.#.:.w.,.<.%.Q O O 9.!.d.q.u.q.,.O.J O.%.z , O O & a u y y y y y y y y y y y y y y y y y y y y y y y y y y y y y 1 . O a y y y a a a a 1 1 1 1 1 1 1 1 y y t t ",
"| | | | | | | } } / / / U S S ^ / / ^ ^ ^ W W W D K K K D D D D k k q q k q > q ! K L -.w.p.p.a.y.d.^.B . 8 ;.y.y.w.:.#.-.,.,.&.+.+.#.#.&.+.+.&.&.&.&.&.&.;.3.,.@.#.y.y.y.2.=.1 O B W.&Xq.u.i.y.+.O.O.%.n y > 2 y s y y y y y y s t t . . $ % % % % % % % % % % * * * * $ > z.7X7X7X7X:X>X>X>X>X7X7X>X,X,X,X,X,X>X>X%X%X%X%X6X8X4XY q a 3 3 3 3 y y y y y y y y y y y y y y 2 O . @ % * # # + + % % # + % O O 1 c c J J 3.s.y.y.y.N.^.x . 3 -.y.y.:.#.@.+.,.2.&.-.-.-.-.-.&.&.&.#.#.#.#.-.;.p.3.+.-.,.3.p.>.%.s O c ~.Y.w.i.q.a.<.K K K %.h < 4 j j q k k k k k D D D F F F F S ^ ^ ^ ^ / Y U S U I Y Y R R R ` ` ` ` ` | | | ' _ [.:X<X<X<X<X,X[.o.o.| ' ' | | _ R _ | | | | | | { [ [ [ [ / / / / / ( ^ Y Y Y W ! ! ! F D E E D D j 9 < w 4 q Q ! F ! 3.p.y.a.:.V.~.v + 6 ;.w.y.w.<.#.<.3.7.;.&.&.&.&.+.+.+.+.&.&.-.&.&.>.,.,.K #.w.y.y.,.=., O Q W.&Xq.u.i.y.;.J J O.n 1 + % . O 2 1 y y y y y y y y y y y y y s s y y y y y i i y y i i i y 1 t O O 1 s s 2 8 f f % l c %.*.%.%.%.%.y # 2 s ",
"| | | | | | | | } [ / / U S S Y / / Y Y I W W W D K K K D D D D k k q q k h h > h K K K <.p.p.y.y.p.P.8.# , J ,.w.w.:.<.-.>.,.;.;.+.+.#.+.+.*.*.&.&.&.-.&.;.,.,.-.<.y.y.2.>.x O > J.R.j.t.i.i.:.O.O.O.n s # 1 a s y y y y y y y s t t . . $ % % % % % % % % % * * * * * % + @X7X7X7X>X,X>X>X>X>X7X7X:X:X:X:X7X7X>X:X%X%X%X%X5X6X4X| 4 s 3 3 3 3 y y y y y y y y y y y y y y 2 O . @ % * # # + + % % # # O % % + y c O.J ;.3.y.y.:.y.T.8.+ > G ,.y.y.,.:.-.;.>.;.-.-.-.-.&.&.&.&.#.#.#.#.+.-.,.,.+.;.y.p.;.>.c O , H.R.i.w.i.w.w.#.K K K h < < q j j k k k k k k D D D F W W I I ( ( ^ ^ T Y U S U Y Y R R R T ` ` ' ' ' | | | ' ' .X,X<X<X<X<X<X0X[.o.o.o.' | | ` _ ' ' | | | | | { { [ [ [ / / / / / / ^ ^ Y Y W ! ! ! F D E E D D w 9 < w q 4 k ! ! D :.,.p.p.w.d.T.9.+ + K y.w.w.w.<.<.:.,.>.&.&.&.&.+.+.+.+.&.&.-.-.-.;.>.,.-.<.w.w.,.>.j O > J.R.j.t.i.i.:.O.c O.n s # + * . O t t y y y y y y y y y y y y y y y s y y y y i y y y i i i y 2 a O O a s y 1 + # # 7 M.M.M.M.B.B.B.J.M.c > 1 ",
"| | | | | | | | } } / T U U U Y T / Y Y Y I I W E D D K D D D D k k k k k k k < 4 h J K K :.p.w.w.,.J.~.B O 5 ;.w.i.a.a.g.3.;.&.;.;.;.#.*.*.*.;.&.&.&.&.K ;.,.s.p.d.d.y.>.*.> O *.&Xj.i.y.y.q.#.O.c n x # # 2 s y y y y y y y y s t t . . $ % % % % % % % % % * - % * * & + @X7X7X>X>X:X,X>X>X>X>X7X:X4X3XxXcXxX4X:X%X%X%X%X>X6X4X| < s 3 3 3 3 y y y y y y y y y y y y y y 2 O . X % * # # + + % % % # O % % + + l %.O.G ;.y.4.,.,.N.!.v O < ;.y.d.d.d.g.3.;.&.-.-.-.-.&.&.&.-.#.#.#.#.@.-.,.s.d.N.s.3.>.%.# O >.R.j.y.w.y.y.#.K H K J < < q j q k k k k k k k D D F F W W Y Y ^ ^ ^ Y T Y U S U Y R R R T T ` ' ' ' ' ' ' ' ' o..X>X,X<X<X2X1X<X$X[.[.o.o.o.| ' ' ' ] X.X.X.X.| | | { [ } } / / / / / / Y Y Y ^ ^ W W F D E E D E e 9 9 k k 5 5 k ! D ! >.p.d.y.y.J.~.v O g >.y.y.a.d.g.,.;.;.&.&.&.&.+.+.+.+.&.&.&.&.&.-.,.s.p.d.d.y.>.*., O *.&Xj.i.y.y.q.#.J c n g # # 2 2 . & u y y y y y y y y y y y y y y y y y y y y y i i y y y y i y a a O . 2 + s 0.H.%.+ 3 3.:.;.;.<.<.;.;.6.v > g ",
"X.X.X.X.| | | | } } } T U U U R T / Y Y I I I W E D F F D D D D D D k k D k 5 h < < h D k &.,.w.,.y.p.W.H.+ + J K #.,.,.,.-.&.>.;.*.*.*.*.*.*.*.&.&.&.&.&.&.H ;.3.y.,.O.*.z . s E.C.i.i.y.y.<.@.J c c 3 # * 2 s y y y y y y y y s t t . . @ % % % % % % % % % * % % 1 1 & + |.7X7X>X,X,X>X>X>X>X6X8X4X3XzXlXPXxX3X3X$X%X%X%X:X5X4XR 5 y 3 3 3 3 y y y y y y y y y y y y s t 2 . . @ % * + + + + % % % # % O O % + a c c h @.:.4.p.y.,.W.H.+ + J J +.;.2.,.&.%.;.&.-.-.-.&.&.-.&.&.#.#.#.#.;.@.;.3.3.3.-.O.c O s W.C.i.q.,.,.y.L H J Q j , q j q h k k k k k k k D D D D W W W I ^ ^ Y Y T Y U S U Y R R T T T ` ' ' ' ' ' ' ' ' o.] $X,X<X<X2X<X<X<X.X[.[.o.o.| ' ' ' ] X.X.X.X.| | | | } } } } / / / / T T Y Y ^ ^ ^ W F E D E D E e 9 8 v < k > q Q Q k &.7.d.p.y.p.~.I.+ > c K -.<.,.:.+.K ;.&.&.&.&.+.+.+.+.&.&.&.&.-.O.H &.y.y.,.O.*.j . g E.C.u.i.y.3.<.O.J n n 1 + 2 s 2 . @ u y y y y y y y y y y y y y y y y y y y y y y i y y y i i y s s O O + =.J.L.L.L.x 1 $.$.:.:.<.<.<.<.*.q 4 H.",
"X.X.X.X.| | | | | } ` T U U U U T / / ( ^ ^ ^ W F F F F D D D D D D D D k k k k 8 + w k Q J <.y.y.y.y.J.^.B O 7 %.O.H H H O.O.&.*.*.*.*.*.*.*.*.&.&.&.&.&.&.&.+.O.O.O.O.%.+ + 6.&Xj.t.q.y.3.+.z z z x # 1 a 3 y y y 3 3 y y y y y u &   . X % % % % % % % % % % $ $ 1 1 % + _ :X7X>X>X:X>X>X>X:X3X3XxXPXAXvXFXlXAXAXzX3X$X%X:X6X+X5 4 l g g g g l i i i i i i y y y y y a a * O . O @ % % % % & $ * $ $ $ $ + + # O a n O.G +.:.y.y.y.N.~.v O 8 O.J J G %.%.%.%.&.&.&.&.*.*.*.*.#.$.$.#.+.+.+.+.+.O.O.O.=.> O 0.R.j.u.a.p.,.K L k c c > 8 g g g k D D D D D D D D E E E W W W W ^ ^ Y ( / Y U S R Y R R T _ _ ` ' ' ' ' ' ] ] ] ] ] .X:X,X<X2X1X1X1X7X.X[.[.[.| ' ' ' ' X.X.X.X.X.| | | | } } } [ [ T / T T Y Y ^ ^ W W E F D D E E w # 9 j k k 8 > w Q =.J &.p.a.e.y.g.~.v O 2 %.K H L +.O.&.+.*.*.*.*.*.*.*.*.*.*.*.&.&.+.+.+.O.H H J %.> + 6.&Xj.t.q.y.2.O.h c c x > 1 s s % . @ * a s i i i y y y y 3 3 3 2 u s y y y y y a y y y y s s y s s 3 . 4 N.E.3.p.3.3.=.+ @.$.;.;.<.$.-.-.*.> h f.",
"X.X.X.X.| | | | | ` } R U U U U / / / / ^ ^ ^ W W ^ F F F F D D D D D D k k k e q < 9 v v c &.<.y.y.y.s.T.8.O @ v O.%.*.*.*.*.*.%.%.%.%.%.%.%.%.%.%.%.%.%.%.%.%.O.%.%.B 3 O s P.C.j.t.w.3.;.O.z z z 1 , y s i i y y y y y y y y s t & .   . $ % # + + + + + + + $ $ 1 > > 5  X6X>X>X>X7X7X7X7X8X3XIXDXvXkXvXGXjXZXFXLXxX3X4X4X$XF 1 y y y 2 y y y y y y y y y y y y y a 7 2 @ . . O O # % % % % $ * $ % $ $ + + # + + x B c O.;.t.y.y.s.T.8.O O B %.%.=.=.%.%.%.%.&.&.&.%.%.%.%.O.O.O.O.O.O.O.O.O.O.n n s O 8 I.V.i.u.a.y.<.H H k c 3 , g j j h D H F F F F F D E E E W W W W W ^ ( Y ( Y Y U U R R R T _ _ _ ' ' ' ' ' ] ] ] ] ] [.[.$X,X,X<X2X1X<X<X,X.X[.[.X.] ' ' ] ] X.X.X.X.| | | | ` ` } [ [ / / / / / ( Y Y I F F A A e E v w 9 # 9 j k 8 9 < v v c K :.u.u.e.d.T.8.O O %.%.*.*.*.*.*.*.%.%.%.%.%.%.%.%.%.%.%.%.%.%.O.O.%.%.J J 3 O s P.C.j.u.w.3.;.O.z B x , + a s y % . . % * y y y y i i i i y y y y y y y y y y a a a y y y y y y y 8 + z N.N.:.y.4.y.3.=.> z $.:.;.<.$.-.-.J > H s.",
"X.X.X.X.| | | | | ` T R U U U U / / / / ^ ^ W W F F F F D D D D k k k q k k k k q 6 + j v J K -.w.y.y.y.J.~.x O + + , 2 , , 1 7 + @ @ @ O O O O O O O O O O O O O O O O O O 6.!.d.t.i.y.:.+.J c c g + 1 t s g 3 y y y y y y y y t * . .   . @ & @ @ # # # # # # $ $ * > 4 X.4X6X>X>X7X7X7X6X4X3XIXlXhXpXpXkXDXhXfXkXAXPXxX3X+XU > t d a s a a s u y y y y y y y y y y a t % O . O O O + $ $ % % * * $ * $ $ + + % $ O a B c J O.:.y.y.y.N.!.j O + # = 7 # # # # + + + + + + + + + + + + O O O O O O O O O + 6.~.d.u.y.a.,.K L ! c k > 3 j j g j k L D D D D D D E W W W W ^ ^ ^ ^ ^ ^ ( Y U U U R R R T _ _ ' ' ' ' ' ' ] ] ] ] [.[..XXX$X,X<X1X2X1X<X<X:X[.o.] ] ' ' ] ] X.X.X.X.X.| | | | ` } [ T / / / ( ( Y ( ^ ^ W W E D D e w 9 9 # # 9 j k q , j v v Q &.w.a.e.e.g.!.j O # , 2 6 # # # # O O O O O O O O O O O O O O O O O O O O + + 6.!.d.t.i.y.:.+.J n g s O 7 t t + $ . . @ & a a y y y y y y y u u y t t y y y y a a a a y y 3 2 2 2 # s 9.d.:.d.4.:.3.y.2.i i &.:.$.$.$.<.;.z 4 <.y.",
"X.X.X.X.X.| | | ' ` R R R U U U Y Y Y Y ^ ^ I E A A A A e e e w q q 0 < < 8 8 8 5 , + < c J H H <.y.y.y.s.!.H.c 3 2 , + + + + > + O O O O O O O O O O O O O O O O O O + + %.T.U.y.t.y.3.+.O.J c n # O a * % t # y y y y y y y a $ O . . . . . @ @ $ $ $ $ $ $ & + $ + > 5 #X8X6X>X>X7X7X>X:X3XzXkXfXyXfXpXhXBXhXuXtXdXlXFXzXv O + @ & % % * * * 2 2 2 2 t t t t y y a a 1 + O . O O O O $ & % % $ $ % $ $ $ $ # * O @ O f B c G ;.t.y.y.y.W.J.z , # + + + + + + O O O O + O + + O O O O O O O O O O O + O %.~.J.y.y.a.w.<.H L ! c , , 8 8 8 8 8 5 q q q q q 0 0 e A A A W ^ ^ ^ ^ ^ ^ ( U U Y Y R R R _ _ ' ' ' ' ' ' ] ] ] ] ] [.[.$X%X.X,X<X1X1X1X2X<X<X$X[.[.] ' ] ] ] ..X.X.X.X.| | | | ` } R R R Y Y I I U U S S A A e r r 0 , , 9 # # , 6 q q 8 < c J J K <.u.u.e.y.R.J.k 3 , > > + + + + O O O O O O O O O O O O O O O O O O O + > %.T.U.y.t.y.3.+.O.O.c f # O % + O . O . . . . $ $ + + 2 2 2 2 2 t t 2 2 2 2 2 a a a a a a a a 1 1 1 1 O x 2.3.y.i.:.d.3.y.y.p > %.2.#.<.$.<.;.5 4 y.y.",
"' ' ' ' ' ' ' ' _ _ R R R R Y U S S S S r r r r r r 0 0 0 < < < 9 9 9 9 , , , , > > + + q J *.J G 3.p.a.d.d.T.&XT.Y.Y.T.T.T.W.W.U.P.P.P.P.P.T.P.J.J.J.J.L.J.J.J.J.J.J.J.J.!.T.s.y.i.y.<.G J c x 1 . . @   . . O O $ $ $ O O O O O O @ @ X X @ @ O O O O O O O O + * + O R 4X8X6X:X:X7X>X>X%X3XsXyXpXpXpXpXkXjXpXfXfXsXsXnXZX'.  . . . @ @ O . . . . . . . . . O O O O O . . . . . . . . . O O O . . . . . . . . . . . . % x %.h L 4.j.t.y.d.U.~.T.T.T.T.T.T.T.T.J.J.J.J.J.J.J.J.J.J.J.J.J.J.J.L.J.J.J.J.M.~.W.s.p.p.y.:.K L H *.s + + + # # # , , , , , , < 6 6 6 6 0 0 r r S S S S S U U U U R R R R R _ _ _ ' ' ' ' ' ] ] ] [.[.[.,X,X[.$X<X1X1X2X2X2X1X<XXX[.] ] ] ] ] ] ] ] | | ' ` _ _ T R U U U U S r r r r r r 0 r 0 0 0 6 6 9 9 9 , , , , , # , 5 K ! K H w.u.u.d.d.U.&XU.U.Y.Y.Y.Y.E.T.J.J.J.J.J.J.J.J.J.J.J.J.J.J.J.J.J.J.J.J.N.!.R.s.y.y.y.;.z J c x a . O O O O O O . . . . O O O O O O O O O O + O @ @ . . . . O @ O O O O . . O O # 4 O.3.d.y.y.p.y.y.y.>., s *.:.;.#.#.H > G y.i.",
"] ] ] ] ] X.X.X.| | ' ` } } / T R R Y Y U U U S S A r r q 0 < < , , 9 9 6 6 6 9 < < < < 3 j %.J J K y.y.y.y.s.s.V.V.V.j.C.V.C.C.U.U.U.U.U.U.U.U.E.E.E.E.R.R.E.E.E.E.E.E.N.V.s.y.y.y.:.#.z J c g O O . .   . @ & * * * 2 * * * * 2 2 a a a a a a 2 2 2 2 % % % 2 % 2 * + R 4X4X:X%X:X7X>X:X=XdXpXpXpXpXpXpXpXhXpXpXpXpXyXpXnXhXN X & & & @ O . . . . @ @ & & & & % % % % # # @ @ % % % % % % % % O O O O . . . . . . . . O f z c J @.p.i.i.i.d.d.j.j.j.j.C.C.C.V.U.U.U.U.U.U.U.U.R.R.R.R.W.W.W.W.R.R.R.R.Y.U.s.y.y.,.,.;.J H J J , # 7 9 9 9 8 8 8 q q 0 6 6 6 6 6 0 e e E E I I ^ ^ ( ( ) ) } } ` ` ' ' | X.] ] ] ] ] ] ] ] [.[.[.%X<X<XXX.X<X1X1X2X2X2X2X<X,X.X}.}.}.}.] ] ] ....X.| | | | ` } R U U U U U U U U S S e r r q q w w w w 8 q 8 < 8 8 8 8 < k K K F K w.u.u.u.a.a.j.j.j.j.C.C.C.V.U.U.U.U.U.U.U.U.E.E.E.E.E.E.E.E.E.E.E.E.N.V.s.y.y.y.:.&.z c c x + + % + * * * % % $ % % % % % % t a a a 2 2 2 * . . . . . . & * # # # # 2 # O x %.> > G s.p.y.t.y.a.y.,.3 2 O.%.*.%.O.J 4 %.y.d.",
"z.z.z.z.........X.X.| | | } } } } } } } / ( ^ ^ W W E D k r 0 < < 6 0 w j j j q q q q q < 8 Q J J h ;.3.y.y.y.y.y.y.w.w.q.q.q.y.y.w.w.w.w.w.w.w.w.w.w.w.y.y.w.w.y.y.y.y.y.:.3.y.q.:.#.L J O.z a # % $ . . O $ 2 y y y y y y y y y y s d t t t t s s s s s s s y y y y > R 4X:X:X%X%X,X,X%X3XdXaXaXpXpXpXpXpXkXfXpXpXyXyXaXhXvXS.X & % * $ @ O O O O + % 2 2 2 2 t y y y a a a a a a a a t t t t a a a a 2 2 2 * . . . . O 3 j O.O.H <.i.a.u.y.y.y.y.y.y.y.y.y.y.w.w.w.w.w.w.w.w.y.y.y.y.y.y.y.y.y.y.y.y.y.,.<.,.y.;.K K J J c g > 3 g j q j k h h k k k q 0 0 0 0 r E W W W ^ / / ) / / / ) } ` | | | X.X.......z.z.}.}. X}.[.[.XX<X<X<X0X.X,X1X1X2X2X1X1X<X<XXX}.}.}.|.}.|.|.[.[.......X.X.|  .} T Y U U U U I ( ^ ^ W ^ ! W W D D E v k k k h q w w j , q K ! K L -.w.u.u.y.y.w.q.w.w.t.t.t.t.q.w.w.q.w.w.w.e.w.w.w.w.u.u.u.u.y.y.y.y.y.:.3.y.,.:.#.G c n c 3 + y a 2 s s s s a t a s a a a s s s s u s s s s + . . . . @ * a a y y y 3 + B P.Q.9.i > z ,.t.t.u.i.y.;.g # s j z j g 8 > %.,.y.",
"z.z.z.z.........X.X.| | | } } [ [ [ [ [ T T ^ Y ( ^ W W D e q < q e k Q k k k k q q q j 8 , k Q Q J L ,.p.y.y.y.y.y.y.y.q.q.q.y.w.w.w.e.y.y.y.y.u.u.u.u.u.u.u.u.u.u.i.y.y.y.y.s.<.-.H z O.B j # 2 y 2 O . O 2 y y y i i y y y y s y y y y y t t y y y y y y y y i i y 4 r =X5X%X%X%X%X:X$X-XsXyXpXpXpXpXpXkXjXfXpXyXpXyXpXaXkX/.. O $ $ & O O O O + 1 y s s s s y y y y y y y y y y y y s s s s y y y s s s s s O . . . O O g c J *.H t.i.i.y.q.i.i.i.i.y.y.y.w.w.w.w.w.w.w.w.w.w.y.y.y.y.y.y.y.y.y.y.y.:.y.p.y.7.&.H J J Q k > 5 h h h q h h h h k k k e r 0 0 0 e W ( I ^ ^ / / / / / ) } } } | | X.X.X.......|.|.|.|.|. X.XXX<X<X2X1X9XXX0X1X1X2X2X2X2X1X<XXX}.}.}.}.}.[.[.[.[.....X.X.X.| |  .} R Y U I Y / / / ^ ^ ^ ^ W F F D D D D D D k q q q j 8 < h ! Q F H :.i.i.y.y.y.y.y.y.y.t.t.q.u.u.u.u.u.u.u.u.u.u.u.u.u.u.u.u.u.u.y.y.y.y.y.d.<.-.J h O.%.g + 2 s 2 s s s s s y y s s s s s s y y y y s s s s 2 O . . @ * a a y y y i < g P.B.s.T.9.g + z y.i.t.t.;.c j + , < , , > + O x %.O.",
"|.|.|.|.z.z.z.z.......X.X.| | } | | [ [ [ / / / / ^ ^ W W F e 0 q D Q D k k k k q q k h j 4 3 J J H L #.:.y.a.d.y.y.y.y.y.y.y.y.w.w.w.w.u.u.y.y.w.w.w.w.y.y.u.u.y.y.u.u.i.y.y.,.H J c c c B a O 2 7 2 O O 2 s i y y i i y y y y y y y y y y y y y y y y y y y y i y d 3 > c.4X%X%X%X:X%X=X3XdXpXpXpXkXbXpXrXqXtXhXjXhXuXpXuXyX).; $ % $ $ $ O O O # a a a y y y y y y y y y y y u u u y y y y y y y y u u y y y a $ O O # O # z J H H H -.:.y.y.y.y.y.y.y.y.y.y.u.u.u.u.y.y.y.y.y.y.y.y.u.y.u.u.y.y.y.y.y.y.y.y.H J J J k Q 8 > q h h h h h j h k D D D D e 0 6 e A ^ ^ ( ( / / / / / / } } ` ' | X.X.......[.[.|.|.|.|.|..XXX,X<X<X1X1X<X,X,X1X1X2X2X2X2X1X<X$X.X X X X X|.|.|.[.[.......X.X.X.| | } R R / ) / / ( ^ ^ ^ ^ F F F F D D D D D k k k k k g , 3 J J K K H <.:.a.d.y.y.y.y.y.i.i.u.a.a.a.a.e.e.e.e.u.u.e.u.u.u.u.u.u.u.y.u.i.i.y.3.H J J c z B s + 3 3 3 y y y y y y s s s y y y y y i i i y y y y s * . . 1 3 a a 2 i i 3 + 6.7.3.y.y.3.2.O.4 G H #.@.n d @ 9 6 r U r 0 v O & x v ",
"|.|.|.|.z.z.z.z.........X.| | ' | | [ [ [ [ / T / ^ ^ ^ F F e 6 q D Q D k k k k q q k h j 3 < j J K K K H +.-.<.,.,.,.,.,.w.w.w.w.w.w.w.w.w.w.w.y.y.y.y.y.y.y.y.y.y.w.w.<.-.$.@.J c c c c x 2 + 2 7 2 O O * s i y y y y y y y y y y y y y y y y y y y y y y y y y y u s 1 r #X:X%X:X7X6X3XdXdXhXkXhXtXeXA.Z.Z.S.D.rXyXpXpXpXpXiX; $ % $ $ $ O O O # a a a y y y y y y y y y y y u u u u y y y y y y y y y y y y a + O O + O + 8 J J J J J O.&.>.3.y.y.y.y.y.3.3.w.,.w.w.w.w.w.w.w.w.w.w.w.y.y.y.w.w.,.,.-.-.-.-.J J J J k k 6 , h h h h h h h h k D D D D e 0 6 e F ^ ^ ( / / / T T T [ } ` ' ' | X.X.......[.[.}.}.|.|. X.X>X<X<X1X1X1X1X1X2X1X1X2X2X2X1X<X<X0X.X X X X X|.|.|.[.[.......X.X.X.| X.` R R T } / / ( ^ ^ ^ ^ F F F F F D A A A k k k k k j 3 3 j H K K K H +.-.:.3.3.3.3.y.y.y.w.,.,.,.,.w.w.w.w.w.w.w.w.y.y.y.y.y.y.y.y.<.;.#.#.H J c c z x 2 + 3 3 3 3 y y y y y y s s y y y y y y i i y y y y s * . . 2 y y s g g y > i 9.3.y.u.u.y.y.7.J i h O.g 1 # b x.-X=X3X3X=X&X0.a O 8 ",
"|.|.|.|.z.z.z.z.........X.X.| ' | | [ [ [ T / / / ^ ^ ^ F F e 6 q D Q D k k k k q q q h q 8 3 3 J K J J k G J H H H H H D D K K +.+.+.+.+.+.+.+.O.O.O.O.O.O.O.O.H H H H H H L L G J c c c 8 + , 7 a 7 + O 2 i i y y y y y y y y y y y y y y y y y y y y y y y y y s y y 1 O r $X:X7X7X4X3XzXsXhXtX).(.(.rXkXjXhXeX(./.).yXfXhXtX; O $ + $ $ O O O # a 8 8 3 3 y y y y y y y y y u u u u y y y y y y y y y y y y a O O O + O O # c J J c J J J O.J H H H H H H H O.O.O.O.+.+.+.+.J H H H J J J J J J J J J J J J J J J J c q , 8 j h h h q k k k D D D D D e 0 6 A F ^ ^ ( / / / T [ [ } | | | | X.X.........[.|.[.}.|.|.|..X:X<X<X1X1X2X2X2X1X2X2X2X2X2X1X<X<X:X.X X X X|.|.|.|.[.[.......X.| | | X.` R R T [ / / ( ^ ^ ^ ^ F F F F F F A A e k k k k k q q 3 8 J J J H J J J O.J J O.J J J J J K K K K &.-.&.&.@.O.O.O.O.O.O.O.O.O.O.J H H L G G J J c z 3 > 2 7 7 8 3 y y i i y s s s y y y y y y y y y y y y s * . . 2 y s s g g y + +.d.q.j.t.t.u.y.p.p.J , a O < =.b v.4X6X8X;X4X3X~ b v > ",
"|.|.|.|.z.z.z.z.........X.X.| ' | | [ [ [ T / / / ^ ^ ^ F F e 6 q D Q D k k k k q q q j 8 j 8 , j Q Q J z c c c c c J J D D J J c c c c J J c c c c c c c c O.O.J J J J J J J c c J c c z , + 7 7 s a + O 1 i i i y y y y y y y y y y y y y y y y y y y y s y y d d y y t O + R 6X7X7X%X=XzXgXyXpXhXvXBXDXBXMXDXDXnXbXfXuXyXkXsX; O $ + $ $ O O O # a a 8 3 3 y y y y y y y y y y u u u y y y y y y y y y y y y 7 O O O O # O O c c c c c c c c c J J J J J J c c c c c c c c c c c c c c c c c c c c c c J J J J J J J J 8 > 8 g g j j q k k k D D D D D e 0 6 A F ^ ^ ^ ^ / / / [ [ } | } | | | X.........[.|.[.}.|.|. X.XXX,X<X1X1X2X2X2X1X2X2X2X2X2X1X<X<X%X.X X X X X|.|.|.|.[.......X.| | | X.` R R T [ / / ( ^ ^ ^ ^ F F F F F D A A e k k k k k q j q < c c J c c c c c J J J O.c c c c c c c c c c c c n n n n n n n n O.O.O.O.%.O.J c c J c c k > + a 7 7 7 8 y y y y y s s s y y y y y y y y y y y y s * . . t y s a 2 s a 2 3.t.t.q.t.t.u.y.,.,.7.3 = 8 c.3Xv.r  X8X;X6X4X_ U 3X=X/ ",
" X X X|.|.|.|.|.[.[.....X.X.| | | | | { [ [ / / / ^ ^ ^ ^ E e 6 k k k k k k k q q < > , , , + O s s s g g g 8 8 j j j j 8 8 8 s s s s s a a a a f f f s s s s s 7 2 , > > > , , 4 4 4 , , + # 7 a * 7 O . a s y y y y y y y y y y y y y s y y y y y y y y y y y d d y y a O . R 7X7X>X%XzXIXVXnXBXBXnXjXiX_.(.).sXkXmXDXNXBXBXlXG.O $ O % $ O O O % a a y y y y y y y y y y y y y y y y y y y y y y y y 3 s s 3 + . . O . O O . 7 7 7 7 s s s s g g g j g g g g s f s f f f f f s s s f s s s s s 8 2 , > > 4 4 4 4 4 < , , < 8 8 8 6 3 j k k h D D D D D e 0 6 A F ^ ^ / / / / [ [ } } | | | | | X.X.......[.|.|.|.}. X.X.XXX$X<X<X1X2X2X1X1X1X1X2X2X1X2X<X,XXX.X X X X X X|.|.|.|.|.......X.X.| X.` R R } } [ / / / ( ^ ^ ^ ^ W F F D D E E D q q 5 < , , , , g g j j j j g g g g s s s s s s s s s s s s s s s s s s f f f s a 7 2 1 + + + + 4 4 4 , > + # 7 # # % # % s s 2 s s s s y y y y i i y y y y y y y * . @ a y s a 1 a % a 2.y.u.q.i.i.u.u.,.p.*.< < r.8X6X4X+XS *X8X4XX.S =X4X4X;X",
" X X X|.|.|.|.|...[.....X.X.| | | | | { [ [ / / / ^ ^ ^ ^ E e 6 k k k k k D k q 5 k Q k j j 8 8 , , , , , > > > > > , > + + + + + + + + > > > + > > > > + > > > 2 3 s s x x x z c c c z 3 , , # + O # O O % a y s y y y y y y y y y y y s y y y y y y y y y y y d d y y a O O R 7X7X>X%XxXLXDXNXMXkXyXsXhXjXlXjXhXyXsXkXmXDXHXHXdX% % & % & $ O O % a a y y y y y y y y y y y y y y y y y y y y y y y y 3 y y 1 + 8 j s 8 g 8 6 + + + + O O O + > > > > > > > > # # # # + + + + + > > > > > > > 4 3 g z z z c c G G J c j 3 , 3 , 6 6 > > < k k k D D D D e 0 6 A F ^ ^ / / / / T [ [ } | | | | | X.X.......[.|.|.|. X.X.X.X.XXX,X<X1X2X1X1X9X9X1X1X2X1X<X,X$XXX.X X X X X X|.|.|.|.|.z.....X.X.X.X.` R R / } [ / / / ( ^ ^ ^ ^ W F F D D D D k < D ! J k k j q 3 3 3 3 > > > > > > > > > + + + + + + + + + + + # # # # # # # # 2 8 a s x x x z c z c z 3 , > > + + # # O % f f a s s s y y y y i i y y y y y y y * . @ a y s a 2 a % 2 =.2.y.:.y.y.y.y.,.*.g , P 4X5X>X6X8X .U =X#XS *X6X;X6X6X",
" X X X|.|.|.|.|.[.[.....X.| | | | | | { [ [ / / / ^ ^ ^ ^ E r 6 k k k k D D h 5 d.R.&X&XR.!.!.W.R.R.R.R.R.T.U.U.J.J.P.J.J.c.c.J.J.U.J.U.U.U.U.J.J.J.J.J.J.J.J.J.U.U.T.T.T.T.W.W.W.W.W.W.T.T.T.J.U.U.J.M.g + 3 y s s y y y y y y y y y y s y y y y y y y y y y u d d y y t # O ` 7X7X%X%XxXLXZXVXnXBXNXnXsX).(.).sXnXBXmXmXZXHXLX`.. $ % $ % # O O % a a y y 3 3 y y y y y y y y y y y y y y y y y y y y 3 y 2 > >.J.W.P.W.!.W.T.P.T.T.P.T.T.T.T.N.V.V.V.V.V.V.N.J.J.J.J.J.J.J.J.J.J.J.J.J.J.J.U.U.U.U.U.W.W.&X&X&X&X&X&X&XR.T.R.T.T.J.c.k 4 D k D D D D D e 0 6 A E ^ ^ / / / / T [ } } | | | | X.X.......[.|.|.|.}. X X.X X XXXXX<X1X1X9X9XcXcX9X1X2X2X<X,XXX X X X X X X X X|.|.|.|.z.....X.X.| | ` R R / } [ / / / ( ^ ^ ^ ^ W F F D D D e q p.E.&X&X&X!.W.W.R.R.R.R.R.R.R.T.U.J.J.J.J.J.J.J.J.J.J.J.J.J.J.J.J.J.J.J.J.J.J.J.J.J.T.T.W.W.W.W.W.R.R.R.R.R.T.J.Q.T.J.H.l + t 2 a s s s y y y y i i i i y y y y y * . @ a y s a f 7 2 % s c O.J O.&.<.<.;.j + 0 @X;X6X5X6X6X=XU c.Y z.4X5X6X;X5X",
" X X X X|.|.|.|.........X.| X.| | | | [ [ [ / / / ^ ^ ^ ^ E e 6 e D k D Q J q 4 a.j.j.a.a.d.d.d.V.V.V.V.V.V.g.d.d.d.h.h.h.p.p.p.d.a.a.a.a.a.a.a.y.y.p.p.y.y.y.y.p.p.y.y.y.y.a.a.a.a.a.p.y.N.N.d.N.E.C.U.0.1 3 y y s y y y y y y y y y y y s y y y y y y y y y y d d y y 3 + } $X6X7X%X%XxXLXAXNXMXjXfXsXhXjXjXjXsXyXhXjXmXZXHXFX'.& & O % % # O O % a s y y 3 3 y u u u y y y y y y y y y y y y y y y y y 3 1 + >.p.p.,.p.d.a.w.g.g.g.g.N.N.N.g.d.d.d.d.d.d.d.d.a.a.a.a.y.y.y.y.p.p.p.p.a.a.a.a.y.u.y.y.y.i.i.i.i.i.a.a.C.d.g.E.U.V.E.&X,.< k k D D D D E e w 6 A E ^ ^ / / / / / [ [ } | | | | X.X.......[.|.|.}. X}. X X X XXXXX0X<X9X9XcXSXSX9X9X1X1X,X$XXXXX X X X X X X X|.|.|.|.z.....X.X.| X.` R R } } [ / / / ( ^ ^ ^ ^ W E D D D D e 5 a.a.a.a.a.a.a.d.d.d.j.d.d.d.d.d.d.d.d.d.d.d.d.d.p.p.p.p.p.p.p.p.p.p.p.p.p.p.p.p.p.p.y.,.y.y.y.y.d.d.d.d.d.V.V.g.N.V.Y.T.6.> y s s s s s y y y y y i i i i y y y y * . @ a y s a x 2 t + . + 4 4 3 g D K J 6 @ e =X6X;X;X;X;X4X@X6 r =X6X>X>X5X;X",
" X X X X X X|.|.|.[.......X.X.X.| | [ [ [ / / / / ( ( ( W E w 0 e D Q D D D q 5 w.j.a.e.u.u.u.u.u.u.y.y.y.y.y.y.e.w.w.w.w.w.w.w.w.w.w.w.w.w.w.w.w.w.w.w.u.u.y.y.y.y.y.y.y.y.y.y.w.w.w.w.y.y.y.y.y.y.y.3.n O y y y y y y y y y y y y y y y y y y y y y y y y y y s s y 4 4 R =X7X5X>X%X$X3XPXPXNXNXMXmXnXfXqX_.iXkXnXMXmXNXFXHXAXC % % $ % % & . $ * a s a y y y y a a a a y y y y y y y y y y y y y y y y y 1 + -.y.w.q.w.w.w.w.w.w.w.w.w.w.w.w.w.w.w.w.w.w.w.w.w.w.w.w.y.y.y.y.w.w.w.w.e.e.e.e.w.w.w.w.w.w.u.u.u.u.i.i.u.u.u.a.a.p.a.p.;.5 h D D D D D E e 0 0 E ^ ( ^ / / / / [ [ } | | | | X.X.X.......[.|.|.}. X X X X X XXX.X$X<X9XcXSXSXSXSX9X1X<X$XXXXXXX.X.X X X X X|.|.|.|.|.z.....X.X.| | ` R R } } T / / / / ( ^ ^ F W F F D D D e 5 w.a.u.u.a.u.u.u.u.u.u.u.u.y.y.y.y.y.y.w.w.w.w.w.e.e.e.e.e.e.e.e.w.w.y.y.y.y.y.y.y.y.w.w.w.w.w.y.y.u.y.y.y.y.y.y.q.t.i.i.O.+ y l y y y y y y y y y y y y y y y y y O . * y 3 3 2 a , 4 g z z z z 3 3 4 > + @ = ~ 4X;X;X;X;X5X5X=X0 ) 4X6X>X>X>X5X",
" X X X X X X|.|.|.[.......X.X.X.| | } [ [ / / / ( ( ( ( E e r 0 r D E D D D q 5 <.a.a.e.u.u.u.u.u.u.u.u.u.u.y.y.w.w.w.w.w.w.w.w.w.w.w.w.u.u.u.e.u.u.u.u.w.w.w.w.w.w.w.y.y.y.y.y.y.y.u.i.i.i.i.y.y.y.y.3.c O s s y y y y y y y y y y y y y y y y y y y y y y y y s s 3 < S #X8X6X7X>X%X%X=XcXPXVXBXnXkXfXsXhXkXhXuXyXjXVXNXGXHXlX; & % & & % $ . O % a s a y y y a a a a a y y y y y y y y y y y y y y y y y 1 + &.p.p.y.w.w.e.e.w.w.w.w.w.w.w.w.w.w.w.w.w.w.w.w.y.u.u.u.y.y.y.y.w.w.w.w.w.w.w.w.w.w.w.w.e.e.u.u.i.i.i.i.e.u.u.u.y.p.u.p.! 4 h D D D D D e e 0 0 A W ( ^ / / / / [ [ } | | | X.X.X.X.......[.|.|.|. X X X X X XXX.X0X<X9XcXSXKXSXSXcX9X0XXXXXXXXX.X.X X X X X|.|.|.|.|.z.......X.X.| ` R R } } / / / / / ( ^ ^ F W F E D D D k 5 w.j.j.j.a.i.u.u.u.u.u.u.u.u.u.u.u.u.u.w.w.q.q.q.e.e.y.e.w.w.w.w.u.u.u.u.y.y.q.q.u.u.e.u.e.e.u.u.i.i.i.i.i.i.i.i.q.t.t.y.c # y y y s y y y y y y y y y y y y y y s $ . $ y y a s 3 1 J M.g.g.f.f.J.M.9.0.B @ @ x.4X5X5X5X5X5X5X=XE c.4X5X;X>X;X;X",
" X X X X X|.|.|.|.z.......X.X.X.| } } [ } / / / ( ( ( ( E e 0 6 q k E k k D k 5 ! a.a.p.a.a.u.u.y.u.y.y.u.y.y.y.w.w.w.w.w.w.w.w.w.y.y.y.y.y.y.y.y.y.y.y.u.y.y.y.y.y.w.w.y.y.y.y.y.y.y.i.i.i.i.i.p.s.s.s.s $ a s a s s s y y y y y y y y y y y y y y y y y y y y s s 7 6 R 4X7X6X:X%X%XXX$X8XPXNXMXMXNXNXNXNXVXMXBXBXNXVXBXHXDX`.. $ % $ O & @ . . $ 2 a a y y y y y y y y y y y y y y y y i y y y y y y y y 3 + O.3.p.y.y.y.y.y.y.y.y.w.w.w.w.w.w.w.w.w.w.w.w.w.y.y.y.y.y.y.y.y.w.w.w.w.y.y.y.y.y.y.y.y.w.w.y.y.y.y.i.i.u.u.i.i.u.u.u.y.D 4 h k D D D D r r 0 0 e A ^ ^ ( / / / [ [ } | | | | X.X.X.......[.|.|.|. X X X X X X.XXX,X1X9XcXSXKXSXcX9X1X0XXXXXXX$X.X.X X X X X|.|.|.|.|.z.......X.| | T R R T T / / / / / ( ( ^ F E E E E D v k 5 :.a.a.j.a.a.u.u.u.u.u.u.u.y.y.y.y.y.y.y.y.t.t.q.u.y.y.y.y.y.y.y.w.w.w.w.u.y.y.y.y.y.y.y.y.y.y.y.u.u.u.u.y.y.y.y.y.y.y.3.g + a 2 s s s s y y y y y y y y y y y y t @ . . 1 3 a s 3 4 z 3.#.#.#.#.:.,.2.7.8.x ; x.4X4X4X4X4X4X4X3X~ v.8X4X4X4X4X4X",
" X X X X X|.|.|.|.z.....X.X.X. .} } } } } / / / ( ( ( ( A e 0 6 0 e k k k D e 5 ! w.p.p.p.p.p.p.y.y.y.y.y.y.y.y.y.,.,.,.,.,.,.,.y.y.y.y.y.y.y.y.<.<.<.<.<.<.,.,.,.,.,.,.,.,.3.,.,.,.,.,.:.:.:.:.:.:.:.*.2 . * * a a a a s s y y a a t t a a a a s s s a u y y y s s 7 , z.4X8X6X%X%X%X%XXX=XAXNXNXMXMXmXBXmXhXNXVXVXBXVXZXHXmXC . $ % % O O . O . @ # 7 a a y y a a a a y y y y y y u u y y y y y y y y y y 2 + z >.2.2.3.3.y.y.y.y.y.y.,.,.,.,.,.,.,.,.,.,.,.,.,.3.3.3.3.3.3.3.,.,.,.,.,.,.,.,.,.,.,.y.w.w.y.y.,.,.,.,.w.w.w.w.,.,.,.,.q < k j k k k k 0 0 6 0 r A W ( ^ ^ ( / [ [ } } } | | X.X.X.......z.|.|.|. X X X X X.X.X0X<X1X9XcXSXSXSXcX9X1X<X,XXXXXXXXX.X X X X X|.|.|.|.z.z.z...X.X.` ` R S R R Y Y / / / / ( ^ ^ W E E E E v v j < K ,.w.y.p.p.p.p.p.p.p.y.y.y.y.y.y.y.y.y.y.3.3.3.y.y.y.y.3.y.y.y.<.<.<.<.<.<.<.<.y.y.y.y.y.y.y.y.:.:.:.:.<.<.<.<.;.;.-.&.1 O f a a a a a s s s s t t t t t t t a & . . O + # 2 a a 3 h #.<.<.<.<.<.;.-.-.*.x = v ` o.o.] ' _ ' ` w v X.' _ o.o.o.",
".X}.}.}.[.[.] ] ] ] ' ' ' ` ` ` T T R R } / / Y ^ Y I E e r r 6 6 6 0 0 q q < < D ! &.! &.J K K %.! J J J J c c J J Q %.J J J J J O.O.O.O.O.O.J J J J J c c J J J J J J c c c c J J J J J O.O.c c c c c % O . . 2 2 2 2 t t t t * t t t t * * * & & & & & & & $ + + O O ] 8X8X6X%X%X%X%XXX#XdXDXNXNXBXZXNXkXyXkXMXBXBXnXGXFX`.o X @ O & . O . . . . . $ + + + + $ @ @ @ % % % % * * # * * % * * * * * * $ + $ + s c l O.O.O.O.J O.O.O.J J J J J J J %.%.%.%.Q %.O.O.O.O.n n n c c c c c c c J J J J J J J J J J J J J J J Q %.J Q %.;.*.3 , 9 6 6 8 6 6 6 6 6 6 r r r S W ^ ^ / / T R T T T T _ | ' ' ' ] ] ] ] }.}.}.}. X X.XXX<X1X1X1X9XcXSXSX9X9X1X1X1X,X.XXXXX X X X X X}.}.] ] X.X.X.| | ` R R R R S U U U U U S S S A A e A e e w k w 9 , ! ! ! ! -.! ! >.! ! ! ! J J J J O.O.O.O.O.O.O.O.J c c c n n n J J J J J J J J J J J J J J J J J J J J J z J J z z z z x % @ @ O . . O O O O O @ @ @ @ @ @ @ @ @ . . . . O O % * 2 1 i 3.<.:.<.<.<.<.;.;.*.j 7 ~ ..[.[.[.[...[.| w ~ X.] [.[.[.[.",
"}.}.}.[.[.] ] ] ] ] ' ` _ _ T R R R R R U S S S S S S S r r 0 6 6 6 6 6 < < , , q D D k J k q j q 5 < < < < , , > > > > > > > > 1 3 3 3 3 3 3 3 3 < < < 3 3 3 3 3 3 3 3 1 , , , , , , 1 3 g g g g g s s + $ O O O O O O O O O O O . . . . . . . O O O O O O O O + + O O R 4X8X5X%X%X%X%X$X XG.fXnXnXnXnXkXsXyXyXjXnXnXNXBXiXS.:   . . . O O . . . . . . O O O O . . . . . . . . . . . . O O . . . . . . O O . . a s s l g l i 3 3 3 3 2 2 1 1 , , , , , , , , 1 1 1 1 1 1 1 1 1 1 , , , 3 3 3 3 3 3 < 2 < < 3 3 8 3 3 3 3 g k j q j J k , # , , , < , 9 6 6 6 6 0 0 r r S S S U U R R R R R R R _ _ ` ' ' ' ] ] ] [.[.[.}..X.X%X<X1X1X1X9XcXSXSXcX9X9X1X1X<X0X.X.X.X}.}.}.}.[.] ] ] ' ' ' ` ` _ T R R R R U U U U S r r e r r r 0 0 6 6 6 9 , , E D D D k k k h 5 5 q q < < 3 3 2 1 1 1 1 1 1 1 2 2 2 1 2 2 2 1 , , , , 3 3 3 1 3 , , , , , , , 1 1 1 1 1 3 g 3 g s f f O . . . . . . . . . X X                 . . . . . . O $ O + 4 :.<.:.:.:.#.#.#.#.6.3 # x.8X4X4X8X8X4X8X4XE ^.8X4X4X4X4X4X",
" X X X X X|.|.|.] ] ] ' _ T R R R R R R Y U U U I S S S A e e w 0 q 0 0 8 9 , , , < < , , k k Q c c k j j j j j s s s a a a a s l l l l l l l l x j j j g g s s g g g s g s s s x x x x n n l 3 O O O O O # # $ + + + + $ $ $ $ & X . .   . . @ * 2 2 2 2 2 2 2 t 1 1 > S =X4X:X%X%X%X%X$X*X'.D.fXyXuXfXsXyXhXyXuXyXhXnXyXZ.`.C   . * @ @ $ @ @ @ . . . . O O O O . O O O O O O . . O O $ $ $ $ $ % % % t * 2 * O O O O + l c n x x x x g g g g g s s s s s s s x m m m m m m x j j j j g g s s s s s s g g g g c c c c c c k 8 + # < , g 8 j j w j w e r e r r e e S S I I Y Y T T R R R R R R R _ ' ' ] ] ] ] |.}.}.}. X.X.X,X<X2X2X1X1X9XSXSXSXcXcX9X1X1X<XXX.X}.}.[.}.}.] ] ] ] ' ' ' _ _ T ` _ T R Y R Y U U U S S A A e r 0 0 6 < , 9 6 8 < < < > < D Q Q c c c c k k k z g l l l l l l l l l l l x x x x j j j j g g g g g s s 8 g g g g x x x x c c g 2 O O . . O . .   . . . . . . X X X X X X X X X X . . . . . O O O . . + O.#.#.#.#.-.-.-.&.%.s f c.4X5X5X5X6X5X6X4XS v.8X5X5X5X5X5X",
" X X X X X|.|.|.|.z.z.' ` ` T R R R T T Y Y I I I S S S A e r r w w w w w q 8 8 9 6 < > v I.x.8.x.f.8.9.9.9.9.9.6.6.6.6.6.6.6.6.9.9.9.9.9.9.9.9.9.9.9.9.9.9.8.8.8.8.8.8.8.8.8.8.n.n.n.n.n.M.8.6.+ # # # O % % % $ $ $ $ $ $ + $ * & X .   . & * s y s s s s u s a a t > 0 c.4X4X=X X X$X3X3XiXA.D.iXhXfXfXfXuXhXyXuXkXrXS.A.yX(.o & C M & & & & & X X X & % + + + # $ $ O O O O . O % 2 a a a a a a a a s a a a s * a * x 9.M.H.8.n.n.n.6.6.6.6.6.6.9.9.9.9.9.9.9.9.9.9.9.9.9.9.9.9.9.9.8.8.8.8.8.8.8.8.8.8.8.8.8.8.f.8.f.x.f.9., 9 8 8 j j k k k k k D D D F F E W W ^ ( ( / / / T T T T T R T _ ' ' X.z.z.z.|.|.|. X.X.XXX.X0X<X2X2X2X1X9XSXKXKXSXSXcX9X9X9X0X.X}.}.}.}.}.}.z.] ] ] ] ' ' ` ` ` T T T R Y Y U U U U A E A e e r r 0 0 , 6 w k v e 0 6 Q x.J.c.f.f.f.f.7.9.9.8.6.2.2.2.6.6.6.6.9.9.9.9.9.9.9.9.9.6.6.6.9.9.8.8.8.8.8.8.x.x.x.8.8.8.8.8.8.H.8.5.# # # & & @ X X . . . . . . X X X X X X X X X X X X X @ @ @ @ @ # . O g z G G L z k h h g # a c.4X5X5X5X5X;X5X4XY c.4X;X>X;X>X;X",
"XX X X X|. X|.}.|.z.....' _ R T T T T T Y Y Y I I I S S S A e r w w w w q 8 8 9 9 9 < < k *.&.;.*.*.%.O.&.-.-.&.&.&.&.&.&.&.%.&.+.+.+.+.+.+.+.+.%.%.%.%.*.*.*.&.#.#.%.%.%.%.%.O.O.%.*.*.*.*.&.%.+ O O O # # * * * $ $ $ % % $ $ % & X . . % a s y y u a l u 2 t & C '.zXzXxXxXxX'.'.v.3X3XdXfXrXA.].).tXfXyXuXyXuXtX(.Z.A.rXaXuXS.: S.`./.sXlXlXlXsX'.C X & # O $ $ $ $ $ + O O . % a s y y y y y y y y y y y a t a a O l O.*.+.+.+.+.+.+.+.%.%.=.=.*.*.*.*.*.&.*.*.*.*.&.&.&.&.+.+.+.+.&.&.&.&.&.&.%.%.Q %.*.*.%.*.;.;.<.;.;.*.> 6 8 q j k h k D D D D D E F F W ^ ^ ^ ^ ( / / / / [ } } T R R ` | ......z.|.|.|.|. X X.X.X.XXX<X<X2X2X1X9XSXJXJXKXKXSXcX9X9X,X[..X}.}.}.z.z.] ] ] ] ' ' ' ` ` T T R R Y Y Y I U U U e e r w w w w 6 6 0 k k k k w w < k *.&.<.;.;.;.;.;.*.*.*.*.*.*.*.*.+.>.+.+.%.&.%.O.O.O.O.&.&.&.%.%.%.%.%.+.+.%.%.%.%.%.%.O.%.*.*.=.*.*.=.+ $ # % % & & & . . . . O O O O @ @ @ @ @ @ @ X X X X X X . O . . . . s c g s g 3 y s s a * ; c.4X5X5X5X;X;X;X;XY c.4X5X>X>X5X>X",
" X X X X|. X}.}.|.[.....' _ R ` T T T R R Y Y I I I E S S A S r w w w w q 8 8 9 9 9 < < k *.&.;.*.*.&.O.+.+.+.+.O.%.%.%.*.*.*.*.*.*.*.*.&.&.&.&.*.*.*.*.%.%.&.&.#.#.&.*.*.*.*.&.&.%.O.O.J J G h + + + + + + * * $ $ $ $ + + $ $ % & @ . . % y s y y u a y y u M `.AXFXDXFXFXFXFXqXS.'.lXlXsXpXtXrXA.Z.Z.A.(._.(.A.Z.Z.(.rXuXaXpXlXsXA./.fXHXHXHXHXHXFXlXG.  & = % $ $ $ $ + O O . % a y y y y y y y y y y y y y t a a O x n *.+.+.+.+.+.+.+.+.%.%.%.%.%.&.&.&.&.&.&.&.+.*.*.*.*.*.*.*.*.+.+.&.*.&.&.*.*.>.*.*.*.*.&.&.O.H H H J > 8 g j j k k k D D D D D E E A W ^ ^ ^ ^ ( / / / / [ } } T R R ` X.X.......[.[.|.|. X|.|. X XXX9X<X<X<X9XcXSXJXJXKXJXSXcXcX9X0X}..X}.}.}.z.] ] ] ] ] ' ' ` ` T T T T R Y Y I I U E U e e e w w w 0 6 6 q k D k k w w < k ;.&.<.-.;.-.*.*.&.&.%.&.%.%.%.*.*.>.*.+.+.+.+.O.O.O.O.%.%.&.%.O.O.%.+.+.+.&.%.=.=.*.*.%.%.O.O.O.O.n l + + + % % % & & O . . . X X O O @ @ @ @ @ @ @ @ X X X X X X . . # # O O + + + O O + + + O = ; c.4X5X5X5X;X5X5X4XU oX8X5X5X5X6X5X",
" X X X X|. X|.}.|......._ _ _ ` T T T R R Y Y I I I E S S A A e w w w w q 8 8 9 9 9 < < q J J Q J J c c c c c c z z z z j g g g j j g g g g g g l l l l l g g g h h g j l j j j h g i i z g i y + + + $ $ $ $ $ $ $ $ $ % + $ $ % % @ . . % y s y y u a u s d UXFXLXFXLXHXLXFXGXhXZ./.mXvXfXfXpXrXrX)./.S.Z.].Z.A./.).rXuXpXaXkXnXmXS.Z.nXHXHXHXHXHXHXHXAX'.. * % $ $ $ $ + O O . % a y y y y y y y y y y y y y y a a O 7 f c c z z z z z z z z x x x x x x z z z z z z j j j l z z z l l i l l g g l l c z j j j g g i j j j j , 8 j j h h k k D D D D D E A A W ^ ^ ^ ^ ( / / / / [ } } T R R ` X.X.......[.[.|.|.|.|.@Xc.c.#X8X7X7X9X9XcXSXLXLXLXHXLXSXcX8X Xz.}.}.}.z.z.] ] ] ] ' ' ` _ T T T T T R Y Y I I U E U e e e w w w 0 6 6 q k D k j w w , q Q Q %.J J J J J J J c z z x x g x j l x z z z z z z l z z z z l g l l z z l x x x c x l l g i l l l y + + $ $ % % % % O O . . X X X X X X @ X @ @ @ @ @ @ X X X X @ @ @ O > =.8.8.6.%.*.2.8.H.=.# ; I.8X8X8X8X8X8X8X8XI R.8X4X4X4X8X4X",
" X X X|.|.|.|.|.|......._ _ ` ` T T T R R Y Y I I E E S S A A e w w w j 8 8 8 9 9 9 < , > g q j j g 8 8 3 3 3 3 3 2 2 2 2 2 3 3 3 2 2 2 2 2 2 2 t t t t y y y y y y y t 2 3 3 3 3 3 y s l g s y + + $ $ $ $ $ $ $ $ $ $ $ $ $ $ % % @ . . % a s y y u u y t G.AXLXFXLXGXZXZXZXDXlX/./.nXZXvXhXtXyXrXrXrX).).).).).eXrXtXyXyXhXnXZXlXS._.NXZXZXDXFXHXHXHXJXAXC . & $ $ $ $ + O O . % a y y y y y y y y y y y y y y a a O @ 7 s s a a a a a y 3 8 3 2 2 2 2 2 3 3 3 2 2 2 2 2 2 3 y y y y y y y y t a t t 2 y s g 3 s s s j j j j , s j j j h k k L D D D D E A A W ^ ^ ^ ^ ( / / / / [ } } T R R ' X.X.........[.|.|.|.|.S 0 < r r r b b b b b Z N N N N b b b 0 R z.}.}.z.] ] ] ] ] ' ' _ T T T T T T R Y Y I I U E U e e e w w w w 6 6 q k D k j w w , , j j k 8 8 8 8 8 3 5 3 3 2 9 7 7 s 1 a 3 3 3 3 2 2 2 2 y u u u s s s s y y y a s s s s t y s d l d u u + + $ $ % % % % @ O . . X X X X X X @ @ @ @ @ X @ @ X X @ @ @ @ O O x P.T.N.J.T.T.T.L.L.8.# ; ~ @X|.|. X X X|.|.r ~ +X X X|. X|.",
"]  X|.|.|.|.|.|.....X.X.' _ _ ` T T T T R Y Y I I E E S S A A r w j w w 8 8 8 8 8 3 6 6 , 2 , + O # O O O O O O O O . . . . O O O O O . . . O O O . . . O O O . . . O O O O O O + . O % O O O O $ $ $ $ $ % * * * * * * $ $ * * % & @ . . % t y y y s s u m lXFXDXFXZXNXZXZXZXNXmXrX(.VXNXnXvXkXfXpXuXiXtXtXrXiXtXuXuXuXhXjXnXnXZXjX_.uXNXnXZXZXMXZXFXHXLXKXdX. & % % % % $ O O . % a y y y y y y y y y y y y y 3 y 7 7 O O O O . @ O . O O O O O O .       O O O O . . . . . . O O O O O O . . . . . O O O O O + O O # # + + + 2 s j j h h k k L D D D D D A A W W I I Y ^ ( / / / [ [ } T R R ` | X.........[.|.|.|.X.< # = # # @ # # @ @ : : ; : : : & @ @ # r X.z.z.z.] ] ] ] ] ' ` _ _ T T R R R Y I U U U U U e e e w w 0 w 0 6 6 q k D k k w w j < < , , O # + + + + + + O O .   O . O O O O O . O . . O O O . . O O . . . O O $ O O O O $ . $ O O O O O $ $ $ $ $ $ % % @ @ . . @ @ X X X X @ @ @ @ X X @ @ X X . . @ @ O + g f.3.y.y.y.y.y.y.3.9.1 = v _ _ _ _ _ _ _ R w w } _ _ _ o._ ",
"' |.|. X|.|.|.[.......X.' _ _ ` T T T T Y Y Y I I E E S S A A r q w w w 8 8 8 8 8 3 6 6 , 2 , O @ 7 @ 8 0.0.6.9.8.8.V O . 7 0.6.9.5.=.V x x x x m B B V V =.x +   = V 5.5.5.5.5.=.f . $ $ $ $ O + $ $ $ % % * * * * * * $ $ * * % & @ . . % t s y y s s u 5.AXFXFXZXZXNXNXNXNXNXmX(.Z.VXFXmXNXMXMXbXhXyXpXpXhXpXyXyXhXvXmXBXZXNXGXkXZ.).BXMXMXMXZXVXMXFXHXHXIXf @ % % % % $ O O . % a y y y y y y y y y y y y y y y 8 7 = = 2 2 # * O 2 =.6.6.6.9.9.V . . # =.5.9.5.=.V x x x x m B V V B =.x $ . = V F.5.9.9.9.5.a O 7 . O , 3 8 g g j h h k k k L k D D D A A W W I I Y ^ ( / / / [ [ } T R R ` | X.X.........[.|.|.X.# & X X X o o o o X o o o o o o o o o X 0 X.z.z.z.] ] ] ] ' ' ` ` _ T ` T R R Y I U U U U U e e e w w 0 w 0 6 6 q k D k q e e j q 8 8 6 8 # O g 0.6.7.9.x.x.V O . # =.6.9.0.=.B x x x x m B V V B V x $   = V 5.5.5.5.5.0.a . $ @ $ O O $ $ % $ % % % % @ @ . . @ @ @ @ X X @ @ @ @ X X @ @ X X . . O O @ O s 9.3.y.y.y.y.y.y.y.3.g = x.4X4X4X4X4X4X4X3X~ ^.8X4X4X4X4X4X",
"_ |.|.|.|.|.|.|.......X.' _ _ ` _ T T T Y Y Y I I I E S S A A r q w w w 8 8 8 8 8 3 6 6 # 7 # O 7 + 9 H.~.~.W.R.Y.T.I.v O j f.J.J.J.J.H.H.H.H.H.L.L.M.M.9.M.M.6.# B 8.P.9.9.8.8.I.5.O O + + + + + + + + % % * * * * * * $ * * * $ & X . . $ t y y s s s d '.DXHXZXNXZXVXNXNXNXNXnXA.S.mXKXLXFXNXbXBXZXbXfXuXyXuXhXvXMXMXvXZXGXHXHXgXZ.(.NXZXMXMXVXNXMXmXFXKXAXC @ & % % % $ O O . % a y y y y y y y y y y y y y i y s a a a s s s > 4 J.&XW.R.&XC.Y.H.x O x 8.f.J.J.J.J.L.L.L.L.L.L.J.M.9.J.M.6.O B F.H.9.7.p.p.f.9.7 7 . + 3 g 8 g q j h h k k k k k D D D A F W F I I Y ^ ( T / / [ [ } T R R ` | | X.X.X.....[.|.|. .O o o o o o o o o   X X o o X X X o o X 6  .z.] ] ] ] ] ] ' ` _ _ _ T ` T R R Y Y U U U U U e e e w w 0 0 0 6 6 q k D k k k k h k k q q g 8 3 f.&X&X&XW.T.^.I.v . f 8.f.J.J.J.J.L.L.L.L.L.K.H.M.8.J.J.9.# B 8.P.7.7.9.9.F.=.O # * * * * % + + + % % % % @ . . . @ @ @ @ X @ @ @ @ X X X @ @ @ X . O O O @ . 2 6.7.y.y.y.i.u.i.y.3.l = c.4X5X6X6X5X6X5X4XS v.8X5X5X5X5X5X",
"' |.|.[.|.|.|.[.....X.X._ _ T ` _ T T T Y Y Y I I I A A A A A r q q q q 8 8 8 8 8 3 6 6 # 7 # O # , > 8.7.p.a.a.y.y.f.%.+ i ;.#.*.*.;.;.>.>.>.>.*.*.;.;.&.O.&.9.3 c *.O.+.+.%.%.%.=.+ , # # + + + + # + % % * * * * * * $ $ * * % & @ . . $ t y y y s s t `.FXZXVXMXVXZXNXNXNXNXkX/.(.vXKXLXHXGXGXDXMXvXnXkXuXkXnXmXNXDXHXHXHXHXHXsXG.(.nXZXNXNXmXBXVXnXNXFXDXG.& & % % % $ O O . % y y y y y y y y y y y y y y y y y a a s y y 3 3 4 M.y.a.a.i.u.y.N.%.+ j *.O.&.*.;.;.>.>.>.>.&.&.*.*.&.O.;.7.3 v *.&.&.-.-.-.;.2.O # @ # 3 q g q q j h h k k k L L D F F F F W F I I Y ^ ( / / / / [ } T R R ` ' | X.X.........|.|. .+ : : & o o : o o o X X o o X X X X o X 6 } ] ] ] ] ] ' ' ' _ _ _ _ T T T T R Y I I U U U U e e e w w w 0 0 6 6 q k D k k k k k k h g q 3 q 5 g.p.a.d.d.p.7.x.v O f >.O.*.;.;.:.:.:.:.>.*.*.*.*.&.O.;.9.3 c &.O.+.+.+.%.%.5.+ 2 # # # # + + + + % % % & @ . . . @ @ @ @ X X @ @ X X X X @ @ @ X . O O O @ . 1 =.7.3.y.y.i.u.i.y.f.3 * c.4X;X;X;X;X5X;X;XU c.4X>X>X;X>X;X",
"z.|.|.|.|.[.[.....X...| _ R R T T T T Y Y Y Y I F F A A A A e r 0 0 0 q q q q q 3 3 3 8 8 7 # @ # 2 s 7.3.y.y.y.t.t.7.c O c &.#.+.&.&.&.&.&.&.&.+.+.+.+.+.-.-.O.> c &.+.&.&.*.*.*.c + + + + + # + $ $ $ $ $ $ $ * % % % * * * $ $ $ @ . . $ 2 y y y u u % `.DXZXVXVXMXBXBXNXNXBX)._._.hXDXFXHXHXHXHXDXMXNXnXkXmXMXZXFXHXHXHXHXGXDXqX_./.sXNXZXZXBXVXmXMXNXZXZXG.@ $ % % % O % O O % s s y y y y y y y y y y y y y y y y s s u a s 1 > 7.y.y.y.y.q.w.y.J O j &.#.+.+.+.+.+.+.+.+.+.+.+.*.+.;.;.+.+ c &.+.&.&.&.#.-.J # 7 @ . f s g g g g j h h k L L L D D F F D W W W W ^ ^ ^ / / / / / [ / T R [ ' | X.X.........[.[.X.9 . o o o o o o o o o o o o o X @ .   @ r z.z.' ] ] ' ' ` ` ` _ _ T T R T R Y I U U U U e e e r r r w w 6 0 0 < < e E q k k k k g g g g g 3 4 7.y.u.u.y.y.p.2.c O x *.&.+.+.+.+.+.#.#.*.+.+.+.+.+.-.-.%.+ c &.#.+.+.+.&.>.O.* % % + + + % % % % % % % % . . X @ X @ @ @ @ @ X X X @ @ @ @ @ @ @ X X @ @ @ O 1 *.2.2.3.3.3.4.,.,.>.8 = c.4X>X;X;X;X5X5X4XU c.4X>X>X>X>X>X",
"|.|.|.|.|.[.[...X.X.X.| [ T T T T T Y Y Y Y I I F A A A A e e r 0 0 0 q q q q q 3 3 3 3 7 2 # @ # , 3 2.y.y.y.i.t.t.p.c O x &.&.+.+.+.+.+.+.+.+.+.+.+.+.O.-.-.O.> J -.#.&.&.*.*.*.O.+ O + # # @ $ $ $ $ $ $ $ $ * % % * * * * $ * % @ . . $ 2 y y y u u t '.DXZXNXnXmXBXBXBXVXuXZ.Z.Z.A.qXmXZXBXGXHXHXGXMXBXnXMXZXHXHXHXGXZXZXjX_.A.Z.Z.S.hXZXmXBXBXMXNXVXZXAXC @ $ % % % O $ O O $ y y y y y y y y y y y y y y y y y y s s s a a % > 7.y.y.y.y.q.w.y.H O j &.#.#.+.#.+.+.#.#.#.+.+.+.*.+.;.;.+.+ c &.+.&.&.&.&.-.O., # @ . 7 s f g g g j h h h L L L D D D D D D W W W W ^ ^ ^ / / / / / / Y Y T ` | | X...........[.z.~ # . o o o o o o o o o o o o X & . . # / ' ' X.X.| ` ' ` ` ` _ ` T R R R Y I I U U U U e e r r r r w w 6 0 0 < < w k e k k k h g g g g s 3 < 7.y.u.y.y.u.i.y.J O x *.#.+.+.+.+.+.#.#.$.+.+.+.+.+.-.-.%.+ c &.#.+.&.+.+.;.O.2 $ % + + # % % % % $ $ $ & . . X @ X @ @ @ @ @ X X @ @ @ @ @ @ @ X X @ @ @ @ O + l O.O.J z J J J J B 7 ; x.4X>X5X5X5X5X5X4XY c.4X;X>X>X5X>X",
"z.|.|.|.............X.' T R R R T R R Y Y I I I S A A A e e r r 0 0 0 0 8 8 8 8 3 3 3 8 2 , + O # # 3 >.y.y.y.i.t.t.p.c O x &.&.+.+.+.+.+.+.+.+.+.+.+.+.O.-.-.O.> J -.#.&.&.*.*.+.%.1 O + + # # $ * * * * * $ $ $ $ * * * * $ $ * $ @ . . & 2 y y u u a a C lXVXNXBXNXBXVXjXqXZ.S.rXuX).Z.).MXNXBXDXGXHXGXMXvXNXHXHXHXZXZXNXvX/.A.iXyX).Z.A.rXjXVXBXZXBXNXnXgXN @ $ % % & & O O . $ y y y y y y y y y y y y y y y y y y u u u s a % > 7.y.y.w.w.w.y.y.J O j &.#.#.+.+.+.+.+.#.+.+.+.+.*.+.;.;.+.+ c &.+.&.&.&.&.-.*., O O . # s j g g g j j h h k D D D D D D D D W W W W ^ ^ ^ ( / / / / / Y R R [ ` | X.X...........z.c.~ ; : : : : : : : : : ; ; ; : ; - b  . .` | X.| ` ` ` _ ` ` _ T T R R Y U I U U U U U e e r r r r w w 6 0 6 < < 0 w j h k h h g g g g s 3 4 7.y.u.y.y.u.i.y.J O x *.#.+.+.+.+.+.+.$.$.+.+.+.+.+.-.-.%.+ c &.#.+.&.+.+.+.*.2 $ * $ $ % $ $ $ $ $ $ $ $ . . X @ @ @ @ X X X X X X X X X @ @ X X X X @ @ O . O 1 1 3 y s 3 3 6 9 7 = ; x.4X6X6X5X6X6X6X4XY &X8X6X6X6X6X5X",
"}.|.|.............X.| | T R R R R Y Y I I I I I S A A e e r r r 0 0 0 0 8 8 8 8 3 7 7 7 # # @ O @ + 3 >.y.y.y.i.t.t.p.c O x &.&.+.+.+.+.+.+.+.+.+.+.+.+.O.-.-.O.> J -.#.&.&.*.*.O.%.1 O $ + # # $ * * * * * $ $ * * * * * * $ $ * $ O . . & 2 3 a y u a f C (./._.rXrX).(.A.Z.S.hXDXDXDXtXZ.hXMXBXMXDXHXGXMXVXDXHXGXZXMXNXMXtXZ.sXDXDXBXiXZ.Z.A.(.).rX).(././.N X $ $ $ $ * . O . & t y y y y y y y y y y y y y y y y y y u u a a % > 7.y.y.w.w.w.y.y.J O j &.#.#.+.+.+.+.+.+.+.+.+.+.*.+.;.;.+.+ c &.+.&.&.&.&.;.*., O . . + s s s s g j j j h k k k k k k D D E E E W W W W ^ ^ / / / / ( Y U R T ` ' | X.X.X.X.....z.z.c.f Z N N N N N N N N Z Z Z N N f ~ c.| ' ' ' ` ` ` ` _ ` ' ' T R R R Y U U U U U U S e e r r r r w w 6 0 6 < < 6 0 k h h h j g g g g s 3 4 7.y.u.y.y.u.i.y.J O x *.#.+.+.+.+.+.+.$.$.+.+.+.+.+.-.-.%.+ c &.#.+.&.+.+.+.*.t O % $ $ $ $ $ $ $ O O O O . . X @ X @ @ X X X X X X X X X @ @ X X X X @ @ . . O + 3 4 4 4 4 > , # @ @ ; x.=X$X$X$X$X$X$X#XA x.=X#X$X$X$X$X",
"z.z...............X.' _ R R R R T R Y Y I U U U E A A A r 0 0 0 6 6 6 8 8 8 8 8 2 = = = # @ O O . + 4 7.y.y.y.u.t.y.p.J O c *.;.&.&.&.&.&.&.&.&.&.&.&.&.O.&.&.K + c &.+.&.&.&.*.&.*.2 O + + $ @ $ $ $ $ $ $ $ $ $ $ $ $ $ $ $ $ + O O O . O O # a a d a ; G.(.S.Z./.(.N Z.).S.(.jXfXyXjXkXG._.NXVXMXMXZXHXnXkXGXGXMXMXMXBXMX_._.vXfXyXkXkXD.(.).Z.Z.(./.C b._.C ; * * * O O O O . . + 2 y y t t t t t t a a a a a y y y y t t t 7 + + >.y.w.w.w.w.y.y.J + c &.#.#.+.+.+.+.+.+.+.+.+.+.+.+.;.;.O.+ c +.+.+.&.+.+.+.>.8 O @ @ O + 8 8 8 8 j j j j k k e e k k k k E E E E E W ^ ^ ^ ( ( ^ I U S U U R T } | | X.X.z.z.z.z...z.b b Z N N N N N N N N M N N N m ) ' _ _ _ _ ` ` ` ` _ _ T T R R R R U U U U U U S e r r r r r w w w 6 6 < , , < 6 q h z z z g g s g s 3 4 3.y.y.y.y.q.i.y.J O x *.#.+.#.#.#.#.#.$.$.*.*.*.*.O.-.-.O.+ c &.+.+.&.+.+.+.*.t O % % % % & & & & @ @ @ @ . . . . @ @ @ @ @ @ @ @ @ @ @ @ @ X X X & & @ . X O d 9.N.N.N.N.J.J.J.J.x.7 ; b S S S S S S S r 8 9 U S S S S S ",
"] ] ] ' ' ' ' ' ' _ T R R R R U U U U U S S r r r r 0 0 0 0 0 6 9 9 9 9 , , , # + @ @ @ O O O O O + 4 2.y.y.y.u.t.t.p.J O c *.;.&.&.&.&.&.&.&.&.&.&.&.&.O.&.-.O.+ c &.+.&.&.*.*.&.*.2 O O O O O O O O O O O O O O O O O O O O O O O O @ @ O O O O O t . b.gXgXrXrX).).(.A.A.S._.hXtXyXyXfX/.).NXNXNXNXNXDXnXjXGXBXMXNXBXBXBX/.(.kXyXuXuXpX(.Z.(.A./.).`.iXiXsXdX; O & * @ @ @ @ . . . O + + + + % % % % % % % % % * * * + + $ $ $ O + 7.y.w.w.w.w.y.y.J + x &.#.#.+.+.+.+.+.+.+.+.+.+.+.+.;.;.O.+ c +.+.+.+.+.+.&.*.6 O O O O O # # , , 3 3 3 < < < , < < < 6 0 0 0 r r e A S S U I U U S S U U U U R R R _ _ _ ` ' ' ' ' ` ) b ; ; ; ; Z ; ; ; ; ; Z Z Z v ` ] ` _ _ _ ` ` ` ` R R R R R R R U U U U U S S e e r 0 0 0 6 6 6 6 , , , , , , , , 3 3 3 3 , , , , + + > 2.y.y.y.y.t.i.y.J O x *.#.#.#.#.#.#.#.$.$.*.*.*.*.O.-.-.O.+ c &.#.+.+.+.+.+.*.t O O O O O O . . . . . . . . . . . . . . . . . . . . . . . X X X X . . . .   . s 6.4.4.q.t.y.3.y.3.9.B = x.=X=X=X=X=X=X=X=Xv I.3X3X3X3X3X=X",
"] ] ' ' ' ' ' ' _ _ _ R T T R R Y U U U S S r r r r 0 0 0 0 6 6 , , , , , , , # # # # # + > > , + # , 7.y.y.y.u.u.y.p.J O c *.;.&.&.&.&.&.&.-.-.-.&.&.&.@.+.&.O.+ c &.+.&.&.&.&.&.*.2 O O O O O . . . . . . . . O O O O $ @ @ O O O $ $ & O O O O O % . wXLXGXGXNXBXnXkXyXtXD.A.uXkXfXfXiXA.tXZXBXNXNXNXNXjXfXmXVXBXBXVXBXBX).A.yXhXhXyXrXS._.tXhXkXnXZXZXHXHXHXG.@ O @ . . . . . . O O O O O O . . . . . . . . . . . . . . @ & $ O + 7.y.w.w.w.e.u.y.J + x &.#.#.+.+.+.#.#.#.#.+.+.+.+.+.;.;.O.+ c +.+.+.&.+.+.;.*.2 @ @ @ O + O O O + + > > > , , , , , , , , , < 0 r r S S S S U U U U I I U Y Y R R R R R R R R R R ` T ) v   o o o o o o o o o o o = ~ ` ' ` _ _ _ ` ` ` ` R R R R R R U U U U U U S r e r r r r 0 0 6 6 6 6 9 9 , 9 9 , , > > > + + + + + + + > 2.y.i.y.y.q.i.y.J O x *.#.+.+.#.+.#.#.#.#.#.-.*.*.O.-.-.O.+ c &.#.+.+.+.+.+.*.t O O O $ @ O O O O . . . . . . . . . . . . $ $ O O O $ O O . . . . . . . X @ O s >.;.<.:.:.$.;.;.;.%.j # c.4X6X6X6X6X6X6X4XW v.8X5X5X5X6X5X",
"z.z.] ..X.X.X.X.| | ' ` } } [ / ) / / / I I I E A A e e 0 6 6 9 9 9 9 9 6 6 6 8 s s s s 3 g j g 2 2 , 2.3.y.y.u.u.y.p.J O x *.;.&.&.&.&.&.-.-.-.#.#.#.&.@.&.&.O.> c &.+.&.&.&.&.+.*.2 O + + @ @ O . . . . . . O & $ $ $ % % $ $ $ $ $ $ & $ $ $ * * . f lXHXFXMXBXBXjXfXyXfXtXA./.rXyXiXA./.mXmXMXMXVXVXhXjXhXjXjXBXBXBXMXBXjXZ.(.rXuXrXA.A.tXfXyXhXjXNXNXZXGXHXzX- a a * * * * * % % * % 2 * * % % % % $ $ $ $ . . . . @ % * a a # + 2.y.y.w.w.y.y.y.J O x &.#.+.+.+.#.#.#.#.#.+.+.+.+.+.*.*.O.+ c &.+.&.%.&.&.;.&., + # # 2 2 8 6 6 6 s g g g g w 8 q , , 6 9 6 0 r E E E W W W ( ^ Y / / / / } T } } ` ` ` ` ` ` ' ' ` ` T U . o o o o o o o o o o X # ) ' ' ' ` _ _ ` ` ` ` T T T R R R R R U U U U r r r r e e e e r e w w w w w 0 j w 0 8 8 g s s 3 3 9 9 8 , > 2.y.y.y.y.q.y.y.J O v *.&.+.+.+.+.#.#.#.#.#.#.#.&.O.&.&.O.+ c &.+.+.+.+.+.+.*.t O t t a a t t t t t t t t % % % % * * * * t t t t t t t t . . . . O @ & % a 2 y +.#.#.$.$.$.#.#.#.>.3 7 c.5X;X;X;X;X;X;X4XS c.6X>X>X;X>X;X",
"....X.X.X.X.X.X.' ' ' ` } } [ / [ / / / ( ( ^ ^ W W W E E r 6 6 6 q w q k k j j j j j j g g g s s 9 > %.s.i.u.u.t.i.3.g O 7 %.*.%.%.%.K ;.&.&.-.#.#.#.-.;.&.J g > h %.O.&.&.&.&.-.G O # + + $ @ $ & @ . . @ $ & % $ * * * * $ $ $ $ $ & & $ $ $ % $ . G.FXGXNXNXDXnXhXyXhXfXyXiXA.S.S.Z.(.kXDXNXVXBXVXjXkXhXsXyXjXnXBXVXBXZXBXhXA.S.S.Z.A.tXhXhXhXuXhXmXNXBXZXHXAXC - a s s a a a t t t a a a y y y y y y y y a O O O . % 2 t s f 1 + *.y.i.i.i.q.p.p.z O 7 J -.-.-.-.+.-.#.#.-.#.#.#.+.;.*.O.g > h &.%.*.*.*.*.O.g # # s s s s s g g q g g g g g j h k k q , , 6 e E E D F W W ^ ^ Y Y Y Y Y Y T T T T [ ` } } } } | | | | |  .# X : o o o X o o o o . 0  .} ` _ ` ` _ ` _ _ T R R R R R R Y U U U U r r U I W I E E E A D E E e e e k k k h h j j j g s g g s g 3 + &.y.i.i.i.i.d.3.g O s %.O.&.+.+.O.;.-.-.-.#.#.#.-.;.*.J q > h &.+.*.*.*.*.*.h + % y y y t y y y y y y y y y y y y y y y y y y y y y y y y + O O . % 1 2 y s 3 g &.;.<.<.$.:.$.<.-.%., 7 r.6X>X5X6X;X;X;X4XU oX5X5X>X>X>X>X",
"X.X.| X.X.X.X.| ' ' ' ` } [ / / { / / ( ( ^ ^ ^ W W F D W e 6 9 0 q e q k k j j g g g g g g g s s 3 + j 3.y.t.t.:.3.:.g . * n *.*.*.*.*.%.*.*.O.;.;.;.;.z z g < + i z c c c c c J g + O + + $ $ + % $ . . @ $ $ $ $ * * $ * $ $ $ & & & & & $ $ 2 * & dXFXDXMXNXVXkXkXuXhXpXpXfXfXtXfXhXMXDXGXDXBXBXjXhXyXyXyXyXyXkXmXNXMXZXFXDXnXhXfXuXhXkXtXhXyXsXhXjXBXBXNXGXLX'.a t y y y y y y y y y y y y y y y y y y y y * O . O 2 y y s a 1 + z 3.t.t.y.3.3.>.3 . # c %.;.*.*.&.O.&.&.O.;.;.;.;.J c g < + i c c c c c c z 3 O + s s s g g g g g g g g g g h k z k q , , 0 e E E D F W W ^ ^ ^ Y ( Y T T T T T T [ } } } } } | | |  . . .6 @ X o o   X o X     . A [  .T ` ` ` ` ` ` ` T R Y Y Y Y R Y U U U U r r U I W E E E E D D A A A A D D k k k h g j j j g g g g g 3 + h 3.y.y.y.:.y.>.g O 7 c J *.&.&.&.O.;.;.+.-.-.;.;.k z g 3 + 3 z c c J c c z l O % y y y y y y y y y y y y y y y y y y y y y y y y y y y y 2 + . . 1 2 3 y s 1 3 J ;.;.;.<.$.$.-.*.Q + 7 c.4X5X5X6X5X5X5X4XI c.4X5X5X5X5X5X",
"X.X.| | | | | | ' ' ' ` [ [ T / / / ( ( ( ^ ^ ^ W W F D D e 6 , 0 e k k k k j j g g g g g g g g s 8 + 1 *.&.O.O.O.O.J 1 O * g h z c O.*.*.O.O.=.c c c c g j g 3 + 4 y g g g g s g 2 O @ + + $ @ $ % $ . . @ $ $ $ $ $ $ $ $ $ $ & & & & & & $ $ 2 & f lXLXZXMXNXnXfXhXyXfXyXyXhXkXkXMXFXFXHXHXDXBXnXkXuXyXyXyXyXfXuXkXNXNXDXGXGXGXDXBXkXhXhXhXfXyXfXfXhXBXNXNXZXKXgX- * y y y 3 y y y y y y y y y y y y y y y y a O . O s s s s 3 1 + 3 &.+.+.+.O.O.J 2 O # s g z n O.*.*.O.O.*.c c c c j j g 3 + 1 s g g g g g g 2 O # s g g g g g g g g g g g g h k z k q < , q k E D D F W ^ ^ ^ ^ Y ( ( / T T T T T } } { } } } } | | |  . .~ , . & X X X X : o X 9 ~ }  .T ` ` ` ` ` ` ` T Y Y Y Y Y Y Y U U U U r e E W I E W E E D D A A e e k k k k k h g j j j g g g s s 2 + 3 %.O.O.O.O.O.c 2 O # s x z c O.*.*.O.O.=.c c c c g j g 3 + 1 s j g g g g s 2 O = t y y y y y y y y y y y y y y y y y y y y y y y y y y y y $ . O 2 3 y s 7 # > g O.O.O.@.@.@.J J g # 7 x.8X4X4X4X4X4X4X3Xv I.4X4X4X4X4X4X",
"X.| | | | | | ' ' ` ` [ / / / / / / ( ( ^ ^ ^ ^ W W F D D D w , q e k k k k j j g g g g g g g g 3 3 + , l h g g j i 3 O . @ s g g g y y 2 y y 2 s s s s s s 3 1 + + 1 3 3 3 3 2 a @ . * + + @ @ $ % $ . . @ $ $ $ $ $ $ $ $ $ $ & & & & & & % $ % * 5.FXDXNXNXZXjXuXuXuXfXuXyXhXkXkXMXNXHXGXFXFXmXkXhXyXyXyXyXyXyXyXkXjXZXGXGXGXGXBXmXkXkXhXuXfXfXfXyXhXnXVXBXNXHXAXM - s y y y y y y y y y y y y y y y y y y y s O . $ f s s y 3 1 + 3 g h g g x s 3 O . @ a g g s y t y y y t s s s s s s 3 1 + + 1 3 1 1 2 2 y 1 O 7 s g i i g g g g g g g g g h k z k q , , q D E D D F W ^ ^ ^ ^ ^ ( ( / / T T / / [ [ { { } } | |  . . . .1.j * ; & : : : : o = v 1.)  .T ` ` ` ` [ [ [ T Y Y Y Y Y Y Y U U U U r U W W F E W E E D D A A e e k k k k k h g j j j g g g g g 2 + 2 g g g g i 5 3 O O @ 7 s g s y t y y y t f s s s s s 3 > + + 1 s 3 3 3 2 a O & ; a y y y y y y y y y y y y y y y y y y y y y y y y y y y s % . O 2 y s s 2 + + 3 j j h h h h g g 2 % = v ) T T [ / ) / ~ b v ( R [ T } T ",
"| | | | | | | } } [ [ / / / / / ( / ( ^ ^ ^ W W E F D D F D w , 0 k e k j j g g g g g g g g g g 3 s 2 O + + + O O O O O . . O O + + + + . O @ .   . O O % 1 1 + 1 1 1 1 > > > + + O O @ % + & & $ % $ . . $ % % * * * $ $ % % % % % % % % % % $ t . '.FXDXVXBXmXhXhXfXtXyXqXS.kXhXkXnXBXGXGXGXFXkXpXhXhXyXyXyXyXuXfXfXyXvXGXGXFXGXZXvXhXkXuXA.uXsXiXhXkXkXBXBXMXFXDXG.& s s y y y y y y y y y y y y y y y y y y a O . O a a y y 3 s % O + + + O O O . . . . . . + O + + . . @ @   . O O # 1 1 + 3 1 1 1 > > > > > O % f y y i 5 i q 8 8 g g g g j h h h h j , , k D E D D D F F F W W W ( ^ ^ Y Y Y T / [ { { [ } } } }  . . . .~ v M Z Z N N N N N b ~ ) } } T T T T T T R T R Y Y Y Y I U S S I U U r E W W W F F F F A A e e e k k k h h h h g g g g g g g q 3 x 2 + + + O . + + O . . . O O + + + $ . . O @ . . O O # 1 1 + 3 1 1 1 > > > > + O = m a y y y y y y y y y y y y y y y y y y y y y y y y y y y s % . O 1 s y y 1 1 3 4 3 3 3 3 i 5 3 3 3 a s 7 < < < 1 , , , 7 - - 1 4 < 5 < < ",
" .| | | | } } } [ [ / / / / / / / ( ^ ( ^ ^ W F E F D D D D w , 0 k e k j j g g g g g g g g g g x 8 + , 0.0.5.5.%.B v v v B V =.9.9.8.9.V * . . V =.5.5.9.F.I.P.Q.Q.Q.Q.L.L.J.J.H.v   . $ % & & $ % $ . . $ % % $ $ $ $ $ % % % % % % % % % % $ O . S.sXmXBXBXVXhXiX(.A./.Z.Z hXhXkXjXMXFXGXFXZXhXuXyXyXyXyXyXyXyXsXsXyXkXDXGXFXFXBXjXhXhXyXN A.S.A.(.uXhXmXBXBXmXtXC - a s y y y y y y y y y y y y y y y y y y a O . O a a y y s 2 O 7 5.6.0.0.0.=.V v v B B =.9.9.9.9.V * . . V =.0.5.6.F.L.L.Q.T.T.T.L.L.L.L.J.x O 7 y y y 3 g q 8 8 g g g g j h h h h j , , q D D D D D F F F F W W ^ ( ^ Y ^ ^ ^ / { { { { [ [ [ [ | } |  .) b a ; N N N N N N f ~ ) ) ) / / T / / / R / R Y Y Y Y I U S S U I U r E W W W F F F F A A e e e k k k h h h h g g g g g g g q z g # 2 =.0.5.5.=.B B v B B B V 6.6.9.9.V * . . B =.0.6.9.H.L.P.~.Q.Q.Q.P.P.P.P.H.x . = a y y y y y y y y y y y y y y y y y y y y y y y y y y y s % . O 2 s y i =.8.M.7.M.M.M.M.J.J.J.J.J.H.I.H.n.n.n.n.n.n.F.F.9.9.n.9.8.8.8.8.",
" . .| [ | | [ [ [ / / / / ( ( ( / ( ^ ^ ^ ^ F F E F D D A A 6 , 0 k e k j j g g g g g g g g g g 8 , + v M.f.8.8.2.6.9.8.8.9.7.2.7.7.8.8.I.f O g T.Y.U.U.V.Y.Y.U.E.Y.Y.E.W.W.R.R.W.I.s O O $ % % $ % & . . $ % % $ $ $ $ $ $ % % $ $ $ $ $ $ $ $ $ - C S.(.uXkXyXqXA.A._.(.Z.].uXkXfXkXMXFXDXDXDXkXuXuXuXyXyXyXpXyXyXyXsXjXZXDXGXDXBXkXkXkXrXC Z.(._.S.A.rXhXkXtX(.].C f a s s y y y y y y y y y y y y y y y y y a $ . O a a y y s 2 O B H.M.8.8.6.6.6.6.8.9.7.>.7.7.7.9.H.x + g T.Y.U.U.N.U.Y.U.E.Y.Y.Y.Y.Y.E.Y.Q.L.s 2 a y y 3 q q q q q g g g l z h h h j , , q k D D D D F F F F F F ^ ^ ^ ^ ^ ^ ^ / { { { { [ [ [ [ } } } } / e a ; : : Z Z Z : b ~ Y T / ( / / / / / Y Y Y Y Y Y Y I U S S S U A r E E W F F F D D A A e e e e k k h h h h g g g g g g g 8 g 3 + B H.M.8.9.9.9.6.6.7.7.9.6.7.7.9.8.H.x O g T.Y.U.U.V.U.Y.U.R.T.Y.E.W.W.W.W.W.I.8 # 3 3 y y y y y y y y y y y y y y y y y y y y y y y y y y s % . O 2 y 3 g N.s.y.y.y.y.y.3.3.,.,.,.,.,.,.,.,.p.p.y.3.2.7.p.p.p.p.p.p.s.p.p.",
" .{ [ [ } [ [ [ / / / / / ( ( ( ( ^ ( ^ ^ F F F W E D D A e 6 # 0 k k k q g g g g g g g g g g g a 7 + B *.*.O.O.*.&.&.&.O.+.+.+.&.&.*.*.2.v O g ,.q.w.w.q.y.u.w.i.y.y.y.p.p.y.y.d.T.d . O O $ % $ % & . . $ $ $ $ $ $ $ $ $ % $ % $ $ $ % $ $ % & ; /.Z.S.Z.S.A.S.S.kXBXnX(.C tXkXfXhXnXMXZXZXMXjXyXuXyXsXsXsXsXsXuXuXfXnXNXMXZXMXnXfXkXhXrXZ.).nXMXuXZ.A.Z.A.S.S.S.G.Z f s y y y y y y y y y y y y y y y y y y a $ . O a a y y 3 3 O =.*.*.%.%.>.*.%.O.O.O.+.+.+.+.+.%.6.c O j ,.y.y.y.q.y.y.y.y.y.y.y.y.y.y.y.d.!.g O a a a 3 8 q q q g g g g h z h h k j < , 0 k D k D D F F F F W W ^ ^ ^ ^ ( ( ( ( / / / / / T T T [ [ [ / I E f . o o o o o o v 1.Y R Y Y Y / / / / / / Y Y Y Y Y I I S S S A e 0 e E W F D D D D D k e e e k k k h h h h g g g g g g g 8 s s O B *.*.%.O.;.*.%.%.+.#.+.&.@.+.O.%.7.J + j ,.w.w.w.q.w.y.q.d.y.y.y.y.p.p.p.s.T.s + 3 3 y y y y y y y y y y y y y y y y y y y y y y y y y y s % . O y 3 1 z s.y.q.t.w.w.w.y.,.,.w.w.,.w.e.w.w.w.w.w.w.w.w.p.q.q.q.q.w.w.w.w.",
"{ { [ { [ [ [ [ / / / ( ( ( ( ^ ^ ^ ^ W W W E F D D D D D k 6 , q g j k j j j g g g g g i i i s a 2 + B %.&.%.&.&.&.&.&.+.#.#.+.#.&.&.&.*.z O g p.y.y.q.y.u.u.y.i.i.i.y.y.y.y.y.,.7.7 O @ & % * $ % $ . @ $ $ * $ $ $ $ $ $ $ $ % % $ % * & $ - : _.kXkXuXuXtXuXA./.hXfXhX).S.).kXkXfXuXjXMXmXMXnXyXuXuXsXdXdXdXyXuXyXhXmXZXmXNXjXuXhXkXkX_.Z.rXfXyXuXA.(.uXtXuXkXjXkXG.- s l y y y y y y y y y y y y y y y y y 2 $ . O t y y y s 2 + x &.&.&.%.&.&.&.&.+.+.+.&.+.+.+.&.*.j O g y.u.y.q.y.y.y.u.y.i.i.y.i.i.i.p.y.f.y % t a a y 5 5 5 5 g g g g h h h h k g 6 , q k k k D D D D F F E E W W W W ^ ( ^ ^ ( ( ( / / T / T / / / ) U I b # o o o o o % E ^ T Y ( ( Y Y Y Y Y Y Y I I I I I S S S F A A r 0 r E W A D k k k k k k k h h h h h h h g g g g g g g g s s 2 + %.*.*.&.&.&.&.%.&.#.#.+.+.-.&.&.&.*.z + j y.u.y.q.y.y.y.y.y.y.y.y.i.i.i.y.t.N.3 + y y y y y y y y y y y y y y y y y y y y y y y y i i y y t $ . O s i y 3 3.y.y.y.y.,.,.,.,.w.w.w.,.w.y.w.w.w.w.w.w.w.w.w.u.u.u.u.w.w.w.q.",
"[ [ [ [ [ [ [ { / / ( ( ( ( ( ^ ^ W W W E F F F D D D D D w 6 , g g j z j j g j g g g g i i i s a 2 # B %.&.&.+.#.#.&.#.#.#.#.#.+.+.&.&.*.c O g y.y.y.q.u.u.u.u.i.i.i.i.y.y.i.y.3.2.# @ & & * * % % $ . @ $ $ % $ $ $ $ $ $ * * $ $ $ % * & $ - C lXMXkXsXsXhXhX_.Z.tXhXuX(.N S.fXiXrXrXgXvXmXMXZXkXtXuXkXlXIXlXhXyXhXkXNXmXNXnXyXiXqXuXfXZ.C _.pXfX).S.rXfXyXhXhXnXFXkXC $ d s y y y y y y y y y y y y y y y y 2 $ . @ t y y y t 1 # n &.&.%.&.&.-.&.&.+.+.+.&.&.&.+.&.*.j O g y.u.y.q.y.y.y.u.y.i.y.y.i.i.i.i.y.3.2 1 t a a y i i 5 5 g g g i h h h g j 8 2 , 8 k k k D D D D W E E E W W W W ^ ^ ^ ^ ( ( / / / / / / / / / / U U b # o o o o   # E Y Y Y Y Y Y Y I I I I I I I F F F S S S A A A r 0 0 E E D D k k k k k k k h h h h h h h g g g g g g s g s a 2 + %.*.;.-.&.&.+.&.+.#.#.+.+.-.&.&.*.*.z + g y.u.y.q.y.y.y.y.y.y.y.y.i.i.i.i.i.3.> 2 y y y y y y y y y y y y y y y y y y y y y y y y i i i y y * @ $ y y y 2 ;.<.,.y.p.p.p.p.p.p.p.p.y.p.s.y.p.p.p.p.y.y.y.y.y.y.y.y.y.y.y.y.",
"[ [ [ / / / / / / / ( ( ( ( ^ ^ W W W F F D D D D D D D k q , , g g j z j j j g g g g g g g g s s 2 + B %.&.&.+.#.#.&.#.#.#.#.#.#.#.&.&.*.c O g y.y.w.q.u.u.u.u.i.i.i.i.y.y.y.y.y.*.O @ & % * & % % @ . @ @ & % $ $ $ $ $ * * * % % % % * * O f dXvXkXsXsXtXiXrXrX/.A._.A.Z._.(.qXrXqX).tXkXMXNXZXlXpXfXmXDXFXZXjXuXsXjXBXVXVXkXiXrX).tX).(.(.Z.(.(.S.(.uXiXrXuXsXsXjXnX'.& y i y y y y y y y y y y y y y y y y 2 $ . @ t t y y 2 1 # B &.&.%.&.&.-.&.&.+.+.+.&.&.&.+.&.*.j O g y.u.y.q.y.y.u.u.y.y.y.y.y.y.y.y.i.:.+ 2 a y y y y y y 8 g g s g g h g g g 8 < # 8 j k k k k D D D A A A E E E W ^ ( ^ ^ ( ( / / / / / / / / / / S U w @ o o o o o # E Y Y Y Y I I I I I I I I I I I I I S S S S A e r 6 0 e E D D D D D k k k k h h h h g g g g g g g g g g g g s 2 + %.*.;.-.&.&.+.&.+.#.#.+.+.&.&.*.&.*.z + g y.u.y.q.w.w.y.y.y.y.y.y.i.i.i.i.i.@.+ a 2 3 3 3 y y y y y y y y y y y y i i i y y y y y y y y y t * @ $ y 3 2 1 c J &.;.;.;.;.;.;.;.;.;.*.;.>.;.-.-.-.-.-.-.-.-.-.&.&.-.;.;.;.;.",
"[ [ / / / / T / ( ( / ( ( ^ ^ ^ W W F F F F F D D D D D e 0 , # g g j z g g g g g g g g s s s s a 2 + B %.&.&.+.#.#.&.#.#.#.#.#.#.#.&.&.*.c O g y.y.w.q.u.u.u.u.i.i.i.i.y.y.y.y.p.O.O & % % & O % % @ . X @ & % $ $ $ $ $ * * * $ $ $ % & * & C lXkXsXtX_.(.).sXhX).S.S./.qXhXuXrXqXqXqXqXuXvXMXZXMXhXpXbXsXwXsXfXyXhXnXNXNXlXuXqX).qXqXuXhXyX_./.Z.A.tXhXtX).D._.iXtXlXgXM t y y y i i i i y y y y y y y y y a * $ . @ ; a y y 1 % % B &.&.%.&.&.-.&.&.+.+.+.&.&.&.+.&.*.j O g y.u.y.q.y.y.u.u.i.y.y.y.y.y.y.y.d.$.+ 3 a y y y y s s s s s s g g g g g 8 6 , + 8 j k k k k k D A A A A D D D D W F F F ( ( ^ ^ / / / / / / / / S U w @ o o o o o # E Y I I I U I I I I I I I I I E E E A A A A A e r 6 6 e E D D D D D k k k k h j j j g g g g g g g g g g g g s 2 + %.&.&.&.&.&.+.&.+.#.#.+.+.&.&.&.&.*.z + g y.u.y.q.y.y.y.y.y.y.y.y.i.i.i.i.y.H > 7 2 2 2 3 y y y y y y y y y y y y y y y y y y y y y y y y t & . O 2 2 1 1 g g g g z z z z z z z z j z z j g g g g g g g g g g j j j j j j ",
"/ / / T T T / ( ( ^ ^ ( W W W W F F F F A A A D E Q D k k 8 # # , 3 s j s s s s g g g g g g g s 7 % + B &.&.&.&.#.#.&.#.#.#.#.#.#.#.&.&.&.c + x y.i.u.u.u.u.u.u.i.i.i.y.y.y.y.y.y.J O O & % * * & $ X . . X & % % % $ $ % % $ $ % & & & - & & G.iX).G.Z./.iXfXuXtX/.S.).hXhXpXhXfX_.iXiX).uXhXZXZXMXjXfXdXM - C sXuXvXNXBXMXkXiX).uX).).yXfXyXyXuX).Z.(.yXyXhXrXA.Z.A.).iXC t l y y y y y y y y y y y y y y y t O . . . @ * s l y t % B &.&.&.&.&.-.&.-.#.#.&.&.&.&.&.&.*.c O x y.y.y.y.y.y.u.u.i.i.y.y.y.y.y.y.d.H + s s s a s s s s s s s s s s s s s 8 , # + # < w k k k k k A A A A D D D D E W W W W W I Y ^ ^ / / ( ^ Y U S e w @ o o o o o a E Y Y I I I I I I I I I I I E A e r r r r r e r 0 6 w r r e k k k k k k k k k h h h g g g g g g g g g g s s s 2 , %.&.&.&.+.+.+.&.+.+.#.+.+.*.*.&.&.;.J + j y.u.u.u.y.y.y.y.y.y.y.y.i.i.i.y.y.L + # a t t y y y y y y y s s y y y y s s s s y y y y y y y s % @ . . * 2 a a + + + + + + + + + + + + + + # + + + + + + + + # # + + O + + + + ",
"( ( Y Y Y Y Y Y I I I W E E E E A A A A A A A D D k k k 6 , # @ # 2 7 8 s 8 8 s a s s s 3 3 3 3 % + O B &.&.&.&.#.#.&.#.#.#.#.#.#.#.&.&.&.c + c y.u.u.u.u.u.u.u.i.i.y.y.y.y.y.y.y.J O O . @ $ O O . .   . . . @ $ $ % % $ $ O O & & & & * @ & G.S.b.S._.fXsXsXhX(.Z.).kXhXuXuXyXiX_.nXrXA._.tXmXNXZXvXgXdXV y V dXhXnXNXBXvXrX).D.tXjXA.iXfXhXuXhXkX).Z.).uXpXyXtX_.S.Z.S.C d y t t t t 2 2 2 2 t t t t t 2 * $ . . . . . @ t s t 2 % B &.&.&.&.&.-.&.-.#.-.&.&.&.&.&.&.*.c O c y.y.y.y.y.y.u.u.i.y.y.y.y.y.y.y.s.J + 7 a a a a 8 8 a a a a a a 7 7 9 9 # + O O + , 9 w k k k k e e r r A A A A E E E E W I I I ^ ^ ( / ( I S S S e w @ o o o o o = E I U U U U U A A A A A A A E e e r r r r r 0 0 6 9 6 6 6 0 w q q q q q q q g g g g g g g g s s s s s 8 8 8 8 1 # %.&.+.+.+.+.+.&.+.+.#.+.+.*.*.&.&.*.z + c y.u.u.u.y.y.y.y.y.y.y.y.i.i.i.y.y.J + * a a a a t t t t t t t t t t t t t t t t t t t t t t t t . . . . O $ * t % % % % % % % % % % % % $ % * # & & & & % % % & $ O . . O O O O ",
"S S S S S S S S r r r w w w 0 0 0 0 0 0 0 0 0 0 0 q 6 < , # @ @ O O @ @ @ + + + O O O O O O O O O O O B &.&.&.&.#.#.&.#.#.#.#.#.#.#.&.&.&.h O %.y.u.u.u.e.e.u.e.i.i.i.i.y.y.y.y.y.J O O . . O . @ .     . . . @ $ $ & % O O O O O . . . . @ f G.S./.rXhXsXsXsX).].rXnXvXpXuXhXhXA.yXvXS.S.S.(.uXmXbXtX_.G.M x =.lXMXBXNXnXtXA.S.S.A.vXuXD.pXhXuXhXjXnX_.C rXuXhXyXhX).G.Z.C a O O O $ $ $ $ $ $ @ @ @ @ & @ . . . . . . . . $ 1 * * + B &.&.%.&.&.-.&.&.#.#.&.&.&.&.&.&.*.z O %.y.y.y.y.y.y.y.y.i.i.i.i.y.y.y.y.s.J O @ * % % % O O O O O O O O O O O O O O O O @ # , < 8 q q q 6 6 6 6 6 6 6 6 0 0 0 0 0 0 0 0 r r S A A S r r S e b @ o o o o o = e S S S r r r r r r r r r r r 0 0 0 0 0 0 0 6 6 6 9 9 9 < < , , , , , , , # + + + + + + + + + + + + + + + + # + + %.&.+.+.+.+.+.&.+.+.#.+.+.*.*.*.*.*.h + B y.u.u.u.u.u.y.y.y.y.y.y.i.i.i.y.y.J O @ % % % % & & & & O O O O . . . . . . . . . . . . . . . . . . . . . . $ & & & & & & & & & & & & & @ & & @ & X & & & & X X X . .   . . . . ",
"S S r r r r r r r 0 0 0 6 6 6 6 6 6 6 6 < < , , < < < < < , # # # # # # O + O O O O O O . . . . . O O B %.&.&.&.&.&.&.&.&.&.&.&.&.&.&.&.&.g O %.p.u.u.u.e.e.e.e.u.i.i.y.y.y.y.y.3.J O $ O O O O % & @ X & @ & & + + + + $ $ $ $ O . . . . . & ; C _.sXsXsXsXiXZ.(.nXMXBXnXjXkX).).mX_.Z.S.S.Z.S.).(.A.S.G.m.m.F.AXHXHXGXuXS.Z.Z.S.Z._.VX).).kXjXVXVXZXjXZ.A.sXfXhXyXiXG.M ; . . . . . . . . . . . . . . . . . . . . . . . . O O O O O n %.&.%.%.&.&.&.&.&.&.&.&.&.&.&.&.*.j O %.y.y.y.y.y.y.y.y.u.i.i.y.y.y.y.y.7.n O . . . . . . . . . . . . . O O O O O O O O O O + # , > > > , , , , 9 9 9 9 6 6 6 6 0 0 0 0 0 r r r r r A U S U w # o o o o o = r r r r r r 0 0 0 0 r r r r r r r r r r r r 0 6 6 6 6 6 < < < < < < < < , , O @ @ @ . . O O + + + + + + + + + O + B &.&.&.&.&.&.&.+.+.&.&.&.&.&.*.*.*.g O %.p.u.u.u.u.y.y.y.y.y.y.y.i.y.y.y.f.O.O O O O O O O O O O . . . . . . . . O O O O $ $ $ $ $ $ $ @ . . O O % $ O O . . . . . . . . . . . .   . .     . . .       . .               ",
"e e r r r r r r 0 0 0 0 0 6 6 6 0 q q q w e e e k h h h j j j j g g g g g g g s 2 2 2 2 # O . . . . O f %.*.O.*.;.*.+.O.%.%.%.%.J J J J c > + c 3.y.w.q.y.y.y.u.u.u.u.y.w.w.w.,.2.y O s d d d d a a a a a a a y y y y y y y y y t $ O . . . $ % a a M C G.G.G.G.kXZXNXNXBXBXbXA.nXhXS.Z.S.Z.Z.Z.Z.iXuXsXvXmXMXmXmXNXDXHXBX(.S.Z.S.S.].rXVXA.kXBXNXMXNXZXsXm.G.'.F.C a % % . . . . . . @ @ @ X O $ $ $ $ $ $ $ $ $ $ $ $ + + + + $ O O s B O.O.O.>.;.-.+.&.*.*.*.O.O.O.%.c > O v y.y.y.w.u.u.u.i.u.y.y.y.w.w.3.3.>.c $ . . . . . . X X X @ @ @ @ @ @ @ @ + + + # # # # , , , 9 9 9 9 9 9 9 9 9 9 6 0 e e k e k A A F I I ^ ^ ^ W ~ W ~ b X o o o O v E F F S A e 0 0 0 r r A E W E E E E A A A A e k k k e e e k j j j j j j j g g 1 + O + + 1 a 8 8 s s s 3 3 3 1 a + g %.O.%.%.>.*.&.O.*.*.*.;.O.O.O.%.c > + v 3.y.w.w.y.y.y.y.y.y.y.y.y.y.y.2.2.s + f y y t y y y y y t % O . . . O % s s s s y y y y y y y a a a y y y y y y $ & & & % % % % O . . . . . . . . . . . . . . . . . . . X X X X ",
"e e r r w w w r r w 0 0 6 6 6 0 e k k k k k D k k h k k h h h h g g g g g g g g s 8 3 3 s 1 O O . O O s g s z g z z z k j j j h j j j g x 1 + x J #.<.3.,.,.,.,.w.,.<.-.-.-.&.*.%.2 O t y u u u y y y y y y y y y y y y y y y y s 2 O . . O * 2 2 2 2 a % @ a C dXAXAXZXNXZXrXqXnX(.Z.A.Z.Z.Z.Z.A.tXuXfXnXMXBXVXNXMXNXZXGXiXS.S.Z.Z.S.S.kXhX(.VXmXZXZXvXdXC a % u t u u y % O . . . @ & & & & & $ $ $ $ * * $ $ $ * * * * $ * # + + O a g g g g z z k z h h h h j j g g x 1 O x J #.<.3.<.<.:.<.y.,.<.;.;.*.*.*.c y O . . . . . X . X X @ @ @ $ @ @ @ @ + + + # # # # # # # 9 9 7 7 7 7 7 7 7 9 9 w k k D D D E F F F F ^ W ^ W W E Q j @ o o o O v E F W F F D 0 0 0 e E E A A D D D D D D D D A k e e k k k k h k h h j j j j g 2 + O + # 2 y 3 y i i i 3 3 3 s 2 + s j j g g c c z z h j k h h h h j x # O x J +.;.3.,.,.,.,.y.y.,.;.;.;.*.*.%.2 O 2 y y a y y i y y t * $ O . . + 2 y y y y y y y y y y y y y y y y y y y y t t t t t t t t $ O . . . . . @ X X @ @ @ @ X X X X X X X X X X ",
"e e w r w w w r w w w w 6 6 6 r A D D D k e e k k k k k h h h h g g g g g g g g s 8 y 3 g a # O O O @ # f s x g g g j j f f g g s d d d a % O a c c c O.O.O.O.O.J J c c c z z z n y % a y s s s y y y y y y y y y y y y y y y y s 2 $ . . $ 2 a 2 y 2 1 a a 7 * - F.dXAXAXmX/.kXkXZ.Z.Z.S.Z.Z.Z.(.uXyXhXmXBXBXVXBXMXmXVXDXjXA.S.Z.Z.A.Z.(.VX_.jXDXlXdXC - % m l y 2 3 i u t $ . . . @ & & & & & $ * $ $ * * * * * * * * $ $ $ $ O + O % s s s s s s g j s f g g s d d d a % @ a x c c O.O.O.O.O.O.O.J c c c c z n y + + . . . . O . @ @ @ @ @ $ $ @ @ @ @ # # # # # # # # # 9 9 7 7 7 7 7 7 7 9 8 j k D D K Q E F F F F E E E E W E E j & o o o O v W F W W W W 0 0 r A W E A A D D D D D D D A k k k k k k k k h k h h g g j j g s 1 O + 2 a y 3 3 i i i y 3 3 g 2 + 2 s s a a s g j j s f s g g g s f a % O a x c n n O.O.O.O.O.O.c c c c c c n t $ 2 y y y y y y y y t t * % . . * s y y y y y y y y y y y y y y y y y y y y y t t t t t t t 2 $ . . . X X @ X X X X @ @ X X X X X X X X X X ",
"e e r r w w w r w w w w 6 6 0 r k D D D k k k k k k k k h h h h g g g g g g g g s s y 3 s a # O O # # # + , + > 1 1 3 7 = 7 7 2 1 % * * $ O . $ * 1 2 2 3 3 3 3 > 1 a g s s s s a # + 2 t y t t y y y y y y y y y y y y y y y y y 2 % . O % 2 s 1 s s t % 2 a a s 2 u 5.dXkX_.vX).Z.Z.Z.Z.Z.Z.Z._.uXyXkXVXBXBXBXBXBXMXBXVXVXA.A.S.S.S.Z.S.kXsX`.`.C a % 2 y l u y l l y y s t O . @ & & & & & % $ $ $ $ * * * * * * * * $ $ $ $ O % O + # # # # 1 1 3 8 7 7 2 2 % * * * $ O . & % 1 2 2 3 3 3 3 1 2 s l s s s s 1 + + s . . . . O O @ @ @ @ @ $ + # @ @ @ # # # # # # # # # # # , , 7 7 7 7 7 7 8 j Q D K K Q Q F F F F F F F D E E E j & o o o O v W F ^ ^ W ! w 0 r E E E D D D D D D D D D D k k D D k k k k h k h h g j j j g s 2 O + 7 s s 3 3 i i i y 3 3 y s 2 + > > # # # 1 2 7 = = 7 2 1 1 * * $ O . & * 2 2 2 t t t t 1 2 s l s s s s y % 2 t y y a a y y y y s t t - . O 2 d y y y y y y y y y y y y y y y y y y y y y s s s s s s s t 2 & . X X X @ X X X X @ @ X X X X X X X X X X ",
"r r 0 0 0 0 0 6 0 6 6 6 6 , < e k k k k q q q h h h h h g h h h g g g g i i i y s s y y 3 a # . O a % O 3 y 3 3 > 3 > .   O 2 2 t t % $ O O O O . O O O O + O O O O O O O O O O O O # * y y a a y y y y y y y y y y y y y y y y 2 a # . O # a y a a a a y y 3 3 y y y u - M _.mX(.A.S.A.Z.S.Z.Z.A.tXuXfXBXBXDXBXBXBXBXBXBXvXS.S.S.S.]./.A.sXlXC t t y y y y y y y y y y y u * $ . @ & & & & & % $ * * * * $ * * * * * * # # + + % + + O 2 1 , , > 2 # . . O 2 3 t 2 % $ O O . . . O O + O + O O O O O + O O O O O # 2 f O X X @ @ @ @ @ @ @ @ $ $ O O O @ @ + + # # # # # # # # , , # # # # # , j k Q D D D D D D D D D D D D D A E Q v & o o o # v E F F F F D q 0 q E D D D A A A A A A A A L k k k k k k k k h j g j q q g g g a 7 O + s 8 3 3 3 y i y 3 3 3 3 s 7 + 4 3 g 2 1 8 # .   O 2 3 2 2 * + O O O O O O O + O O O O O . O O O O O O O O a s 3 y a s y y y y t s s t . $ t s y y y y y y y y y y y y y y y y y y y y y y y y y y y s s $ . . X X @ @ @ @ @ @ @ @ @ @ @ @ X X X X X X ",
"r r 0 0 0 0 0 0 0 8 8 6 6 , < k D D k k q q q h h h h h g g h h g g g g i i i y s s y y 3 8 # . O * O =.P.Q.T.T.!.P.F.s . f H.8.I.F.n.9.5.5.6.6.0.5.9.8.8.F.5.x . f 5.5.5.5.5.5.=.f O a y y a a y y y y y y y y y y y y y y y y 2 a * . O # a y a a a a y y 3 3 3 3 i i d - b.kX).A.S.A.(.Z.S.Z.A.yXyXfXnXBXDXBXBXBXBXBXBXhXA.A.A.(.Z.A.D.qXG.Z t 3 3 3 y y y y y y y y y u * $ . @ & & & & & & $ * * * * * * * * * * $ # # + + O % + B I.P.Q.W.~.P.H.s . x H.H.I.K.n.9.5.6.5.5.0.5.9.8.x.H.6.x O f 5.6.5.5.6.6.0.s + % = .   @ @ X @ @ @ @ @ $ $ O O O @ @ + + # # # # # # # # # # # # # # # , f j E k D D D D D D D D D D D D D E E v & o o o # v E F F F F D q 6 q D D D D D A A A A A A A L k k k k k k k k h g g g q q g g g a 7 O + s 8 3 3 3 i i y 3 3 3 s 2 + %.T.T.!.Q.~.P.x.a . f F.F.P.K.n.9.6.6.5.5.5.6.8.F.n.F.5.x O d 0.6.5.6.2.6.=.x + a g y t 2 y y y y t s s t . $ t s y y y y y y y y y y y y y y y y y y y y y y y y y y y y s $ . . X X @ @ @ @ @ @ @ @ @ @ @ @ X X X X X X ",
"r r 0 0 0 0 0 0 q 8 8 8 6 , < k D D k k q q q h h h h h g g g g i i g g 5 i 5 5 s 8 y y 3 a # . O # + 9.M.s.i.C.N.J.T.=.+ =.H.s.8.8.M.M.L.J.J.J.P.J.H.H.8.J.P.H., =.x.8.2.>.>.2.8.n.t * y y y a y y y y y y y y y y y y y y y y 3 a # . O # a y a a a y y y i 3 7 7 3 y d a N `.).(.(.(.A.A.(.S.S.qXuXuXjXBXBXBXBXBXBXBXBXiXD.A.A.(.).(.qX(.Z u y 3 3 3 3 3 3 y y y y y y s 2 $ . @ & & & & & & * * * * $ $ $ * * $ $ $ # # # + + % + 9.J.N.d.d.d.B.P.%.+ %.N.s.f.8.M.M.J.J.J.J.P.P.J.J.f.J.L.f., =.8.8.>.>.>.>.M.9.a . . X @ @ X X . X @ @ @ $ O O O O @ @ + + # # # # # # # # # # # # # # # , 8 j k k D D D D D D D D D D D D D E E x & o o o = v E W A A F D q < q k k k D D A A A A A A A L k k k k k k k k h g g g g g g g g a 7 + + s a 3 g g i i y 3 3 3 s 1 + 9.N.d.p.y.N.J.P.=.+ =.J.s.f.f.M.H.J.J.J.J.L.J.J.M.f.J.L.f., =.8.8.>.>.>.2.9.9.t # 2 y s s y y y y t y y t . $ t s y y y y y y y y y y y y y y y y y y y y y y y y i i y y s % . . X X @ @ @ @ @ @ @ @ @ @ @ @ X X X X X X ",
"r r 0 0 0 0 0 0 q 8 8 6 9 , < k k k k k h h q h j j j j g g g g i g g g 3 3 3 5 8 s y y y a # . O # 1 %.3.y.i.q.t.y.2.%.O B J @.O.O.O.O.;.;.;.;.>.>.>.>.;.&.;.9.4 c *.%.+.+.+.+.%.9.* + y y y y y y y y y y y y y y y y y y y y 2 a # . . # a y a a a y y i i 3 7 7 3 y s - G.qX).rXrX).).)._._.D.(.fXhXkXBXBXBXBXBXBXBXvX_._.).).).eXeXeX).b.d y 3 3 3 3 3 3 y y y y y y s * $ . @ & % % & & % * * * * $ $ $ $ $ $ $ $ # # # + 2 # + =.3.t.t.t.:.y.>.%.+ %.H @.&.&.%.+.;.;.;.;.>.>.>.>.;.&.;.7.< c *.%.O.+.+.+.*.0.= . & . . @ X X . X @ @ @ @ @ O $ O @ @ @ # # # # # # # # # # # # # # # # , 8 g k h k k k k D D D D D D D D A E E k @ X o X # v Q W F F D D 0 < 6 k k D D D k k k D k k k k k k k k k k k h g j j j g g g g s s a + + f a s y i i i y y y 3 2 1 > =.3.y.t.t.4.y.2.%.O B O.+.-.&.&.&.-.-.-.-.>.;.;.;.;.&.;.7., c *.%.&.+.+.+.%.9.2 + s y y y y y y y t y y t . $ t s y y y u y y y y y y y y y y y y y y y y y y y y y y y y s % . . X X @ @ @ @ @ @ @ @ X X @ @ X X X X X X ",
"0 6 6 6 6 6 6 6 < 6 6 9 9 2 8 k k k h j q q q g g g g g g g g g s y y s s s 3 3 3 y y y y s * . @ * + =.y.y.i.y.y.y.p.J O s %.-.+.&.+.+.+.+.+.+.&.&.#.#.&.&.*.J + j *.-.+.+.+.&.*.*.1 % y y y y y y y y y y y y y y y y y y y y y s * . . * y t y y y y y y y y y 3 3 y 1 f _.iXqXrX).).).rX).eX).).rX).).qXrXiXuXuXhXtX).qXqXeXeX).).rXiXiX'.- u y y y y y y y y y u y s a % . . O $ % $ $ * * * $ $ * $ $ $ $ $ * * * $ $ $ $ % & O =.y.y.i.i.y.y.3.K O s *.-.&.&.&.&.+.+.+.+.&.&.+.+.&.&.*.c + j *.-.+.+.&.&.*.=.* @ . . . @ @ @ @ @ @ @ @ @ @ @ @ @ O O O O @ $ # # % % % % % # # # # # # # , 8 k h k k k k D L D D D D D D A S E k # .     7 j k k D D D D q < < j k k L L k k k k j j g j g g g g g g g g g g g g s s s s s s s + $ s y u y y y y y y y y y 1 + >.y.y.w.w.y.y.7.J O s *.-.+.+.+.+.+.+.+.+.&.+.+.+.&.%.*.J + g *.;.+.+.+.#.;.*.1 + y y y y y y y y y y y a . @ 2 s y y t t y y y y y y y y y i i y i i y i i i i i i i i y s % X   X X X X & . . & & & & & X X X X X X & X ",
"6 6 6 6 6 6 6 6 9 6 9 9 , , 8 k k k j j g g g g g g g g g g g g 3 3 y y s s 3 s y y y y y s * . @ 2 + *.y.t.i.y.y.w.p.J O s %.-.+.+.+.+.+.+.+.+.+.+.#.#.#.O.&.z O s &.#.+.+.+.&.*.*.1 % t y a y y y y y i y y y y y y y y y y y y s * . . * y y y y y y y y y i i i 3 a s V sXyXtXuXuXtXrX).(.A.S.Z.D.).yXkXnXjXqX_.A.Z.S./._.).rXtXaXyXyXsXdXM u y y y y y y y y y u y s a % . . O $ % $ * * * * $ $ * $ $ $ $ $ * * $ $ $ $ % % $ O =.y.i.y.y.u.y.w.K O s *.-.&.&.&.&.+.+.+.+.&.+.+.+.-.%.*.c O g &.-.+.+.&.&.*.*.* @ . . . X X @ @ @ @ @ @ @ @ @ @ @ X @ X @ & & & & % % % % * % # # # # # + , 8 k h k k k k L L D D D D D D A A E k 7 X   . s k k k J J D D 8 , < q k k L L h z z z j j j j g h h h i i i g g s s s s s s s s s a + + s y y y y y y y u y y y 1 + >.y.y.w.w.i.y.y.J O s *.-.+.+.+.+.+.+.+.+.&.+.+.+.&.%.*.c + g *.;.+.+.+.+.;.*.1 $ y y y y u u y y y y y a O O 2 s y y t t y y y y y y y y y i i i y y y y i i i i i i i y s % X   X X X X . . @ & . X @ X X X X X X & . & ",
"6 6 6 6 9 6 6 6 9 9 9 9 # # 6 j k h h h g g g g g g g g i i i g 3 3 y y i i 5 y y y y y y s * . $ 2 + *.y.y.i.y.y.w.p.J O s %.-.+.+.+.+.+.+.+.+.+.+.#.#.;.&.%.j O s &.#.+.+.+.&.*.%.1 # 7 8 7 y y y y i i i i y y y y y y y y y t s * . . * y y y y y y i y y y i y 3 a 2 m.sXyXuXyXyXrX/.Z.Z.S.(._.(._.A._.iX(./.qX_._./.S.Z.A.).tXpXyXuXsXsXC u y y y y y y y y y y y y y % O . O $ % $ $ $ $ $ $ * * $ $ $ $ $ $ $ $ $ $ $ % % $ O =.y.i.y.y.i.y.w.K O s *.-.&.&.&.&.+.+.+.+.&.+.#.#.-.%.%.j O s O.#.+.+.&.&.*.*.= @   . . X @ @ @ @ @ @ @ @ @ @ @ @ @ @ @ @ & & & & * * % % * * * * # # @ O , s k k L L k k k k D D D D D D A e v j 7 @ X X x c k k D D D D 9 , , q k k L L k z z z h h h h h p h h p p p g g s s s 8 8 8 s y y a + + s y y y y u y y y y u y 1 + *.y.y.w.w.i.i.y.J O s *.-.+.+.+.+.+.+.+.+.&.+.+.+.-.%.%.j O s +.+.+.+.+.+.;.*.1 $ a y y y y y y y y y y a O O 2 s y y y y y y y y y y y y y y y y y y y y i i i i y y y y s * .   X X X X X X .       X X X X X X & . & X ",
"8 8 8 8 6 8 8 8 9 9 9 9 # # 9 g j h h h g g g g g g g g i i i g 3 3 3 y i i 5 y y y y y y s * . $ 2 + =.y.y.y.y.y.w.p.J O s %.-.+.+.+.+.+.+.+.+.+.+.#.#.;.&.%.j O s &.#.+.+.+.&.*.%.1 # 7 8 7 y y y y i i i i y y y y y y y y y t a * . . * a t y y i i i i y y y y y a a '.fXuXpXpXyX).S.(.tXbXBXnXjXBXmXtXA.kXGXHXvXvXVXjXrXA.A.rXpXyXtXfXsX'.u y y y a a a a y y y y y y % O . . @ & % $ $ $ $ $ * * $ $ $ $ $ $ $ $ $ $ $ $ % $ + =.y.i.y.y.u.y.w.K O s *.-.&.&.&.&.+.+.+.+.&.+.+.+.-.%.O.g O s O.@.+.+.&.&.*.%.= @     . X @ @ @ @ @ @ @ @ @ @ @ @ @ @ @ @ & & & & * % % % * * * # # @ O O , s k k L L k k k k L D D D D D D r v j 7 # @ # c k k k D D D k 9 # , q k k k k k z z z h h h h h h h h i i p g g g g g 8 8 8 s y y a + + s y y y y y y y y y y y 1 + *.y.y.w.w.i.i.y.J O s *.-.+.+.+.+.+.+.+.+.&.+.+.+.-.O.J g O a O.@.+.+.+.+.;.*.% % a a y y y y y y y y y a O O 2 s y y y y y y y y y y y y y y y y y y y y y y y y y y y y s * .   X X X X   C '.-X-X'.C ; X X X X X & X X ",
"9 9 9 9 9 9 9 9 9 9 # # @ # , 6 g g j j j g g g g g g g g g g g y y y y y y y y s s s s s t & . @ % + =.3.y.y.y.y.w.w.J O s %.-.&.&.&.&.&.&.&.&.&.#.#.#.#.&.*.3 . s &.#.#.#.*.*.&.O.# + 7 8 7 a y y y i i y y y s s s s y s s s t t & . . & a y y y y i y y y y y y s s * dXsXyXyXyXyXyXtXhXnXBXBXBXnXBXBXnXkXHXHXHXMXBXDXBXnXpXtXyXpXyXyXfXfX`.- 1 a 2 2 2 2 2 a y y y s t $ O . X @ & & & $ $ $ $ $ $ $ $ $ $ $ $ $ $ $ $ $ & $ O + 2.y.u.y.y.y.w.w.K . s *.&.+.+.+.+.+.+.+.+.&.+.#.#.&.%.*.3 O s &.#.#.&.*.*.&.%.# .     . . @ @ @ @ @ @ @ @ @ @ @ @ @ @ @ @ @ @ & & & & & & # # # # @ @ @ + , 8 j h h h h h h h k k k k k k L k k k g g g g c c c c k h q q 9 # # < w q q q h h h h i g g g g g g g g g g g g g g g 3 3 3 3 g y 2 O O * y y y y y y y y y y s 2 + *.y.y.w.y.y.y.y.J O d *.-.&.&.&.&.&.&.&.&.&.-.#.#.&.%.=.3 O s &.#.+.&.$.*.*.%.% @ 7 t 2 3 3 3 3 3 y y 2 * O O $ 2 y s s y y y y y 3 3 3 3 y y y y y y y y y y y y y y y y a % . . . @   M lXLXJXJXKXJXKXAXzX'.;   X . . & ",
"9 9 9 9 9 9 , , 9 # # # @ + # < g g g g q q q g s s s s s s s s s s a a a a a s a a a a t % .   O $ + *.3.y.y.y.y.w.w.J O s %.-.&.&.&.-.&.&.&.&.&.#.#.#.#.&.*.3 . a &.$.#.#.*.*.&.O.# + 7 8 a a s s s s y y s s y y y y y y u y t $ @ X X . % t y y y y y y y y y y y a M gXhXtXyXyXyXyXhXkXVXVXVXnXhXVXBXvXjXHXHXHXfXnXMXmXBXhXuXyXpXyXhXsXkXgXf 2 a a a a a a d d s s a * @ . . . X @ & % % % * * % % % % % * % % % % % % % % & $ + 2.y.u.y.y.y.y.w.K . s *.&.+.+.+.+.+.+.+.+.&.+.#.#.&.%.*.3 O s &.-.#.+.&.&.&.%.# .     . . @ @ @ @ @ @ @ @ X X X X @ @ @ @ @ @ $ $ & & & & @ @ @ @ @ @ @ @ + , 8 g h h j j h h h h k k k k k k h h h h h h c c c c z j j 8 # # # , w w e h g j j g j j j j j j j j g g g g 8 8 8 8 s s s s a 2 O . . O 2 s y y y y y y y y s 2 + 0.y.e.e.e.y.y.,.c . s &.+.&.&.&.&.&.&.&.&.&.-.#.#.&.%.*.3 O s &.#.&.&.$.*.*.%.* @ a a a a i i i i g y 1 $ . . $ % t s s t f s s s a a a a t t t t t t y y y y u y u y y t $ O . . .   C PXKXJXKXJXJXJXJXJXJXJXAXG.  ; o X ",
", , # # # # # # # # # @ @ @ # # 8 s s s 8 8 8 s a s s s t t t t 2 2 2 2 # # # * * & * & @ .     . O O *.3.y.y.y.y.w.w.D O s %.-.&.&.-.-.&.&.&.&.&.#.#.#.#.&.*.3 . a &.-.#.#.&.*.&.O.# + 2 1 2 2 t t t t t t t t a a a a t a a a % O . .   . O $ t t t t t t t t 2 2 2 t C mXnXyXyXyXyXyXhXnXBXnXVX(.).BXBXnXvXHXKXHX/.).nXnXBXbXpXyXuXyXsXfXbXlXf % % 2 2 2 2 * a a a a * @ . .     . X & & & & $ $ $ $ $ $ $ $ $ $ $ $ $ $ $ & @ O O 0.y.u.w.w.u.y.w.K . s *.-.+.+.+.+.+.+.+.+.&.+.+.+.&.%.*.3 O 8 &.-.#.&.&.&.&.%.# . .   . . . . X X . O . . . X X X . . . . O @ $ $ $ $ @ @ @ @ @ @ X X O . @ @ 2 8 g g s g g g j j j q j j j j k k g g q q j g j j s f 9 9 @ # # # 9 6 q j g g g g s a a a 8 8 8 8 2 2 2 2 # # # # 2 2 2 2 + O . . . O $ % a a a a a a a a % + + =.y.e.e.e.y.y.y.J O d *.-.&.&.-.-.&.&.&.&.&.-.#.#.&.%.=.3 O s &.-.&.&.#.*.*.%.% @ * # 1 1 t t t t 2 $ O . . . . O % * * % 2 2 2 2 a a a a t t t t t t a a s s s s s a a a O @ . .   M PXJXJXJXJXJXJXKXJXJXJXJXJXJX'.  X   ",
"# , # # # # # # # # + O + + + + + + + + + + + + O O O O O O O . . . . . . . . . . . . .         . O O *.3.y.y.y.y.w.,.D O s %.-.&.&.-.&.&.&.&.&.&.&.&.&.&.%.*.3 . a &.-.&.#.$.*.&.O.# + + + + + $ $ $ $ $ $ $ $ $ $ $ $ O O $ $ O $ @ .   . O O O O O O O O O O O O O O C AXNXkXyXyXyXyXkXBXVXBXpXZ.qXBXVXMXjXHXHXHX_.Z.hXBXBXBXhXuXuXuXfXjXDXmXf O O $ + $ $ $ % % $ $ % . . X     . . . . . . O O O O O O O O O O O O O O O O . . O =.3.y.w.w.y.y.,.J . s *.-.+.+.+.&.&.&.&.&.%.%.&.&.%.%.*.3 O s &.-.&.&.&.&.&.%.# . .   . . . . . . O O . . . . . . . . . . O O O $ $ $ $ $ @ O @ @ O O O O O O + , , > , , , , , , , < < < 2 2 < < 3 < < < 3 3 3 6 2 , # # O + # + + , < 8 , , , , + + + + + O O O O O O O O O O O O O O O . . . . @ . . . O @ O O @ O O O O O O =.3.y.e.q.i.y.p.O.O l *.;.&.&.&.&.&.&.&.&.&.&.&.&.%.%.=.3 O s &.&.&.&.&.*.*.%.* @ O O O O O O O O O . . . .   . . O $ @ . O O O O O O O O $ + $ $ $ + + + + + + O + O O O O O . . . dXJXKXJXJXJXJXJXJXJXJXKXJXJXJXLXC   & ",
"3 3 3 3 8 8 8 s 8 8 8 8 8 8 8 8 , 1 1 1 > > > > $ $ O O O . . . . . . . . . . . . . . . . . . . X . O %.2.y.y.y.t.a.,.g + 2 %.+.+.&.&.&.%.%.%.%.%.%.%.%.%.%.z , O 8 %.*.;.;.;.;.&.z O # % 1 1 1 O . .   . . . $ * * * * * * * * 2 2 2 2 2 2 2 2 1 1 1 1 # # # # O + . . F.IXBXBXjXpXhXkXnXBXnXbXS.A.tXDXMXnXjXHXHXHXiXS./.nXBXBXnXhXhXhXbXDXBXlXC . . O O O O $ $ $ $ $ $ + $ % X X X @ @ @ @ @ O O O O O O O O . . .   . O $ * 2 + O %.3.y.y.y.y.y.2.j # a &.;.&.&.&.%.%.%.%.%.%.%.%.%.%.%.z , O 3 O.*.&.+.#.&.*.O.O X . . O O $ O O + $ $ $ $ * + O O . . . . . . O + 2 2 2 2 1 1 1 1 7 7 2 2 2 2 2 1 3 , , , + + + # # # # # , + + , , , < < < < 3 3 3 3 3 3 3 3 3 3 3 3 3 3 3 2 2 2 , , , 1 % $ O O O O O O O O . . O O O O @ @ X X . . . . . . . . . . . . . O O %.9.p.p.y.y.i.2.g + a &.&.&.%.&.*.%.%.%.Q %.%.%.%.*.Q j > O , c *.*.&.-.;.&.c O . O O O O O O O O O O O O O O O O O O O O $ $ $ $ $ $ $ $ . .     . O O 1 # # # # # # # # O O + $ M LXJXJXJXJXJXJXJXJXJXJXJXJXJXJXJXzX. O ",
"g g g g g g g j g j g j g g g g g g g g s s s s a a 7 a O . . . . . X X X X @ @ @ X @ X X X X @ X . O g &.&.;.-.#.<.+.3 O 1 c G J J J c c z z z x x x x 8 l g 2 O 2 x n O.O.@.@.G g O 7 a a s a 2 & .     . & * y y y y y y y y y y y y y y y y y y y y 3 3 3 3 t * 2 $ F.lXMXMXBXVXnXBXBXVXnXtXS.(.yXBXMXnXjXHXHXHXiXA.S.yXBXBXBXBXnXVXBXVXBXvX; . O + 2 a a a s s s s t t a s t a a a a a a a 2 2 2 2 * * * % . . .   @ % t a t 1 O x %.O.O.+.-.;.*.3 O 2 c O.J J c c c c c c j j j j 3 g g 1 O 3 z %.O.O.O.O.c x . # ; a a a t t t t t t t y y y t t $ . . . . $ 2 t y y y y y y s s s s s s s s s s 8 8 8 8 8 s 8 8 8 9 # + # O + < 2 6 s g j j j j j j j j g g g g g g g g g g g g 8 8 8 s 2 $ @ . O O O $ @ @ X X @ @ @ @ @ @ @ @ X X X @ X X @ @ @ X X X . @ O x =.*.;.<.-.;.*.3 O 2 c J J c c c z x j j j j j j s g g , O 2 x %.J J J J O.l O @ + + # @ $ $ $ $ $ $ $ $ $ $ $ $ + + + + $ $ $ $ $ + $ $ . .     . $ # 2 t t y y t t 3 3 1 f a O '.JXJXJXJXJXJXJXJXJXJXJXJXJXJXJXJXPXx + ",
"j j x x g g g j g j j j g g g g g g g g g g g g s s s s 1 + . . X X X X X @ @ @ X X X X X X @ @ X @ O 1 x c c c J J z 1 O # g g l g s 3 s s s s s s s s s d s % . % a 7 s g g g z 2 O # s y y s s 2 & . . $ t s y y y y y y y y y y y y u u u u s s s s s s 8 3 g 3 s * C dXZXVXVXBXBXBXBXBXVX_.S.).yXBXBXnXjXHXHXLXtX_.Z.).NXNXNXmXNXBXnXBXMXqX: O 2 1 s s s a s s s s u y s s s s s s s s s s y y y y y y y t $ . . . * t a s u t + 2 n J v v c z x 2 . # s j g g y 3 s s s s d d s s s f a + O # a s s g g g g 2 O * 2 2 7 7 s s s s y y y y u y s s * @ . . O 2 s s s s s s s s s s s s s s s s g g g g g q g g q q g q 3 , + O + 9 8 8 g j q q q q g g g g j j j j j j j j g g g g g g g s f 2 $ O @ @ $ $ @ @ X X @ X @ @ @ @ @ @ X X @ @ X X @ @ @ X X X . @ O 2 c c c c J c c 2 . # s g l s a 3 f f a f s s s s s s a + O # a s s g q g g 2 $ @ + # + + $ $ $ $ $ $ $ $ * * * * $ $ * * $ $ $ $ + + + $ @ . . . @ 2 a a a y a s a a a a 2 * t V AXJXJXJXJXJXJXJXJXJXJXJXJXJXJXJXJXLX=.+ ",
"g g g g g g g g g g g g g g g g 3 3 3 3 s s s s y y y y y 1 $ . @ X X X X @ @ @ X X X X X X @ @ . & O * + > > > 4 > + . . O 7 1 a t * + O O O O % % 1 1 * 2 1 O . O $ + > > > > 1 O # 7 3 3 3 y g y % O . % s l y y y y y y y y y y y y t t t t y y y y y y 3 3 g g 1 a f G.uXbXVXVXBXVXVXBXjXS.A.).uXBXBXmXjXHXHXGXtX).A.A.jXmXmXNXmXBXBXvXuXS.X # s a s y 2 1 t t t t 2 2 2 y y y y y y y y y y y y y y y y y t $ . . * t t y s y 1 + > > > > > + # . . O 2 3 a t * + O O O O * 2 1 1 1 a 2 + . O # # 1 1 1 1 1 O # % a s a a t t t t 2 2 2 2 2 y y s s * @ . O t s 2 y y y y y 3 3 3 3 3 3 3 y y y y g g g g 3 5 5 5 g q g g O O # 8 2 3 s g g g g g g j j j g g g g g g g g g g g g 8 8 8 s s s * @ @ @ $ @ @ @ X X X X @ @ @ @ @ X X X @ @ X X @ @ @ X X @ @ O O + # > > > 4 + # .   O 2 1 t 2 * + $ $ @ $ * 2 1 1 2 2 1 O . . @ + # , , > 1 + O @ $ # # + $ $ $ $ $ $ $ $ $ $ $ $ $ $ * * $ $ $ $ + + + + $ @ . . a a s s y y y y y y y y y s O dXJXAX'.zXJXJXJXJXJXJXJXJXJXJXJXJXKXPXF.1 ",
"g g g g g g g g g g g g 5 5 i i g s s s 3 3 3 3 y y y y s a % . O X X X X X X X X X X X X X X X . . . + s g g 6 , + > + @ + + + 1 1 * * + O O . + + + % + + + + + + + + + + > + O . 7 s 3 3 3 y y y a $ O t y y y y y y y y y y y y y y y y y y a a s s y y 3 3 y y y a ; N S.rXnXBXnXVXBXnX).Z.).).uXBXBXmXlXHXHXLXtX).(.Z.).vXNXmXmXNXlXqXS.C X # a 3 y y s y y y y y y y y y y y y y y y y y y y y y y y y y t O . & t t y u y s + + 1 g g , + + + + O O # + 1 1 * * + O O . + + % 1 + + + + + + + + + + + + + O 2 7 3 y y y t y y y y y y y y y y y y * X . * t s y y y y y y 8 3 3 3 3 3 3 y y y y y y 8 3 5 5 5 5 5 5 q q # O # s s s g g g g g g g g g g g g g g g g g g s s s s 8 8 8 y s d * O @ @ @ @ @ @ @ @ X X X @ X X X @ @ @ @ @ @ @ @ @ @ X X @ @ O . + 7 8 8 3 > + + O @ O + + 1 2 2 * $ O . . + + + > + + + + + O + O + + + + + O @ O $ * * * % % % % $ $ $ $ * * * * * * * * $ $ * * $ $ $ $ $ $ O . 2 a a s y y y y y y y y g 2 a AXLXC X & LXJXAX-XIXJXPXKXJXJXJXJXJXAXn.y ",
"g g g g g g g g g g g g 5 5 i i g s s s 3 3 3 3 y y y y y y + . O X X X X X X X X X X X X X X X X . O n n.H.J.H.H.x.H.F.x.x.8.8.H.H.H.F.9.t O x H.L.P.P.L.L.H.H.J.H.K.H.H.H.K.K.H.%.O # 3 3 3 y y y a $ O t y y y y y y y y y y y y y y y y y y s a s s y y 3 3 y y y a - : N S.(.uXjXVXbX).Z.D.).eXuXBXBXmXlXHXHXHXiX).qXD.S.iXnXnXjXtX/.Z.N o . 1 s 3 y y y y y y y y y y y y y y t y y y y y y y y y y y y y t O . & t y y u l 1 + B K.H.H.I.x.x.x.x.x.x.H.8.K.K.H.H.9.t O x K.L.P.P.J.J.J.J.J.J.J.H.J.H.H.H.P.n + 2 3 y y y y y y y y y y y y y y y y * X . % t y y y y y y y 8 3 3 3 3 3 3 3 y y y y y 8 3 5 5 5 5 5 5 q q # O # s s s g g g g g g g g g g g g g g g g g g s s s s 8 8 8 y g d * O @ @ @ @ @ @ X @ X X X X X X X X @ @ @ @ @ @ @ @ @ X X X & O $ B F.H.H.x.x.x.x.x.9.9.8.8.H.H.H.F.9.a O x H.L.L.L.L.L.L.L.H.I.I.H.H.H.H.H.P.%.O O $ * $ $ % % % % $ $ $ $ * * * * * * * * $ $ * * $ $ $ $ $ O O O 2 a s y y y y y y y y y y 1 V LXAX;   ; PXPX5.. C LXPXLXJXJXJXJXJXlXm y ",
"g g g g g g g g g g g g i i i i g s s s 3 3 3 3 y y y y s t + . @ @ @ @ X X @ @ @ @ X X X X X X & . + 0.6.2.>.>.6.2.7.6.8.8.f.f.s.s.9.9.H.z > 8.N.U.U.Y.R.E.Y.Y.Y.Y.Y.Y.Y.Y.T.T.L.H.2 # 7 8 3 y y y a O O t y y y y y y y y y y y y y y y y y y s s s s y y 3 8 a a a a f . & N A.Z.A.A.S.Z.(.).rXrXuXBXBXmXjXHXHXHXtX).rX).A.Z.S.A.S.Z.S.Z o o O 1 s 3 y y y y y y y y y y y y y y y y y y y y y y y y y y y y t O . & t y y u l + # 0.6.;.;.2.6.6.6.6.8.8.M.f.9.9.7.9.H.c > 8.J.U.Y.Y.E.Y.Y.Y.Y.Y.Y.E.Y.T.T.T.T.M.1 # y y y y t t t t y y y y t y y y y * X . % t y y y y i y y 3 3 3 8 a a a 8 3 y y y 3 8 8 3 5 q q q q q q # O # s s s g g g g g g g g g g 3 3 3 3 5 5 5 5 s s s s 8 8 8 y s d 2 O X X X @ X X X X X X @ @ @ @ X X X X X X X X @ @ @ X X X & . % 0.6.>.>.>.6.2.6.6.8.8.f.f.8.8.8.8.H.z > 8.J.U.Y.E.R.R.R.R.T.T.R.Y.T.T.T.T.Q.K.2 O + $ & & $ $ $ $ $ $ $ $ $ $ $ $ $ $ $ $ $ $ $ * $ $ $ $ $ $ O O 2 a y y y y y y y 3 3 3 2 % I.JXzX    C JXlXX . M LXLXLXJXJXJXJXLXdX2 y ",
"g g g g g g g g g g g g i i i g s s s s 3 3 3 3 y y y y a a # . @ @ @ @ X X @ @ @ @ X X X X X X @ . % =.+.+.+.K %.K &.+.O.O.+.+.+.+.+.O.7.J > >.,.w.y.y.i.i.i.y.y.y.y.y.y.y.3.3.3.9.2 # 7 8 8 y u t t . . t y y y y y y y y y y y y y y y y y y s s s s y y y a a a a a * $ X ; iXrX(.(.D.).).).rXrXuXBXBXmXlXHXHXHXtXqXrXqXqX(.(.(._.iX`.: - $ O 1 y 3 i y y y y y y y y y y y y y y y y y y y y y y y y y y y t O . & t y y y 2 2 2 n &.+.+.&.%.%.%.%.%.&.;.&.+.O.O.O.2.K > >.,.w.y.y.y.y.y.y.y.y.y.y.y.y.y.y.4.f.4 # y y y y y y y y y y y y t y y y y * X . * y y y y y y y y 3 3 3 8 a a a 3 3 y y y y 8 8 3 3 g g g g g s # O # s s g g g g g g g g g g g 3 3 3 3 3 3 3 3 8 8 s s 3 8 8 y s d 2 O . @ X X X X X X X X X @ @ X X X X X X X X X @ @ @ X X X @ . % %.*.&.+.K *.%.%.%.%.%.&.+.+.O.O.O.7.J + >.,.w.y.y.y.y.y.y.w.y.y.,.w.,.,.2.N.M.2 + $ $ $ & $ $ $ $ $ $ $ + $ $ $ $ $ $ $ $ $ $ $ * $ $ $ $ $ $ O O 2 a y y y y y y y 3 3 3 3 * -XJXlX    dXJXdX  X G.KXAXKXJXJXJXJXAX`.y y ",
"g g g g i i i i i 5 q 5 q q q g s s s s s s s s 3 3 y y s a @ . X X X X X X X X X @ @ @ X . . O X O * =.&.&.+.! +.+.+.+.+.+.+.+.+.+.+.+.>.c + *.y.i.u.u.u.y.y.y.y.y.u.y.y.y.y.y.y.2.> # 7 7 3 y y s * O O * y y y y y y y y y y y y y s y y y y y y y y y y y y a a a a - O . : tXhXkXhXrXiX).).yX).uXBXBXmXlXHXKXHXtXeXuX).).tXiXhXkXkX`.o & O O 1 y y i y 3 3 y y y y y y y y y y y y y y y y y y y y y y y y y O . O t y y y y t # %.&.+.+.&.%.%.%.&.&.&.&.-.+.+.+.+.>.c + *.y.i.u.u.u.y.y.y.y.y.y.y.y.y.y.y.t.p.1 1 y y y y y y y y y y y y y y y y y * . . % y a y y y 3 3 y a a a y y y 3 3 8 8 8 8 8 8 8 y y y y 3 3 3 3 % O % a s g g g y y y y s s s s 3 3 y y y y y y y y i 3 3 3 i y y s * . . @ @ @ @ X X X X X @ @ X X X X X X X X X X X X X X @ @ X . + %.&.&.+.&.&.&.+.+.%.%.&.+.&.#.#.&.;.c O *.y.y.y.u.y.y.y.y.w.w.w.y.y.w.e.y.y.2.1 O + $ & & * * * * * * $ $ $ $ $ $ $ $ $ $ $ * * * $ $ $ $ $ $ O * y y y y y y y y y y y y y % dXJXJXzXdXPXLXdX    dXJXAXJXJXJXKXAXzX=.y i ",
"g g g g i i i i i i i i i i i g s s s s s s s s 3 3 y y s 2 $ . X X X X X X X X @ @ @ @ @ X O O X O * =.&.&.&.! #.#.+.+.+.+.+.+.+.+.#.+.;.J + %.y.i.u.u.u.y.y.y.u.u.u.u.y.y.y.y.y.3.> # 7 7 3 y y s * O O * y y y y y y y y y y y y y y y y y s y y y y y y y y y y y a a O . : iXhXhXhXqX).qXuXyX).uXBXBXmXlXHXKXHXtXrXpXrX).).iXhXhXkX`.o & O O 1 s y y y 3 3 y y y y y y y y y y y y y y y y y y y y y y y y y O . @ t t y y t 2 # %.+.+.+.+.+.&.%.&.&.#.&.-.+.+.#.+.;.J + %.y.i.u.u.u.u.y.y.y.y.y.y.y.y.y.y.t.p.1 1 y y y y y y y y y y y y y y y y y * . . 1 y a y y y t 2 a a a a y y y y 3 8 8 8 8 8 8 y y y y y y y y a % O # a s s i i y y y y s s s s 8 8 s s s y 8 3 y i 5 3 3 3 g y y s * . X @ $ $ @ X X X X X @ @ @ X X X X X X X X X X X X X @ @ X . # %.&.&.+.&.+.+.+.+.&.%.&.+.#.#.#.#.*.c + %.y.y.y.y.u.u.u.u.u.e.u.u.e.e.w.w.y.,., O + $ & & * * * * * * $ * $ $ $ $ % % % $ $ * * * $ $ $ $ $ $ O * y y y y y y y y y 3 3 y y 2 m.LXJXJXKXF.'.LX`.UXLXKXPXJXKXPXAXxX'.O y l ",
"g g g g i i i i g g i i g g g s s s s s s s s s 3 3 y y a 2 O . X X X X X X X X O @ @ @ @ X X X @ O * =.&.+.&.! +.#.+.+.+.+.+.+.+.+.#.+.&.O.+ %.y.i.u.u.u.y.w.y.u.u.u.u.y.y.y.y.y.3.> # 7 7 3 y y s * . . * s y y y y y y y y y y y y y y y s s y y y y y y y y y y y a d & . & qXjXhXhXrXqXtXhXyX).tXBXBXmXlXHXKXHXtXrXpXyXiX).iXhXkXkX`.& & @ O 1 s y y y y 3 y y y y s s y y y y y y y y y y y y y y y y y y a O . @ t t y y t 2 # %.+.+.+.+.+.&.%.&.&.#.&.&.+.+.#.+.*.O.+ %.y.i.u.u.u.u.y.y.y.y.y.y.y.y.y.i.t.p.1 1 y y y y y y y y y y y y y y y y y * O . 1 a a 2 t t 3 3 a a a a y y y y y y y y y y y y y y y y y y y a $ . $ a a y y y y y y y s s s s 8 s s s 8 8 8 8 y y s y 3 y y y y s % . . @ $ $ @ @ @ @ @ @ @ @ @ @ @ @ @ @ X X @ @ @ @ @ @ @ @ X . # %.&.&.+.+.+.+.+.+.&.%.&.+.#.#.#.#.&.O.+ %.y.y.y.y.u.u.u.u.u.u.u.u.e.e.w.w.y.,., O + $ & & * * * * * * $ * $ % $ $ % % & % $ $ * $ $ $ $ $ $ $ . % y y y y y y y y 3 3 3 3 y u u dXJXJXAX'.dXJXJXKXKXPXIXAXAXlXAXUX% $ 2 u ",
"g g g g s s s s s s y y y s s s s s s s s s s a 3 3 y y 2 1 O   X X X X X X X X . @ @ @ X X X X @ O * =.&.+.&.! +.#.+.+.+.+.+.+.+.+.#.+.&.%.+ %.y.i.u.u.u.y.w.w.u.u.u.u.y.y.y.y.y.3.> # 7 7 3 y y s * . . * s u y y y y y y y y y y y y y y s s y y y y y y y y y y y a d & . o tXDXmXjXsXuXhXyXyX).tXBXBXVXlXHXKXHXtXrXpXpXpXuXhXnXNXZX`.& & X O 1 s y y y y y y y y y s y y y y y y y y y y y y y y y y y y y a O . @ t t y y y 2 # %.&.+.+.K +.&.%.&.&.#.&.&.+.+.#.+.&.%.+ %.y.i.u.u.u.u.y.y.y.y.y.y.y.y.y.i.t.p.1 1 y y y y y y y y y y y y y y y y y * O . 2 a a 2 t t 3 3 a a a a 3 3 y y y y y y y y y y y y y y y y y a $ . O 2 2 y y y y y y y s s s s 8 8 s s s 8 8 8 s s s s 3 s s s a s * . . @ $ $ @ @ @ @ @ @ @ @ @ @ @ @ @ @ @ @ @ @ @ @ @ @ @ @ X . # %.&.&.+.&.+.+.+.+.&.%.&.+.$.$.#.#.+.O.+ J y.y.y.y.u.u.u.u.u.u.u.u.u.e.w.w.y.,., O + $ & & % * * * * $ $ $ $ $ $ $ % & & % + + * $ $ $ $ $ $ @ . % a y y y y 3 y 3 i 5 5 5 4 + 1 xXJXJXKXPXPXJXKXJXPXxXxXxXxXzX~.y O O y u ",
"y y y y s s s s y y y y y y y y y y y 3 y y y y y y y y s % . . . . . . X X X @ @ @ @ @ @ @ @ @ @ O + n &.&.&.! +.#.+.+.+.+.+.+.+.+.#.+.;.%.+ J y.i.u.y.w.w.w.w.u.u.u.u.y.y.y.y.y.7.> , 7 t t t s s * . X % a s y y y y y y y y y y y y y y y y 2 2 2 2 y y y y 1 1 y s $ $ @ o wXKXHXZXhXhXyXyXpXrXuXZXBXmXlXHXHXHXtXrXuXuXfXkXjXDXHXKX'.$ X   . + y g i y y s y y y y u u u u y y y y y y y y 2 2 y y y y y y t . . X - a a y t 2 + n &.#.+.K ! &.%.&.+.#.&.&.#.$.$.$.;.&.> J y.i.u.y.y.y.y.y.y.y.y.y.y.y.y.i.t.3.1 # y 3 3 3 y y y y y y y y 2 y y t t % . . # a s t y y 3 3 2 2 2 2 y t y y y y y y y y y y y y y y y y 3 2 O . O a a a s y y y y y y y y y s s s 8 s s s s 3 3 3 y s s s a a f * . . . @ @ @ @ @ O @ @ @ @ @ @ @ @ @ @ @ @ @ @ @ @ @ @ @ @ X . + n &.&.&.! &.&.#.&.&.&.&.&.$.$.$.$.;.&.+ J y.y.y.y.u.u.u.u.u.u.u.u.u.u.y.y.y.,.1 O % $ $ $ $ $ $ $ $ $ $ $ $ % % % % % & % + + + $ $ $ $ $ % . . % s d d y 2 3 5 5 &.<.1.r.s.O.>.xXPXPXJXKXKXKXJXAX-XzX-X=X-Xc.w.h.3.D <.h.",
"s s s s s s s s y y y y y y y y s s s s y y y y y y y y a % . . . . . . X X X X @ @ @ @ @ @ @ @ @ O + n &.&.&.! +.#.+.+.+.+.+.+.+.+.#.#.*.%.+ c y.i.u.y.w.y.w.w.u.u.u.u.y.y.y.y.y.3.> 2 a a a a y t & . . @ 2 y u y y y s s y y y y s s y y y y y y y y y y y y y y s s $ O . . `.KXHXZXkXhXyXyXyXeXuXBXBXmXlXHXHXHXtXrXpXpXfXfXjXBXHXHXG.X X   . + 1 y y y y y y y y y u u y u y y y y y y y y y y y y y y y y % .   . * a a a t 2 + n &.#.&.#.! &.%.&.#.#.-.&.#.$.$.$.*.%.+ c y.i.y.y.y.y.y.y.y.y.y.y.y.y.y.i.t.3.1 # y y 3 3 y y y y y y y y t s s y * & .   + 2 a t y y 3 3 a a a a y y y y y y y y y y y y y y y y g y 3 2 . . . * a 2 a y y y y y y y y y s s s 8 s s y s a a a a a a a a t t &     . . @ X X @ @ @ @ @ @ @ @ @ @ @ @ X @ @ @ @ @ @ @ @ @ X . + n &.&.&.! &.&.#.&.&.&.&.&.$.$.$.$.*.%.+ c y.i.y.y.u.u.u.u.u.u.u.u.u.u.y.y.y.,., O % $ & $ $ $ $ $ $ $ $ $ $ % % % % % & % + + $ $ $ $ $ $ & . . $ 2 y s y 2 3 3 k !.&X&X-X&Xp.-X-X-XzXxXzXSXPXKXxX-X-Xk.oX-X-X=X=X-Xc.&X-X",
"a a y y a a a a y u u u u u u y y y y y y y y y y y y y 2 + . . . . . . X X X X @ @ @ @ @ @ @ @ @ . + n &.&.&.! +.#.+.+.+.+.+.+.+.#.$.$.+.O.+ z y.i.y.y.y.y.y.y.u.u.u.u.y.y.y.y.y.7.> 2 t t y y 2 $ . . . . $ t u y y y s y y y y y s s y y y y y y y y y y y y y y t 2 O O .   G.HXHXZXkXyXpXpXpXeXuXBXBXmXlXHXHXHXuXrXpXfXfXyXjXBXHXFXC .     . + + 3 3 3 3 3 y y y y y y y y y y y y y y y y y y y y y y y 1 O . . . & * a t y 2 + n &.+.+.K ! &.%.&.&.#.-.&.$.$.$.$.*.O.+ c p.y.y.y.y.y.y.y.y.y.y.y.y.y.y.i.t.3.3 , y y 3 3 y y y y y y y y 2 a a 2 $ X     O % a a y y y y a a a a y y y y y y y y u u u y y y y y s 3 1 + . . . O % 2 y y y y y y y y y y s s 8 8 3 y y y 8 8 8 8 2 2 2 2 % & .       . . X X X X @ @ @ @ @ @ X X X X X X @ @ @ @ @ @ @ @ X . + n &.&.&.&.&.&.#.&.&.&.&.&.+.+.$.#.*.O.+ c y.y.y.y.u.u.u.u.u.u.u.u.u.u.y.y.y.,.1 O % % & & $ $ * $ * * $ $ $ % % % % % % % $ $ $ $ $ $ $ $ . . . . $ 2 y t y s i %.&X&X&X&Xj.c.-X*X&X*X&X^ -X=XxX=X*X*X[ oX*X*X*X*X*Xk.k.*X",
"1 1 1 1 2 2 2 2 * * * * * * * * 1 1 1 1 a a a a a y y y 1 O . . . . . . X X X X X @ @ @ @ X X X X . + n %.%.%.! +.+.&.&.+.+.&.&.+.#.$.#.O.n O l p.u.y.y.y.y.y.y.y.y.y.y.y.y.y.y.y.7., # % % % % * O . .   . O $ u u u y s s s s s s s s u u u u 2 2 2 2 1 1 1 1 2 * + O O . .   C LXHXZXjXuXpXpXpXeXuXBXBXmXlXHXHXHXuXrXyXfXfXyXbXBXHXAXM .     O O O # 2 2 2 2 a a a a y a a a a y y y y y y y 2 2 2 2 y 2 * O . . . . . @ % % a 2 + B &.&.&.&.&.&.%.&.#.#.-.&.*.$.$.#.+.O.+ z y.y.y.y.y.y.y.y.y.y.y.y.y.y.y.y.y.2.1 # y y y 3 t t t t t t t t $ * * % . .     O + 2 7 a t t a 2 2 2 2 t t t t 2 2 2 2 1 1 2 2 1 1 1 1 2 1 + O . . . . O + % 2 2 2 2 2 2 2 3 2 a a a a a a a a 1 1 1 1 # # # + $ . . .   . . . X X X X @ @ @ @ @ @ X X X X X @ @ @ @ @ @ @ @ @ X . O c &.&.%.%.&.&.&.&.&.&.&.&.&.+.#.*.&.O.+ z y.y.y.y.y.u.u.y.y.y.y.y.y.y.y.y.y.2., O % % & & $ $ $ $ $ $ % % & & & % % % % & $ $ $ $ & & & & . . . . O * t t t s < <.&X&X*X*Xk.c.+X+X+XoXc.S *X*X+X+X+X*X/ k.OXOXOX*X+X| { +X",
"O O O . O O O O . . . @ . . . . . . . . . . . . O O O O O O O . . . . .           . . . . .       . O s n c J J %.*.%.*.&.@.&.+.2.>.+.O.z s + y ;.w.y.w.w.w.y.y.y.y.u.y.,.,.,.2.+.n a   . O O O O O . . O O O O $ $ $ $ $ $ $ $ + $ O O O O O O O O O O O O O . . . . . . . . . f PXKXZXjXkXpXuXpXeXuXBXVXmXlXHXLXLXtXrXpXfXhXhXbXDXHXmX; @ @ . . O . $ O O . O . O O O $ O . . . . . O . . . . . . . . . . . . . . . . . . . . O O O a B O.J J %.&.@.+.#.@.&.+.2.;.+.O.z g + y ;.w.u.w.u.y.y.y.y.y.y.y.,.,.,.,.@.z * O . O O + O O O O O O O O . . . . . . . . . . . . O O O O . . . . .     . . . . . . . . . O O O O O O O O . . . . . O O O . . . . . . O . @ @ O . O O O $ O . . . . . . . . . . . . . . . . . . . . . . . .   . X   . . . . . . . . . . . . . @ 7 z z z z %.*.O.&.;.O.*.+.>.*.O.c l s O y ;.w.u.w.w.w.w.w.y.y.y.y.:.,.,.,.@.+.1 . O O . . . . . O . . . . .   . . . O @ . . O O O O O O . O . . O O O O O O . < c.&XoX+XoXY c.@XOXOX@Xc./ *X*X*X+X=X*X .k.OXOXOXOXOXk.l.oX",
"% % % % % % % % % $ O . . . . . . . . . O O O O % % % % % % % % % & & & @ @ @ @ . . O . O X .       . 1 s g g g j 8 j g c h J z c z g y s 2 . 1 J -.;.-.-.-.&.&.-.-.#.+.J J J J c l a @ % % % % 2 2 2 2 2 2 2 2 * * * * * * * * $ O . . . . . O % % % % % % # # & $ $ $ $ & & & a AXKXZXvXyXpXyXpXeXuXDXBXVXlXHXHXHXtXrXpXfXsXyXnXFXHXlXX @ O O O O . $ . . . . $ $ $ $ O . .     . . . O O O @ O O O O @ @ @ @ $ & % & % % % % % @ . a g j g j g i h p G z J z z z g y s 2 . 1 J &.-.-.-.-.-.-.-.-.+.+.H J J J O.n #       O O & & & & & & & & O O O O O O O O $ $ + $ % % % & % % % % @ .     . . . O . . . . O O O O % % % % # # # # % % % % O O O O . . . . .   . . @ & % 2 * * * * * * * * % % % % & & & % * * * * * * * * & . . . . . @ & * * * * * * * * & . . 7 g g g g g s j g G z J z c z l g s 2 . 2 J -.<.-.-.-.-.-.#.#.+.+.L L J J G %.2 . O . . . . . . . . . . . . . . $ $ * * & 2 2 2 2 * * * * * * * * * * * * O + r c.oXoXoXk.S oX+XOX+X+Xk./ *X*X*X*X*X*XY k.OXOXOXOX*XoXS *X",
"y y t y y y y y a * % @ . . . . 2 2 2 2 a a a a a a a a a a a a t t t t s s s a t a a t * $ .       . O s g q 8 j 8 x f j s x g x s s f = &   @ s x c j x z z c c c c c n n n n m a & % a y a a s s a a s s s s y y u u y y y s % $ . . . . $ % 2 3 3 3 y a a a s s s s t t t t a zXKXZXnXuXuXpXpXeXuXDXBXVXlXHXHXHXtXrXpXfXyXyXnXFXKXdX& a a 2 7 7 t f a a a a t t t t 2 % . .   . @ $ t t t t 2 3 2 2 y y 3 3 t y y y a a a a a 2 O % s g s s j g x g g g l g g s s f 7 %   # g c v c c c c c c c O.O.n n B B c a .       O O t t t t t t t t 2 2 2 2 2 a 2 t 2 2 2 2 t t t t a a t t * O . . O + % * 7 7 7 2 a y y y y y y y y y y y 3 3 y 2 2 2 2 2 # % $ O .     @ * t y y y y y y y u u u y y y y t t t t y y y y s s s s t & .   . @ % 2 a y y y y y y a 7 # O # g g s s x s x j g y j g s s f a * @   $ s z c z z z z z c c J J n n n n c s O . . . . . . . . . . . . . . . O % t s a t s s s s s s s s y y y y y y y s 8 q ( c.c.c.oXk.^ &X*XOX+X+Xk.r.=X*X*X*X*X*X) c.*X*X*X*X&XoXS &X",
"y y y y y y y y a a t * . . . O t y y y s s s s s y y y y y y y y y y y y y y y t s s y y % O .     . O 1 , , , + # O # # O 1 > + O O O O .   . O + > + + + # + + + + + + + + + $ $ % f y y y y 3 3 3 3 3 3 3 3 y y y y y y y y a * $ . . O # t a y y y y y y y y y y y y y y u t dXJXFXlXhXuXpXpXeXuXZXVXVXlXHXLXLXtXrXuXyXfXfXlXFXHX`.& a a 2 3 3 3 s t t t 2 s s s s s 2 $ . . X % 2 y y y y y y y y y y y y y y i y y y y y y a + + 1 3 1 1 # 1 + # # + 1 > + + + + O . . . . O + O + + + + # # # # # # # # O O .     . O + s u u u y y y y 3 3 3 3 y y 2 y y y y y y y y s t t y y 2 + . . + 1 t s a a a a s g g g y y y y 3 3 3 3 y y y y s f s s s s 2 % X   . % a y y y y y y y y y y y y y y y y y y y y y y y s s y s s t & . . & * s s y y y y y y y 8 a 2 O > > > # + # O # # + > + + + + + O .   . O + > + + + + + + + + + + + + + + O . & . . . . . . . . . . . . . O + 2 y s s t y y y y y y y y y y y y y y y y 3 3 Q ~ ~ 1.1.r 0 1.[ { [  .A W c.h.r.r.c.r.r ~ r.r.1.r.r.) r ( ",
"y y y y y y y y a a a a & . . a t y y t a a a y y y 3 3 y y y y y y y y y y y y y y y y i y % .   X . a %.%.%.%.=.B x O   * =.=.6.6.6.6.6.6.6.6.6.0.=.%.c c l + . . O % 1 1 1 1 1 O O 2 y i y y y y y y y y y y y y u y y y y y y s * . . % a a a a a y y y y y y y y y y y y u - -XKXFXnXhXhXuXuXeXyXDXBXVXlXHXLXHXtXrXuXhXkXhXMXFXKX'.- a t t 3 3 y y y y 3 3 y y y y s s * . . & t t y y y y y y y y y y y y y y y y y y y y y 2 + 2 %.%.%.B =.%.x + . 2 =.=.>.2.6.6.6.9.6.6.6.0.=.%.j j g O . O + 1 1 1 1 1 2 %   X X . O a a y y y y y y y y y y y y y y y y y y y y y y y u u y y y * O . # 1 y y 3 s s 3 y y y y y y y y s s s s y y y y s s s s y y y a @ . @ a a y y 3 y u y y y y y y y y y y y y y y y y y y u u y s s a * O O a f s a y y y y y y y 2 s # a %.=.=.B 0.B f O   # =.=.6.6.6.6.9.8.6.6.6.=.%.O.c c j + . O + 1 t t t t t O . & X @ @ @ X X X X X X X @ . O t y y y y y y y y y y y y y y y y y y y y y 1 + O # = O . . . . + w O O O O   . = @ . . . . . . 7 + O O O O ",
"y y y y y y y y a a y a & . . a y y y y y y y y y 3 3 3 y y y y y y y y y y y y y y y y y y 2 O . . O =.H.J.J.H.P.H.I.f . V ^.!.Q.W.W.W.!.!.!.!.W.W.W.W.!.W.L.6.O B 9.F.F.F.M.H.n.%.+ # y i i i y y y y y y y y y y u y y y y y y s * . . % a y a a a a a a y y y y y y y y y u t '.KXHXsX).uXuXpXrXfXDXBXmXlXHXKXHXtXrXpXfXtX).hXFXLXF.t a y t 3 3 y y y y 3 3 y y y y y s 2 O . % t y y y y y y y y y y y y y y y y y a a y y 3 2 + 0.I.L.I.I.J.H.H.g O =.~.!.!.!.!.!.!.!.!.~.W.~.W.W.&X~.T.6.O B 8.F.F.F.F.H.F.0..   X . O 7 a y y y y y y y y y y y y y y y y y y y y y y y u u y y y * O . 1 3 y y 3 s s 3 y y y y y y y a s s s s y y y y y y y y y y y a $ . @ a s y y y y y y y y y y y y y t t y y y y y y y y s s s s s s * O $ a s y a a a a a a a a s 2 # =.P.L.J.I.P.H.I.f . =.~.W.T.W.W.W.!.!.W.W.W.W.W.W.&XW.U.2.O x 9.F.K.H.K.K.n.5.& @ X @ @ @ X X @ @ @ X @ @ . O t y y y y y y y y y y y y y y y y y y y y y 2 $ . C M   X .     C x.. X       ; G.C           & F.C . . O . ",
"y y y y y y y y a a y y % . O t 3 3 y y y y y y y y 3 3 y y y y y y y y y y y y y y y y y y 2 O . . + 5.>.>.>.>.>.2.H.c O =.s.:.y.y.p.p.d.d.a.d.d.d.p.w.y.a.E.Y.> =.x.8.*.>.>.>.M.n.2 # y y i y y y y y y y y y y y y y y y y y y s 2 . O % y y y y y y y y y y y y y y y y y a a m.FXkXA.Z.(.).rX).pXDXBXnXlXHXHXHXtX).rX).A.Z.G.vXAXC a u t y 3 3 a y y y 3 2 y y y y y y t O O 2 y y y y y y y y y y y y y y y y y y y y y y y 1 + 6.2.3.>.>.>.>.f.c + =.f.y.y.y.y.p.d.d.d.a.j.d.d.y.y.d.E.U.< =.x.8.>.>.>.>.f.F.7 . . . # a y y y y y y y y y y y y y 3 y 3 y y y y y y y y y y y y s % . . 2 y y y 3 s s 3 y y y y y y y y y y y y y y y y y y y y y y y a $ . $ a t y y y y y y y y y y y y y y y y y y y y y y y u u y y y s * O $ a s y y y y y y y y a f 1 # 5.7.2.>.7.6.6.x.x O =.s.:.y.y.y.p.d.d.a.a.j.d.a.y.y.i.C.U.> %.8.9.>.>.>.>.7.9.1 O @ X @ X X X X X @ X @ @ . O t y y y y y y y y y y y y y y y y y y y y y 2 O . C M . @ .     C C       .   & C Z . . .     X C V . O O O ",
"y y y y y y y y y y y y % . O t 3 y y y y y y y y y 3 3 y y y y y y y y y y y y y y y y y y 2 O . O + *.O.O.K K &.*.*.j O =.y.i.w.w.y.y.e.w.w.w.q.q.w.w.q.:.a.s.> j %.J %.&.+.#.@.2.1 * y y y y y y y y y y y y y y y y y y y y y y 2 O O % y y y y y y y y y y y y y y y t y a - C wXS.Z.Z.S.Z.Z.Z.qXBXBXmXlXHXLXLX_.Z.Z.Z.S.S.C G.iXf a u y y 3 8 a y y y 3 2 y y y y 2 y t $ + 2 y y y y y y y y y y y y y y y y y y y y y y s * + B O.@.@.O.+.-.-.h + *.y.u.q.w.w.w.w.w.w.w.<.q.w.w.w.q.a.f.> j %.J %.&.+.%.O.=.2 . . . @ a y y y y y y y y 3 y y y y 3 3 y y y y y y y y y t y y y u % . . t y y y 3 s s 3 y y y y y y y y s s y y y y y y y y y y y y y y + . $ a 2 t y s y y y y y y y y y y y y y y y y y y y y u u y y y s * O % a u t y y y y y y y y a 1 + B O.;.-.O.;.;.*.g + *.y.u.q.w.w.w.u.u.e.u.q.q.q.w.q.q.a.s.4 k %.J &.-.-.$.+.2.2 . @ X X X X X X X X X @ @ . . t y y y y y y y y y y y y y y y y y y y y 3 , + O O . @ + O . O O O O O O O + + , O O + O O + + # + + + + + ",
"y y y y y y y y y y y a & . $ y y y y y y y y y y y y y y y y y y y y y y y y y y y y y y y * O @ $ + %.&.&.-.-.+.&.*.g + *.y.e.w.w.y.y.w.e.e.e.q.w.w.w.y.y.y.O.+ j *.%.%.&.+.+.;.O.+ 2 y y y 3 y u u u u u u y y y y y y y y y y s t . O * y y y y y y y y y y y y y y 1 t y x - N G._.tXkXkXkXuX(.).BXBXmXlXHXLXFX_.(.fXkXkXkXiX_.S.; t 1 y s a a a y y y y a y y y y y s 2 O O % y y y y y y y y y y y y y y y y y y y y y y s t + n &.#.#.-.-.+.&.g > >.i.u.w.y.y.u.y.y.u.w.e.q.w.w.u.y.y.K + g *.O.%.%.%.&.*.n O X . . * a y y y y s s y y y y y y y y y y y y y y y y y y y y y y s % . . & a s y y y y y y y y y y y y y y y y y y y y y y y y y y y y s # . O 7 a a 3 3 y y y y y y y y y y y y y y y y y y y y y y y y y y 2 O O a a s y y s s y y y y s 2 + %.&.+.+.+.-.-.%.i > >.y.e.y.y.y.y.u.u.u.y.y.y.w.y.y.y.y.J + g *.&.&.+.+.#.*.O.O . @ X @ @ @ @ X X X @ @ @ . . t y y y y y y y y y y y y y y y y y y y y 5 5 <.r.h.c.c.1.D c.c.c.c.c.c.0 c.oXoXoXoXoX&XA 1.c.k.c.k.c.c.( F ",
"y y y y y y y y y y y a & . + y y y y y y y y y y y y y y y y y y y y y y y y y y y a y t y * . @ $ + %.&.&.-.-.+.-.*.g + *.y.e.e.e.u.u.e.e.e.e.q.q.w.w.y.y.y.J + g %.O.&.&.+.+.;.O.+ 2 y y y y u u u u u u u u y y y y y y y y y s 2 . O * y y y y y y y y y y y y y y 1 y y 2 - (.lXDXGXDXBXnXnXpXfXDXBXmXlXHXLXHXsXpXmXmXBXDXGXZXlXG.- d y s y y a y y y y y y y y y y s * O O % a y y y y y y y y y y y y y y y y y y y y y s t + n &.#.#.#.-.O.*.g > >.i.u.w.y.y.y.y.y.u.w.e.q.w.w.u.y.y.K O g &.+.&.&.&.&.;.O.O X . . * a y y y y y y y y y y y y y y y y y y y y y y y y y y y y s * O . & a s y y y y y y y y y y y y y y s y y y y y y y y y y y y y s @ . O 7 a y 3 3 y y y y y y y y y y y y y y y y y y y y y y y y y y 2 + + a s y y y y s y y y y s 2 + %.&.#.+.+.#.-.%.i > ;.y.e.u.y.y.y.u.u.u.y.y.y.w.w.y.y.y.J + g *.;.+.+.+.+.;.O.O . X X X @ @ @ X X X X @ @ . . t y y y y y y y y y y y y y y y y y y y y i F k.oXoXoXoXr.) +XOXOXOXOXOXS &X*X*X*X*X*X*X/ c.+XOX+X@X+X+Xr.<.",
"y y y y y y y y y y y a & . + y y y y y y y y y y y y y y y y y y y y y y y y y y y a y t y * . O $ + %.&.&.-.-.+.-.*.g + *.y.e.e.e.e.u.u.u.u.u.w.w.w.w.y.a.y.H + s %.O.&.&.+.+.;.O.+ 2 y y y y u u u u u u u u y y y y y y y y y s * . . % y y y y y y y y y y y y y y y y y a G.jXZXMXjXyXuXuXuXrXyXDXBXmXlXHXHXLXtXrXuXtXuXfXjXBXAXlXF.; t 2 y y y y y y y y y y y y y s * O O % a y y y y y y y y y y y y y y y y y y y y y s y + O.&.#.#.#.-.K *.g > >.u.u.w.y.y.y.y.y.u.y.e.q.w.w.u.y.y.K O g &.+.&.&.&.&.;.O.O X . . * a y y y y y y y y y y y y y y y y y y y y y y y y y y y y s * O . & a s y y y y y y y y y y y y y s s y y y y y s s s y y y y y s @ . O 2 a y 3 3 y y y y y y y y y y y y y y y y y y y y y y y y y y 2 + + a y y y y y s y y y y s 2 + %.&.#.+.+.#.-.&.i > >.y.t.u.y.y.y.u.u.u.y.y.y.w.w.y.y.y.J + g *.;.+.+.+.+.;.O.O . X X X X @ X X X @ @ @ @ . . t y y y y y y y y y y y y y y y y y y y y i P k.oXc.oXc.( ) +XOXOXOXOXOXS &X*X*X*X*X*X*X/ k.+XOXOX@XOX+Xr.( ",
"y y y y y y y y y y y a & . + y y y y y y y y y y y y y y y y y y y y y y y y y y y a y t y * . O $ + %.&.&.-.-.+.-.*.g + *.y.e.e.e.e.u.u.u.u.u.w.w.w.w.y.a.y.G + s %.O.&.&.+.+.;.O.+ 3 y y y y u u u u u u u u y y y y y y y y y s * . . % y y y y y y y y y y y y y y l 2 y V _.(._.rXtXyXfXuXpXqXuXDXBXmXlXHXKXLXuXrXyXfXyXtXiX).(.(.`.f 2 y y y y y y y y y y y y y y s * O O % a u y y y y y y y y y y y y y y y y y y y y s y + O.*.#.#.#.-.K *.g > >.u.u.w.y.y.y.y.y.u.y.e.w.w.w.y.y.y.K O g &.+.&.&.&.&.;.O.O . . . * a y y y y y y y y y y y y y y y y y y y y y y y y y y y y s * @ . & a s y y y y y y y y y y y y y y y y y y y s s y s y y y y y s @ . O 2 a y 3 3 y y y y y y y y y y y y y y y y y y y y y y y y y y 2 + + a y y y y y y y y y y s 2 + %.&.#.+.+.-.-.&.i > >.y.t.u.y.y.y.u.u.u.y.y.y.w.w.y.y.y.J + g *.;.+.+.+.+.;.O.O . X X X X @ @ X X @ @ @ @ . . t y y y y y y y y y y y y y y y y y y y y i ! c.oXoXoXoX^ { +XOXOXOXOXOXP &X*X*X*X*X*X*X/ k.+XOX+XOXOX+Xr.( ",
"y y y y y y y y y y s t O . $ s y y y y y y y y y y y y y y y y y y y y y y y y y y a y y s - . O O O O.+.+.+.K H K %.i + *.y.t.u.u.u.u.e.e.u.u.u.u.y.w.y.y.3.G + g %.O.&.&.+.+.;.J + 3 y y y y u u u u u u u u y y y y y y y y u d * . . * s y y y y y y y y y y y y y y g x 5.S.].Z.Z.A.).uXpXpXeXuXDXNXnXjXHXKXHXtXrXpXyX).A.Z.Z.].S.G.V t y y y y y y y y y y y y y y t $ O O * s y y y y y y y y y y y y y y y y y y y y y s t + n &.#.#.#.! K *.g > >.i.u.u.y.y.y.y.y.y.u.u.u.y.y.y.y.y.H + j &.+.+.+.&.&.;.O.O X . . 2 d y y y y y y y y y y y y y y y y y y y y y y y y s s y y d 2 O . @ * s s y y y y y y y y y y y y y y y y y y y y y y y y s y y t @ . . 7 a y y y y y y y y y y y y y y y y y y y y y y y y y y y y 3 2 O + t y g y y y y y y y y s 2 + %.&.#.+.K -.-.&.5 > >.y.u.u.u.y.y.u.u.u.u.y.y.y.y.y.y.3.H O s &.&.*.*.#.$.;.O.O . X X X X @ @ @ @ @ X X X . . a s y y y y y y y y y y y y y y y y y y y i w.oXoXoXoXc.S c.+XOXOXOXOXoXS *X*X*X#X#X*X*XY r.OXOXOXOX+X@Xr.F ",
"y y y y y y y y y y y % O . + t y y y y y y y y y y y y y y y y y y y y y y y y y y a y y y % . O O + %.&.+.-.-.K +.&.g + *.y.u.u.u.u.u.e.e.u.u.u.u.y.y.y.y.3.G + g %.O.&.&.+.+.;.J + 3 y y y y u u u u u u u u y y y y y y y y s a % . . % a y y y y y y y y y y y y y y y y d G.(._.rXiXuXpXyXpXqXuXDXNXnXlXHXKXHXtXrXyXfXfXuXrX)._.'.G.f t y y y y y y y y a y y y y y t % O O $ t y y y y y y y y y y y y y y y y y y y y y s t + n &.#.#.#.! K *.g > >.i.u.u.y.y.y.y.y.y.y.u.u.y.y.y.y.y.H + j &.+.+.+.&.&.&.O.O .   . * s y y y y y y y y y y y y y y y y y y y y y y y y s s y y s % . . O * y y y y y y y y y y y y y y y y y y y y y y y y y y s y y t O . . # a y y y y y y y y y y y y y y y y y y y y y y y y y y y 2 a 2 . . 2 s y y y s y y y y y s 2 + %.&.#.+.K -.-.%.i > >.y.u.u.u.y.y.u.u.u.u.y.y.y.y.y.y.3.H O s &.&.*.*.#.#.;.O.O . X X X X X @ @ @ X X X X . O t t y y y y y y y y y y y y y y y y y y y i r.oXoXoXoXc.A c.OXOXOXOXOXoXS *X*X*X#X#X*X*XY k.OXOXOXOX+X@Xk.F ",
"y y y y y y y y s s t + O . O 2 y y y y y y y y y y y y y y y y y y y y y y y y y y a y y 1 O . @ $ + %.*.-.-.-.K &.*.g > >.p.i.u.u.e.e.e.e.u.u.u.u.y.y.y.y.3.G + g %.O.&.&.+.+.;.O.+ 1 y y y y u u u u u u u u y y y y y y y y s t @ . . @ * y y y y y y y y y y y y y y y 3 * M `.hXfXpXyXuXyXpXeXtXDXMXnXlXHXHXLXtXrXpXpXpXyXyXhXsX`.a % d 1 y y y y a a a a y y y y y t % O O O 2 y y y y y y y y y y y y y y y y y y y y y s t + n &.#.#.#.! K *.g > >.i.u.y.y.y.y.y.y.y.u.y.u.w.w.y.y.y.H + j *.+.&.&.&.&.&.O.@ .   . $ 2 u y y y y y y y y y y y y y y y y y y y y y y y s s y y u $ . . . % t y y y y y y y y y y y y y y y s y y y y y y y y y s y y t . . . + a y y y y y y y y y y y y y y y y y y y y y y y y y y y 1 a @ . . @ a t y y s s y y y y s t + %.&.#.+.K -.-.%.5 > >.y.t.u.u.u.y.u.u.u.u.y.y.y.y.y.y.3.H O s &.*.*.*.#.#.;.O.O . X X . O X X @ @ @ @ X X . . * 1 y y y y y y y y y y y y y y y y y y y i a.oXoXc.oXc.S c.OXOXOXOXOXoXS *X*X*X*X*X*X*XY k.OXOXOXOX+XOXk.F ",
"y y y y y y y y s a % $ O . O $ y y y y y y y y y y y y y y y y y a a y y y y y a a a a 2 + . . @ $ + %.*.-.-.-.K &.*.g > >.p.i.y.y.y.w.w.w.y.y.y.y.y.y.y.y.3.G + g %.%.&.&.&.&.&.%.# % a y y y a s a a a a a a y y y y y y y y a * . . . . % a y y y y y y y y y y y y y y s s - Z (.iXyXyXyXyXpXqXuXDXMXnXlXHXHXLXtXrXfXpXfXfXyXrXG.- t t s s a a a a a a a a a a a y a t % . . O $ s a a a a a y y y y y y y y y y y y y y y s 2 + n &.#.-.-.-.K *.g > >.y.y.y.y.y.y.y.y.y.y.y.w.w.w.y.y.y.H + j *.&.&.&.&.&.*.%.@ . . . @ $ a u u y s s s s y y s s s s s s s s s s s s s s s a s s a $ . . . $ 2 t y y y y y y y y y y y y s y s y y s s s y y y y s y y t . . . O a a a a y y y y y y y y y y y y y y y y y y y y s s s s 7 * . . . . * a s s s s s s s s s t + %.&.#.#.#.-.-.&.5 > >.y.y.y.y.y.y.y.y.y.y.y.y.y.y.y.3.3.J + s *.&.*.*.*.*.;.O.O . X X O O X X @ @ @ X X X . . % $ a y a a a y y y y y y y y y y y y y y 5 j.oXoXk.oXc.S c.OXOXOXOXOXoXS *X*X*X#X#X*X*XY k.OXOXOXOX+XOXk.S ",
"2 2 2 2 2 2 2 * & & & & . . . . % * * * t t 2 2 * * & & % % & O & & & & $ $ $ $ $ @ @ @ . . . . @ . + l O.O.#.-.:.%.c < + J 3.3.y.3.y.y.y.y.y.y.<.,.,.3.;.-.+.O.4 g J *.*.*.*.*.O.c $ & # # 1 1 * % % * ; * * % 2 2 2 2 2 2 2 2 . . . . . . . . * * * * 2 2 % 1 % % * * % % % * - & ; S.A.(.(.(.A.Z.).ZXNXmXlXHXHXFX(.Z.(.(._.(.S.S.; O % % * * * * * * * * * * ; a ; ; % @ . . . . . . & & & & * * * * * * * * t t t t % % % % 2 O + s c @.-.;.;.&.O.< 4 J 3.3.,.,.,.,.y.y.y.y.<.,.,.y.,.<.#.K > g %.*.*.*.*.*.=.l @         . & % % % % % % % * * % % % % & & % % $ $ * * * - - - - - . . . . @ $ $ $ * * * * 2 2 2 2 * 7 a a 7 2 2 2 a a a a a s s a a 2 % $ . . . O O % * a a a a a * * * * $ $ $ $ $ $ $ $ O O O O @ @ @ @ . . . . . . . . ; ; - - * * = = @ O + l O.O.-.-.3.&.c 4 > z ,.:.,.,.,.,.,.,.,.,.<.,.3.3.;.;.#.O.> g %.%.*.*.*.*.O.x $   . . . . X X X X . . . . . . . . . . . . % % % % * * * * a 2 t % * 7 2 q c.oXoXoXoXk.S @X+XOXOXOX+Xk.l.*X*X*X#X#X#X*XY k.OXOXOXOXOXOXc.S ",
"O O O O O O O O X @ . . . . . . O O O O O O O O O O . . . . @ @ . . . . . . . . . . . . . . . . O . $ f z c J K k j x 2 + g J G G G J J J J J J k J J J z z z c + 3 j c n O.O.n l s . X O O O O O O . . . . . . O O O O O O O O . . . . . . . . O O O O O O O O . . . . O O O O O X ; dX(.Z.].Z.(.A.iXDXNXmXlXHXKXHX).(.A.S.Z.S.).iX- O O O @ & . . . . O . @ @ @ @ X @ . . . . . . . . . . . . . . . . . . . . . O O . . . . . O O # f l z c O.O.c j 1 4 g z O.J J J J J J J G L J J J J J k h + 3 c v c c c n x d . . . .     . . . . . . . O O O O O . . . .   . . . O O O O O O O O O O O O O O O O O O O O . . . . . . O O O O O O O O O O O O O O $ O O . O O O O . O $ % O O O O O O O O O . . . . . . . . . . . . . . . . . . . . . . . . . . . . . . . . . O f g z G J J z z 1 > q h J J J J J J c c c k J J J G G G c + 3 x x c c c c j s . . . . O . . . . . . . . . . . . . . . . . O O O O O O O O $ O $ . . O + < oXoXoXoXoXk.S @XOXOXOXOX+Xk.l.*X*X*X#X#X#X*XY k.OXOXOXOXOXOXc.S ",
"t t t t t t t t t t t t a a a a 2 2 2 2 1 1 1 1 + + $ $ . . . O . . @ $ $ $ $ $ # # % % * * * * a % $ O 2 2 9 8 6 , # O O 2 x z x x x x s s s s 8 8 g j x j 8 2 O # 7 s s s s s s # O * a a a a + O O . . . . O $ $ $ $ $ $ $ $ % & & & & & & & $ $ $ $ $ $ + + $ $ $ $ . O . . & . ; AXMX_.A.rXuX).sXDXNXmXlXHXLXLXuXrXyXeXA._.FXlX- t + O . . . . . . . . . . . . . . . . . . . . . . . . . . . . . . . . . . . . . . O + % % 2 % $ $ 7 a 7 7 a 3 2 + O a x x g j j j s s s s s g j j v k q , O + 7 s s s s s t - . X @ O O O O O O O @ @ @ @ O O O @ . . . . . O % * * * * * 2 2 2 2 t t t t t t t t % % % % # @ @ @ O . . . . . . . O O O O % % % % 2 2 1 1 t t t t 2 2 t t % % % % * * * * $ . . . . . @ $ O + + + + + + + $ $ $ $ $ $ $ $ * * $ $ + # # + * O O % 2 2 2 2 s 3 2 . O 7 x c x x x x s s s s s g j j z j s 2 O # a 7 s s s s s 2 . . 7 7 7 7 t t t t * * * * $ $ $ $ * * * * t t t t 2 2 * * O . . . . @ > q oXoXoXoXoXk.S @XOXOXOXOX+XX.T *X*X*X#X#X#X*XY k.OXOXOXOXOX+Xc.S ",
"y y y y s s s s s s s s s s s s y y y y y y y y y t a a % O . . . @ % * s s s s a t t t a a s a t d a . O O O + O O # O O + > > + + + + O O O O O O + + + O O O . . . O + + + + + . % 2 3 3 3 3 y 1 + O . . O $ % % % % * % % % % % % % % % % % $ $ $ $ $ $ $ $ & & $ $ . O . . O - C AXHXjXuXkXpX).yXDXNXmXlXHXHXFXuX).fXhXfXnXHXlXf 2 2 % O . @ O . . . O @ @ @ @ @ X . . . . . . . . @ @ @ @ X X X X X X X X . . . O + % 2 a s a % O O O O O O O + O O + > + + + O O . . . . O O + + + + O . O . O O O O O O $ $ @ @ $ $ $ $ $ $ $ $ % % % % $ $ % & . . . . $ $ t a a a a a y y y y y y y y s s s s y y y y a a a a a 2 % % O O O O a a a a a a a a a s f s y y y y y y y y y y y y y y y s * & . . . . & * t t t t y y y y y y y y s s s s s s s s a a a a a a % . O + O O O O + O O + > + + + O O . . . . O + + > + + + O . . O . O O O O O O + # 7 7 7 t s s s s u u u u y t y y y y y y y y u u y y y a & X @ . O 1 3 D oXoXoXoXoXk.S @XOXOXOXOX+XX.T *X*X*X#X#X*X*XY k.OXOXOXOXOX+Xc.S ",
"y y y y y y y y y y y y y y y y y y y y y y y y u s s s t * $ . O % 2 2 y y y y y y y y y y y y s 2 % 7 0.7.9.6.9.8.H.J.M.n.8.9.*.*.%.n s O O 1 8.H.H.8.9.*.%.%.B c B %.%.O.O.%.s + # a y y y y y a % O . O O + $ $ $ $ $ $ $ $ $ * * * * * * $ $ $ $ $ $ $ $ $ % % % % $ O O * d t M AXHXNXhXpXyX).sXFXNXnXlXHXHXLXuXrXpXfXkXNXHXlXf s y 2 % . O O O . . . O O @ X X X @ @ @ @ X @ X X @ @ @ @ @ X @ @ @ X X X X . . @ # a s y x y 1 # =.>.6.8.9.8.H.J.f.8.9.9.*.%.%.n d O + 1 8.H.J.7.9.>.%.%.Q Q %.Q %.%.%.%.n * @ & % $ $ $ $ $ $ $ $ $ $ $ $ $ % % & O . . $ 2 t s a a a y y y y y y y y y y y y y y y y y s s s s s y 2 1 O . O % a y y y a a a a a a a a u y y y y y y y s s s s y y y y d s % . O * t y y y y y y y y y y y y y y y y y y y y y y y y y s a # # 6.7.9.>.7.9.f.J.f.f.9.9.*.*.%.B s O O % 8.H.H.f.8.>.*.%.B B B B O.O.O.%.j # # a 2 2 2 y y y y y i i y y y y y y y y y y y y y y y y y y a . . . # 2 , D oXoXoXoXoX .S @XOXOXOXOX+XX.T *X*X*X#X#X#X*XY r.OXOXOXOXOXOXc.S ",
"y y y y y y y y y y y y y y y y y y y y y y y y y t y y a t & . O 2 t t y y y y y y y y y y y y y s % B W.E.U.Y.T.L.Y.U.Y.Y.R.R.W.W.W.Q.P.y O 8.T.U.U.T.W.!.!.W.!.Q.!.!.W.W.W.W.^.0.# a y y y y y s 2 O O O + + $ $ $ $ $ $ $ $ $ $ * $ * * * $ $ $ $ $ $ $ $ $ % % % % O O O * d t M IXFXmXyXyXyX).sXFXNXmXlXHXHXLXtXrXfXfXkXZXHXkXa y y y % . @ O O . . . O O @ X X X @ @ @ @ X X X X X @ @ @ @ X @ @ @ X X X X . . @ # a s y s y # %.T.T.T.T.T.Y.Y.U.V.V.Y.Y.W.W.~.Q.P.s O 8.Q.T.E.T.T.R.R.T.W.W.W.W.W.W.W.W.Q.0.. @ $ $ $ $ $ * $ $ $ $ $ $ $ $ $ % % @ . . * t y y y y y y y y y y y y y y y y y y y y y y i i y i y y y 2 O O + 1 y y y y y y y y y y y y y y y y y y y y y y y y y y y y s y * O $ t s y y y y y y y y y y y y y y y y y y y y y y y y y 2 a # B T.E.R.!.Y.Y.U.V.V.Y.Y.R.!.!.!.~.P.s O 8.T.Y.Y.R.T.W.W.T.~.~.!.!.!.!.!.!.~.=.+ # 2 2 3 y y y i i i i i i y y y y i i i y y y y y y y y y a O . . 2 7 2 Q c.oXoXoXoX .S @XOXOXOXOX+XX._ *X*X*X#X#X#X*XY r.OXOXOXOXOXOXc.S ",
"y y y y y y y y y y y y y y y u y y y y y y y y y y y y s a % O + 2 y y y y y y y a a y y y y y y y O x s.w.,.3.p.y.4.q.t.y.y.p.p.p.s.s.L.z + 8.p.y.y.p.,.p.d.y.g.s.d.d.d.d.d.d.U.8.# # t 3 3 3 y s 2 + O + % + $ $ * * $ * $ $ $ $ $ $ $ $ $ $ * * $ $ $ $ $ * % % % % $ O O 2 d t f lXLXmXsXyXyX).sXFXNXmXlXHXKXLXtXrXfXfXkXZXHXgXu y i y 2 O O O . . . . O O @ @ X X X @ @ @ X X X X X X @ @ @ @ @ @ X X @ @ X . . @ # a s a l s O %.f.p.3.,.p.y.y.q.q.t.y.y.p.s.s.s.L.z + 8.,.,.y.a.y.a.d.p.s.s.d.d.d.d.a.s.B.M.2 + $ $ $ $ * * * $ $ $ $ $ $ $ $ % * $ . . 2 y y y y y y y y y y y y y y y y y y y y y y y y i i y y y y y O O + 2 y y y i y y y y y y y y y y y y y y y y y y u u y y y y y y * @ & a s y y y y y y y y y y y y y y y y y y y y y y y y y a s O B f.y.3.y.i.y.t.q.t.y.y.p.p.y.s.9.I.z + 8.p.y.y.p.y.d.d.p.f.f.f.d.d.d.d.d.N.7.+ 2 7 7 3 3 y y y y y i y y y y y y y y y y y y y y y y y y a * . . 7 2 # Q c.oXoXoXoX .S @XOXOXOXOX+XX._ *X*X*X#X#X#X*XY r.OXOXOXOXOX+XoXS ",
"y y y y y y y y y y y y y y y u y y y y y y y y y y y y s s * O * y s y y y y y y y a y y y y y s 2 1 B ,.i.p.p.,.,.q.q.i.u.t.q.q.y.y.p.,.q , >.,.y.y.q.y.q.q.y.y.y.y.i.t.t.t.t.y.>.# a a y y y y s 2 + + # % + $ $ * * * * $ $ $ $ % % % % % % * $ $ $ $ $ $ * & % % % $ O O * d t a lXHXMXhXhXyX).sXGXNXmXlXHXKXLXtXrXpXfXkXNXHXdXu y i s 2 O O O . . X . O O @ @ X X X @ @ @ X X X X X X @ @ X X X X @ @ @ @ @ . . $ * a s y y 2 + c 2.y.,.,.y.w.t.q.t.t.q.:.y.y.y.s.>.5 > >.y.y.w.q.i.w.q.y.y.y.y.y.t.t.y.y.3.*.> # * * $ $ * * * $ $ $ * * $ $ % % * & . . t y y y y y y y y y y y y y y y y y y y y y y y y y i i y y y s O O # 2 y y y i y y y y y y y y y y y y y y y y y u u u y y y y t y * $ * a s y y y y y y y y y y y y y y y y y y y y y y y y y 1 2 O z ,.i.p.y.y.y.t.t.u.i.y.q.:.:.y.p.>.q , 0.,.y.y.q.i.y.q.y.y.y.y.y.y.y.y.y.y.>.1 s 7 7 3 y y y y y y y y y y y y y y y y y y y y y y y y y y t . . 2 # O Q c.oXoXoXoX .S +XOXOXOXOX+XX.{ *X*X*X#X#X#X*XY r.OXOXOXOXOXOXoXS ",
"y y y y u u u u y y y y y y y y y y y y y y y y y y y y y y % . % y s s y y y y y y y y y y y y y 2 # =.y.y.y.y.y.y.i.i.y.y.y.y.y.y.y.w.y.J + =.p.u.u.y.u.y.y.w.y.y.y.y.i.i.i.i.d.;.> % y y y y y s 2 + . $ % + $ $ $ * * * $ $ $ $ $ $ $ $ $ $ * $ $ $ $ $ * * & & & & $ O O t y 2 u zXLXMXhXpXyXeXuXFXBXmXlXHXHXLXtXrXpXhXkXMXHXUX% y 3 l % O O O . . @ @ @ @ X X X X @ @ @ @ X X X X X X X @ X X @ @ @ @ @ @ @ . . @ t y y y y 1 + *.y.y.y.y.y.u.i.i.u.u.u.y.y.y.u.y.y.H + =.3.y.w.y.y.y.y.y.y.y.y.y.y.y.y.w.y.>.4 + * * * * $ % % % % % $ $ $ % % % % & . . 2 y y y y y y y y y y y y y y y y y y y y y y y y y y y y y y y # . % y y y y y y y y y y y y y y y y y y y y y y y y y y y y y y 2 2 O # 2 a 2 y y y y y y y y y y y y y y y y y y y y y y y y y 1 + =.y.y.y.w.w.y.y.u.u.y.y.y.y.y.u.y.y.J + %.y.u.u.y.y.y.w.w.w.w.y.y.y.y.y.y.i.;.+ 2 8 y y y s s y y y y s y y y y y y y y y y y y y y y y y y 1 . O % 2 # k c.oXoXoXoXk.S +XOXOXOXOX+X| _ *X*X*X#X#X#X*XY r.OXOXOXOXOXOXoXS ",
"y y y y u u u y y y y y y y y y y y y y y y y y i y y y y y & . % y s s y y y y y y y y y y y y y 2 + *.y.y.u.u.y.y.y.y.y.y.y.y.y.y.u.y.p.K + Q y.u.u.y.u.y.y.y.u.y.y.y.y.i.i.i.a.:.> # y y y a y s 2 O . @ % + $ $ $ $ * * $ $ $ $ $ $ $ $ $ $ * * $ $ $ $ * * & & & & $ O O t u u u dXHXNXhXuXuX).uXFXBXmXlXHXHXGXtXrXpXfXkXNXLX`.2 u 3 s * O . O . . @ @ @ @ @ @ X X @ @ @ @ X X X X X X @ @ X @ @ @ @ @ X X @ . . @ t y y y y 1 + *.y.y.y.y.u.u.i.y.u.u.u.u.y.y.u.u.y.K + Q 3.y.w.y.y.y.y.y.y.y.y.y.y.y.y.y.y.,.1 + * * * * $ $ % % % % $ $ $ $ $ % % & . . 2 y y y y y y y y y y y y y y y y y y y y y y y y y y y y y y y @ . % y y y y y y y y y y y y y y y y y y y y y y y y y y y y y y 3 2 O + 2 a 2 y y y y y y y y y y y y y y y y y y y y y y y y y 1 + *.y.y.w.w.w.y.y.y.w.w.y.y.y.u.t.u.y.H + Q y.y.u.u.y.y.w.w.w.w.y.y.y.y.y.y.i.:.> # y y y y s y y y y s s y y y y y s y y y y y y y y y y y y 1 . O % 2 % z oXoXoX{.oXk.S *XOXOXOXOX+X| { *X*X*X*X#X*X*XY r.OXOXOXOXOXOXoXS ",
"y y y y y y y y y y y y y y y y y y y y y y y y i y y y y y & . * y s s y y y y y y y y y y y y y 2 + *.y.y.y.w.y.y.y.i.w.w.y.y.y.w.u.y.p.%.+ c y.u.u.y.y.y.y.y.u.u.y.y.y.y.i.i.i.3.1 + y y y a y a 2 $ . @ * $ $ $ $ $ * $ $ $ $ * * * * * $ $ * * $ $ $ $ $ * % % & % & O O t y d 2 -XFXNXkXpXyXqXsXGXBXmXlXHXHXLXuXrXpXpXjXZXLX'.t s y a t . . O . . O @ @ @ @ @ @ @ @ @ @ @ @ @ X X X X X X X X @ @ X X X X @ . . @ t y y y y 1 + *.3.y.w.w.u.u.i.i.u.u.u.u.y.y.u.u.a.&.+ c 3.y.w.y.y.w.y.y.y.y.y.y.y.y.y.y.w.,.3 O * * % * $ % % % % % $ $ * * $ % % & . . 2 y y y y y y y y y y y y y y y y y y y y y y y y y y y y y y y @ . % y y y y y y y y y y y y y y y y y y y y y y y y y y y y y y 3 2 O + 2 a 2 y y y y y y y y y y y y y y y y y y y y y y y y y 1 + *.y.y.y.y.y.y.y.y.w.w.y.y.y.u.t.u.y.+.+ k y.y.y.y.y.y.y.y.w.y.y.y.y.y.y.y.u.3.> + y y y y y y y y y y y y y y y y s s y y y y y y y y y y y 1 O O # % 2 k c.oXoX{.oXk.S +XOXOXOXOX+X| { *X*X*X#X#X*X*XY r.OXOXOXOXOXOXoXS ",
"y y y y y y y y y y y y y y y y y y y y y y y y i y y y y y & . * y s s y y y y y y y y y y y y y 2 + =.y.y.y.y.y.y.y.y.w.y.y.y.y.y.u.y.p.*.+ j y.y.y.y.y.y.y.y.u.u.y.y.y.y.i.i.i.3.1 + y y y a y a 2 $ . @ % $ $ $ $ $ * $ $ $ $ * * * * * * $ $ $ $ $ $ $ $ * % % % % & O O t y l % '.LXZXkXuXyXeXyXGXBXmXlXHXHXGXtXqXpXtXjXZXPXI.t y y 2 a . . O . . . @ @ @ @ @ @ @ @ @ @ @ @ @ @ X X X X @ X X @ @ X X X X @ . . @ t y y y y 1 + *.7.y.w.e.u.u.y.y.u.u.u.u.y.y.e.e.a.;.+ j 3.y.w.y.w.w.y.y.y.y.y.y.y.y.y.y.w.,.3 O # * % * $ % % % % % $ $ * * $ % % & . . 2 y y y y y y y y y y y y y y y y y y y y y y y y y y y y y y y @ . % y y y y y y y y y y y y y y y y y y y y y y y y y y y y y y 2 2 O + 2 a 2 y y y y y y y y y y y y y y y y y y y y y y y y y 1 + *.y.y.w.y.y.y.y.y.w.w.w.y.y.u.t.u.i.-.+ j y.y.y.y.y.y.y.y.w.y.y.y.y.y.y.y.t.3., + y y y y y y y y y y y y s y y y y s y y y y y y y y y y y 1 O O # + a k c.c.oXoXoXr.S @XOXOXOXOX+X| { *X*X*X*X#X*X*XY r.OXOXOXOXOXOXoXS ",
"y y y y y y y y y y y y y y y y y y y y y y y y y y y y y 2 . . t y s s y y y y y y y y y y y y y 1 + >.y.y.y.y.y.y.u.u.u.u.w.w.y.y.w.w.d.>.O c y.i.i.y.y.y.y.y.i.i.i.i.y.y.y.i.i.,.1 + 3 3 3 8 y 3 % O . O @ $ & & & & % % $ $ $ $ $ * * $ $ $ $ $ $ $ $ $ $ $ % % & % * O O 2 y u 2 '.LXNXjXpXpXqXsXGXBXMXlXHXHXHXtXrXpXkXjXZXPX5.t s y s a @ . . . . . . . . X X @ @ @ @ @ @ @ @ X X X X @ @ X X X X X @ @ @ . . . . 2 y y y y 2 > >.3.w.w.w.y.y.y.y.i.i.u.u.y.y.u.u.d.>.O c p.y.y.y.y.y.y.y.y.y.y.y.y.y.y.y.y.3.3 O # % % % % & % % % % $ $ * * $ $ % & O . 1 y y y y y y y y y y y y y y y y y y y y y y y y y y y y y y y O . O 2 y i y y y y y s y y y y y y y y y y s y y y y y y y y y s a 2 O + 2 s a y y y y y y y y y y y y y y y y y y y y y y y y 3 2 > 0.y.w.w.w.y.y.w.w.w.w.y.y.y.u.e.u.a.>.O c y.y.y.y.y.y.y.y.y.y.y.y.y.y.y.y.t.3., + a y y y y y y y y y y y s y y y y y y y y y y y y y y y s 1 . @ # 2 % 8 <.k.oXoXoXk.S @XOXOXOXOX+Xk.l.*X*X*X*X*X*X*XY r.OXOXOXOXOXOXc.S ",
"y y y y y y y y y y y y y y y y y y y y y y y y y y y y y 1 . . 2 u y y y y y y y y y y y y y y y 1 + >.y.y.y.y.y.y.y.u.u.u.w.w.y.y.w.w.y.%.O z y.i.y.y.y.y.y.y.i.i.y.y.y.y.y.i.i.,.1 + 3 3 3 8 y 3 % O . O $ $ & & & & % % % $ $ $ $ * * $ $ $ $ $ $ $ $ $ $ $ % % & & % O O * y u u m.DXNXjXhXpXrXsXGXZXMXlXHXHXHXtXrXfXkXbXFXAXV t u y s * @ . . . . . . . . X X @ @ @ @ @ @ @ @ X X @ X @ @ X X X X X @ @ @ . . . . 2 y y y y 2 > >.3.w.w.w.y.y.y.y.i.i.u.u.y.y.t.t.y.&.O z 3.y.y.y.y.y.y.y.y.y.y.y.y.y.y.y.y.3.3 + # % % % % & % % % % $ $ $ $ $ $ % % O O 1 y y y y y y y y y y y y y y y y y y y y y y y y y y y y y y y O . O 2 y i y y y y y y y y y y y y y y y y s s y y y y y y y y s 2 % O $ 2 s y y y y y y y y y y y y y y y y y y y y y y y y y y 2 > 0.y.w.y.y.y.y.w.w.w.w.y.y.y.u.e.t.y.+.O k y.u.y.w.y.y.y.w.y.y.y.y.y.y.y.y.t.3., + a y y y y y y y y y y y s y y y y y y y y y y y y y s s s % . O # 2 % 8 r. .k.oXc.k.r oXOXOXOXOX+Xk.l.*X*X*X*X*X*X*XY r.OXOXOXOXOXOXc.S ",
"y y y y y y y y y y y y y y y y y y y y y y y y y y y y y 2 . . % y y y y y y y y y y y y y y y y 1 + >.y.y.y.y.y.y.y.u.y.u.y.y.w.y.w.w.:.G O j y.i.y.y.y.y.y.y.y.y.y.y.y.i.y.y.i.,.1 + 3 y y y y y % O . O $ $ & & & & % % $ $ $ $ * * $ $ $ $ $ $ $ $ $ $ $ $ % % % & & . . * y u u M ZXZXjXuXyXqXyXGXBXmXlXHXHXHXiXrXpXpXjXDXlXf t s s a % . . . O O @ @ . . X X X X @ @ @ @ @ @ @ X @ @ @ @ @ @ X X @ @ @ @ . . . . 2 y y y y 2 > >.3.w.w.e.y.y.y.y.i.i.u.u.y.y.t.t.:.G + x y.y.y.y.y.y.y.y.y.y.y.y.y.y.y.y.y.3.3 + # % % % $ % % % % % $ $ $ * $ $ % % O O 1 y y y y y y y y y y y y y y y y y y y y y y y y y y y y y y y O . O 2 y y y y y y y y y y y y y y y y y y y s y y y y s s y y y 2 % . O 1 a 2 y y y y y y y y y y y y y y y y y y y y y y y y y 2 > 0.y.y.w.y.y.y.y.w.y.y.y.y.y.u.e.t.q.L O j y.u.u.y.y.y.w.w.y.y.y.y.y.y.y.y.t.3., + a y y y s s y y y y s y y y y y y y y y y y s y y y y s y # . O % 2 % 8 1.{  .k.c.c.S c.OXOXOXOX+Xk.l.*X*X*X*X*X*X*XY k.OXOXOXOXOXOXc.S ",
"y y y y y y y y y y y y y y y y y y y y y y y y y y y y s * . . * t t t s y y y y y y y y y y y y 1 + >.7.y.y.y.y.y.y.y.y.y.y.y.y.w.w.w.-.g O s p.y.y.y.y.y.y.y.y.y.y.y.y.y.y.y.y.3.1 + y y y y a a * . . O @ $ & & & $ % % $ $ $ * * $ $ $ $ $ % % % % % % % & & & & & @ . . & u u u M mXZXjXuXyXqXsXGXBXMXlXHXHXHXtXrXfXpXbXGXlX; * s a a # . . . . O @ @ @ @ @ @ X X @ @ @ @ X X X X @ @ @ @ @ @ X X @ @ @ @ . . . . 2 y y y y 2 > >.3.y.w.w.y.y.y.y.y.y.y.y.y.y.y.y.;.g O g 3.y.y.y.y.y.y.y.y.y.y.y.y.y.y.y.y.2.3 + % % % % $ % % % % % $ $ $ $ $ $ % % O O 2 y y y y y y y y y y y y y y y y y y y y y y y y y y y y y y t O . O 2 a a a a y y y y y y y y y y y y y y y y y y y y s s y y 2 1 + . O % t 2 y y y y y y y y y y y y y y y y y y y y y y y y y 2 # 0.3.y.w.w.y.y.y.w.y.y.y.y.y.y.w.y.-.5 O q y.y.y.y.y.y.y.w.w.y.y.y.y.y.y.y.y.2., + y 3 y y s s y i i s s y y y y y y y y u y s y y y y s s t $   . * * % 8 (  .r.{ c.c.S c.OXOXOXOXOXk.l.*X*X*X#X#X*X*XY k.OX+XOXOXOX+Xc.S ",
"t t t t y y y t 2 2 t t t a a a y y y y y y y y s y t 2 $ $ . . . O % 2 a a a y i i s s f 2 2 s a % 1 x %.+.-.-.-.-.-.-.-.-.-.-.H H H J k g + a ;.:.y.y.y.y.3.3.3.3.:.:.4.:.:.:.O.%.y 2 t t t t * . . . . . . . & $ $ $ $ $ $ + * * * * $ & & & & & & & & & @ @ @ @ X X . . . . @ - a ; lXZXjXuXyX).uXGXBXMXmXKXKXHXtXrXpXfXvXDXdX= = a % @ O . . . . . . . . . @ @ @ @ . . . . X X X X X . . . O . . . . . . . .     . @ * a s a 1 1 z *.;.;.;.;.;.;.;.;.;.;.;.H H H J %.s O 3 >.,.3.y.3.3.3.3.3.3.,.,.,.:.:.>.O.l 2 O * * $ $ $ $ $ $ % % % % $ $ $ $ O O O O O + * t a a a s y y s a a y y y y y y y t y y y s s s s t 2 % O . . O @ * * * * s y y y s s s s y y y y s s s a s s s s y y y t $ O . . . . O $ a a a a a a a a f a y 2 a a a a a 3 s y l y 3 3 7 # 2 j *.*.-.-.-.-.;.;.;.;.;.;.H H H J c s O 3 ;.:.y.y.3.y.,.3.,.,.,.:.3.:.:.>.*.c 3 + y y y y s y i i l g y t y y y y y y y a t a a a t t t t . . . . . O & 2 1.1.) { r.r.S c.+XOXOXOXOX{.S *X*X*X+X+X*X*XY k.+X+X+X+XOX@Xc.S ",
"+ + + + + + + + O O O O O . . . $ + + + * * * * 2 2 2 * O . . . . . O O + O + + + + + O $ O $ % O . # s %.O.J c h h h h z z c c c c c c v f O 2 J O.&.&.%.%.%.%.O.O.O.O.O.O.O.O.x x * O + + + + O . . . . . . . % % % % $ $ $ $ + + + $ $ @ @ @ @ @ @ @ @ @ @ @ X X . . . . . .   . X X dXFXjXyXpX).sXGXBXmXvXHXHXHXtXrXpXhXnXFX`.X @ . . . . . . .     . . . . . . . . . . . . X X . . X . . . . . . . . . . .   X X   . . O O % + 1 g z z G G J c c c c c c J J J J c x f O 2 J O.%.&.%.%.%.%.O.O.O.O.O.J O.O.n d $ O O O O O $ $ $ $ $ $ $ $ O O O O . O O O . O O $ * * * % % * % % $ $ % % $ $ $ $ & & $ $ $ $ $ $ $ O O . . . . . X X @ @ + + + + * * * * % 1 % % t 2 % $ + + + + O O O O . . . . . . . O O + + + O + O O # % # + % % % % * 2 # 1 1 , 1 2 @ O * s c c J J J J J J J J J J J J c c x s O 7 J O.&.&.%.%.%.%.O.O.O.J O.O.O.O.x a + O 2 2 1 1 * 2 1 1 1 1 + O O O + + + + O $ $ $ $ $ O O O O . . . .   . X O Q 1.{ ) / / 0 r.oX@XOXOX+XoXS &X*X#X#X+X#X*XY k.+XOXOXOX+X+Xc.I ",
"O O O O O O O O . . . . . . . . . . . . . . . . . O O O O O $ O O O O O O O O O O O . .   . @ @ . . X @ # 2 8 8 j j j j x x x x s s s s # O   . s g j x s g s s 8 8 7 7 7 2 7 7 * * . . . . . . . O $ O + + + + + + + + + + O O O O O @ . . . . . . . . . . . . . . . . . . . . . . .   `.FXnXhXpX).uXGXBXVXnXHXKXHXtXrXfXkXnXZXG.. .   . . . . . . . . . . . . O O O . . . . . . . . . . . . . . . . . . . . . .     . . . . . . . O + a s y y x x x x x j j j j j g s # @ . O s g x x g g g g 3 3 3 3 3 3 3 2 % @ . . . . . . . . . . . . . . . . . . . O O O O O O O O O O O O . . . . . . . . . . . . . . . . . . . @ O O O @ . . . . . . . . . . . . . . . . . . . O O O O O + O O O O O O . . . . . . . . O O O O O O O O O . . . . . . O O O . O O O O . . . @ * 7 8 8 8 j j j j j j j j s a 8 a # O   . s s j x s s s s 8 8 8 2 7 2 2 2 * @ . . . . . . . . O O . . . @ . . . . . . . . O O O O . . . . . . . . . . . O k 1. ./ / ( r (  .k.oXOX+XoXP &X*X#X#X#X*X*XR k.OXOXOX@X+X@X .I ",
"$ $ $ $ $ $ $ $ O . . . . .   . @ @ @ @ & & & & * * a a * 2 t a 2 1 1 % % % % % $ $ & & . $ * % @ @ O . O O O O O + + + O O O O O O O O O . . . O O + + O O . . O O O O . . . . . . O O . . O O O 1 7 1 2 2 2 t t y y y t t t t + O O . . . . . & & & & & & & @ @ @ @ X @ @ @ @ O & @ . G.ZXmXhXyX).uXFXBXVXmXHXKXHXtXrXuXhXnXZXx.@ @ O # @ O O # @ @ @ @ @ @ # + + $ $ O . . . . . . . % % % % % % % % % % % # % * = & . O + + % % + O O O + + O O O O O O O O O + O O O . O O O O + + O O O O O O O O O O O O O O O O O O O O % % * * * * * * % % % % $ $ $ $ $ $ $ $ * * t t - ; ; ; .               . . . . @ $ @ $ $ $ $ & % & $ O & & & & X X X X . . . . . . . . @ % 2 a t t t t t t t t * * ; a a a * * 7 2 t t t t 2 7 O . . . . . . . % $ * @ . O # # # @ O O O O + + O O O O O O + O + + O O O . O . O O + + O O O O O O O O O O O . . . . . $ $ % & & & % % t * @ . . . . . . . . . X X X X X X X . X X X . . . . . 0 1.r./  .) A ( k.k. .k.k.k.S oX*X*X#X#X*X*XY k.@X@X@X@X@XoX/ I ",
"& & & & $ $ $ $ $ $ @ O . . . @ a y y y y y y a a a a a y y y y y y 3 3 a a a a s a a * * 0.n.9.6.9.8.8.8.8.6.2.6.6.2.2.0.0.0.>.2.2.5.5.6.6.9.5.6.6.6.6.6.6.6.6.5.5.6.5.5.5.0.5.6.6.6.9.8.9.9.6., # 3 2 2 2 y y y y y y y y y t s * @   X X @ & % $ $ $ $ % % % % % & & & & & & & * & . C ZXnXyXyX).tXGXBXMXNXHXHXHXtXeXuXyXNXNXC 2 7 s 8 8 3 3 y t y y a a a a y y a a 2 $ O O . . $ a a a a a a a a a a a a a t t s * 2 =.n.9.9.8.9.9.6.6.9.9.0.5.5.5.5.0.0.0.2.2.2.2.9.6.9.6.9.6.6.9.6.6.6.6.6.6.6.0.0.0.0.0.6.6.6.9.8.8.8.9.1 + s 2 a a a a y y y y t t t t y y y y y y y y y a a a % . . . @ @ & % & % % % $ * * * % % % $ $ & & $ $ $ % % % $ $ $ $ $ $ & .   . & a a y y y y y y y y y y y t t t a a a y y y y y y y y a 2 % O . . O $ % # @ @ O # =.8.8.9.8.9.9.9.7.7.7.6.6.6.6.6.6.6.6.7.7.7.6.9.9.6.6.6.6.6.6.6.>.>.>.>.>.0.*.6.6.6.6.6.6.6.9.n.n.8.9.- $ d y t s t O . . . X X X X X X X X X X X X X X X X X X X X O w 1.r.) [ / A F r.k.r.r.e.w.r h.oXoXoXoX@XoXF r.c.k. . .k.r.W e ",
"$ $ $ + $ $ $ $ $ $ $ $ O . @ % y y y y y y y y a a y y y y y y y y y 3 y y y y t 2 t * d 0.2.*.*.*.>.>.2.2.2.2.2.6.6.6.7.7.7.7.7.2.2.2.2.2.6.2.6.6.6.6.6.6.6.2.2.2.2.2.2.2.2.2.*.*.*.>.=.=.0.0.x , 2 8 2 2 3 t y y y y y y y y y t & . . X @ & $ $ $ $ * * $ $ $ $ & % & & $ $ $ * % @ M AXMXyXhX).tXGXBXMXZXKXKXGXrXrXpXfXBXlXf 2 3 g 3 3 3 3 y y y y y y y y y y y y u 2 + O . O * a a a y y a y y y y y y y y y s % y 9.2.+.>.>.>.*.2.2.2.2.6.6.6.6.2.2.2.2.2.2.2.2.7.2.6.2.7.7.9.6.6.6.6.6.6.6.2.2.2.2.2.2.*.>.>.>.>.2.7.9.c > y y y y y y y y y y y y y y y y y y y y y y y y y y t @ . . @ $ $ % % % % % $ * * * * % % % $ $ $ $ $ $ $ $ $ $ * $ * * * $ . . @ t a y y y y y y y y y y y y y y y y y y y y y y y y y y y 2 2 @ . . @ $ # + # @ O 7 6.>.*.;.>.;.;.3.,.,.>.7.6.6.6.6.6.6.2.2.3.3.2.7.7.2.7.2.6.2.6.7.7.7.7.7.2.2.2.>.>.>.>.>.>.2.2.2.2.3.9.d O t t y s a $ . . . X X X X X X X X X X X X X X X X X X X X O # 1.1.1.) 1.E r r.r.r.a.a.p.h 7.h.k.c.c.c.h.k ~ h.r.r.r.r.r.~ v ",
"% + + + * * * * $ $ $ % O O & - y y y y y y y y y y y y y y y y y y 3 3 y y y y s s d 2 y %.*.*.#.;.>.>.-.;.;.;.;.;.-.-.+.+.+.+.+.+.&.&.&.&.;.+.O.O.O.O.*.*.*.;.&.&.+.+.+.+.+.+.&.+.&.*.K %.&.*.j # 2 7 2 2 2 t y y y y y y y y i u % X . X $ $ $ $ $ $ $ $ $ $ $ $ $ $ $ $ $ $ % $ $ $ ; lXMXfXhXrXiXFXZXMXDXHXKXFXqXrXhXkXBXsX- 2 s s 3 3 3 3 y y 3 3 y y y y y y y y s t * O O % a a a a y y y y y y y y y y y y s % 2 %.%.>.>.:.>.*.+.O.O.O.*.&.&.-.;.;.;.;.*.*.*.*.*.+.*.+.O.O.O.O.*.*.*.*.&.&.&.&.&.+.O.O.O.! %.%.J J K %.x + y 3 y y y y y y y y y y y y y y y y y y y y y y y y s % .   @ O $ % % % % % $ $ $ $ $ $ $ $ $ $ $ $ * * * * $ $ $ * * * * $ @ O % a a y y y y y y y y y y y y y y y y y y y y y y y y y y y y a * . . $ * # # + @ O 7 B O.;.*.*.*.+.+.+.+.+.@.@.+.+.O.O.O.O.O.O.O.+.+.+.O.+.O.O.O.O.%.&.&.&.&.+.+.+.&.&.&.-.&.&.&.*.+.&.*.*.l + t t y s s % . . . X @ @ @ @ X X X X X X X X X X X X X X X . @ v =.~ ~ =.v 8 1.1.-.-.1.>.f =.1.1.1.1.1.1.7 v =.1.1.1.1.1.v f ",
"% % + + * * * * $ $ $ % . . & a y y y y y y y y y y y y y y y t t t 3 3 s y y y t t a * 2 c O.O.O.O.&.&.*.&.O.J &.&.&.&.*.&.&.&.&.&.&.&.;.;.>.*.;.*.*.*.*.*.*.*.&.&.&.&.+.+.+.+.%.%.&.*.&.%.O.J # + 7 2 2 7 2 2 y y y y y y y y y y t @ . @ $ $ $ $ $ $ $ $ $ $ $ $ $ $ $ & & $ % * $ & - gXmXhXkXrXrXDXZXNXFXHXKXDX).rXhXkXBXiX- 2 s 3 3 3 3 3 y y 3 3 y y y y y y y y y y 2 $ O * a s y y y y y y y y y y y y t t s $ 1 c *.O.O.+.+.O.*.*.=.*.*.*.*.*.*.*.*.*.*.=.*.*.*.*.*.*.*.*.*.*.*.*.*.*.*.*.*.*.*.&.&.&.%.%.%.%.*.*.%.%.1 + a 2 a a y y y y y y y y y y y y y y u u y y y y y y s - X   @ $ $ % % % % % $ $ $ $ $ $ $ $ $ $ $ $ * * * * $ $ $ * * * * $ . . % a a y y y y y y y y y y y y y y y y y y y y y y y y y y y y f = . O % % # + + @ O # x O.J O.O.O.O.O.O.O.O.&.*.&.*.*.*.*.*.*.*.&.&.;.;.&.*.&.*.&.*.%.%.&.&.&.&.&.&.*.*.*.*.%.%.%.&.*.%.O.n 2 $ d y y s s * . . . @ @ @ @ @ X X X X X X X X . X X X X X X . . . . @ . .   . @ + O O O O   @ O + O + O @     . O O + O O . @ ",
"$ $ $ $ % % % % $ $ $ & . . $ s y y y y s s y y y y y u y y y y y y y y 2 y u t 2 a a % + a s s l l l l g g g g z z z x c z c c c c c c c c n x n n B B v c c c B B B B %.%.B B n c c B c z x j O O 2 2 2 t g 3 y y y y y y y y y s * . . @ & $ * * * * * * * * $ * $ $ $ & & % % % % $ $ wXgX_.uXyXqXZXGXZXFXKXHXNXeXyXtX/.vX`.* 2 7 y y y 5 3 y a a a a a a y y y y y s a # O O # a y y y y y y y y y 1 y y 2 t a a % # a f f d l l s l l l l l l l l n n n c x x n n n x n n c x x x B B B B B B B B B n n c c c c v B x g s O O 7 3 2 2 g 3 y u u u y y y y y y y y y y y u y y y y a * . . O $ $ * $ $ * * * * * * $ $ $ $ * * * * $ $ $ $ $ $ * $ $ $ $ % @ . & a s y y y y s s y y y s s y y y y y y y y y y y y y y y y y a a . X & % $ O & = $ . 2 l s l l x l l l l l c c z z z z z c n n n n c c c c n n n n B B B B B B B B B B B B x x c B n x s y O O 1 1 s 2 * 2 O . . O @ @ @ @ X X X X @ @ @ . X . X X . . . X X   . M = .         a M   . X & . . C ;             M M .   .   ",
"& & & & & & & % $ $ $ % . . + u s y y y y s s y y y y y y y y y y y y y t s y 2 O O O O O # 1 1 + + + + + + O O + + + + + + + + + + + + + + > + # # # # # # # # + + + + + + + + 1 + + + + + + # O O + + # 1 g 3 y y y y y y y y s u * . . @ & $ * * * * $ * * * $ * $ $ $ % $ $ * % % % $ m.G.b.A.qX).lXHXMXFXHXKXnX).).A.b.G.m.* % 2 a y y y y y a a a a a a a y y y y s a # O O % a y y y y y y y y y 2 s y 1 O O . O . $ % # + 1 1 + + + + + + + + + + + + + + + + + + + + + + + + + + + + + + + + + + + + + + + + + + 1 1 1 + O > + + > g 3 y y y y y y y y y y y y y y y u y y y y y * O . O $ $ * $ * * * * * * $ $ $ $ $ * * * $ $ $ $ * $ $ * $ $ $ $ % X . & a s y y i y y y y y y s y y y y y y y y y y y y y y y y y y y a . @ & & $ . O O O O # 1 + > 1 1 + + + + + + + + + + + + + + % % % % % % + + + + + + + + + + + + + + + + + + + + + + + > > O O > > O t x 2 O . . O @ @ @ @ X X X X @ & X . X . X . X . X X .   @ M M & . . . X M C . . . X   X C M           X M C .       ",
"& & & & & % % % $ $ $ % . . + u s s y y y y y y y y y y y y y y y y y y y s t # 4 6.f.M.6.9.8.9.=.>.=.>.*.*.%.%.*.*.*.*.*.*.*.*.%.%.%.%.%.%.*.%.J J J J c c c c c J J J J J J J J J O.&.*.2.9.f.M.f.J.M.g + g y y y y y y y y y s s * . . @ & $ * * * * $ $ * * $ $ * * * * * * % % % % X C iXuXS.Z.Z.tXHXZXFXHXKXiXS.Z.A.gXwXM % y s y u y y y a a a a a a a a y y y y s a # O O % a y y y y y y y y y y s 3 > 4 9.M.M.6.8.8.9.*.>.>.*.*.*.*.*.%.%.%.O.*.*.&.&.&.&.%.%.O.O.O.O.O.O.O.O.O.O.O.J J J J J J J J J J J J O.>.2.9.9.M.f.J.f.s + g y y y y y y y y y y y y y y y y y y y y y a * O . O $ $ * $ $ $ $ * $ $ $ $ $ $ $ $ $ $ $ $ $ * * $ $ $ $ $ $ $ % X . & a s y y i y y y y y y y y y y y y y y y y y y y y y y y y y y a . @ & & + + 0.8.8.9.9.9.7.>.2.2.2.*.*.*.*.*.*.*.*.*.*.*.*.O.O.O.O.O.O.O.O.n B B B n n n c J J J J J J J J J J O.O.>.2.3.7.f.s.N.B.x + t % . . . O @ @ @ @ @ @ X X X X & X X . . . . . . X O . . O O . O O . O O $ . . . . . . & .   .     . . O . . O   . ",
"& & & & % % % % $ $ $ % . . + y y y y y y y y y y y y y y y y y y y y y s s t + %.V.g.V.U.Y.Y.N.U.Y.Y.U.U.U.U.V.V.U.U.U.U.U.U.Y.Y.Y.Y.Y.Y.E.T.Y.W.W.W.W.W.W.W.Q.W.W.W.W.W.&XW.&XW.R.E.R.U.U.Y.Y.Y.Y.&X!.0.+ s g y y y y y y y y s s * . . @ & $ * * $ $ $ $ * * $ $ * * * * * * * $ % & G.lXHXDXjXrXA./.DXDXFXKXFXS.A.uXmXGXDXlXm.d O 2 s a a a y a a a a a a a y y y y y y % O O % a y y y y y y y y y s s 2 > +.N.N.N.J.Y.U.N.Y.Y.Y.V.Y.Y.Y.Y.Y.Y.Y.Y.Y.Y.Y.Y.Y.Y.E.W.R.E.W.T.T.T.T.T.W.W.W.W.W.W.W.W.W.W.W.R.R.R.R.W.Y.Y.Y.E.Y.Y.&X!.0.+ a g y y y y y y y y y y y y y y y y y y y y y * O . O $ $ % $ $ $ $ $ $ $ $ $ $ $ $ $ $ $ $ $ $ $ $ $ $ $ $ % % $ % X . & a s y y i y y y y y y y y y y y y y y y y y y y y y y y y y y a . @ & & + O.N.g.N.U.V.E.E.V.V.J.N.N.V.V.V.Y.U.U.U.U.U.U.U.Y.Y.Y.Y.R.R.R.Y.Q.Q.Q.Q.~.~.~.~.~.W.W.W.W.W.W.W.R.R.W.W.Y.Y.E.E.E.E.&XW.6.# a a O . O O @ @ @ @ @ @ @ X X X & X X . . . . . . O . O 7 x c Q Q q j =.B %.%.v x j =.B %.v =.=.f w j v v Q j v 6 j ",
"$ $ $ $ % % % % $ $ $ % . . + y y y y y y y y y s s s s y y y y y y y y y y 2 + H a.w.w.y.y.y.y.y.w.w.:.:.,.w.w.w.y.y.y.y.y.y.y.y.y.y.y.y.y.y.y.y.y.y.y.y.y.p.p.y.y.y.y.y.y.y.y.y.y.y.y.y.y.y.y.q.i.y.f.0.# 1 2 y y y y y y y y s s * . . @ & $ * $ $ $ $ * * * + % $ $ O * O O & V `.AXHXKXKXHXGXBXjX).mXGXGXHXNXqXnXFXHXHXHXKXLXlX`.V % % t l s s y 2 y y a a y y y y y y % O . % a y y y y y y y y y y s 1 > J s.3.y.y.y.y.y.:.:.:.:.y.y.y.y.y.y.y.y.y.y.y.y.y.y.y.y.y.y.y.y.y.y.y.y.y.y.y.y.y.y.p.y.y.y.y.y.w.y.y.y.y.y.y.y.q.y.q.s.0.# 1 2 y y y y y y y y y y y y y y y y y y y y y 2 O . O O $ % $ $ $ $ $ $ $ $ % % % $ $ $ $ $ $ $ $ * * $ $ $ $ $ $ % @ . @ t s y y i i y y y y y y y y y y y y y s y y y y y y y y y y s a . @ & @ + z y.w.a.q.t.t.y.y.y.y.y.y.y.y.y.y.y.y.y.y.y.y.y.y.y.y.y.y.y.y.y.y.y.y.y.y.p.p.p.p.p.p.p.y.y.y.y.y.y.y.y.y.y.y.y.t.i.t.N.=.O a a . . O O @ @ @ @ @ @ X X X X & X X . X X X X . O $ + 8 9.2.1.1.1.q h.c.p.h.p.Q Q c.c.c.c.c.c.k 1.h.r.r.r.r.1.r r.",
"$ $ $ $ % % % % $ $ $ % . . + y y y y y y y y y s s y y y y y y y y y y y y 2 + K y.w.u.w.w.w.w.w.w.w.q.w.w.w.w.w.w.w.w.w.w.w.w.w.w.w.w.w.w.w.w.w.w.y.y.y.y.y.y.w.w.w.w.w.w.w.w.w.w.w.w.y.y.y.u.u.i.y.d.c # 2 s y y y y y y y y s s * . . @ & $ $ $ $ $ $ $ * * % O O $ O . f '.zXPXKXKXKXHXHXZXDXBXVXiXkXDXGXHXhXuXMXDXNXFXHXHXHXKXJXAXzXG.f - t t y s y y a a y y y y y 3 % O . % a y y y y y y y y y y s 1 > H y.y.y.y.y.y.y.y.y.w.w.y.y.y.y.y.u.y.y.y.y.y.y.y.y.y.y.y.w.y.y.y.y.y.y.y.y.y.y.y.y.y.u.u.y.y.w.w.w.w.y.y.y.y.u.i.u.t.d.c # 2 s y y y y y y y y y y y y y y y y y y y y y 2 O . O O $ % $ $ $ $ $ $ $ $ % % % % $ $ $ $ $ $ * * $ $ $ $ $ $ $ % @ . @ t s y y i i y y y y y y y y y y y y y s s y y y y y y y y y s a . @ & $ O K y.w.w.q.q.e.e.w.w.y.y.y.y.y.y.y.y.w.e.e.e.e.e.u.y.y.y.y.y.y.w.y.y.y.y.w.w.w.w.w.w.w.w.w.w.w.w.w.w.y.y.w.w.y.i.t.i.t.s.O.O a 2 . . O O @ @ @ @ @ @ X X X X & X X . X X X X . . O O 1 2.1.1.1.1.r r.h.a.a.r.! D j.j.j.c.c.c.A ( r.r.r.r.r.{ S r.",
"$ $ $ $ % % % % $ $ $ % . . + u s y y y s y y y y y y y y y y y y y y y t a 1 + L -.w.e.w.w.w.w.w.w.w.w.w.w.e.e.e.e.e.e.e.e.e.e.e.e.e.e.e.e.w.w.w.w.e.e.e.e.e.e.w.e.e.e.e.e.w.w.e.e.e.e.e.e.u.u.a.y.y.3.g O 7 f y y y y y y y y s s * . . O $ + * * $ * $ $ $ $ + O . & C dXAXLXKXHXHXGXGXDXNXZXBXBXkXtXyXNXHXGXuXuXjXVXBXMXZXDXFXLXHXHXKXLXAX`.V 2 2 s y y y y y y y y y y % . . * s y y y y y a a y y y s 1 > L -.,.p.w.w.w.w.y.u.u.u.e.e.w.w.e.e.e.e.e.e.e.e.e.e.e.e.e.q.w.w.w.w.e.w.w.w.w.e.e.e.e.e.e.e.e.e.e.e.e.e.u.u.u.u.i.y.y.2.g O 7 f y y y y y y y y y y y y y y y y y y y y y 2 O . O $ $ % $ $ * * * * $ $ % % % % * * $ $ $ $ $ * $ $ * * $ $ $ % X . @ t a u y i i y y y y y y y y y y y y y y s y y y y y y y y s a a . O @ O O h ! ,.p.w.w.w.w.w.w.w.y.u.u.u.e.e.e.e.e.e.e.e.e.u.u.u.u.w.w.w.w.y.e.e.e.w.w.w.w.w.w.w.w.w.w.w.w.w.w.w.w.w.w.u.y.y.y.y.:.3 # a 1 . . O O @ @ @ @ @ @ @ X X @ @ X X X . X . X X . O O + =.1.1.) ) r 1.r.r.r.r.1.e j.j.c.c.h.c.A ( r.r.r.r.r.( P r.",
"$ $ $ $ $ $ $ $ $ % % & . . $ a s y y i i y y y y y y y y y y y y y y y y a 1 + p L -.,.,.,.,.,.w.w.w.w.w.w.w.w.w.w.w.w.w.w.w.w.w.w.w.w.w.e.w.w.w.w.y.y.y.y.y.y.w.w.w.w.w.w.w.w.w.w.w.w.y.y.y.y.:.3.y.O.3 O 2 2 y y y y y y y y s a * . . O $ + $ * * * $ $ $ $ $ & & '.AXFXFXDXZXZXNXNXBXmXBXMXjXhXuXyXuXvXHXMXtXpXuXhXnXmXMXMXBXDXZXDXDXDXDXFXIXF.t * y y y y y y y y y t % . . * s y y y y y y y y y a a 1 + p L <.,.:.:.:.:.w.w.w.w.w.w.w.w.w.w.w.w.w.w.w.w.w.w.w.w.w.w.w.w.w.w.w.w.w.w.y.y.y.y.y.y.y.e.e.w.w.w.w.y.y.y.y.y.<.,.y.J 3 O 2 2 u u u u u y y y y y y y y y y y y y y y a * O . O $ $ % $ $ $ * * $ $ $ % % % % * * $ $ $ $ $ $ $ * * * $ $ $ % X . O t s s y y y y s s y y y y y y y y y y y y y s s s s s s s a a a O @ @ O O h L &.;.,.,.w.w.w.w.y.y.y.y.y.y.y.y.w.w.w.w.w.w.y.y.y.y.w.w.w.w.y.y.y.y.y.y.y.y.p.p.p.p.y.y.y.y.y.y.y.y.w.w.y.y.3.3.3.&.2 + a # . . . . X @ @ @ @ @ X X @ @ @ X X X . . . X X . . . O v 1.1.1.) r ~ r.r.r.r.1.r c.c.c.c.c.c.S ( r.r.r.r.r.^ ^ r.",
"$ $ * * * $ * * @ @ @ X X X X @ t y l l y y y a y y y t 1 2 a s s s s s f t * + c c c c J J J J O.O.O.O.O.O.O.O.H H H H J J J J J J J H +.+.O.O.+.+.+.+.@.@.@.O.O.O.O.O.+.+.+.+.H @.+.+.+.+.+.K @.O.O.%.2 + y y i i y y s a a a f * O .   . $ # % * * * $ $ % $ . @ M kXIXvXbXvXnXnXnXnXjXjXkXhXpXyXsXsXsXhXDXhXfXfXfXfXuXhXkXkXbXvXnXMXvXnXvXvXIXdXm - s y y i i i i y u % O O . @ * u y y y y y y y s s f 7 + z G J D H H J J K K K K H H H H K K H H H J O.&.O.O.O.O.O.O.O.O.O.+.+.+.+.+.+.+.+.+.+.+.O.%.O.O.J H H K O.O.K O.O.O.O.O.3 + y 2 t t u u y y y y s s y 3 y y y y y y y y t O . . $ O O O $ $ $ $ % % % % % % % % * * $ $ * * * * + + + + $ $ $ O . . . O a a a y y y y y y y y y y y y y 3 3 3 3 s a a a s s s s 2 % + O O O O + n J c J J J J J H H @.@.H H H H +.O.O.O.O.O.O.O.J J J J J J J K K K K K K K K K K K K K K K O.+.+.+.+.+.+.O.+.O.%.%.n c 2 $ % @ . . . . . . . . . . . . X X X X & & @ @ X X X O . O @ , >.1.1.1.W A c.r.k.<.r.r r.c.c.c.c.c.F ) r.r.r.r.r.F W r.",
"+ + $ $ $ $ * $ O @ @ @ . . . . * t y l g s s f 2 % * + + # # * % % % % 2 % + O x l l l z c z c c c c c c c c c J c z z x x x x x z c c c z j g z z z z z z z z z z z z z z z z j z c O.z c c J c c x x 2 + a s s y y s a a a a * $ . . . . O O $ $ $ $ * * * * . X ; `.`.`.qXqXrXqXrX`.qXqXqXqX`.qXqXqXrXrXsX`.iXiXiXrXqXqXwXqXqXqXwXiXwXiXwXiX`.'.f - a s y y y y s s t $ $ . X . O * s s s a y y y t a a # + g j j j k k k j z c c c h h h h j j j z j x x x x x x x x l x x l c z z z z z c c c c c x x x x z z z z z z z z c c c c 3 + s 2 a a a a a t t t 2 2 a a a a a a 2 2 s f $ O . . O O O O % % % % % % % % % % % % % % % % $ % $ $ % $ $ $ $ $ O . . . . . % * a s a a a y y 2 2 2 2 2 2 2 2 2 2 2 a a a a 2 2 7 7 + O O O O O O O 1 j x s x x x c c c c c c c c c c c c z z x x x x x x x g g j j z z z z j j j j j j h h h h z z c c n n n n n n n x x f = @ @ . . . . . . . . . . . . . . X X X . . . . . . . . . O O O >.1.1.1.1.D h.h.h.h.c.e h.c.c.c.c.c.~ 1.h.h.h.h.h.1.1.h.",
"O O O O O O O O . . . . .     . @ $ $ * + + $ $ O O O O O O O O O . . . . . . . O O O O O + + O # # > > 1 1 1 1 # + # # O @ @ O O + O O O O O O O O O O O O O O O O O O O O O O O O O O + + O O # # # @ .   . O + + + O % * * * @ . . . . . . . . . . . . . . . @ .   & X o o o X X o o       X         o o o o o o o o o : o o o o o & & : & : o X   X % % * * * % % % & . . .     . @ $ $ $ $ $ + + # % $ O @ . O O O O O O O O O O O . . . . . . . O O O O O . . . . . . . . O O O O O O O O O O O O . . . O O O O O @ @ @ @ @ @ # # O   @ . @ @ @ . . . . . . . . O % % % % 2 # # O @ . . . . . . . . . . . . . . . . . . . . . . . O O O O @ @ @ @ . . . . . . . . . $ * 7 % % * * @ @ X @ @ O O O . . . . . . . . O O . . . . O . O . . . . . . # @ @ @ @ # + # # 2 2 2 2 # @ @ @ @ O O O O O O O O O O O O O O O O O O O O O O O O O O O O O O O O O & & @ @ & & .   .         . . . . . . . . . . X . . . . . . . . . . . . . . s g g s f @ 8 j c j j # j v B v v v , 8 j j j j v 8 8 j ",
"O O O O 1 1 1 1 d d d d 2 $ . .   . . . O O O O =.0.6.9.9.5.5.0.=.=.=.=.B B B B B B B B B B B B B B c c z z x x a % O           . . . . . O # 7 a a 7 7 f f f f v v v v V V V V V B x f a # $ O O O . . .   X . O O O O . . . . . . . . . . . . . . . . * * * * * t a * % * * % * # # # * % # O . . . . .   X           . . . . O O . . . . . .     . . . . . . O . . . O . . . . . . O O O . . . . . . O . . O O O O O + + O O 7 7 7 7 a 7 7 7 7 7 7 7 @ O . . . . . . .   . . . . . . .       . . . . . . . .   . . . . . . . . . . . . . . . . . . . . . . . O O . . . . . . . . . . @ . . % O O O O O O O O O O O O O O O O O O O O . . . . . . . . . . . . . . . .   . . . . . . . . .     . . . . . . . . + + + + O O O O O O O O O O O O . @ . .         . . . . . . . . . . . . . . . . O O O O O O O O O O O O O O O O O O O O . . . . . . .       . . . O @ * @ @ = . * * * * % $ $ @ # # # # # % * * $ $ $ $ $ O O O @ . . . . O O . .   . . . + O . . O + O O O . . . O O O O . O O ",
"9.9.9.9.J.H.H.H.J.J.J.J.K.8.c O .     . O O $ 5.J.L.P.L.L.L.L.L.J.H.H.H.L.I.I.I.L.L.I.I.L.L.L.L.L.L.L.L.J.J.J.J.I.9.a . . .     . . O 7 0.H.K.H.J.J.J.J.P.P.P.P.L.L.L.L.L.L.L.L.L.L.L.H.M.M.H.F.9.9.9.9.5.f . . . . . . . O . . O O O O . O 2 f %.=.6.6.F.K.I.F.K.K.K.H.H.K.K.H.H.x.H.H.H.x.8.9.B O O           .   . # v 9.x.9.9.9.9.8.6.5.5.0.0.=.=.B %.=.=.=.=.=.=.=.9.6.9.9.n.9.6.6.5.x O . . . . . . O v 6.8.8.8.8.x.x.x.x.H.H.H.H.I.I.I.I.H.H.H.H.F.8.9.6.B B c x n x l s O . . @ .       . O * f B V m x x x x c %.B %.=.B V =.=.=.V =.=.5.0.0.0.8.9.9.8.M.8.6.0.1 O . . X   .   . a =.9.F.F.F.F.8.8.8.8.8.8.8.8.8.8.8.8.8.8.8.8.5.5.5.5.=.%.B v x x a # . . .   .   . . . O # f x x j j B B =.=.0.5.6.9.9.8.8.n.8.8.8.8.8.8.8.8.8.8.8.8.5.9.5.B .   . . . . . . O $ 7 a f x x x B %.=.=.9.8.9.9.n.n.n.n.n.n.n.n.8.8.n.n.n.n.n.n.F.0.s O . .       X   O V 0.8.F.F.F.F.n.F.H.H.H.M.H.H.H.H.H.H.H.F.F.F.F.9.9.9.9.9.9.9.9.8.9.V $ . . . .   @ . * n 0.8.F.9.9.9.9.9.6.6.5.=.=.=.=.5.0.0.5.",
"J.J.J.J.J.J.J.J.J.J.J.J.J.J.8.B .     . . . =.K.J.U.J.g.g.g.f.f.M.M.M.M.f.f.f.f.f.f.f.f.M.M.M.M.M.M.M.N.B.B.B.J.J.H.0.2 . .         f x.K.J.J.T.M.M.M.f.M.M.M.M.f.f.f.f.f.f.f.f.N.M.M.M.B.B.B.M.J.H.H.J.H.I.5.O . . . . . . O f 0.0.0.0.9.8.F.H.I.H.H.J.f.H.J.J.H.J.J.J.J.J.J.J.J.N.J.J.J.J.J.J.I.=.# . .         . + =.I.H.x.J.H.J.H.J.P.J.H.H.I.J.H.H.J.L.L.L.L.L.L.L.L.J.J.J.L.L.L.J.Q.8.s . .   . . + %.H.H.M.M.f.f.H.H.H.H.J.N.N.N.N.N.N.J.H.H.J.J.J.J.J.J.T.L.L.J.P.L.L.K.=.* . . . . .   $ B F.F.I.I.I.F.J.J.H.J.H.H.L.L.L.L.P.P.K.L.P.P.L.L.P.P.P.P.P.L.Y.Y.L.I.5.t .   X   . . a 8.F.K.M.f.f.f.f.f.f.f.f.f.f.f.H.J.J.J.J.J.J.J.J.J.J.J.I.H.H.H.H.I.H.9.f O . .     . . # V x.H.H.H.H.H.H.K.I.I.K.K.I.P.M.J.L.T.J.J.J.L.L.L.J.J.J.J.J.J.H.H.H.F.B O O .     . @ B 8.F.I.K.H.H.H.8.8.9.6.8.8.8.8.M.M.M.M.M.M.M.M.8.8.8.8.8.8.9.9.J.L.n.0.O .       . . V F.K.K.H.L.L.L.J.L.J.J.J.J.J.J.L.J.J.J.J.J.J.J.J.J.J.J.J.J.J.H.H.H.H.8.=.. . . . . . % 0.n.J.K.H.H.J.H.H.J.H.c.x.L.L.L.L.P.P.L.P.",
">.>.>.>.>.>.>.>.p.p.p.7.7.x.H.5.#     .   a n.M.f.p.2.>.*.*.;.-.&.&.&.&.+.&.+.&.+.&.+.&.*.*.*.*.&.&.*.*.:.:.:.>.2.8.9.f O .   . . * =.I.8.8.9.>.;.;.;.;.&.&.&.&.&.+.+.+.$.$.$.;.;.;.;.*.;.;.;.*.*.*.*.&.O.=.5.B . . . . . 2 =.I.L.L.L.L.L.H.H.J.J.J.J.J.f.f.7.s.7.2.2.2.2.2.2.2.,.,.p.3.f.N.N.B.~.L.l O . .       @ v H.^.f.p.g.N.J.M.J.f.f.9.7.,.7.7.7.J.J.J.J.J.H.J.J.N.g.N.N.N.N.J.J.J.J.0.O .   . O n M.J.3.;.;.;.;.>.>.>.>.,.,.,.,.>.,.,.,.&.&.*.*.2.2.7.9.7.2.2.>.*.2.9.n.P.0.2 O & X   . 0.J.L.M.6.2.2.>.&.&.*.*.>.=.=.=.6.9.6.6.J.J.J.J.J.M.H.M.f.f.f.f.7.p.f.M.I.5.+ .     . 7 5.P.9.9.;.;.;.;.&.&.*.*.*.*.;.;.&.&.*.*.*.;.;.;.p.p.p.p.x.x.H.H.x.J.J.H.9.a . . . . . O 0.J.P.f.J.J.J.J.J.J.H.M.J.J.J.M.J.N.f.s.f.f.f.f.J.J.J.L.L.L.L.L.L.M.J.P.F.f O . . . = V x.P.L.J.2.2.=.*.*.%.%.O.&.+.+.+.-.&.-.-.&.&.-.&.%.%.%.%.%.%.O.O.>.f.J.J.g O . . . . d n.P.L.J.M.B.B.B.N.B.B.B.B.B.B.B.B.J.c.c.c.J.J.J.J.H.H.J.J.H.H.J.J.x.c.J.H.f . . . . O V I.L.J.J.H.M.J.J.N.g.f.g.f.7.7.7.7.7.7.2.7.",
"K K K K &.&.&.+.+.+.+.O.%.K >.x.v .   . O =.J.2.>.-.K K +.+.+.&.O.O.O.O.&.*.&.*.&.*.&.*.&.&.&.&.&.+.+.+.+.+.+.+.;.%.%.s O . . . O B 9.6.=.O.*.&.&.&.&.+.+.+.+.+.;.;.;.;.;.;.;.;.;.*.*.&.&.&.&.&.&.&.;.;.@.&.%.%.# . . . O =.I.H.J.B.B.B.J.J.M.f.7.p.7.>.&.&.&.*.-.-.-.&.&.%.%.%.+.+.;.-.H +.;.;.2.M.9.+ . .   . . 7 x.H.>.;.;.;.2.7.2.7.;.&.&.O.J %.;.;.>.>.>.>.>.>.>.,.>.<.<.<.-.;.,.,.s.H.P.x . . . O B 2.&.+.+.+.+.+.-.-.-.-.#.#.#.#.#.#.#.-.O.O.O.&.&.&.&.&.&.+.O.O.&.O.+.O.2.K.0.O O .   f P.f.:.;.;.*.&.+.+.&.&.*.&.&.&.&.&.&.&.&.>.2.2.>.>.;.;.;.&.&.%.%.O.O.%.%.*.9.s . .   . x 9.*.O.*.&.! &.&.K K K K +.+.+.+.&.&.&.&.&.&.&.&.-.-.-.&.*.*.>.2.7.8.x.f.I.=.+ . .   # B L.B.f.7.s.s.8.8.f.8.9.6.8.9.6.2.;.;.&.&.&.&.&.&.2.7.M.J.J.J.J.J.U.J.J.J.K.9.# O . O B P.I.M.9.O.O.&.*.*.O.O.&.*.+.+.+.+.#.#.#.#.H H H H K K &.&.&.&.&.&.H ;.p.J.8.+ . X X $ 9.8.2.2.>.>.>.:.:.;.;.>.>.>.>.>.>.>.2.1.1.1.7.7.7.7.7.7.7.7.>.>.>.>.<.;.<.>.9.+ . .   f H.I.J.J.M.f.7.7.7.7.;.;.;.-.&.&.&.&.+.O.H +.",
"&.&.&.&.&.&.&.+.&.#.#.&.&.&.&.&.=.O   . # =.&.&.+.+.+.+.+.+.#.+.&.&.&.&.&.&.&.&.+.+.+.+.+.+.#.+.+.+.+.+.+.+.+.+.-.-.&.%.2 . O O > %.*.O.&.&.&.&.+.+.+.+.+.+.+.+.+.+.+.+.+.+.+.+.+.+.+.+.+.+.+.+.&.&.&.&.+.&.&.%.d . . . 2 H.H.P.B.N.N.M.7.2.;.+.&.+.+.+.+.+.+.+.+.+.+.+.+.&.&.&.+.+.+.+.+.+.+.+.&.&.6.x O .   . . =.2.*.&.-.&.&.&.+.+.+.+.+.+.+.+.+.+.+.&.&.&.&.&.+.+.+.+.+.#.#.+.&.&.&.;.>.7.8.O . O 2 *.&.&.*.&.&.+.+.+.+.+.+.+.+.+.+.+.+.+.+.+.+.+.+.+.+.+.+.+.+.+.&.O.+.+.O.&.%.>.s . . O %.*.;.;.;.$.;.-.+.+.+.&.&.&.&.&.&.+.+.+.+.+.+.+.+.&.&.&.&.&.&.&.&.+.+.&.&.&.%.c O X . O x *.&.&.&.+.+.+.+.+.+.+.+.+.+.+.+.+.+.+.+.+.+.+.+.+.+.+.+.&.&.&.&.&.&.&.&.7.9.g O @ . z 8.&.&.&.&.&.&.&.&.&.&.&.&.&.&.&.&.+.+.+.+.+.+.+.+.+.&.&.&.>.>.,.,.3.3.7.7.>.*.2 O O 2 M.M.9.*.&.+.+.+.+.+.+.+.+.+.+.+.+.+.+.+.+.+.+.+.+.+.+.+.+.+.&.&.&.-.+.+.;.s.P.z . . . a 6.*.&.&.&.+.+.+.+.+.+.+.+.+.+.+.+.+.&.&.&.&.&.&.&.&.&.&.&.&.&.&.&.&.-.*.&.&.%.s   . O v 6.7.>.;.&.&.+.+.+.+.+.+.+.+.+.+.+.+.+.+.+.+.",
"&.&.&.&.&.&.&.+.#.#.#.#.#.#.#.&.=.+ . . # *.&.+.+.+.+.+.+.+.#.#.+.&.&.&.&.&.&.+.#.+.+.+.+.#.#.#.+.+.+.+.+.+.+.+.-.#.+.%.2 O O O 3 &.&.O.&.&.&.&.+.+.#.+.+.+.+.+.+.+.+.+.+.+.+.+.+.+.+.+.+.+.+.+.&.&.&.&.+.+.+.&.x . . . =.I.f.f.f.3.:.*.;.;.;.+.+.+.+.+.+.+.+.+.+.+.+.+.+.+.+.+.+.+.+.+.+.+.+.+.-.&.>.c O .   . O %.>.&.&.-.&.&.+.+.+.+.+.+.+.+.+.+.+.+.&.&.&.&.+.#.+.+.+.#.#.#.+.&.&.&.&.&.&.=.O . O s &.-.&.&.+.+.+.+.+.+.+.+.+.+.+.+.+.+.+.+.+.+.+.+.+.+.+.+.+.+.+.+.+.+.+.+.+.&.;.j O . + &.;.;.;.;.;.;.-.+.+.+.&.&.&.&.&.+.#.#.#.#.+.+.+.+.+.+.+.+.+.+.+.+.+.+.&.+.#.O.c + O . + n &.&.&.&.+.+.+.+.+.+.+.+.+.+.+.+.+.+.+.+.+.+.+.+.+.+.+.+.&.&.&.&.&.&.&.#.#.:.l O . O z >.+.&.&.&.-.-.-.&.&.&.&.&.&.&.&.&.+.+.+.+.+.+.+.+.+.+.+.+.&.&.&.&.#.-.&.&.*.*.a O + g >.;.*.@.+.$.#.#.#.#.+.+.+.+.+.+.+.+.+.+.+.+.+.+.+.+.+.+.+.+.+.+.&.-.&.+.O.;.f.*.. . O s %.-.+.+.+.+.+.+.+.+.+.+.+.+.+.+.+.+.&.&.&.&.&.&.&.&.+.+.+.+.+.+.+.+.+.+.&.! %.g . . + c *.&.&.+.&.&.+.+.+.+.+.+.+.+.+.+.+.+.+.+.+.+.",
"&.&.&.&.&.&.&.+.#.#.#.#.#.#.#.&.%.# . . # *.&.+.+.+.+.+.+.+.+.+.+.&.&.&.&.&.&.+.#.#.+.+.+.+.#.#.+.+.+.+.+.+.+.+.+.#.-.*.8 O . O g &.&.O.&.&.&.&.+.+.#.#.#.#.#.+.+.+.+.+.+.+.+.+.+.+.+.+.+.+.+.+.&.&.&.&.+.+.+.&.B O . @ 9.8.>.>.&.+.+.+.+.+.&.;.+.+.+.+.+.+.+.+.+.+.+.+.+.+.+.+.+.+.+.+.+.+.+.+.-.-.&.%.O .   . # %.*.&.-.-.&.&.+.+.+.+.+.+.+.+.+.+.+.+.&.&.&.&.+.#.+.+.+.+.#.#.+.&.&.&.&.&.O.%.+ . O s &.-.&.&.+.+.+.+.+.+.+.+.+.+.+.+.+.+.+.+.+.+.+.+.+.+.+.+.+.+.+.+.+.+.+.+.K &.*.c O . > *.*.$.;.$.;.;.-.&.+.+.O.&.&.&.&.+.+.#.+.+.+.+.+.+.+.+.+.+.+.+.+.+.+.+.+.+.#.&.%.# . . % %.&.&.&.&.+.+.+.+.+.+.+.+.+.+.+.+.+.+.+.+.+.+.+.+.+.+.+.+.&.&.&.&.&.&.&.#.K +.n *   O O.;.+.&.&.&.-.-.&.&.&.&.&.&.&.&.&.&.+.+.+.+.+.+.+.+.+.+.+.+.+.+.+.O.+.O.O.O.+.%.j O O c *.O.O.*.$.$.#.#.#.#.+.+.+.+.+.+.+.+.+.+.+.+.+.+.+.+.+.+.+.+.+.+.+.+.&.&.+.O.>.0.O . . c O.#.+.+.+.+.+.+.+.+.+.+.+.+.+.+.+.+.&.&.+.&.&.&.-.-.+.+.+.+.+.+.+.+.+.+.&.! %.z . . # %.&.J +.&.&.&.+.+.+.+.+.+.+.+.+.+.+.+.+.+.+.+.",
"&.&.&.&.&.&.&.+.#.#.#.#.#.#.#.&.%.# . . # %.&.+.+.+.+.+.+.+.+.+.+.&.&.&.&.&.&.+.#.#.+.+.+.+.#.+.+.+.+.+.+.+.+.+.K K -.*.s O . O z &.%.&.&.&.&.&.+.#.#.#.#.#.#.+.+.+.+.+.+.+.+.+.+.+.+.+.+.+.+.+.&.&.&.&.+.+.+.&.B O . * 0.*.%.&.+.+.*.;.;.;.*.&.+.+.+.+.+.+.+.+.+.+.+.+.+.+.+.+.+.+.+.+.+.+.+.+.;.&.O.%.O .   . 2 %.*.&.-.-.&.&.+.+.+.+.+.+.+.+.+.+.+.+.&.&.&.&.+.#.+.+.+.+.#.+.+.&.&.&.&.&.&.%.% . O x &.-.&.&.+.+.+.+.+.+.+.+.+.+.+.+.+.+.+.+.+.+.+.+.+.+.+.+.+.+.+.+.+.+.+.+.K &.%.%.O . 2 *.*.$.$.$.;.;.-.&.+.+.&.&.&.&.&.+.+.+.+.+.+.+.+.+.+.+.+.+.+.+.+.+.+.+.&.+.#.&.%.1 . . 2 =.&.&.&.&.+.+.&.+.+.+.+.+.+.+.+.+.+.+.+.+.+.+.+.+.+.+.+.+.&.&.&.&.&.&.&.#.-.-.%.% . # *.&.-.-.&.&.&.&.+.&.&.&.&.&.&.&.&.-.+.+.+.+.+.+.+.+.+.+.+.+.O.O.O.O.+.+.&.&.O.%.x O O %.&.&.O.:.+.+.+.+.+.+.+.+.+.+.+.+.+.+.+.+.+.+.+.+.+.+.+.+.+.+.+.&.+.&.&.&.&.+.K %.O   O %.&.#.+.+.+.+.+.+.+.+.+.+.+.+.+.+.+.+.&.&.&.&.&.-.-.-.+.+.+.+.+.+.+.+.+.+.&.! %.c O . 2 %.*.%.-.-.&.&.+.+.+.+.+.+.+.+.+.+.+.+.+.+.+.+.",
"&.&.&.&.&.&.&.+.#.#.#.#.#.#.#.&.=.8 . . 2 %.%.-.#.#.+.+.+.+.+.+.+.&.&.&.&.&.&.+.+.+.+.+.+.+.+.+.+.+.+.+.+.+.+.+.-.-.-.*.f . . + &.&.&.&.&.&.-.-.+.+.#.#.#.#.+.+.+.+.+.+.+.+.+.+.+.+.+.+.+.+.+.+.&.&.-.&.&.&.&.&.B + O a %.%.! ! +.+.+.+.+.+.+.+.+.+.+.+.+.+.+.+.+.+.+.+.+.+.+.+.+.+.+.+.+.+.+.+.+.&.&.%.+ .   . 2 %.*.&.-.-.*.*.+.+.+.+.+.+.+.+.+.+.+.+.&.&.&.&.+.+.+.+.+.+.+.+.+.&.&.&.&.&.&.%.2 O O x &.&.&.&.&.&.-.-.&.&.&.&.+.+.+.+.+.+.+.+.+.+.+.+.+.+.+.+.+.+.+.+.+.+.+.+.+.! %.%.O . 3 *.*.$.-.-.-.-.-.&.&.+.&.&.+.+.+.+.+.+.+.+.+.+.+.+.+.+.+.+.+.+.+.+.-.-.&.-.;.;.*.2 . . s =.&.&.&.&.+.+.+.+.+.+.+.+.+.+.+.+.+.+.+.+.+.+.+.+.+.+.+.+.&.&.&.&.&.&.-.#.-.;.*.2 . 7 %.&.+.+.+.+.+.+.&.&.&.&.&.&.&.&.-.-.+.+.+.+.+.+.+.+.+.+.+.+.+.+.+.+.+.+.O.O.O.%.x O # B &.&.&.&.#.$.#.#.#.#.#.#.#.#.+.+.+.+.+.+.+.+.+.+.+.+.+.+.+.+.-.-.-.&.&.&.&.-.-.%.+ . + n ;.+.+.+.+.+.+.+.+.+.+.+.+.+.+.+.+.+.&.&.-.&.&.&.&.-.+.+.+.+.+.+.+.+.+.+.&.! %.%.& . s %.*.&.&.&.&.&.+.+.+.+.+.+.+.+.+.+.+.+.+.+.+.+.",
"&.&.&.&.&.&.&.+.#.#.#.#.#.#.#.&.=.8 . . 2 %.%.-.#.#.+.+.+.+.#.+.&.&.&.&.&.&.&.+.+.+.+.+.+.+.+.+.+.+.+.+.+.+.+.+.-.-.-.*.f . . + &.&.&.&.&.&.-.-.+.+.#.#.+.#.+.+.+.+.+.+.+.+.+.+.+.+.+.+.+.+.+.+.&.&.-.-.+.+.&.&.c + O 2 %.%.! ! +.+.+.+.+.+.+.+.+.+.+.+.+.+.+.+.+.+.+.+.+.+.+.+.+.+.+.+.+.+.+.+.+.+.+.%.+ .   . 2 %.*.&.-.-.*.*.+.+.+.+.+.+.+.+.+.+.+.+.&.&.&.&.+.+.+.+.+.+.+.+.+.&.&.&.&.&.&.%.# . O x &.&.&.&.&.&.&.-.&.&.&.&.+.+.+.+.+.+.+.+.+.+.+.+.+.+.+.+.+.+.+.+.+.+.+.+.+.&.%.%.O . 3 *.*.$.-.-.-.-.-.&.&.+.&.&.+.+.+.+.+.+.+.+.+.+.+.+.+.+.+.+.+.+.+.+.-.-.&.-.-.&.%.1 . . t =.&.&.&.&.+.+.+.+.+.+.+.+.+.+.+.+.+.+.+.+.+.+.+.+.+.+.+.+.&.&.&.-.+.+.-.#.#.;.%.* . * O.&.+.+.+.+.+.+.&.&.&.&.&.&.&.&.-.-.+.+.+.+.+.+.+.+.+.+.+.+.+.+.+.+.+.+.&.&.+.&.x O # B &.&.&.&.#.$.#.#.#.#.#.#.+.#.+.+.+.+.+.+.+.+.+.+.+.+.+.+.+.+.-.-.-.&.&.&.&.-.-.%.+ . + O.;.#.+.+.+.+.+.+.+.+.+.+.+.+.+.+.+.+.&.&.-.-.+.+.&.&.+.+.+.+.+.+.+.+.+.+.&.! %.%.& . 2 %.*.&.&.&.&.&.+.+.+.+.+.+.+.+.+.+.+.+.+.+.+.+.",
"&.&.&.&.&.&.&.+.#.#.#.#.#.#.#.&.*.8 . . 2 %.%.-.+.+.+.+.+.+.+.+.&.&.&.&.&.&.&.+.+.+.+.+.+.+.+.+.+.+.+.+.+.+.+.+.-.-.-.*.f . . + &.&.&.&.&.&.-.-.+.+.+.+.+.+.+.+.+.+.+.+.+.+.+.+.+.+.+.+.+.+.+.+.&.-.-.-.+.+.+.&.l + O , *.&.! ! +.+.+.+.+.+.+.+.+.+.+.+.+.+.+.+.+.+.+.+.+.+.+.+.+.+.+.+.+.+.+.+.+.+.&.*.+     . 2 %.*.&.-.-.*.&.+.+.+.+.+.+.+.+.+.+.+.+.&.&.&.&.+.+.+.+.+.+.+.+.+.&.&.&.&.&.&.%.% . O g &.&.&.&.+.+.-.-.&.&.&.&.+.+.+.+.+.+.+.+.+.+.+.+.+.+.+.+.+.+.+.+.+.+.+.+.&.-.&.c O . 3 *.*.*.&.&.-.-.-.&.&.+.&.&.+.+.+.+.#.#.#.#.+.+.+.+.+.+.+.+.+.+.+.+.-.-.&.-.+.&.%.> . . s =.&.&.-.-.+.+.+.+.+.+.+.+.+.+.+.+.+.+.+.+.+.+.+.+.+.+.+.+.&.-.-.-.+.+.+.#.+.+.O.# . % c ;.+.+.+.+.-.&.-.&.&.-.-.&.&.&.&.-.+.+.+.+.+.+.+.+.+.+.+.+.+.+.+.+.+.+.&.&.+.&.x O # B &.&.&.&.#.#.#.#.#.#.#.#.#.#.+.+.+.+.+.+.+.+.+.+.+.+.+.+.+.+.-.-.&.&.&.&.&.&.-.%.# . + O.;.#.+.+.+.+.+.+.+.+.+.+.+.+.+.+.+.+.&.-.-.-.+.+.+.&.+.+.+.+.+.+.+.+.+.+.&.! %.%.& . % %.*.&.&.&.&.&.+.+.+.+.+.+.+.+.+.+.+.+.+.+.+.+.",
"+.+.+.+.+.+.+.+.&.#.#.#.#.#.#.&.*.8 . . 2 %.&.-.+.+.+.+.+.+.+.+.+.+.+.+.+.+.+.+.+.+.+.+.+.+.+.+.+.+.+.+.+.+.+.+.-.-.-.*.g . . + &.&.&.&.&.&.-.-.+.+.+.+.+.+.+.+.+.+.+.+.+.+.+.+.+.+.+.+.+.+.+.+.&.&.-.-.+.+.+.&.g + O + *.&.! ! +.+.+.+.+.+.+.+.+.+.+.+.+.+.+.+.+.+.+.+.+.+.+.+.+.+.+.+.+.+.+.+.+.+.&.%.+     . 2 %.*.&.-.-.&.&.+.+.+.+.+.+.+.+.+.+.+.+.+.&.&.&.+.+.+.+.+.+.+.+.+.+.+.+.+.+.+.%.% . O g &.&.&.&.+.+.-.-.-.&.&.&.+.+.+.+.+.+.+.+.+.+.+.+.+.+.+.+.+.+.+.+.+.+.+.+.&.>.&.k O . 3 *.&.+.&.&.#.#.&.&.&.+.&.&.+.+.+.+.#.#.#.#.#.+.+.+.+.+.+.+.+.+.+.+.-.-.-.-.+.O.%.> . . a *.&.&.-.-.+.+.+.+.+.+.+.+.+.+.+.+.+.+.+.+.+.+.+.+.+.+.+.+.-.-.-.-.+.+.&.&.@.O.n + . % c ;.+.+.+.+.-.-.-.+.-.-.-.-.&.&.&.-.+.+.+.+.+.+.+.+.+.+.+.+.+.+.+.+.+.+.&.&.+.&.x O # B &.+.&.&.&.#.#.#.#.#.#.#.#.#.+.+.+.+.+.+.+.+.+.+.+.+.+.+.+.+.-.+.&.&.&.&.&.#.-.%.# . + O.;.#.+.+.+.+.+.+.+.+.+.+.+.+.+.+.+.+.&.&.-.-.+.+.+.+.+.+.+.+.+.+.+.+.+.&.%.! %.%.& . + v &.&.&.&.&.&.+.+.+.+.+.+.+.+.+.+.+.+.+.+.+.+.",
"#.#.#.#.+.+.#.+.+.+.+.+.+.+.+.&.*.3 . . z *.O.-.+.+.+.+.+.+.+.+.+.+.+.+.+.#.#.+.+.+.+.+.+.+.+.+.+.+.+.+.+.+.+.+.&.! -.&.c O . + %.+.+.+.+.+.+.+.+.+.+.+.+.+.+.+.+.+.+.+.+.+.+.+.+.+.+.+.+.+.+.+.-.-.-.-.&.&.&.O.a O . 7 %.&.! K +.+.+.+.+.+.+.+.+.+.+.+.+.+.+.+.+.+.+.+.+.+.+.+.+.+.+.+.+.+.&.&.-.-.&.%.* .   . 2 Q &.&.-.-.-.-.+.+.+.+.+.+.+.+.#.#.#.+.+.+.+.+.+.+.+.+.+.+.+.+.+.+.+.+.+.-.-.O.+ . O s %.&.&.&.+.+.&.&.&.+.+.+.+.+.+.+.+.+.+.+.+.+.+.+.+.+.+.+.+.+.+.+.+.+.+.+.+.&.&.l O . 3 *.&.&.&.&.&.&.&.+.+.+.+.+.+.+.+.+.+.+.+.+.+.+.+.+.+.+.+.+.+.+.+.+.&.&.&.&.&.*.J > . . g %.! ! -.-.+.+.+.+.+.+.+.+.+.+.+.+.+.+.+.+.+.+.+.+.+.+.+.+.+.+.+.+.+.+.+.+.;.O.l O . O j &.&.&.&.&.-.-.&.&.+.+.+.+.+.+.+.+.+.+.+.+.+.+.+.+.+.+.+.+.+.+.+.+.+.+.&.&.&.O.s . + c %.-.+.+.+.+.#.#.+.#.#.#.#.#.+.+.+.+.+.+.+.+.+.+.+.+.+.+.+.+.&.&.&.-.-.-.&.#.#.&.% . O l ;.#.+.+.+.+.+.+.+.+.+.+.+.+.+.+.+.+.+.+.+.+.+.+.+.+.+.+.+.+.+.+.+.+.&.&.&.! &.%.% . % g O.&.&.&.&.&.+.+.+.+.+.+.+.+.+.+.+.+.+.+.+.+.",
"#.#.#.+.+.+.+.#.+.&.&.&.&.&.&.&.*.3 . . z ;.+.-.+.+.+.+.+.+.+.+.+.+.+.+.#.#.#.#.+.&.%.&.&.&.&.&.+.+.+.+.+.+.+.+.&.! &.%.c O . + %.+.+.+.+.+.+.+.+.&.&.&.&.&.&.&.+.+.+.+.+.+.+.+.+.+.+.+.+.+.+.+.&.-.-.-.&.&.&.O.a @ . a %.&.+.+.+.+.+.+.+.+.+.+.+.+.+.+.+.+.+.+.+.+.+.+.+.+.+.+.+.+.+.+.+.+.&.&.-.-.&.%.* .   . 2 Q &.&.-.-.-.-.+.+.+.+.+.+.+.+.#.#.#.#.+.+.+.+.&.&.&.&.&.&.&.+.+.#.+.+.+.-.-.O.# O O s %.&.&.&.&.+.&.-.&.&.+.+.+.+.+.+.+.+.+.+.+.+.+.+.+.+.+.+.+.+.+.+.+.+.+.+.+.&.&.l $ . 3 %.&.+.+.+.+.+.+.+.+.+.+.+.+.+.+.+.+.+.+.+.+.+.+.+.+.+.+.+.+.+.+.+.&.&.#.#.&.*.J > . . g &.&.! -.&.+.+.+.+.+.+.+.+.+.+.+.+.+.+.+.+.+.+.+.+.+.+.+.+.+.+.+.+.+.+.+.+.;.O.g O . O j *.&.&.&.&.&.&.&.-.+.+.+.+.+.+.+.+.+.+.+.+.+.+.+.+.+.+.+.+.+.+.+.+.+.+.&.&.&.%.s . O c &.-.+.#.+.+.#.#.#.#.#.#.#.#.+.+.+.+.+.+.+.+.+.+.+.+.+.+.+.+.+.+.&.&.-.-.&.#.#.&.% . O l *.+.+.+.+.+.+.+.+.+.+.+.+.+.+.+.+.+.+.+.+.+.+.+.+.+.+.+.+.+.+.+.+.+.&.&.&.! &.%.% . % g O.&.&.&.-.-.+.+.+.+.+.+.+.+.+.+.+.+.+.+.+.+.",
"#.#.+.+.+.+.#.#.+.&.&.&.&.&.&.&.*.3 . . z ;.+.-.&.&.&.&.&.&.&.+.+.+.+.+.+.+.#.+.+.&.&.&.&.&.&.&.+.+.+.+.+.+.+.+.&.! &.%.c O . + %.+.+.+.+.+.+.+.+.&.&.&.&.&.&.&.+.+.+.+.+.+.+.+.+.+.+.+.+.+.+.+.&.&.&.&.&.&.&.O.a @ . a %.&.+.+.+.+.+.+.+.+.+.+.+.+.+.+.+.+.+.+.+.+.+.+.+.+.+.+.+.+.+.+.+.+.&.&.-.-.-.*.* .   . 2 %.&.&.-.-.-.-.+.+.+.+.+.+.+.+.#.#.#.#.+.+.+.+.&.&.&.&.&.&.&.+.#.#.#.#.+.-.-.O.# O O s %.&.&.&.&.-.-.-.-.-.&.&.+.+.+.+.+.+.+.+.+.+.+.+.+.+.+.+.+.+.+.+.+.+.+.+.+.&.&.z $ . 3 &.%.&.&.&.+.+.+.+.+.+.+.+.+.+.+.+.+.+.+.+.+.+.+.+.+.+.+.+.+.+.+.+.&.&.#.#.&.*.J > . . g &.&.&.&.&.+.+.+.+.+.+.+.+.+.+.+.+.+.+.+.+.+.+.+.+.+.+.+.+.+.+.+.+.+.+.+.+.;.%.g O . O j *.&.&.&.&.&.&.&.-.+.+.+.+.+.+.+.+.+.+.+.+.+.+.+.+.+.+.+.+.+.+.+.+.&.&.&.&.&.J s . O c %.-.#.+.+.+.#.#.#.#.#.#.#.#.+.+.+.+.+.+.+.+.+.+.+.+.+.+.+.+.+.+.+.+.&.&.&.#.#.&.% . O l *.+.+.+.+.+.+.+.+.+.+.+.+.+.+.+.+.+.+.+.+.+.+.+.+.+.+.+.+.+.+.+.+.+.&.&.&.! &.%.% . % g O.&.&.&.-.-.+.+.+.+.+.+.+.+.+.+.+.+.+.+.+.+.",
"+.+.+.+.+.+.#.+.+.&.&.&.&.&.&.&.*.3 . . z *.+.-.&.&.&.&.&.&.&.+.+.+.+.+.+.+.+.+.+.&.&.&.&.&.&.&.+.+.+.+.+.+.+.+.&.! &.%.c O . + %.+.+.+.+.+.+.+.+.&.&.&.&.&.&.&.+.+.+.+.+.+.+.+.+.+.+.+.+.+.+.+.&.&.&.&.&.&.&.O.a @ . a %.&.+.+.+.+.+.+.+.+.+.+.+.+.+.+.+.+.+.+.+.+.+.+.+.+.+.+.+.+.+.+.+.+.&.&.-.-.-.*.* .   . 2 %.&.&.-.-.-.-.+.+.+.+.+.+.+.+.#.#.#.#.+.+.+.+.&.&.&.&.&.&.&.+.#.#.#.#.+.-.-.O.# O O s %.&.&.&.&.&.-.-.-.-.&.&.+.+.+.+.+.+.+.+.+.+.+.+.+.+.+.+.+.+.+.+.+.+.+.+.+.&.&.z $ . 3 %.%.&.&.&.+.+.+.+.+.+.+.+.+.+.+.+.+.+.+.+.+.+.+.+.+.+.+.+.+.+.+.+.&.&.#.#.&.*.J > . . g &.&.&.+.&.+.+.+.+.+.+.+.+.+.+.+.+.+.+.+.+.+.+.+.+.+.+.+.+.+.+.+.+.+.+.+.+.;.O.s O . O j *.&.&.&.&.&.&.&.&.+.+.+.+.+.+.+.+.+.+.+.+.+.+.+.+.+.+.+.+.+.+.+.+.&.&.&.+.&.J s . O c %.-.+.+.+.+.#.#.#.#.#.#.#.#.+.+.+.+.+.+.+.+.+.+.+.+.+.+.+.+.+.+.+.&.&.&.&.#.#.&.% . O l *.+.+.+.+.+.+.+.+.+.+.+.+.+.+.+.+.+.+.+.+.+.+.+.+.+.+.+.+.+.+.+.+.+.&.&.&.&.&.%.% . % g O.&.&.&.-.-.+.+.+.+.+.+.+.+.+.+.+.+.+.+.+.+.",
"+.+.+.+.+.+.+.+.+.&.&.&.&.&.&.&.&.i O O %.&.+.-.&.&.&.&.&.&.&.+.+.+.+.+.+.+.+.+.+.&.&.&.&.&.&.&.+.+.+.+.+.+.+.+.&.&.&.&.%.# . % %.+.+.+.+.+.+.+.+.&.&.&.&.&.&.&.+.+.+.+.+.+.+.+.+.+.+.+.+.+.+.+.&.+.+.+.&.&.+.J 2 . . d %.&.+.+.+.+.+.+.+.+.+.+.+.+.+.+.+.+.+.+.+.+.+.+.+.+.+.+.+.+.+.+.+.+.+.+.-.-.&.&.1 .   . 3 %.&.&.&.#.#.#.+.+.+.+.+.+.+.+.#.#.#.#.+.+.+.+.&.&.&.&.&.&.&.+.+.+.+.+.+.-.#.O.# O . 3 *.&.&.&.&.-.-.-.-.&.&.&.+.+.+.+.+.+.+.+.+.+.+.+.+.+.+.+.+.+.+.+.+.+.+.+.+.&.O.g O . 3 Q %.&.&.&.+.+.+.+.+.+.+.+.+.+.+.+.+.+.+.+.+.+.+.+.+.+.+.+.+.+.+.+.&.&.+.+.&.*.c , . O j &.&.&.&.&.+.+.+.+.+.+.+.+.+.+.+.+.+.+.+.+.+.+.+.+.+.+.+.+.+.+.+.+.+.+.+.+.#.O.g O . O s O.&.+.+.+.&.&.&.&.+.+.+.+.+.+.+.+.+.+.+.+.+.+.+.+.+.+.+.+.+.+.+.+.&.&.+.+.#.J s . O x %.-.#.#.&.&.#.#.#.#.#.#.#.#.+.+.+.+.+.+.+.+.+.+.+.+.+.+.+.+.-.-.-.&.&.&.&.#.#.&.2 . O g &.&.+.+.+.+.+.+.+.+.+.+.+.+.+.+.+.+.+.+.+.+.+.+.+.+.+.+.+.+.+.+.+.+.&.&.&.&.&.%.% . $ s O.;.&.+.+.+.+.+.+.+.+.+.+.+.+.+.+.+.+.+.+.+.",
"+.+.+.+.+.+.+.+.+.&.&.&.&.&.&.&.&.i O O %.&.+.&.&.&.&.&.&.&.&.+.+.+.+.+.+.+.+.+.+.&.&.&.&.&.&.&.+.+.+.+.+.+.+.+.&.&.&.&.%.# . % %.+.+.+.+.+.+.+.+.&.&.&.&.&.&.&.+.+.+.+.+.+.+.+.+.+.+.+.+.+.+.+.&.&.&.+.&.&.+.J 2 . . d %.+.+.+.+.+.+.+.+.+.+.+.+.+.+.+.+.+.+.+.+.+.+.+.+.+.+.+.+.+.+.+.+.+.+.+.#.#.#.&.1 .   . 3 %.&.O.&.#.#.#.+.+.+.+.+.+.+.+.+.#.#.#.+.+.+.+.%.&.&.&.&.&.&.+.+.+.+.+.+.-.#.O.# O . 3 *.&.&.&.&.-.-.-.-.-.&.&.+.+.+.+.+.+.+.+.+.+.+.+.+.+.+.+.+.+.+.+.+.+.+.+.+.&.O.g O . 3 Q %.&.&.&.+.+.+.+.+.+.+.+.+.+.+.+.+.+.+.+.+.+.+.+.+.+.+.+.+.+.+.+.&.&.-.#.&.*.J , . O j &.&.&.&.&.+.+.+.+.+.+.+.+.+.+.+.+.+.+.+.+.+.+.+.+.+.+.+.+.+.+.+.+.+.+.+.+.#.O.s O . O y O.&.+.+.+.&.&.&.&.+.+.+.+.+.+.+.+.+.+.+.+.+.+.+.+.+.+.+.+.+.+.+.+.&.&.+.+.#.J s . O x %.-.#.#.&.&.#.#.#.#.#.#.#.#.+.+.+.+.+.+.+.+.+.+.+.+.+.+.+.+.-.-.-.-.&.&.&.#.#.*.2 . O s &.&.+.+.+.+.+.+.+.+.+.+.+.+.+.+.+.+.+.+.+.+.+.+.+.+.+.+.+.+.+.+.+.+.&.&.&.&.&.%.% . $ s O.;.&.+.+.+.+.+.+.+.+.+.+.+.+.+.+.+.+.+.+.+.",
"#.#.+.+.+.+.+.+.+.&.&.&.&.&.&.&.&.i O O %.&.-.+.&.&.&.&.&.&.&.+.+.+.+.+.#.#.#.#.+.&.&.&.&.&.&.&.+.+.+.+.+.+.+.+.&.&.&.&.%.# . # &.+.+.+.+.+.+.+.+.&.&.&.&.&.&.&.+.+.+.+.+.+.+.+.+.+.+.+.+.+.+.+.-.-.&.&.&.&.+.J 1 . O d &.+.+.+.+.+.+.+.+.+.+.+.+.+.+.+.+.+.+.+.+.+.+.+.+.+.+.+.+.+.+.+.+.+.+.+.#.#.#.&.1 . . . 3 &.&.O.&.#.#.#.+.+.+.+.+.+.+.+.+.+.+.+.+.+.+.+.&.&.&.&.&.&.&.+.+.+.+.+.+.-.#.O.# . . 3 *.&.&.&.&.&.&.-.&.+.+.+.+.+.+.+.+.+.+.+.+.+.+.+.+.+.+.+.+.+.+.+.+.+.+.+.+.&.%.j O O 3 Q %.&.&.&.+.+.+.+.+.+.+.+.+.+.+.+.+.+.+.+.+.+.+.+.+.+.+.+.+.+.+.+.&.&.#.#.&.*.J > . O j &.&.&.&.&.+.+.+.+.+.+.+.+.+.+.+.+.+.+.+.+.+.+.+.+.+.+.+.+.+.+.+.+.&.+.+.+.&.O.s O . O y %.&.+.+.+.&.*.&.&.+.+.+.+.+.+.+.+.+.+.+.+.+.+.+.+.+.+.+.+.+.+.+.+.&.&.+.+.#.O.s . O x %.-.#.$.&.&.#.#.#.#.#.#.#.#.+.+.+.+.+.+.+.+.+.+.+.+.+.+.+.+.-.-.&.&.&.&.&.#.#.*.2 O O s &.&.+.+.+.+.+.+.+.+.+.+.+.+.+.+.+.+.+.+.+.+.+.+.+.+.+.+.+.+.+.+.+.+.&.&.&.&.&.%.% . $ s O.;.&.+.+.+.+.+.+.+.+.+.+.+.+.+.+.+.+.+.+.+.",
"#.+.+.+.+.+.+.+.&.&.&.&.&.&.&.&.&.y O O %.&.&.&.&.&.&.&.&.&.&.&.+.+.+.+.+.+.+.+.&.&.&.&.&.&.&.&.+.+.+.+.+.+.+.+.&.&.&.&.%.+ . # %.&.&.&.+.+.+.+.&.&.&.&.&.&.&.&.+.+.+.+.+.+.+.+.+.+.+.+.+.+.+.+.-.-.-.&.&.&.&.J 1 . O d &.+.+.+.+.+.+.+.+.+.+.+.+.+.+.+.+.+.+.+.+.+.+.+.+.+.+.+.+.+.+.+.+.+.+.+.#.#.+.&.1 .   . 3 *.&.O.#.#.#.#.+.+.+.+.+.+.+.+.+.+.+.+.+.+.+.+.&.&.&.&.&.&.&.+.+.+.+.+.+.-.+.O.+ . . 7 &.&.&.&.&.+.&.&.&.+.+.+.+.+.+.+.+.+.+.+.+.+.+.+.+.+.+.+.+.+.+.+.+.+.+.+.&.&.%.j O O 3 Q %.&.&.&.&.+.+.+.+.+.+.+.#.+.+.+.+.+.+.+.+.+.+.+.+.+.+.+.+.+.+.+.&.&.#.#.&.*.J > O O j &.&.&.&.&.+.+.+.+.+.+.+.+.+.+.+.+.+.+.+.+.+.+.+.+.+.+.+.+.+.+.+.+.+.+.+.+.&.O.s O . O 3 %.&.+.+.+.;.*.&.&.+.+.+.+.+.+.+.+.+.+.+.+.+.+.+.+.+.+.+.+.+.+.+.+.+.+.+.+.-.O.a O O x %.-.$.$.&.&.#.#.#.#.#.#.#.#.+.+.+.+.+.+.+.+.+.+.+.+.+.+.+.+.&.&.&.&.&.&.&.&.+.*.2 O O s &.&.+.+.+.+.+.+.+.+.+.+.+.+.+.+.+.+.+.+.+.+.+.+.+.+.+.+.+.+.+.+.+.&.&.&.&.&.&.%.% . O s O.;.+.+.+.+.+.+.+.+.+.+.+.+.+.+.+.+.+.+.+.+.",
"+.+.+.+.+.+.+.&.&.+.&.&.&.&.&.&.c 2 O # s %.&.&.&.&.&.&.%.%.%.%.*.*.*.*.*.*.&.&.&.*.*.*.&.&.&.&.&.&.&.&.&.&.&.&.+.H &.>.B + . @ B *.*.&.&.+.+.+.&.&.&.&.&.&.&.&.;.*.&.+.+.+.;.*.+.+.+.+.+.+.+.+.&.&.&.&.O.&.%.z % . O 7 O.;.#.+.&.&.&.&.&.&.&.&.&.&.&.&.&.&.&.&.&.&.&.&.&.&.&.&.&.&.&.&.&.&.&.-.#.#.-.O.1 .   . g %.&.O.+.#.+.+.+.&.&.&.&.&.&.+.+.+.+.+.+.&.&.&.+.+.+.+.+.+.+.+.+.+.+.&.&.>.&.g $ . O 2 O.%.%.;.*.#.#.*.*.*.&.&.&.&.&.&.&.&.&.&.&.&.&.&.&.&.&.&.&.&.&.&.&.&.*.*.&.;.O.3 O . 2 n *.&.&.&.&.&.&.&.*.*.*.*.*.*.+.+.+.+.*.*.*.+.+.+.&.&.*.*.*.*.#.+.+.#.$.$.:.O.g + . O g *.%.&.&.&.*.*.*.*.+.+.*.*.*.*.*.*.*.*.*.+.+.&.*.*.*.&.+.+.&.&.&.&.&.&.&.&.&.O.8 O . O 3 z &.+.+.+.&.&.&.&.&.&.&.*.$.$.#.+.+.#.#.#.#.#.#.$.$.$.+.+.&.+.+.+.#.#.$.$.;.O.3 O O 3 *.&.;.#.#.#.#.#.-.-.#.#.#.#.&.&.&.&.&.&.&.&.&.&.&.&.&.&.&.&.&.&.-.-.&.&.;.;.O.c 1 O O s c &.+.+.+.+.+.+.+.+.&.&.&.&.&.&.&.&.&.&.&.&.&.&.&.&.&.&.&.&.+.+.+.&.&.&.+.%.&.c * . + 1 O.O.#.#.#.#.&.&.&.&.&.&.&.&.&.&.&.&.&.&.&.&.",
"#.#.+.+.+.+.+.+.+.+.&.&.&.&.&.&.c 1 O $ 3 c &.&.&.&.&.&.%.&.&.&.&.*.*.*.&.*.&.&.*.*.*.*.&.&.&.&.&.&.&.&.&.#.#.#.+.+.&.*.c + . @ x %.*.&.&.&.&.&.&.&.&.&.&.&.&.&.;.;.-.+.+.+.*.*.+.+.+.+.+.+.+.+.&.&.&.&.&.&.J g % . O 7 O.&.-.+.&.&.&.&.&.&.&.&.&.&.-.&.&.&.&.&.&.&.&.&.&.&.-.-.&.&.&.&.&.-.&.-.#.#.+.c 1 .   . a O.&.O.+.+.+.&.&.&.&.&.&.&.&.&.&.+.+.&.&.&.&.&.+.+.+.+.+.+.+.+.+.+.&.%.%.&.%.g $ . O 2 %.&.%.%.*.#.#.#.*.*.&.*.&.&.&.&.&.&.&.&.&.&.&.&.#.#.#.&.&.&.&.&.&.&.*.*.&.&.J 3 O . % c &.&.&.&.&.&.&.&.&.&.*.*.;.*.+.+.*.&.;.;.&.+.+.+.&.&.*.*.*.*.#.#.+.#.$.$.;.J g > . O g %.%.&.&.&.*.*.&.&.+.+.*.;.*.*.&.*.&.&.&.&.#.&.*.*.*.&.&.&.&.&.&.&.-.&.&.-.&.J 2 . . O 3 z &.+.+.+.&.&.&.&.&.&.&.*.$.$.#.#.+.+.#.#.#.#.$.$.$.$.+.+.&.&.&.#.#.#.$.$.+.c 2 O O a %.&.;.#.#.#.#.#.-.-.#.#.#.#.&.&.&.&.&.&.&.-.&.&.&.&.&.&.&.&.&.&.-.-.&.&.+.+.J l % O O a z O.+.+.+.+.+.+.+.+.&.&.&.&.&.&.&.&.&.&.&.&.&.&.&.&.&.&.&.&.&.&.&.&.&.&.+.&.O.l # . + 2 c O.#.#.#.#.&.&.&.&.&.&.&.&.&.&.&.&.&.&.&.&.",
"#.#.#.#.#.+.+.+.+.+.+.+.+.+.+.&.z # . O 2 x =.%.&.+.+.+.+.+.+.+.*.*.&.&.#.+.+.+.&.&.*.*.&.#.#.#.#.#.#.#.#.#.#.#.-.-.&.%.s O . O s c %.%.&.&.&.&.&.&.&.&.&.&.&.&.*.*.*.*.&.&.&.*.&.&.+.+.&.&.&.&.&.&.&.&.*.*.c 1 % . O 7 z &.;.;.&.&.&.&.&.&.&.&.&.&.&.&.&.&.&.&.&.&.&.&.&.&.&.&.&.&.&.&.&.&.&.-.-.+.J j + .     2 c O.O.+.+.&.%.&.&.&.&.&.&.+.&.&.&.&.&.&.&.&.&.&.&.&.&.&.&.&.&.&.&.&.%.%.O.c s $ . . 2 z %.%.%.&.*.*.*.*.*.*.*.*.*.+.&.#.#.#.#.#.#.#.#.#.#.#.#.&.&.&.&.&.&.&.&.%.J z 3 O . + g O.-.-.-.&.&.&.&.&.+.#.#.$.#.#.#.#.$.$.$.$.#.#.#.$.#.#.#.$.$.#.#.*.*.*.*.O.z g # . . a c %.*.&.&.&.#.#.#.#.#.#.$.#.#.#.#.#.$.$.$.$.#.$.$.#.#.#.#.#.#.-.-.#.#.#.-.O.c 2 . . O 3 z &.+.+.+.#.#.#.#.#.#.#.#.$.$.*.+.*.*.&.*.-.-.&.&.*.*.*.&.$.$.$.$.&.&.#.&.J l 2 O O s z J ;.#.#.-.+.&.&.&.&.&.&.&.&.&.&.&.&.&.&.&.&.&.&.&.&.&.&.&.&.&.&.&.*.+.O.H k g % O O a j J &.&.&.&.&.&.&.&.+.+.+.+.+.+.+.+.+.+.+.+.+.+.+.+.+.+.+.+.+.+.+.+.&.&.&.&.c g + . O a z +.&.#.#.#.#.#.#.#.#.#.#.#.#.#.#.#.$.$.#.#.",
"#.#.#.#.#.+.+.+.+.+.+.+.+.+.+.&.j + . O a g n %.&.+.+.+.+.+.+.+.&.+.+.+.+.+.+.+.&.*.*.*.-.#.#.#.#.#.#.#.#.#.#.#.-.;.*.c a O O O 7 z %.%.%.&.&.&.&.&.&.&.&.&.&.&.*.*.*.*.&.&.&.*.&.+.+.+.&.&.&.&.&.&.&.&.*.%.j 3 # . O 7 z @.;.;.&.&.&.&.&.&.&.&.&.&.&.&.&.&.&.&.&.&.&.&.&.&.&.&.&.&.&.&.&.&.&.&.*.%.J g + . .   % x %.+.&.&.&.&.&.&.&.&.+.+.+.&.&.&.&.&.&.&.&.&.%.&.+.&.&.&.&.&.&.%.%.%.%.c j s & . . * 3 O.*.*.&.#.#.#.*.*.&.*.*.*.*.+.#.#.#.#.#.#.#.#.#.#.#.#.+.&.&.&.&.&.&.&.%.z g 2 O   O a J +.-.-.&.&.&.&.&.&.&.&.$.#.#.#.*.*.*.*.;.+.+.+.&.&.&.&.*.&.#.&.*.*.*.*.G h s # O . 7 x c %.*.&.*.*.;.-.#.#.#.#.#.#.+.+.&.&.*.*.*.*.#.#.#.#.+.+.&.&.&.&.&.&.-.&.O.z % . . O 2 z &.+.+.+.&.&.&.&.&.&.&.&.*.*.*.*.*.*.*.*.&.&.&.&.*.*.*.&.*.;.*.*.&.&.&.&.z g 2 O O s j J *.;.-.&.&.&.&.&.&.&.&.&.&.&.&.&.&.&.&.&.&.&.&.&.&.&.&.&.&.&.&.&.*.+.H z g s % O O a g z &.&.&.&.&.&.&.&.+.+.+.+.+.+.+.+.+.+.+.+.+.+.+.+.+.+.+.+.+.+.+.+.&.&.&.&.j s $ . O s j &.&.-.&.&.#.#.#.#.#.#.#.#.#.#.#.#.$.#.#.#.",
"$.$.$.$.#.&.&.&.#.*.*.*.>.+.+.c s * . . a a s c *.#.#.#.+.+.+.&.&.+.&.+.&.&.&.&.+.+.+.+.+.+.+.+.;.;.;.;.+.+.+.+.;.O.O.x a .   O 2 s l n O.O.O.O.O.O.O.O.O.O.O.O.z G G G G G G G O.O.O.O.&.&.&.&.&.&.&.&.*.z g a # . O 2 y L O.*.&.&.&.&.&.&.&.*.*.*.*.*.&.&.&.&.+.&.+.+.%.%.%.%.O.O.O.O.O.O.K Q J h g g O . . . 2 s l J *.*.*.*.*.*.*.&.&.O.%.%.O.O.O.O.O.O.O.O.O.J O.O.z z z z z z z z h l g t & . . % g z J O.;.;.;.;.;.;.;.;.*.*.;.;.;.;.;.;.;.;.;.;.;.;.;.;.*.+.+.+.+.&.&.&.J g j 1 O . @ f z J &.&.&.&.&.&.+.+.+.+.*.*.*.*.*.*.*.*.*.*.*.*.*.*.*.*.*.*.*.*.O.O.O.O.g l a % . . % s j z c %.*.*.*.*.*.*.*.*.*.*.*.*.*.*.+.*.&.&.+.+.&.&.&.&.&.%.&.&.&.&.&.*.z 3 7 . . . % s z G O.%.&.&.&.&.&.*.*.*.*.*.*.*.*.*.*.*.*.*.*.*.*.*.*.*.*.*.*.*.%.O.O.c g x 7 . O 2 g z O.*.*.&.%.+.+.+.&.&.&.%.*.&.&.&.&.&.&.&.O.O.K K &.&.&.&.J J J J G z z h i l % . O a l j O.O.O.O.%.%.%.%.O.O.O.O.+.+.+.+.+.&.&.;.;.;.;.;.;.;.;.;.;.;.*.*.*.O.z z i y % . O f y c &.&.&.&.&.&.&.&.&.&.-.-.+.+.&.+.*.*.*.*.",
"&.+.+.+.&.&.&.&.*.*.&.&.O.z z l 2 #   . * a s l c z z z z z z z z h h h h h h h z z z z z z z z O.O.O.O.+.+.+.+.+.J j s 7 .   . a s s s l l z z z z z z l l g g g i i i i i i i h h h h O.O.&.&.%.%.%.%.n x s 7 O . O # y p z O.&.&.&.&.&.&.&.&.O.O.O.O.&.&.&.&.&.&.%.%.%.%.%.%.z z z z z z k k j q g s . . . . + 2 i g z z c c n n O.O.z z z z i i i i i i i i i i i i i i i i i i i i g g s 2 & . . % a g j z J O.O.O.J O.O.O.O.O.O.O.O.O.O.O.O.O.O.O.O.O.+.+.+.+.&.&.&.&.&.&.z g g # .   O a j z J O.&.&.&.&.O.O.O.O.z z z z z z z z z z h h h h h h h h h h j j z z i s 2 $ . . % s g g j l z z z z z z z z z z z z z z z z c c c c O.O.O.O.O.O.Q Q %.%.%.%.j 3 # .   . % s i g h c h h h h z z z z z z l l l l l l z z l l l l l l l z h z z z j g s f = . . # s z z O.%.J O.O.O.O.%.%.%.%.&.&.&.&.&.&.&.&.*.*.*.*.c c c c i i i i i i i i i s O . . * s l g g g g g g g g z z z z z z z z z z z z z z z z z z z z z z z z c z g g s 2 @ . O a s z O.O.O.O.J J J J J J O.O.O.O.J J O.O.O.O.",
"h h h h h j j j l l l l g g g s 2 O . . # a s s g g g g g g g g g g g g g g g g i i i i g i i i j h j j c c c c z g y 8 * .   . * f s y s i i i i i i i i i i i i i i i i i i i i i i i g g g g c c c c g s a 2 . . . @ g i h z J J J J J c c c z z z z h h g g h h i i g g g g g g g g g g g q 8 8 8 a . . . . O 2 y i i i g g i i y y i i i i i i i i i i g g i i i i i i i i i i i g 3 s a * @     @ 7 3 8 g g g g g g g g j j z z z z z z z z z z z z z h j j j g g j j j j l 3 s + .   . a g g g z j j j j g g g g s s g g g g g l g g g g g g g g g g g g g g i i s a # O . . % s g g g g s y y y y y y y g g g g g g g g g l g g s s g g g g g g g g g g g y + .   . % s s s s g s 8 8 y y y y y y y y y y y y y y y y y y y y y y y y s g g 3 3 s 7 #   . # 8 j i z c h g h h h h h h h c c c J J J J J z z h h g g g g g g g i i i i y g 2 . . . * s s s s s s s s s s g i i i i i i i i i i i i i i i i i i i i i i g g g g i s % . . . % s g h h h h h j j j j j j h j j h h j j l l ",
"g g g g g g g g l g g g s s s s 2 . . . O a f a s s s s s s s s s s s s s s s s s s s s s s s s y 3 8 8 s g g g g g s 7 @ .     O 2 f 2 s s y y y y i i y y y y i i i i i i i i i g g g y y y i i i i g 2 8 7 #   . . O s g 5 5 g g g g g g g i i i y y i i i i i i 5 5 5 5 y y g g g g i i i g s s a a . . . . . 2 s y g g g s g g g g g g g g g g g g g g g g g g g g g g g g g g g g 3 a 8 % .     O f a s s s s s s s s s s y y y y 3 3 y y i y y y y y g g g g g g s s g g g 3 8 O .   . 2 s g g g y y y y s s s s s s s s s s s s s s s s s s s s s s s s s s i i s s * . . . * s s g g g s s s s s s s s s a a a a s s s s s s s s s s s s a s s s s s s 3 a O .   . % s s s s s s s s s s s s s s s s s s s s s s s s s s s s s s s s s s s 3 2 f # @     @ 2 s 3 i g i g g g g g g g g g g g g g i g g i i i i g g i i i i i i i i g g s % .     & a s d s s s s s s s s y y y y s s g g g g g g g g g g g g g g g g g g g g g s $ . . . $ f s g i i i g g g g i i i i g g i i i g g g ",
"y y y y y s s s y s s y y y s a O . . . . @ a d s s s s s s s s s s s s s s s s s s g g s s s s s s s s s g g g j g a # . .   . O 1 f a s s s s s s s s g g s g i i y y y y i i g s s s g g g g g g g g l f 7 O . . . . % s g g i i i i g g g g g g g g g g g g g g g g i i i i i y i i i i y s s f a # . .     . & a f f s s s s i i i y y y y y y y y y y y y s s s s 8 8 3 3 s s s s s a 2 $ .     . % t s s s g g g g g g g g g g g g g g g g g g g g g g s s y y 3 y y y a f a % . . . . O s s y y s s s s s l l d d d s s s s y s s s s s s s s s s s s g i i g s f 2 % .     . * f s s y y y s s s s s s s s s s s s s s g g g s s s s s s s s s s s s s f * .     . . % y y g l l l l l g g g s s s g g s s s s s s s s s s s s s s s s g g s 3 2 % O .   . @ 2 s g i g i y i i i i i i g g g g i i g g s s g i i i i i g g g g l g g a * O . .   . & a a y y y s s s s s s s s s s s s s s s s s s g g s s s s s s s s y y s a % @ X   . O * f s s s g g g l l g g g g y y 3 3 y y y y ",
"s s s s s s s s g g g g l s y 2 O . . . . . % a s s s s s s s s s s g g l l l l s s s s s s s s g g g g s s s s g a 2 # . .   . O + 2 t s s s s s s g g s s s s s s y y y s s s s s s s s s s g g g g g f a * . . . . . O % s g s s s s s s s s s s s s s s s s s s s s s s s y y y y y y y y u s t $ @ .       . @ * a f f s s g g l l g g g g g s s s s s s s s s s s s s s s s s s s s 2 + O .     . $ * d l d s s s g g g g g g g g g g g g g g g g g g g g s s s g g g g s a & @ . . . . . 2 y s d s s s d d d d d d d d d s s s s s s s s s s s s s s s s i y s s a * .       . . a d f s g g g g g g g s s s s g g s s s l l l l g g l d d d d d d d d d ; @         . O t s s d d d d d s s s s s s s s s s s s s s s f s s s s s s s s s s 8 2 % + O . .   . % 2 y g g g s d l g g g g s s s s s s s s s s g g g s d d s s s l s s a a .     . .   . & d d d d l d d d s s s s s s s s s s s s s s s s s s s s s s s s s s f * O .     . . % a s s s s g l l g g g g s s s s s s s s s ",
"s s s s s s s s s s s s s y 1 + O . . . . . O # s g g s s s s s s s s s s s s s l g l l g g g g g g s s s s s s a 2 + O . . . . O O + 2 s s s s s s s s t t t t 2 2 2 2 2 2 2 2 2 2 2 2 s s s s g g g s 2 # O . . . . . O + % a s s s s g g s s s s s s s s s s s s s s s s g g d d l l l l l d t $ O @ . .       . O @ 7 7 a a a a a a a a a a a a a a a a a a a a a a 7 7 7 7 7 7 7 7 # O O O       . @ O - d s a a a a a a a s s s s a a a a a a a a a a a a a a a a a a a a % @ . . . . . . $ * t d s s s s s s s s s s s s s s s s s s s a a a 8 8 a a a a y y y a @ O .       . . & * a a s s s s s s s s s s s s s s s s s s s s s s s s s s s s s s s a & X     .   . . % % 2 t d a a a a a a 2 2 2 t 2 a a a a a a a a a a t t t t t t t 2 2 # O O . . . . . . + % t y s s s y s s s s s s s s s s i s s s s s s s s s y y y y t 2 1 % .     . . .   . ; t a t a a a a a y y y s s s s s s s s s s s s s s s s s s a a f a * $ .       . . O * a s f s s y y y y y a a a a a a a a a a ",
"1 1 1 1 1 1 1 2 2 2 2 2 2 * O . . . . . . . O $ 2 s s s s s s s 2 2 2 2 2 2 2 2 2 2 2 2 2 2 2 2 2 2 3 2 3 3 3 7 2 @ O . . . . . . . . + $ $ + + + + + + O O O O O O . . O O O O O O O O # # # # , , , # % O . . . . . . O O O % s s s s s s s s a a a a a a a a a a a s s s s s 2 * 2 2 2 2 * 2 $ O @ O . . . .   . . . $ $ $ $ O O O O O O O O O O O O O O O O . O O . . . . . . . . . . . O @       . . . . % * % % % 1 % % % # # 1 1 2 2 2 2 2 2 2 2 2 # % % % % # # % % % % . . .   . . . . . O $ % * * * * % % % % $ $ $ $ + + $ $ $ $ $ + % % # # % % % % + + # @ . . . .     . .   . O % % 1 1 1 1 1 % % % % % % 1 1 % % % 1 1 2 1 1 * * 2 2 * * * * * * @ . . . . . . . . . O @ O O O O $ $ $ $ $ $ $ $ # # % % % % % % % % % % % % % % + O O O O O . . . . . . O O $ % $ $ $ $ 2 2 2 2 a a a a a a a a a a s s 2 2 2 2 $ $ * * $ O O O . . .   . . . . . . X . @ @ @ $ 1 1 1 1 t t 2 2 a a a a a a a a 1 1 1 1 1 1 % % # $ . . .     .   . . & a a s a t t t t t t a 7 2 2 # # # # # # ",
". . . . . . . . . . . . . . . . . . . . . . . . . . . . O O O O O O O O O O O O O O O O O O O O . . . . . . . . . . . . . . . . . . . O O O O O . . . . . . . . . . . . . . . . . . . . . . . . O O O . . . . . .   . . . . . O O O O O @ @ @ @ O O O O O . . . . . . . . . . . . . . . . . . . . . . . . . . . . . . . . . . . . . . . . . . . .       .               . . . . . . . . . . . .   . . . . . . . . . . . . . . . . . . . . . . . . O O O . . . . . . . . . . . . .       . . . . . . . . . . . . . . . . . . . . . . . . . . . . . . . . . . O O . . . . . . .       . .   . . . O O O O O O O . . . . . . . . . . . . O O O O . . . . . . . . . . . . . . . . . .     . . . . . . . . . . . . . . . . . . . . . . . . . . . . . . . . . . . . . . . . . . . O O O . . . . . . . O O O O O O O O O O O O O . . . . . . . . . . . . . . . . . . . . . . . . . . . . . . . . . . . . . . . . . . . . . . . . . . . . . . . . .     . . . . . O O O O O O O O O O O O O . . . . . . ",
". . . . . . . . . . . . . . . . . . . . . . . .   . . . . . . . . . . . . . . . . . . . . . . . . . . . . . . . . . . . . . . . . . . . . . . . . . . . . . . .           . . . . . . . . . . . . . . . . . . . . . . . . . . . . . . . X X X X . . . . . . . .   .       . . . . . . . . . . . . . . . . . . . . . . . . . . . . . . . . . . .                               . . . . . . . . . . . . . . . . . . . . . . . . . . . . . . . . . . . . . . . . . . . . . . . . . . .     . . . . . . . . . . . . . . . . . . . . . . . . . . . . . . . . . . . . . . . . . .         . .   . . . . . . . . . . . . . . . . . . . . . . . . . . . . . . . . . . . . . . . . . . .         . . . . . . . . . . . . . . . . . . . . . . . . . . . . . . . . . . . . . . . . . . . . . . . . . . . . . . . . . . . . . . . . . . . . . . . . . . . . . . . . . . . . . . . . . . . . . . . . . . . . . . . . . . . . . . . . . . . . . . . . . .     . . . . . . . . . . . . . . . . . . . . . . . . "
};
