/* XPM */
static const char *xpm_[] = {
/* columns rows colors chars-per-pixel */
"643 360 256 2 ",
"   c #030304",
".  c #0B0403",
"X  c #04060A",
"o  c #0B050C",
"O  c #06090D",
"+  c #0B0B0C",
"@  c #0A0906",
"#  c #140302",
"$  c #1B0302",
"%  c #13050C",
"&  c #130C0C",
"*  c #1B0C0C",
"=  c #190906",
"-  c #13110E",
";  c #1C120D",
":  c #191507",
">  c #0C0D13",
",  c #0D0D1A",
"<  c #080812",
"1  c #130C14",
"2  c #1B0D14",
"3  c #130E1A",
"4  c #1B0E1A",
"5  c #160612",
"6  c #0E1115",
"7  c #0E121A",
"8  c #091617",
"9  c #131315",
"0  c #1C1414",
"q  c #1C1916",
"w  c #14141B",
"e  c #1B141C",
"r  c #16191C",
"t  c #1B1A1C",
"y  c #151915",
"u  c #0D110D",
"i  c #230302",
"p  c #240B04",
"a  c #230C0B",
"s  c #2B0C0B",
"d  c #2A0704",
"f  c #370905",
"g  c #23130D",
"h  c #2B130C",
"j  c #291609",
"k  c #33130C",
"l  c #3A150B",
"z  c #230D13",
"x  c #290D15",
"c  c #360D14",
"v  c #231414",
"b  c #2B1414",
"n  c #231915",
"m  c #2B1A15",
"M  c #23141C",
"N  c #2B151B",
"B  c #241B1B",
"V  c #2B1C1B",
"C  c #331413",
"Z  c #3B1413",
"A  c #331A15",
"S  c #3C1B14",
"D  c #33151B",
"F  c #331C1B",
"G  c #3B1C1B",
"H  c #3B151B",
"J  c #2A211C",
"K  c #34221C",
"L  c #3C221C",
"P  c #3A2316",
"I  c #30230E",
"U  c #151522",
"Y  c #1B1522",
"T  c #161925",
"R  c #1C1A23",
"E  c #1C1C2A",
"W  c #171929",
"Q  c #171729",
"!  c #231622",
"~  c #231B24",
"^  c #2B1C24",
"/  c #231D2B",
"(  c #2B1E2A",
")  c #2A1623",
"_  c #331C24",
"`  c #3B1D23",
"'  c #351C28",
"]  c #291E30",
"[  c #1D2129",
"{  c #1E2232",
"}  c #232224",
"|  c #2C2224",
" . c #24222C",
".. c #2C222C",
"X. c #292A2C",
"o. c #342224",
"O. c #3C2324",
"+. c #33232C",
"@. c #3B242B",
"#. c #3C2A2C",
"$. c #362A29",
"%. c #242332",
"&. c #2C2432",
"*. c #2C2A34",
"=. c #2D2B3B",
"-. c #262837",
";. c #332532",
":. c #342A34",
">. c #3B2B34",
",. c #342C3B",
"<. c #3B2D3B",
"1. c #392634",
"2. c #3C323C",
"3. c #36323A",
"4. c #313134",
"5. c #1B211B",
"6. c #460A03",
"7. c #560B02",
"8. c #47150A",
"9. c #571709",
"0. c #431C14",
"q. c #4B1C14",
"w. c #431C1B",
"e. c #4B1D1B",
"r. c #461515",
"t. c #571B16",
"y. c #460E13",
"u. c #671808",
"i. c #761A08",
"p. c #661C16",
"a. c #761C15",
"s. c #680B02",
"d. c #44221B",
"f. c #4B221C",
"g. c #482317",
"h. c #53231C",
"j. c #5C231C",
"k. c #582417",
"l. c #55240E",
"z. c #782509",
"x. c #672519",
"c. c #772619",
"v. c #712C14",
"b. c #431D23",
"n. c #491C25",
"m. c #561D24",
"M. c #4B1F30",
"N. c #432324",
"B. c #4C2424",
"V. c #43252B",
"C. c #4C252B",
"Z. c #442A2D",
"A. c #4B2A2C",
"S. c #482A24",
"D. c #542424",
"F. c #53252B",
"G. c #532A2C",
"H. c #5C2B2C",
"J. c #592726",
"K. c #58332B",
"L. c #432B33",
"P. c #4B2C33",
"I. c #432C3A",
"U. c #472835",
"Y. c #532C32",
"T. c #592B33",
"R. c #43333C",
"E. c #4A3438",
"W. c #573538",
"Q. c #4A322B",
"!. c #632B2C",
"~. c #682927",
"^. c #772B27",
"/. c #68332A",
"(. c #793428",
"). c #662C33",
"_. c #762C32",
"`. c #673737",
"'. c #773836",
"]. c #681D23",
"[. c #57433B",
"{. c #784439",
"}. c #6B4437",
"|. c #704D15",
" X c #362E41",
".X c #353242",
"XX c #3C3343",
"oX c #3C3847",
"OX c #2E2F41",
"+X c #423444",
"@X c #473947",
"#X c #573B44",
"$X c #473044",
"%X c #673B43",
"&X c #753C43",
"*X c #594448",
"=X c #51464F",
"-X c #684647",
";X c #774747",
":X c #725252",
">X c #766362",
",X c #891C0E",
"<X c #862818",
"1X c #972817",
"2X c #87341A",
"3X c #902C0C",
"4X c #A72816",
"5X c #B13112",
"6X c #862C26",
"7X c #863528",
"8X c #963627",
"9X c #863934",
"0X c #93322D",
"qX c #AD3727",
"wX c #A61E10",
"eX c #CA3615",
"rX c #CA3926",
"tX c #E53A1A",
"yX c #B34B0E",
"uX c #884639",
"iX c #974738",
"pX c #934B30",
"aX c #AD4B32",
"sX c #A55916",
"dX c #D04D14",
"fX c #E8511A",
"gX c #D26C0F",
"hX c #EB6E18",
"jX c #CE4C2B",
"kX c #EC5327",
"lX c #F26D2B",
"zX c #D26B2F",
"xX c #874947",
"cX c #90554D",
"vX c #AA564A",
"bX c #946657",
"nX c #B16952",
"mX c #916E68",
"MX c #AE7569",
"NX c #915A63",
"BX c #CB7251",
"VX c #D67157",
"CX c #853D43",
"ZX c #EB9723",
"AX c #FAF330",
"SX c #F7DC29",
"DX c #B08870",
"FX c #F28E52",
"GX c #D28B6C",
"HX c #EB9A61",
"JX c #FAF04D",
"KX c #FBDC61",
"LX c #B08F20",
"PX c #FAF49A",
"IX c #D1AA95",
"UX c #B67D83",
/* pixels */
"< < O < 7 7 < > > > > , , > > > > > > > > > > > 6 9 w > > w > O > + O O O O + + X       X + X X O O > > 6 y + X X     X X O O O O O O < < < < < > < > < , w < < < < < , 7 7 7 7 7 7 7 7 7 7 7 7 7 7 6 6 6 7 7 7 7 > > > > 7 7 7 6 > < 7 R R r 7 X X X X X X X X X X X X X X X X X X O O < < < < < > O X X O O   X X X           X X     X O > > > 6 > > 6 6 > > > 6 > < > > > > > O O O O > > > 6 > < O O O O O > O X X O > > > + + > > + > O O O X X X X X X X O O < 6 6 6 7 7 7 > > 6 > > O > O > w O X X X O 6 6 > > < O O O X X < > 6 > > < < O < > > > > > < X X O > > > > > > , , , , , < > X X   O               X   R 6 6 6 6 6 6 6 6 6 6 6 6 6 6 6 6 6 6 6 6 6 > > > > 6 > 6 > X   X                     X X X > > O > > < < < < < > > < 6 < < > O X X 6 > < < > > X X X X O < > O O X O > > > > < > > O O O O > > O X X O > > 6 6 6 > > > > X X O X O X X X X X X X X X X X X X X X X X     6 r 6 > r 7 > O X < > 6 6 6 > X   6 r w 6 6 6 X   O w 6 O + O u > < < , < r   o * S.K.xXmXcXuXf k #..     . . O X X X   .                               X   X O } x b 9 u 6 9 w w 9 9 + + X X > 5 2 2 5 > > O 8 8 r                         X X           + > 6 6 > > > > > > > > , , > > > > > > > w r T < X R 7 > 7 7 > > > > > < < < > > > 7 > , 7 > r O     + X X O                   X X   r 6 > > > > > > > > > > > < < < ",
"> > < O > 7 > > > > > > > > < < > > > > > > > > > > w > > w > O > + O O O O + + X       X X + X O O > O > w O   X X X X O O O O O O < < < < < < > < > < , w < < < < < , 7 7 , 7 , , > > , , , , 6 6 6 6 7 7 7 > > > < < < > > > < X X X O O X   X X X X X X   X         X X X O O O < > > > > > > > < X X < > O O O O O O O O X X X X X O O > > < > O < > > < > > 6 > > 6 6 > > > O O O O > > > < < O O O O O O > O X X O O O O O O + + O O O O X           X O O O > 6 6 6 , , , > > 6 6 > O < < > w O   X   X X X X X X X X X   X X X X X X X X X X O O O O O < X X < , , , , , , , , , , , , > O                          .[ 6 6 6 6 6 6 6 6 6 6 6 6 6 6 6 6 6 6 6 6 > > > > > > 6 > X < w > > > O O O O O O   X     O > O + > < < < < < < < O > O O > O X O > > > > > > > < O O O > > O X X O O < < O O O < < O O O < < O X   O > > > > > > > > > X X > O O O O O O O O O O O O O O O O O < > X X r T 7 6 6 > < X X X < > < > 6 X   O > > 6 > O X   X 6 6 O O O 6 < X < < , <   . . # $ k q.~.'.h.W.E.+     # # O < 7 < o . o + + + + + X X X X X X X + + O O O     # #   O     X X X         X > 1 5 % 1 w 7 O 8 8 r X                                     O > 6 6 > > > > > > > > , , > > > > > > > 7 7 w < X R 7 > 7 6 > > > > < < < < > > > 7 > , , < r O     X     X                   X X   w > > > > < > > > < < < > < < < ",
"7 7 < X > , > 7 > > > > < < < < > > > > > > > > > > 6 < > 9 > O > O O O O O O O X X X X X X O O O O < O > w < X X X X X O O O O O O < < > > < < > < > < , w < < < < > , 7 7 7 , , , > , , , , 7 > > > > > > > > > > < < < < < < X X   X X X X X X X X X X X X X X     X X O < > > > > > > 6 7 7 > > > X O > 6 > > > > > > > > > < O O O O O < > > > > > 6 6 6 6 < 6 > > 6 6 > 6 > O O O O > > > > > > 6 6 6 6 6 6 O X X O O X O O X O O X O O O X X X X X   X O < O > > 6 6 6 > > > > 6 6 < O O < 6 w < X X X O O O X X X O O O O X X X X X X O X X X X X O O O O X X O > > > > , , > > > > > > > >   X   O                 X.} 6 6 6 6 6 6 6 6 6 6 6 6 6 6 6 6 6 6 6 6 > > > > 6 < 6 <   7 } w 9 6 6 6 6 6 > > > O     O > O > O > > 6 > > O O O > > > 6 O   O O < < < O O < > 6 > 6 9 > < O O X X X X X X X X X X X X X X X   X O > > > 6 6 > > > 6 O O 6 > > > > > > > > > > < O O < O O > 6 6 X < T r 6 6 > 6 > < < > 7 7 6 > 6 O   X X X O X X     O r [ [ [ 5.[ T < O 8 7 7 O     . # # # $ i # . .       d.P & , 7 > - & + > 6 9 6 > > > O O > > > > + + > <     a x   O                 X X > > > > > 6 7 , 7 > r X                     X X       X     O > 6 > > > > > > > > > , , , , 6 > > > > > > > > X R 6 > > 6 > > > > < < < < > > > , < > , < r O     X                         X X   w > > > > < > > > > < > > < < < ",
"7 , < X > , > 7 > > > < < < < < > > > > > > > > > O > O > 9 < > O O O O O O O O O X X X X X O O O O O O > w 6 > O O O O < > > < > > > > > > > > > < > < , w < < < < > , , 7 7 7 , , , , , , , 7 > > > > > > > > 7 > > > > < < < O X O < > > 6 w X X X X X X X X X X X X O < > 6 6 6 6 6 6 6 7 7 > > < X X > 6 > > > > > > < < O > > > > O O O O O X X O X O O X X 6 > > > 6 > > > O O O O > > < X O O O O O O O < O X X X O O O X X X     X X X O O 6 6 > X O O < > > > 6 6 6 6 > < > > > O X X O > w < X > > 6 > > > > > > 6 6 6 > > > > > > > > < O X X O O X O X X < > 6 6 > > > > , , > > > 6 O   X                     } [ 6 6 6 6 6 6 6 6 6 6 6 6 6 6 6 6 > > > 6 6 6 6 6 6 < w O   w X.6 > > > > 6 6 > > 9 > X   O O X O O O > > > > > > > 6 6 6 6 O X X > < < O O X X X O O O O O X     O O X X X X X X X       X X X   X X < > > 6 6 > > > 6 O X 6 > > > > > > > > > > X X X X X X O > 6   < r 6 > 7 6 6 > > > 6 7 7 6 > >     X X   X         X 6 r w 9 9 9 >     X X         @ . # # # .       + X   }.}.= 1 < > - - + 6 9 6 > > > > > > > > > > > > > > + . E.W.+ u + + > > > + O O X X X O 8 6 6 < , , w > r O                     X X             < > 6 > > 6 > > > > > > , , , , > > > > > > > > > X R 7 > > 6 > > > > > > > > > > > , < > > < r O           X                   X X X r > > > > < > > > > > > > > < < ",
"> > X X > 7 > > > > > < < < < < > > > > > > > > > O > < > 9 > > > > > > O O O O O O X X X O O O O X < X > w 6 6 6 > > > > > > > > > < > > > > > > > > < > w O < > > > > > > > > > > > 6 > > > > > > > > > > > 7 7 6 > > > > > > 6 6 > 6 > > 6 r X X X X X X X X X X X X O O > > > > > > > 6 7 7 6 6 > X X > 6 > > > > > > O O O > > > > > < O O O X X X   X O   X 6 6 > > > > > > < O O O > < O X X X X X X X X X O X   X 6 6 O X X X X   X X X O O 6 6 > O O > > > > > > > > > > > > > > X X X O > w O X 6 6 6 > > > > > > > > 6 6 6 6 6 6 6 6 6 > O X   X X           X O O X O < < > > > < < >     O 6   X X         X X X.[ 6 6 6 6 6 6 6 6 6 6 6 6 6 6 6 6 > > > > 6 6 6 6 6 > w O   r X.> > > > > 6 6 > > O O X         X O X O X O O + 6 > 6 > > 6 O   X > < X X O X X X       X X     X > > > O O O X X X X X O O > > O X X O > > > > > > > > X X > < > > > > > > > > <     X X     X < 6 X > t w 6 r 7 7 7 7 7 w w w 7 w > X X w r 7 6 6 6 < X   X               O 6 > 6 O   u u @ u u - @ 6 6 + +   . {.}.# 9 6 6 u @ + > > + O + > > 6 > > O O > 6 6 > > + . #XW.@ u 6 9 9 9 6 > > > > O X X 8 8 8 < , , > < > X   X                                 + > 6 > > > > > > > > > > > > > > > > 7 6 6 6 6 > X R 7 > > > > > > > > > > > > > > , < > , < r O           X                   X X X r 6 > > O O O < > < O O O > > < ",
"< < X X > 7 > > > > < < < < < > > > > > > > > > > O > > > 9 O > O O O O < < < < O O O O O O O O < O > X O 6 > > 6 > > > > > > < > > > > > > > > > > > < > > O < > > > > > > > > > > > > > > > > > > > > > 6 7 7 6 > > > 6 7 6 > 6 6 6 6 > > 6 w O X X X X X X   X X X X X X O O O O > > > > > > 6 6 > O O > 6 > 6 6 > > > > < O > > > 6 6 6 > > 6 > 6 6 O 6 w > X 6 w > > 6 > > > < O O O < O O < O O X X X X X   O X X O w w O O O O O O X X X X O O O X X O 6 > > > > > > > > > > > > > O X X O > w O X > > > > > > > > > > > > > > 6 6 6 6 > 6 > X     X X           X X X   X X X X X X X X X X 6 6 } 6 6 6 6 O       X X.[ 6 6 6 6 6 6 6 6 6 6 6 6 6 6 6 6 > > > > 6 6 6 6 > > w O   r  .> 9 9 9 9 9 > > O X X X X X X   X           X O O + > + + > O     O X X X O X X   X X X X X X O < 6 6 > < O O O O O O X O > > > > O O O > > > > > 6 > 6 O O 6 > 6 > > > > > > > < X   X X X X X O 6 X > r w 6 > > > > > > > 6 > > 6 O X < T [ T r w w 7 6 > > O X X X + 9 y t 5.t } 9   y 5.5.y 8 8 8 8 8 6 9 5 = {./.# & 9 6 u u u > O O O O > > > > + O O > > 6 > 9 O . -XA.. 6 + + > > > > > > 9 > O X X X > 6 Y w < X X               + 6 9 > 6 6 9 6 O       + > 6 > > > > > > > > > > > > > > > 7 7 6 > > > < X T 7 > > > > > > > > > > > > > > , < > , < r O           X                 X X X X w > > > X O O > > > < O O > > > ",
"< < X X > 7 > > > > < < < < > > > > > > > > > > > O > < > > O < < < < < < < < < < < < < < < < O < < > X X 6 < < < < < < < < < O > O > > > > > > > > > < > > O < > > > > > > > > > > > > > > > > > > > 6 7 7 7 7 > > > 6 7 7 7 6 6 6 6 6 6 6 w r O O X X O O O X O O O O O O O O X O < > > 6 6 > 6 6 > O O > 6 > 6 6 > > > > > > > > > 6 6 6 6 6 6 < 6 6 O w r > X w r 6 > > > > > O O O O O O X X X X X X X X X X X X O 6 6 > > O O > > O O X X X X X X X X O 6 + > > > > > > > > > > 6 > O O O > 6 w X X > > > 6 6 6 6 6 6 6 6 > 6 6 6 6 6 6 6 6 > X   X > 6 > 6 9 9 6 6 6 > O   X X X X X X X > r y w } [ 6 9 w 6 > X X X } [ 6 6 6 6 6 6 6 6 6 6 6 6 6 6 6 6 > > > > 6 6 6 6 > 6 6 O X R } > 9 9 9 9 9 > > O X O O > 9 > X X               X O + + + O X     X X X X O O X X X     X     X O > > O O O O O O O O X X O O O O O X X < > > > > > > 6 O O 6 6 w > > > > > > > < O O O O O O < > 6 O X O O X X X     X X X X X X X X   X 6 6 > 6 + > > > 6 6 > O X X > 9 9 - u + + u   y 6 O 8 8 8 8 8 8 r 9 @ . {.}.$ & 9 6 + 6 6 > O O > > > > > > > > > > 6 > O 9 + # :XN.@ y + + > > > > 6 6 9 9 u + X   O + w w < X X X           @ 9 y t w t t t R w +     + > 6 6 > > > > > > > > > > > > 6 > > > > > > > O   T w 6 > > > 6 > > > > > > < > > 6 > , , < r <     X   X X X X X X X X X X X X X   6 O O O X O < > 6 6 > < O > > > ",
"< < X X > > > > > < < < < < > > > > > > > > > > > O > < > > O O < < < < < < < < < < < < < < < O O O < X O 6 > < < < < < > > > > + + > > > > > > > > , < > > O < > > > > > > > > > > > > > > > > > > > 6 7 7 7 7 6 6 7 7 7 w 7 7 6 6 6 6 > > > 6 O X X O > > > > > > 6 6 > > < < X X < > 6 7 7 7 > > > O O > 6 > > > > > > > > > > > > > 6 > > > 6 < 6 6 O w R 6 X w r > > > > > < O X X O O X X X O O < < O O O O   X 6 w > O > O > > > > O X X X X O O X X X O > > > > > > 6 6 7 > > 6 6 > > 6 > 6 w X X 6 6 6 > > > > 6 > > > 6 6 6 > > > 6 6 6 > O X O w T r w r 9 6 > O X     O 6 w w 6 < X 6 *.y + y [ > 6 6 6 6 > O O X.[ 6 6 6 6 6 6 6 6 6 6 6 6 6 6 6 6 > > > > 6 6 6 6 6 6 > X X r R > 6 6 6 9 9 9 > > > 6 6 9 t 9 X                   X + X X +       O < > > > < O < O O O O O X O > > O O O O < < < < O X X X X X X X     X O O X O O X O   X > > 6 > > > > > > < < > > > > 6 > > 6 6 O           O O O O < < < > > < 6 6 7 w 6 > 6 6 6 6 6 6 6 < X   X 6 y 9 9 - & 9 y   y 7 7 w O O r 8 < 6 & & # {./.p & r 7 O 6 6 > O O > 6 9 > < > > > 6 6 6 6 1 9   . :Xb.@ u 9 9 1 > > > 6 > & & & - - & .     X O < > 6 O + @       + 9 > O O > 9 t t 9 O   + > 6 6 > 6 > > > > > > > > > > > > > > > > > > <   R r 7 6 6 6 6 6 > > 6 > > < > > 6 > , 7 > r <     X     X   X X X X X X X X X X   > X O O X X O > 6 6 > O X > > > ",
"> > < < < > > < > < < < < < < > > > O < < < > > < < > > > > > > < O < > > < < < < < < < O O < < O > > O < 6 6 O > > > 6 6 6 > O O > > O O > > < O > > > > < < < > > > > > > > > > 6 6 > > > > > > > > 7 7 7 7 7 7 6 6 6 7 7 7 6 6 6 6 6 > > 6 6 X O X > > > 9 > > O O O > > > > < < > > 7 , > > > > > O O 6 > > > > > > > > > > > > 6 6 > > > > 6 < > > 6 6 R > X > 6 > > > > 6 O < < O O O O O < < > > > > > > < O O > > > > > > > > > 6 O X O X X O O < > > 6 + O > O < > < 6 > < > > > > + > > > O X O > > < > > 6 > > > > 6 > > > > 6 6 6 6 6 6 O X O w r r [ O             O r t r R [ [ } X.[ w > w r r 6 > 6 6 > > O X.[ > 6 6 > 6 6 6 > 6 6 6 w w w 6 > > > > > 6 6 6 6 > 6 6 O   [ R > 9 9 6 6 6 6 6 9 w > < > w 9 O                       X       X + 6 6 6 6 > > > > > O O O O X X O < O O O O O O O < O X X X O O X X X X O O O X X X X X X X X X   X     X X X X X X X X X X X O O O       R [ [ [ [ [ [ [ R R [ [ r [ [ 6 6 9 9 9 9 y 6 + w 9 < X X X X + 9 t | $.[.4.  t w 6 7 7 6 9 w 6 - & + # {.}.$ 5 3 w > > + w + 6 9 > 1 1 1 > > 6 6 6 6 > > 0 . # -Xb.& u u 9 1 1 6 6 6 6 @ q ; = g g = @     X 6 6 6 9 9 u u + + 9 9 > 9 > > 9 > 9 9     O > 6 6 6 6 6 > > > > < < > > > 6 > > > > > > >   O 7 R } } [ [ R r 6 O O O > 6 > > > > > > > w X X X X     X X X X X X X O O X O O < < < < O O O O O O O X X O O X O ",
"< < O O > 7 w 7 > > < < < < < < > > > > > > > > > > < < < O O X > < < < O O O > < < > > > < < O O > O X O 6 7 > w 6 > > > 6 6 6 O O O O O > > > > > < O > < O O > > > > > > 7 7 6 7 7 > > > > > > > 7 7 7 7 7 7 6 6 6 6 7 7 7 > 6 6 6 6 > > > > X O X > 6 > 9 > > < O O > > > > < > > > 7 , , > > > > O O 6 > > > > > > > > > > > > 6 6 > > > > 6 > > > 6 > R 6 X > 6 > 6 > > 6 > < > < < < > > > > > > > > > > > O O > 6 > > > < > > > > O X O > > > > > > > > > X O X X O   X O O O O X X X X   X X X O 6 w w > > > 6 6 6 6 > w 6 6 6 6 6 6 > > > O X X > > X     O       > r  .X.R 6 > 6 r R  .[ w > 6 w 6 < > 6 6 6 > O X.[ 6 6 6 6 6 6 6 > w 6 > 6 6 w 6 > > > > > 6 6 6 6 > 6 6 O   [ R > 9 9 6 6 6 6 6 9 > > > > 9 w 6 > + + +   O O               + > 9 6 > > < < < O > < O O O O O X O > O O O < > O O > O X X O O O O < < O O O O O O O O O O O < O O O O X O X X X X   X X X X             O } R w 9 6 6 6 > > > > 6 7 O < 6 + + + - 6 O O > > 6 > X           @ + &   @   } r > O O + o     @ . . . {.}.$ 5 3 w 1 > > 6 6 9 9 O O 1 1 1 1 > > + > + + 9 . # ;Xb.& u u 9 1 1 6 6 6 6 q   o.:XW.p a g & @ X 8 8 u - + 9 u @   + 9 > 9 > > 9 > 9 9     O O O O O O > > O O O X O O < < O O O < > > > > X O > 7 w w w w > O X X O > 6 w R R R R T T R R X X X X X X X X X   X X   O > O > > > > > > > > > < O < > O O < O O O ",
"O O O O > 9 w 9 6 > > > < < < < > > > > > > > > > > < > > 9 9 9 > > > > O O < 6 w w r r w w 9 9 w w 6 O O 6 y 6 6 > O X X O + 6 > > > > O > > O > > O O > < O O > > > > > 6 w w 9 6 > > > > > > > > 7 7 7 7 7 7 7 6 6 7 7 7 7 > > > > > > > > > X X X > 9 > w 6 > > < > > 6 > > > > , , , , , > 6 > > O O 6 > > 6 > > > > > > > > > > > > > 6 6 > > 6 > 6 > R 6 X > 6 6 6 6 > 6 > > > > > > 6 6 w 6 6 > > > > > > O O > > > > > > > > > 6 O X < > > > > > > > > > X O X X O X O X X X           X O X X O > > > > > > 6 6 > > O O O O O O O X X   X       X X           O 6 6 w  .X.R > > > 6 w r r 6 > > 7 7 > > 6 6 6 > O X.[ w 6 6 6 6 6 6 6 r w > > 6 6 6 > 6 > 6 6 6 6 6 6 > 6 6 O   [ R > 9 9 9 6 > > > 6 > > 6 6 > 6 w w w 9 9 + y r               O > 9 > < < < < < < < O O O O O O O O X X X O O O O O O X X X X O O O O O O O O O O < < O O O < < < O O X X O O O O O X X O > > > > > O + O O R w > > 9 9 9 9 9 9 9 6 6 6 > 6 9 y 9 9 + t 9 > 9 9 > O   X X O + + + + 9 1 & & . o e +.>.n .     . . # {.}.$ 1 3 3 4 1 6 6 9 + > w 9 + 1 1 > + O X X O 1 & . # :XG & u u 9 1 1 6 6 6 6 & & . D NXNXL a 0 u u u u 6 - & + +     > 6 > 9 6 > 9 > 9 >     X X X X X X O + O O O X O X O O O O X X X X X X X X X X X X X X X       X O < > > > > > > > > <       X X X     O X X X   O > O > > > > > > > > > > > > > > > > > O O ",
"O O O X O > > > > > > < < < < < > > > > > > > > < O O O > 9 w w w w w r r r w w > > > < O O > > r w 6 X X + > O O X X X X O O O O O O O O O O O O < O O > O X O > > > > 6 6 6 6 > > < < < > > > > > 7 7 7 7 7 6 6 6 6 6 7 7 6 > 6 6 6 6 6 > > > X X   > w > w 6 > > > > > 6 6 > 6 6 , , > , , > 6 > > O O 7 > > > > > > > > > > > > > > > 6 6 6 > > w > > > [ 6 X > 6 6 6 6 > 6 > > 6 6 > 6 6 w w w 6 > > > > > > O O < > > > > > > > > 6 O X > > > > > 6 6 > > O   O X O 9 9 w [ [ R R R R t t R R T w > > > > > > > > O O X X O X X X X O O X w 6 > O < 6 6 > 9 +     r } 6 O w r w 6 w 6 > > 6 6 > > 6 7 w w 7 > 6 7 > X X.} > 6 6 6 > > w r r w 6 > 6 6 6 > 6 6 6 6 6 6 6 6 > 6 6 O   [ R 6 9 9 6 9 6 > > 6 6 9 9 > > > 6 w 6 6 y 6 X.[   O O X       + O > > > < < > > > > O O O < > < O O O O O O < < O O O O X X O O O O O O O O O < > > O O O O O O O O O X X O > > > > X O > 6 w w w w w t 9 X 9 > 6 9 9 9 9 9 9 9 9 6 < r 6 O 9 +   - & + + + 9 9 > O     @ + 9 9 9 9 1 + t 1 e 2 5 2 n %   @ & & @ # {.}.# 2 3 3 4 1 9 + 9 O 9 9 9 9 1 1 + +     O O 9 & . # :XG @ u u 9 1 1 6 6 6 6 - & g $ p -XmX[.B 9 8 u O + + +         > 9 > > > > 9 > 9 >   X X X       X O 6 < > > > > > > > < O O X   X X X X           X X O O X X X X X X X X X X O O X X r r r r r r r r 6 > > O X O > > > > > > > > > > > > > > > > > 6 > O O ",
"< < O X X O O O O O O O O O O O > > > > > > > > > O X X X O O O X       X X     X X         X X O O O                                 X X X X X X O < > > X X O > > 6 9 9 > > < O O O O O < > > > 7 7 7 7 7 6 6 6 7 > 7 7 7 6 > 6 > O O O X X X O X   > w 6 w 9 > > > > 6 7 6 6 7 7 , > , > > > 6 > 6 O O 6 > 6 > > > > > > > > > > > 6 6 6 6 6 > > w > 6 6 [ > X > > > 6 6 > > > 6 6 6 > > > 6 w 6 6 > > > 6 6 > O O > > > > > > > > > > O X < > > > > 6 6 > > X   X   O w w w w w w w 9 w w w r T r w > > > > > 6 6 O X   X > O O > w R }  .X.R R w 6 6 6 7 6 6 6 O X r  .w > 6 w > > 6 7 > 6 6 6 6 6 > , , 7 , , 7 7 > X } } < > 6 6 > > r [ w w w w 6 > > > > > > > 6 6 6 6 > 6 6 O   [ [ 6 6 9 6 6 9 6 6 6 9 9 6 6 > > > > > < 6 6 *.[ X 6 6 > O O O > > > > > > > > > > > O < > > > > > < O O O O X X X X X X X X X X X X X X O O O O O O > > < < > > > > > O O > > < O < X O > 6 6 6 > 6 O R [ O 9 9 9 > > > 6 9 9 9 6 6 > 8 6 6 + + - & & & & 9 + > > X   O + u 6 9 6 > q O e   1 2 5 1 .     + 0 - @ # xX/.$ 0 > w 9 & 9   9 t 9   + 0 9 & +   @ + + + 9 + @ # :XN.@ u u 6 > 1 6 6 6 6 9 & * v $ # m :XJ t R 6   O   @         > 9 > > > > 6 > 9 >   O + + O X X X > 6 > > 6 6 6 6 > > > > O X X O 6 6 O O O O O O O + > > > > > > > > > > > > > 6 < X r 7 6 6 6 6 > > 9 6 6 > X O > > > > > > > > > > > > > > > > > 6 9 O O ",
"O < O O O O < O > O O O O < > > 6 6 6 6 9 9 9 6 > < O X X O O O 9 > X     X X   X X X X X X X X O + > + + 6 6 O O O X X O O + + O O O > O X X X O 6 w w w O X > > > 9 w 9 > O O X O X O O < > > 6 6 7 7 7 6 6 6 6 > > 6 7 7 6 > < X X O O O O O > O X > w > 9 9 > 6 6 7 7 7 7 6 7 7 , , , > > > 6 > 6 O O 6 > 6 6 6 > > > > 6 6 > > 6 6 6 6 6 6 > > w > 6 w [ < O > 6 > w w 6 6 6 6 6 6 6 6 6 6 6 6 > > > > > 6 > > O > > > > > > > > > 6 O X > 6 6 > 6 6 > > O X   X   O 9 6 > > > 6 6 6 9 9 9 6 > > O O < > > > 6 6 O     > w X.} [ R r w > > 6 6 > > > > > > > 6 6 X 9 } r > 6 6 6 > 7 7 > 6 6 6 6 6 7 > , , , , 7 w > X } } > > 6 6 6 > r } 6 w r w 6 > > 6 > > > > 6 6 6 6 > 6 6 O   [ [ 6 9 9 6 6 9 6 9 9 6 > > 6 9 9 6 > 6 6 6 6 X.r 6 r 9 6 > > > 6 > > > > > > > > > > O > > > > 6 > < X O O < > > > > > > > > > > > > > > > 6 > > < O > > < < < > > > < O O < > > < > X O > 6 w 6 6 6 > }  .+ 9 9 9 > 9 9 9 9 9 9 > > 6   u + @ 2.*X. & :X=X& @ +   + 9 - 9 6 9 9 9 6 > O R > q 9 1 & t u O + - & & $ cX/.$ 0 > 6 9 u u + 9 + 0 & B @ 0 & + + + 6 6 6 9 - @ # -XS.@ u u 6 1 1 6 6 6 6 X 9 1 . * n &   0 9 R >   + + + + +     O > > 9 > > 6 > 9 > X > w 6 6 > O O + 6 > > > 6 6 6 > > 6 6 O     O 6 6 > > > > > 6 > > > > > 6 6 6 > > < > > < > > < X r w 6 > > > > > > > 6 > X O > > > > > > 6 6 > > > > > > > > 6 w w O X ",
"O < O O O < > > > > > > > > > > > 6 6 6 6 6 9 > > O O O < > 1 9 9 9 +                         X 6 9 6 6 6 9 9 9 9 6 6 6 6 9 9 r 9 9 9 w 9 O X X 6 w w r w > O > > > 9 9 9 > O O O O O O > > > 6 6 6 6 7 7 6 6 > 6 > > 6 7 7 7 > 6 < > w r r r r 6 > X 6 w > 9 9 6 6 7 7 7 7 7 7 7 7 7 7 7 7 , > 7 > 6 O O 6 > 6 6 6 6 6 6 6 6 6 6 6 6 6 6 6 6 6 6 6 6 > 6 w [ O O > > > 6 6 > 6 > 6 6 > > > 6 6 > > > > 6 > > > > < O < > > > > > > > > > O X > > > > > > > O O X   O   O w 6 > > > > > 6 6 9 9 w 7 > < > > 6 6 > 6 6 O X X 6 R 6 6 6 6 6 6 6 > > > > 6 w w 7 6 7 6 6 X > } R < < 6 6 7 r w > 6 > > > 6 7 7 , w , , 7 w > X }  .r w 6 6 6 6 w T 6 6 w w 6 6 6 6 > > > > 6 6 6 6 > 6 6 O   [ R > 9 9 9 6 9 9 9 9 9 6 6 6 9 9 6 > w 7 6 w X.< T r 6 6 > > > > > > > > > > > > > > O > 6 > 6 6 > O 6 w r R R R R R R R R R R R R R R R R R R T r r < O X X X X O X X X X X O O O < X O > 6 6 6 6 w 9 R t X 6 6 9 9 6 > > > O O X   X         3.R.  = >X=X. @ +   + + + + > 6 6 6 7 7 > w > > + + u O O > 6 9 9 % # cX/.$ 0 + u - u u y u   - 0 R.n & & & - - - 6 6 u -   . W.A.. y u 6 1 1 6 6 6 6 r > 6 t - + - 9 1 5 ! 1 O w 9 9 u u + X O > > 6 9 > 9 > 9 > X > 9 w w 6 O O O > > > > > > > > > 6 6 O     O + O > > > > > > > > > > > > > > > < O > > O < > < X r 7 6 > > > O O O O > > X O > > > > > 6 6 6 > > > > > > > > 6 w w O X ",
"O O O O O O > > > < O O O O O < > > > > > > > > O O X X O > > > > 9 9 + X   X X X         X O + 6 6 + O   X O O X     X O O O O + + > 9 9 > O O > > > 9 w O X > > > 6 > > > O O O O < > > 6 6 9 6 6 7 7 7 6 6 > 7 > > > 7 7 > > 6 < > w r 6 > > w > X 6 w > 9 9 6 7 w w 7 7 7 7 6 7 7 7 7 7 7 6 6 > 6 O O 6 > 6 6 6 6 6 6 6 6 6 6 6 6 6 6 6 6 6 6 6 6 > 6 w [ O   O X X O O O O O O O O O O O O > 6 6 6 > > > > > O X O O O O O O O O O O X   O O O O < > > O O     X   O r w 9 9 9 9 9 9 9 9 9 6 6 O X O > > > 6 6 > O X O 6 r 6 > > > 6 6 6 6 6 > > > 6 > 6 6 6 6 w O X R [ 6 6 w 6 > > > > w 6 6 > 6 7 , > 7 7 > 7 w > X }  .} r > 6 6 6 6 6 6 6 > > 6 6 6 > > > > > 6 6 6 6 > 6 6 O   [ R > 9 9 9 w 9 9 9 9 9 9 9 6 > > > > < 6 > r X.X T 6 6 6 6 6 > > > > > > > 6 > > > > O > 6 > > 6 > O R R R R r w 7 6 6 6 6 6 6 6 6 6 w w w w w w r r O X X X X X X   X       X X   X     X X X         X X   9 u u 6 6 9 > > O X       X           @ @     .   + q 1 9 9 9 9 6 6 6 8 7 6 > 6 9 9 9 6 8 8 > < 6 9 & $ cX/.$ g & u - u u u + 9 9   =X=X# & - 9 9 9 u u u y   . W.Q.. u u 6 1 1 1 6 6 6 > 6 6 6 6 6 u 9 0 1 ..w 1 R 6 6 > 9 6 + > > O < w > 9 6 9 >   > 6 6 w 6 O O + 6 6 6 > > > > > > < > O X X > 6 > 6 > > > > > 6 6 6 6 > > > > > > < > > < < > < X r 7 6 > > > O X O O 6 > X O > > > > > > 6 6 > > > > > > > > > w w O X ",
"O < < O O < > < < < O O O O < < > > > > > < < O X X X O O O O X O + 9 w >     + X         O 1 9 O O O O O O + X X X X O O O O O O > X > t >   > 9 > > 9 9 > O O O O O O O O O O > > > > > > > 9 > > > w w w w w > > > > > > > > 6 O O r 9 > w > > > O < w w 9 9 w 9 9 9 9 9 w w 9 6 6 6 > 6 > 6 9 9 > O > 9 9 9 9 9 w w 9 9 9 9 6 6 6 6 6 6 6 6 6 w 6 w 6 4.6 X X X > 6 6 6 O X   X X       X   6 + > > 6 6 > 6 O X X X < > > < O O X X O O O O O O X O O X X X       X O 6 9 6 6 6 6 6 6 > + + O 6 >     + 9 6 > 9 6 +   X.R 6 7 > > 6 6 6 > 6 6 6 6 6 6 6 6 6 6 > 6 w X + } 6 6 6 6 > > 6 6 7 > 6 6 6 6 6 7 7 6 6 6 6 > O O > } [ w > 9 w 6 6 6 6 6 6 6 6 6 6 > > > > 6 6 6 6 6 < > O X r [ > 6 6 w 6 > 6 w r w > > 6 w 6 > 6 6 6 6 R r 6 r > 6 6 6 6 6 6 6 6 > > > 6 6 6 > O O + 6 6 6 6 > X T [ w < 6 6 6 w 7 6 6 7 7 6 7 r w w w w w w w w 6 X O O >   > t 9 9 9 w r r w t w w O           O >   @ @ - @ u 9 > 4 5 o   X           @ + + @   + @   + 9 + 9 9 9 > > 6 6 6 6 6 6 6 6 6 6 9 9 6 6 6 6 6 w & # bX;X$ p = & 9 u 6 9 + 9 0 @ 0 :X=X0   9 & > w 6 8 8   . P.W.. - u 6 9 9 9 9 u u 6 6 6 6 6 6 9 9 > R } O R w O w 9 9 9 9 6 6 > > O O > 9 9 > O O 6 > > 6 O X X 6 > > > > > > > > < 6 >   X w t 9 > > > > > > > w 6 > > > > > > > > > < < > > O X r 7 6 < < > 6 > 6 6 6 > X O > > > > > 6 > > > > > > > > > > 6 w w X X ",
"O < < O O < > < < < < O O O < < > > > > > < < < X X X O O < O O O + O 9 9 9 O           + > 1 > O O O O O O O O O O X O O O O O O > O > t > X > 6 > > 9 9 > O O O O O O O O < < > > > > > > > 1 w > > > > < < < w > > > w w w w > O O r w > w > 6 > O O w w 9 9 w w 9 9 9 9 w w 9 9 9 6 9 9 6 6 6 w 6 X O 9 9 9 9 9 w 9 9 9 9 w 6 6 6 6 6 6 6 6 > w > > R R O > [ [ R R R R [ [ X     X X       + 6 w 9 6 > O X > O < > r r r w 6 6 6 6 6 6 6 6 6 6 6 6 6 6 < O           O O O             X X 6 6 + O             X O    .} + 9 6 > 6 6 6 6 6 6 6 6 6 6 6 6 6 6 7 6 w O O r 6 6 6 6 6 > > > > 6 6 6 6 6 6 6 6 > > 6 6 > O O O w R y 6 6 6 6 6 6 6 6 6 6 6 6 6 > > > > 6 6 6 6 6 6 6 O X w R > 6 6 w 6 6 6 w r } r > > 6 w 6 > 6 6 6 [ 6 6 r > 6 6 6 6 6 6 6 6 > > > 6 6 + O     O 6 6 6 6 6 O r [ r 6 w 7 6 w w 6 6 7 7 6 > 6 r w 6 6 > 6 w R 9 O > > 9 X 1 R t y y t w 9 > > > > X     + 9 w 7 7  .0 . - q u 9 > 1 o o   X         + 9 9 9 9 6 9       + t + > 1 9 9 9 9 9 9 6 6 6 6 9 9 3 9 9 9 6 6 7 w & # j mX:X$ p 0 O w + 9 9 & 0 9 . B *XB 0 t 9 9 9 X O 8 & . Z.W.# ; 6 6 9 9 9 9 u u 6 6 6 9 9 9 9 6 > t w X t 9 > 9 6 9 9 9 9 6 6 6 > O O > O X X O w 6 O X X O 6 6 > > 6 6 6 6 6 6 > 9 > X X 9 w 9 > > > > > > , > 6 6 6 > , > , , , 7 > < > w >   T r 6 6 6 6 6 > > < 6 > O O 6 6 > > > > > > > > > > > > > > 6 w 9 X O ",
"< > O O O O > > < < > O O O O < > > > > > > < O O O O O O < > O O O O O 9 r 9   X     o > 9 > O O O O O O O O O O O O O O O O O O > O 6 t > X > 9 > > 9 > O X X O O O O > > > > > > > > > > > 9 6 > O O O O O O > O X O < O O O O X O r r 9 w 6 9 6 O O w w 9 9 w w w w w w w w w w 9 9 9 9 9 9 > t 6   O 9 9 9 9 9 9 9 9 9 w w 6 6 6 6 6 6 6 w 6 w 6 > *.> O r T r 7 6 6 6 r r > X X X +         6 9 6 O 6 w 6 > X < w T r 7 w 6 6 6 6 6 6 6 6 6 7 6 6 6 6 > O X X             X X O O O O O O O               O         y } 6 6 6 6 6 6 6 6 > 6 6 6 6 6 6 6 6 6 7 > 6 > X > > 6 6 6 6 6 6 > > 6 6 > > 6 6 > > O > 6 w 6 < X X X y t 6 6 6 6 6 6 6 6 6 6 6 6 6 > > > 6 6 6 6 6 6 6 > O O 6 7 > 6 6 w 6 6 6 7 w X.[ w > 6 w 6 > 6 6 6 [ > r r > 6 6 6 6 6 6 6 6 > > 6 > O O     X 6 9 6 6 6 O X r [ R r R r r r r r r r w 6 6 > 6 w r r r y t R 9 O > > w X 9 t t y y y 9 O X   X         + t y 7 7 } . 0 ;   u > 9 w O o   X       + 9 9 9 9 9 9 9   +   + 0 & 1 w w 9 6 > > 6 9 9 9 9 9 9 w 9 1 9 6 6 7 w & # # $ [.:X= . t 9 6 9 9 + 9 q @ @ 0 & & & + 9 w > 8 O . . S.*X* @ 6 8 6 9 9 9 u u 6 6 9 9 9 9 6 6 6 R > O t 6 9 6 6 6 9 9 9 9 6 6 9 > > > O X X X 9 9 +     O 6 > > > > > > > > > > > > O X X O + O O > > > > > > > > > > > > > > < w 7 < < w 6   7 6 6 < > > 6 6 > O > > X X > > > > > > > > > > > > > > > > 6 w 6 X O ",
"< > O O O O > > > < > O O O O O < < > > > > > > > O O O < > > > O > > X X 9 w > X X X O > > + O O O O > > > > > > O O O O > > > > > > 9 w > X O w w 9 9 O X X O O O O > > > > > > > > > > > > > > O O O > > > > < X   X O X X X X X X w r 9 w w w 9 O O 9 w w 9 w w w w w w w w w w w w w 9 9 9 9 w O X 9 w 9 9 9 9 9 9 w w w w w 6 6 6 6 6 6 w 6 w w w X.X 6 R 6 > > > < > > 6 w w 1 X   X o   X 6 9 6 + O > > > X O w r > < > > > > > > > > O > > > 6 > > O X X X   X O O O O R R R [ [ [ [ [ [ r 9 6 +     X           O } 9 > 6 6 6 6 w 6 6 6 6 6 6 6 6 6 6 6 w > 6 6 X   > 6 6 6 6 6 6 7 7 6 > > > 6 6 > O X < 6 6 6 > O X   r R 6 6 6 6 6 6 6 6 6 6 6 6 6 > 6 6 6 6 6 6 6 > > < 6 w 6 > > 6 6 6 6 6 6 6 6 r R R w > 6 6 6 6 6 6 X.O r r 6 6 6 6 6 6 6 6 6 6 > > O X         + 6 6 w r w > 6 r r r T T r r T r r r r 7 6 6 6 r [ } } [ R t O X + > 9 X 1 t 9 9 9 9 9 O X       O O   + y 6 r 8 9 . #.E.& & + 6 9             @ + 9 9 9 9 9 9 +       & & 9 w 9 6 > > > 9 9 9 9 9 9 9 9 9 9 9 9 9 6 7 w 1 # . $ $ mXS.& 1 > 9 + 9 9 - 9 - q & & 9 1 9 9 6 6 6 + = # h K = - 6 8 6 w 9 9 - u 6 6 9 9 9 9 6 6 9 } O 9 t + w > 6 6 9 9 9 9 9 9 9 9 9 9 > O X X O 6 9 > X X O > > > > > > > > > > > > > O       X + > > 6 > > > > > > > > > , > < > > < 6 T w X w 7 6 6 6 6 6 6 6 > 6 6 O O 6 6 > 6 6 6 > > > > 6 > > > > > > w > X > ",
"< > O O O O > > > > > O < O O < < < > > 6 > > > > < O O > > > > > > O X X O > 9 X X O + + O O O O > > > > > > > > O O O O > 6 9 6 9 > 9 9 > X O t w 9 > O X O > > > > > > > > > > > > > 6 > > > > O < 6 w w w w w < O > 9 > > > > O X 6 w 9 w w w 9 O X > w w w 9 9 w w w w 9 9 w w 9 w w w w 9 w > X 6 [ t 9 9 9 9 9 9 9 9 w w w w w 6 6 6 6 6 6 6 6 r 6 X w w 6 6 6 w w 9 9 6 w t w + X + o       9 [ [ w > > 6 O O 7 r > < > > > > > > > O O O O > > > > < O X   X O > 6 6 6 6 6 6 6 6 w w 9 } X.X.[ 9 X       O + O +   t t > 6 6 > 6 6 w 6 6 6 6 6 6 6 6 6 > 7 > 6 w O   6 6 6 6 6 6 6 7 7 6 6 > 6 6 6 > O O > > 6 6 6 > O   w r 6 6 6 6 6 6 6 6 6 6 6 6 6 6 6 6 6 6 6 6 6 6 < > [  .r > w 6 6 6 6 6 6 6 6 > w r w 6 6 6 6 6 6 6 } O [ r 6 6 6 6 6 6 6 6 6 6 6 O X           X O X O > O X     X X X O O X O O X X X X X X       X X X     X X > > 9 X 9 R w w w w 9 > > > O X 9 w > 9 R w r r t # o.>X*X0 t r O   + @ .   + 9 9 w 9 9 9 9 9 + @   @ & R.& 9 > > 9 w 9 9 9 9 - 9 9 9 9 6 9 9 9 9 > 7 w 1 & # = # :XK . } X 9 O 9 t 9 & & 0 0 0 9 9 9 > O 9 0 . # $ p = : - 8 6 6 9 1 9 9 9 6 9 9 9 9 6 6 6 6 } O t t + w + 6 6 9 9 9 9 9 9 6 9 9 9 9 6 > O   X 6 6 > O O 6 6 > > > > > > > 9 > > 6 9 O         O > > > > > 6 6 6 6 6 6 6 > 7 < O 7 [ [ 6   6 6 6 6 > < O O O O > > X O 6 6 > w w w > > > > 6 > > > > > > 6 > X 7 ",
"> > O O O < > > > > + O < O O O > < > 6 > > > > > < O < > > > > > O X O > O O O X O + + O O O + > > > > > > > > O O O O O > > 6 > > > 9 > O X X > > O X X X O > > > > > > > > > > > > > > > > > > < < 9 w w w w w < X > r r w r w 9 O 6 r 6 9 w 9 w > X O 9 9 w 9 9 w w w w 9 w w w 9 w w w w w w X + R } t 9 9 9 9 9 9 9 9 w w w 6 w w 6 6 6 6 6 9 w r   O w > > 6 6 6 6 6 6 6 6 > 9 t 9 +     O O y X.4.X.X.*.> O O 6 w > > 7 > > > > > > O O O O > > > > > O X   X O 6 6 6 9 6 6 w w w w w 7 O 9 [ } 9     O w [ t X     9 } w 6 > > 6 6 6 6 6 6 6 6 6 6 6 6 > > 6 6 w >   + 6 6 6 6 > 6 6 6 6 6 6 6 6 > O O O > > > 6 6 > O   6 w > > 6 6 6 6 6 6 6 6 6 6 6 6 6 6 6 6 6 6 6 > O w X.X.w > w 6 6 6 6 6 6 6 6 6 6 > > 6 w 6 > 6 6 6 r O r 6 6 6 6 6 6 6 6 6 6 6 > O         X   X X   X O O   X X X X X X X     X O O X O O O > 6 6 6 9 6 O   X   > O > X > w r w w w w 9 9 9 9 > 9 9 O > w 6 O r t . $ W.$.; 9 9 +   .   @ - 9 9 9 9 9 9 9 9 9 + @ .   & >X- 9 > 6 w 9 9 & 1 1 9 1 9 9 9 6 9 9 9 1 > 7 w 1 1 = . . >XK . & t 9 + 9 9 - 9 - & & + + + 9 > > 9 v # $ s p = ; + 8 6 6 9 1 1 9 9 9 9 9 9 9 9 6 6 9 } + R t + w 6 6 6 9 9 9 9 9 9 9 9 9 > 6 9 w 9 6 X X O O X   X X X X X X X X X X X   + + +         X O > > > > > > > > > > > > 6 6 r [ [ w O   X < 6 6 6 6 6 6 6 6 6 > X X + > > w r 7 > > > > 6 > > > > > > 6 < O r ",
"> > O O O < > > > > > O < O O O > > > 6 > > > > O O O O > > > > > O O > > > O X X O O > > > > > > > > > > > > + O + X X + O O + O O O O O X O X X X X X O O > > > > > > > > > > 9 9 9 9 6 6 > > > O O > 9 9 9 9 9 X   > w w w w w w X > t 9 9 w 9 w >   X > 9 w w 9 w 9 w w w w w w w 9 w w w w 9 X w X.[ 9 9 9 w w w w 9 9 9 9 > > 9 9 9 9 9 9 w w w >   9 9 6 6 6 6 6 6 6 6 9 6 + 9 t t 9 X         X + O O > O X O > w > > > > > > > > < O X O O > > 6 > O X O X X > 6 6 6 6 6 6 6 7 6 6 6 6 6 6 t X.t     w } *.}         R R w > 6 w 6 > 6 6 6 6 6 6 6 6 6 6 > 7 6 6 6   O w 9 9 6 > > > 6 > 6 6 6 6 > O X < > 6 > > 6 > O   > 6 > 6 6 > 6 6 6 6 6 6 6 6 6 6 6 6 6 6 6 6 6 > > [  .r 6 6 6 6 6 6 6 6 6 6 6 w 6 > > 7 6 6 6 6 6 6 X X 6 + 6 6 6 6 6 6 6 6 6 6 > X X           + 9 9 w t R R [ r r t r r r > 6 r R R r t t t 6 w y r R r 9 > X   X X O   X O > > > > > O O > > O O O X X X X   O     # #   .     .   * . . 9 9 9 9 9 9 9 9 w +   @ .   & *X0 9 6 6 9 9 + & 0 1 1 1 9 9 9 6 6 - & 1 9 7 7 9 1 0 . # :Xn B @ 9 9 6 u + + y 9 9 0 9 9 9 9 6 6 & # d }.Q.# # - y 8 6 6 9 1 1 1 9 9 9 9 9 9 9 9 9 9 t X t y 6 9 9 6 9 9 9 6 6 6 6 > 9 9 > > 9 9 9 y 6 X   X X     X X X X X X               X X       X X X O O O X X X O O > 6 6 6 R [ R >     X X > w T R R R R R r y 9 O O 6 6 w r w 6 > 6 > > 6 > > > 6 > > 6 < < r ",
"> > O O O O > > > > > O O O O O > > 6 6 > > > > O O O > > > > O > > > > O O O O X X O > > 1 1 > > > > > > > + + O + X X X X O + X   X O X X O O O O O > 6 9 9 > + + > > > > > 9 9 9 9 9 > > > > 9 O O > 9 w w w r O X > w w 9 w 6 9 X > t 9 9 r 9 w > X X > 9 w w w w 9 w w w w 9 w 9 9 w w w w + + } *.y > w 9 w w w w 9 9 9 9 O > 6 9 9 9 9 9 9 9 w   O w > w 6 6 6 6 6 6 6 6 9 9 9 9 9 t 9     @ O   X X X X X O > > w 7 > > 6 > > > > > O X O < > > 6 > X X O X O > 6 6 6 w 6 6 7 7 7 7 7 6 y O 9 X.R   O X.9 } t   + +   6  .w > w w 6 > 6 6 6 6 6 6 6 6 6 6 > w 6 > 6   O t r w 9 6 6 6 7 > 6 6 6 > < O X > 6 6 > > 6 > X   > 6 6 6 6 > 6 6 6 6 6 6 6 6 6 6 6 6 6 6 6 6 6 > r *.} > > r 6 6 6 6 6 6 6 6 6 6 6 6 w w > > w 6 6 6   X 6 O w 6 6 6 6 6 6 6 6 6 > X X X X     6 r [ t 9 6 6 6 r 6 6 w 6 6 6     6 r r w 9 6 6 r w 6 6 6 r t R O       O   X X                     X X O O X O u   + & # . @   .   . = L.o.0 9 9 w 9 9 w w w w 1   @   . . # 0 9 6 9 9 1 & n +.2 1 1 9 9 9 6 6 - - 6 6 7 6 9 9 + . . 0 0 - 9 9 9 6 9 u 9 9 + 9 & + 9 9 > 6 9 & $ r.mX-X# n - u 8 8 6 9 1 1 1 1 9 9 9 9 9 9 9 9 9 9   9 9 6 9 6 6 9 9 9 6 6 > > + 9 9 9 9 9 9 9 6 9 6 X X O > > > > > > > > < O   X       + O O           X X X       O > 6 r R } [ 9 O   O       X 6 7 7 6 6 > O O O X     O > T r w > > 6 6 < 6 > > > 6 > > > < < T ",
"O 6 > X O < < > > > > O O O < O > > > > 6 6 O X O O O O > 1 1 > > > > > > > > > X X O 9 > > 1 > + + > 9 9 9 > > o + + + X X + 9 9 9 9 9 9 9 > > X X X O 9 9 9 > + + > > 9 9 1 > > > 1 1 1 > > > > O O > w w w q r O X 1 r w 9 9 w 1 O > r w 9 w 9 w O X X O w w 9 9 9 9 9 9 9 9 9 9 w w w 9 9 9 9 + X.} 9 y 9 9 9 9 w w w 9 9 9 O O O > 9 w w 9 9 w > X > w w 9 9 9 9 9 9 9 9 9 9 9 9 9 9 } t   @   @     +   O X X O > 6 9 9 9 > > > > > > > > 6 > > 6 6 6 6 > > 6   6 O w < w 6 6 7 7 7 7 7 6 6 y 9 } y   y t + w t           R } X > r > r > 6 6 6 6 6 6 6 6 w 6 6 6 6 O X     9 [ y w 6 6 7 6 6 6 6 6 6 6 6 > 6 > w > > 6 X   O 6 6 6 6 6 6 6 6 6 6 6 6 6 6 6 > > 6 6 6 6 6 X R *.w w 7 6 6 6 6 6 6 6 6 6 6 6 6 6 6 6 6 6 6 w > X   O 6 6 6 6 6 6 6 6 6 6 6 < w r 9 X   O   6 r r 6 6 w w 6 6 6 6 9 9 6 6 >   6 y w w r r r 9 w w 9 6 6 w w >   O w w w 9 9 w 1 9 9 r 9 9       r } } } R ~ R t t t B t -   . # b Z.*Xn 9 9 9 9 9 9 w w 9 9   9 & . & & . @ 9 + t - 9 9 & =Xn & & 9 9 u 6 6 9 + 6 r 6 > 9 9 9 +   @ 0 9 9 u 6 u u u 6 6 6 9 9 > 9 9 6 6 6 # Z cX`.k g : @ y 6 6 6 9 9 1 1 1 9 + + 9 9 9 9 9 +     + 9 9 9 9 6 9 6 6 6 6 9 9 9 > > 9 9 9 9 9 9 t     [ } y 9 9 w w 6 > > 6 w w +   O O > R t X   X 9 >     O         X > 6 < O X           X     X     X   X X     X         r w > > 6 < O 6 > > > > 6 6 > O > w w ",
"O 9 > X O < < > > > > O O O O O > > > > 6 6 O X O O X O + > + + X X O O X X X X X X O > > > 1 > + + > 9 9 > > + + + o o + + > 9 w w w w r t t t w > O O > 9 > > + + > 1 9 9 9 1 1 9 9 9 9 1 1 > w > + > 1 1 > > 9 O X O 1 9 w t w > X O w w 9 w 9 w > X X O 9 1 9 9 9 9 9 9 9 w 9 9 w w w 9 9 9 + + X.} 9 9 9 9 9 9 w w w 9 9 9 > O O > 6 9 9 9 9 w > O > w w 9 9 9 9 9 9 9 9 9 > 9 w 9 9 t X.t 9 9 +     + + + > > > > > < O X > > > > > > > > > > > > + O O + X > X O > r 6 6 6 6 7 7 7 7 7 6 w 6 + } r O t w > t t   X X O O X X.R > r 6 > r w w 6 6 > > > > w 6 6 6 6 <       6 r R 6 6 6 7 6 6 6 6 6 6 6 6 > 6 > 6 > > 6 O   O 6 6 6 6 6 6 6 6 6 6 6 6 6 6 6 > > 6 6 > > 6 X t *.w w 7 7 6 6 6 6 6 6 6 6 6 6 6 6 6 6 6 6 6 6 O     O 6 6 6 6 6 6 6 6 6 6 6 6 > 6 R 6     6 t y 6 6 6 6 6 6 w 6 9 6 9 6 6 > O 6 y w 9 6 6 + 9 w w w w w w y O   O w w r w w w w w 9 w 9 9 +     9 w w r w w 9 9 0 9 t t u   . E.mXA.x = + r 9 9 9 9 w w 9 9 1 9 9 0 0 # = | - 9 @ 0 @ & & =XB 2 & 9 9 9 9 6 6 9 9 O 9 9 9 -     @ - - + 9 9 u u u u 6 6 6 9 9 > 9 9 6 6 6 # !.cX0.# = q 6 u 6 6 9 9 9 9 1 1 9 + - - 9 9 9 9 +     + 9 9 + 9 6 > 6 6 6 6 6 9 9 6 6 9 9 9 9 9 6 6   6 } y > 6 6 6 6 > O O O > t @   w y 9 y 9 >   O R } r >   X   + 6 6 > O     O 6 y y 9 6 > 6 6 6 6 > >                   X r w > > 6 > < 6 > > > > > > > O 7 r r ",
"O 9 > X O < < > > > < O O O O O > > > > 9 > O X X X X o + + + o + + 6 6 6 > + + + + + O + > + + + + + > + + + + + +   X + + + + O O O O > > 9 9 t 9 O X O > 9 9 > > 9 9 9 9 9 9 9 9 9 9 9 9 9 9 > O O 1 w t R } t 9 + + 9 w 9 9 t 9 O > t t 9 9 9 9 O     o 9 9 9 9 9 9 9 w w w 9 9 w w w w w 9 O + X.} 9 9 9 w 9 9 9 9 9 9 w w > + + + + 6 9 9 9 9 + + 6 9 9 9 9 9 9 9 9 9 9 9 9 9 9 9 - 9 } } [ X.9   9 }  .R R R R t t r w 9 > > + + + + > > > > 9 9 6 > 9 w 6 O X O w 6 6 6 6 6 6 6 6 6 6 6 6 + 9 X.y O [ X.y t y             r } > 6 w O 6 6 6 > > > > 6 6 7 6 6 6 6 O       X 6 [ > w 6 7 6 6 6 6 6 6 6 6 6 6 > 6 6 > w O   + 6 6 6 6 6 6 6 6 6 6 6 6 6 6 6 > > 6 6 > > 6 O R *.w w 6 6 6 6 6 6 6 6 6 6 6 6 6 6 6 6 6 6 6 > O   X > 9 9 6 9 9 9 9 6 9 6 6 w < 6 R 9     6 } y 9 9 r 6 7 w 9 9 9 9 9 9 6 6   O > 9 w t t t w w w w 6 6 9 9 O   > w w t w 9 > > w w 9 9 + +     9 9 1 9 1 9 1 9 9 9 y r 6 @ . b NXG i n 6 8 9 9 9 9 9 9 9 9 9 9 9 0 0 . & $.#.. 0 @ & 0 & =X^ 0 & 9 9 9 9 + + r 6   9 9 & & - . @ 9 + + 9 9 u - - - 6 6 9 9 9 > 9 9 u 9 6 # /.cXr.# ; 0 6 6 6 9 9 9 9 9 9 9 9 9 9 9 9 9 + +       + 9 - + 9 6 6 9 9 6 9 6 6 6 6 9 9 9 9 9 9 9 O   r X.6 O 6 > + O X X O O O } O   R  .w 9 6 w > > w R R w > X X 6 [ R 6 < X O > w r r 6 6 6 w 6 w 9 w w X X                 r r > O 6 6 > > > 6 > > > > > O 7 r r ",
"< 9 > X O O < > > > < O O O O O > > > 9 9 > O X X X X O + + X X 9 9 9 9 9 9 9 9 9 9 + + + + O O + + + + O + + + + X   X O > > > 9 9 9 9 9 w w w R w O X O > 9 9 9 9 9 9 9 9 9 9 w w w w w w 9 9 9 O X + + > 9 9 9 +   O t } t + o     + w w 9 9 t t +     o 9 w w w w w w w w w 9 9 w w w w w 9 + @ } X.9 9 9 w 9 9 9 9 9 9 w w 9 > O O O > 9 9 9 9 + O 9 9 9 9 w w 9 9 9 9 9 9 t 9 9 9 9 9 9 9 } X.+ + t [ } t t t t t t t t r > > O O O + > > 6 w r t w 9 w r } 6   + w 6 O w 6 6 6 6 6 6 6 6 6 6 t *.9   t X.[ [ t   O   X   O X R [ > w r > > > > > 6 6 6 6 7 6 6 6 6 O         +  .> w 6 7 6 6 6 6 6 6 6 6 6 6 > 6 6 > 6 X   > 6 6 6 9 9 6 6 6 6 6 6 6 6 6 > > 6 6 > > > 6 X T *.w w 6 6 6 6 6 6 6 6 6 6 6 6 6 6 6 6 6 6 6 O X   X > 9 9 9 9 9 9 9 6 6 6 6 > > 9 6 9 6 O O t r 6 9 w 6 6 w w 9 9 9 9 9 6 >       X O X O O 6 6 6 6 6 6 9 w X   9 t w w 1 O O > w t 9 9 +       - 9 9 w w w 9 0 9 9 6 w 6 u . # :XF.s 2 9 8 9 9 9 9 9 9 9 9 9 9 & & 0 - & * *X; ; = ; ; ; $.B 9 1 9 9 9 9 > > 6 + - 0 ; # g [.& . - + 9 w 6 - - - u 6 6 9 9 9 > 9 9 u 9 u # ~.cXq.= ; u u 6 1 & 1 9 9 9 9 9 9 9 9 9 9 9 + +     @ + 9 9 9 9 9 9 9 9 9 9 9 9 > 6 9 9 9 9 9 9 6     r X.[ [ [ [ [ R R [ [ } [ t X   R X.t w w r w w > O 9 R t     6 [ R 6 > 6 7 7 7 > > > > 6 > O 6 6 w r O X + O X           6 r 7 < > 6 > > > > > > > > > O > 7 r ",
"> 9 > X O O < > > > < O O O O O > > > 6 9 > O X O O + + O + + X + + + + + + + + 9 9 +   + + @ + + + + + + X X X       X O + 9 9 6 9 9 9 9 9 9 9 R w > O O > > > 9 9 9 9 9 9 9 9 9 9 w w w w w w w +                     + 9 +   o + + 9 } X.} X.R t > X     9 9 w w w w w w w w 9 9 w w w w w 9 9   } X.9 9 9 9 w 9 9 9 9 w 9 9 w 9 > + + 9 9 9 9 9 O O 9 9 9 9 9 9 9 9 9 9 9 w 9 9 + 9 t 9 9 t X.t   9 } 9 9 9 9 9 1 9 w w w w 6 > O O > > > > w w w w 9 > O O } r   + 6 t 6 9 6 6 6 6 6 6 6 6 r 6 t X.6   O + + + +           X   w *.w O r 6 6 6 6 6 6 6 6 > 7 6 6 6 6 O         O } > w 6 6 6 6 6 6 6 6 6 6 6 6 > w 6 6 6 X   O 6 6 6 6 6 6 6 6 6 6 6 6 6 6 > 6 6 6 6 6 6 6 X T *.w 6 6 6 6 6 6 6 6 6 6 6 6 6 6 6 6 6 6 6 6 X     O 6 9 9 9 9 9 6 6 9 9 9 6 > 6 6 + w [ +   r t t y w w w r w 9 9 6 > O O         O O X   X         X + 9 w X   > w 9 9 O X 9 9 w w 9 9 9       - 9 9 w w w 9 9 9 9 6 6 6 - = . W.-X$ = y 6 9 9 9 9 9 9 9 9 9 w 9 + 9 t - . #.-X. g ; & ; 9 9 9 9 9 9 9 9 9 6 w + n # = = m >Xg . ; 9 9 9 9 - - - - 9 9 9 9 9 > 9 9 + 9 - # /.vX8.# - u 6 9 1 1 - - - 9 9 9 9 9 9 9 9 9 +       + 9 9 9 9 9 9 9 9 9 9 9 9 9 > 9 9 9 9 9 9 9   O   O 6 r y + r y y r t [ R R +     r  .R R U w r U > O 6 R R X   6 [ R 6 > 7 > > > > 6 6 6 6 6 > 6 > 6 y O   + + O           > r r > > 6 > > > > > > > > > O < > w ",
"> w > X O O < > > > < O O O O O > > 6 6 > > O X O O + + O + + +         @ @ @ + + 9 +   @ +   + X X X X                     o + > > > 9 9 9 9 6 9 > O O O O > > 9 9 9 9 9 9 9 9 9 w w w w w w 9 w + + @ + + + +   + +           + + X X > 9 > 9 + >   X X X 9 9 w w w w w w w w 9 9 w w w w w 9 9   } X.t 9 9 y t w 9 9 w w 9 9 w 9 9 9 9 9 9 w 9 9 + + w w 9 9 9 9 9 9 9 9 w w 9 9 9 9 t 9 9 } 4.9 @ t } 9 9 t w 9 w w w r r w 9 > O O > > 6 6 w 9 9 w 9 > O O r t   O + 4.t + 9 9 9 9 6 6 9 9 6 r } X.9   X 9 > + +   6 + > > > 6 w  .X.> < 6 > > > 6 6 6 6 6 6 6 6 6 > O     X   X R > w 6 7 6 6 6 6 6 6 6 6 6 6 6 w 6 6 w O   O 6 w 9 6 > 6 6 6 6 6 6 6 6 6 > 6 6 6 6 6 6 > X r *.w 6 6 6 6 6 6 6 6 6 6 6 6 6 6 6 6 6 6 6 6 X   X > 9 9 9 9 9 9 6 6 9 9 9 9 w > 6 6 R [ X   O 9 r 9 > > > O O O X             O 9 t t R R t r r r r r R }  .9   > w 9 w 9 1 w w 9 9 9 q 4.@     - 9 9 9 9 9 9 9 9 w w 9 w 9 . . s >XF n q 6 9 9 9 9 9 9 9 9 9 9 9 9 9 9 0 ; $ >XK # ; ; @ - 6 u 9 w 9 9 9 9 > w + 0 # p i S mXa . * 9 9 > w - - - - 9 9 9 9 9 > 9 9 u - + # /.cX8.# y u 6 9 1 * - - - - 9 9 9 9 9 9 9 9 +       + 9 9 9 9 9 9 9 9 9 9 9 9 9 9 9 9 9 9 9 9 +   5.t + O O O                         w  .} R R R U r , < w R r O X 7 }  .T U U 7 > < > > 6 > > 6 > 6 > 6 y + X + 6 > O         O r r 6 > > 6 6 6 6 6 6 6 6 > > X O X ",
"> w > X O O < > > > < < O O O O > > 6 9 > > O X + O O + O + + + O @ @ @ + + + +   9 +     @   @                         @ + + X X X X X O O O O > > + O X O > > 9 9 9 9 9 w w 9 9 9 w w w w w 9 9 +                 + + + 9 9 t t t w 9 9 O             + + 9 9 9 w 9 9 w w w w 9 9 w w w w w 9 +   X.X.t 9 9 J t t 9 9 w w 9 9 9 9 9 9 9 9 9 9 w > + > t w 9 w 9 9 9 9 9 9 9 w 9 t 9 9 9 9 9 } t   + t y 9 9 t w 9 9 9 9 9 w 9 9 > O O > 9 9 9 w 9 9 w w w w w y r X   9 4.} 6 6 6 6 6 6 6 6 6 6 [ X.R 6 X > } X. . .R X.} } } } [ } [ X. .w r w 6 6 > > 6 6 w > 6 6 6 > O     X   X 6 6 7 6 7 6 6 6 6 6 6 6 6 6 6 6 6 > 6 R r X X 6 R R 6 > 6 6 6 6 6 6 6 6 6 6 6 6 6 w w 6 O X r *.w 7 6 6 6 6 6 6 6 6 6 6 6 6 6 6 6 6 6 6 6 O X X > 9 9 6 9 9 6 6 6 9 9 9 9 w > 6 6 [ [   O     O O                         O 9 t t t t t w r r r w 9 9 w w [ O > t w w 9 w > 9 9 9 y q =X-     - 9 9 w 9 9 8 6 w w w w w 9 & . $ :XW.= 9 t 9 9 9 9 9 9 9 9 w 6 9 9 9 9 9 n # S.>X= g n . q 6 6 9 w 9 9 e 1 3 w & v S.d i K.mXs # = 2 e > q - - - - 9 9 9 9 9 > 9 9 & 1 + # x.vXq.= y u w 9 2 2 ; - - u 9 9 - 9 9 9 9 9 +     + - 9 9 9 9 9 9 9 6 u u 9 9 9 9 9 9 9 9 9 u   O X.[ 9 y y r r 6 + + O + + O O O O   9 X. . .E  .R U , < w R R X X 7  .*.%. . .[ R r 7 7 6 6 > > > 6 > 9 w + X X > > +     + X X 6 w w w 6 6 w w w w 6 7 w 6 < X X O ",
"> 9 > X X O < > > > < < O O O O > > 6 9 > > O O X + + + + o + +   @ @ + + + + @   9 +   @                               9 t t w t t r r r t t t R R t 9 O X O + 9 9 9 9 w w w w 9 9 9 9 9 9 w 9 - +     O O @ @ O     @ 9 9 9 9 9 t t t t 9 + + + > X O O O w t 9 9 9 9 9 9 9 9 9 9 9 9 9 9 9 9 +   X.4.t 9 y X.t t 9 9 q w 9 9 9 9 w 0 w 9 9 9 w > + > t 9 9 q 9 9 9 9 9 9 9 9 9 t 9 9 t 9 9 t 9   t 5.6 9 9 9 9 9 9 9 w e e w w 6 > O 6 9 9 9 w 9 w w 9 9 w r X.y     t X.} w 6 6 6 > > > > 6 [ X.R X   X + } w 9 9 > w > 6 6 6 < X.6 X [ [ [ X.} R w 7 6 6 6 > 6 6 6 > O         X X 6 6 6 7 6 6 6 6 6 6 6 6 > 6 > 6 > 7 [ [ X X w } } w > 6 6 6 6 6 6 6 6 6 6 6 6 6 w r 6 O X r *.w 7 6 6 6 6 6 6 6 6 6 6 6 6 6 6 6 6 6 6 6 O X X > 9 6 6 9 6 6 6 6 9 9 9 6 6 6 r > t [     O O + 6 6 + > 6 O + X X X X X   9 t [ y 9 w w w w w w w w w w w } O > t w 9 O + + 9 9 9 t 0 >X@     - 9 9 9 9 w y 9 9 w w 9 0 ; ; . . * *X% t w 9 9 - 9 9 9 w 9 9 9 9 9 9 y t * p $ >X#.# q 0 9 w 9 9 9 9 0 q 1 r 9 = d.cXf d {.bXl # = 2 n & 0 - - & - 9 9 1 1 9 & 1 1 & 1 & # x.vX8.$ : u w 1 9 9 - - - - - - - 9 9 1 9 9 +   . + 9 0 9 - 9 y 9 - - + + - 9 9 9 9 9 9 9 9 +   9 } 9 + t 9 + 6 6 6 6 6 6 6 6 6 w >   6  . . .%.} E } R w w R R X   > R }  .X. .*.*.*. .[ R r r 6 6 y 6 9 w O     O > +   @ O + X > 6 w r w 6 w 6 6 6 > > > > X X > w ",
"+ + + O + O + > > > > O O O + + > > > > > + O O o O > > O o o + + + + + + + + + + 9 +                                 + > 9 9 9 > > > + + 1 9 9 + 9 t t X O + O 9 9 9 9 9 y w 9 9 9 9 9 9 9 9 9 + @ @     X X O X + o o + 9 y 0 t 0 9 9 9 9 9 9 6 + + + @ + } 3.y 9 9 9 9 9 9 0 9 9 9 t 9 9 } 9 + X 9 X.X.0 q $.0 0 0 0 0 0 q w 9 y y 9 9 9 9 9 9 @ 9 9 9 1 R 9 9 9 9 9 9 9 9 9 9 9 9 9 w w 9 9 @ + [ u r r 6 w w w 0 0 0 0 0 0 9 > O + u 6 9 9 6 9 9 w w w w 3 } t X   X X 5.4.} } } t B ~ | X.3.R O O O X > [ 6 9 w 6 9 r > 6 r > R [ O   + X O 6 w [ 6 X r 6 6 6 6 6 >     X   X     r t > 6 > w 6 6 7 6 > r 6 > r r O 6 X.X.r   O < R X.6 6 6 6 6 > 6 6 6 6 6 6 O 6  .r X X   r  .r 6 6 w 6 6 6 > 6 7 r 7 6 > 6 7 6 6 7 7 6 X   6 6 w > 7 6 6 6 6 6 6 6 6 6 6 6 6 6 r [ r X   r X.} R t t w w t w t r r t > O t t w r q t w w w w w w w w w  .+ > t t w > + t 9 9 B q 0 q @ X < > w 9 0 q 9 - y 9 w w & = $ = # u   5 ( e 9 9 ; ; ; 9 r U r 0 ; 0 0 r 7 q V s # h ; 9 9 e Y 3 Y Y w 9 9 0 0 9 - $ l.nXu.7.vXbXk # . n = p p * * * 2 * * * = a a g * $.E.. $ j.vXj.0.h # y 6 6 6 y 9 - * a g ; - 2 0 > w & . . . B 0 = v : : - - + @ + + - 9 - - - 9 t +   + } y 9 9 y 9 9 9 9 9 9 9 9 9 9 9 > 9 X   > w } R  .}  .X.X. .t 6     X     O > y w 6 6 6 7 w w 7 6 6 6 > O O X X   X O + > > > 6 > > > > > > > > > > > > > > > < X w r ",
"+ @ @   X + O > > > > < O O + O > > > > + O O O o O > > O o o +     + + + + + + + 9 +                                 + + > > > > > > + + 9 1 9 9 O 9 } 9 o   + 9 9 9 9 9 y w 9 9 9 9 9 6 + + + @ @   @ X X O O O O o + & 9 y 9 0 q t t t t 9 9 9 u + + + + 0 X.t y 9 9 9 9 9 9 0 9 - 0 & t | 9 +     + B | $.+.B q ; - 9 0 q 9 y y 9 9 9 9 9 9 9 + } q 9 q q q 9 9 9 9 9 9 9 9 t 9 9 w w 9 9 O   9 t 6 8 8 6 w w w 0 0 0 0 0 9 9 > O + 6 6 9 9 6 6 9 9 w w w w ~ t o   X   + t t t t t t t B B w O   X X   + t 9 9 > 6 7 6 > r 6 > r [ R O   X       w [ r 9 6 6 6 6 6 > X   X   O O   6 } [ 6 9 9 6 > 7 w 6 < 6 7 [ } 6 w X.X.6   X   6 X.[ [ r r r r r r r r 9 r r r  .r   X O [ 4.[ 9 6 6 6 6 w r 7 > < 7 r 7 7 7 6 6 6 6 > X 6 T 6 7 6 7 6 w w w w 6 6 6 6 7 8 6 6 w r 6 X w [ [ r 9 w y w w r w r r r R < O t r r r w r w r w w w w w y y } + > t t t 9 9 q y t t 0 0 ;   < < > w q 0 0 0 0 9 w w t ; j }.p =     ( e 1 ( 0 0 ; ; y y r y q ; 0 q t w t V mXQ.. 0 y t ! 1 ! e 4 1 t B B * q v d l.vXpXpXiXf $ * . [.W.p d j h h s s s s d f d f $ K.>X$ $ 9.cXMX`.i h * 9 9 6 6 9 0 0 * # : 0 2 e 9 t # . j W.n = z v : : ; - & & & - - 9 9 9 9 - 9 @   y t 9 9 9 9 9 9 9 9 9 6 > > > > > 9 9 X       X   + O + > 9 > +                     > y 6 X X X X X X X X X X X X O O > > 6 6 6 6 > > > > > > > > > > > > > > > < X w r ",
"@ @     X O O < > > < < O O O O + O O O O + + + o + + + O + + +   @ + + + + + + + - +                                   + + + + > > + + + > > > 9 + 1 t } O   + 9 9 0 0 9 9 9 t y 9 9 9 + + + +         X O O O X O + + 9 9 y 9 t t q 9 9 9 9 t 9 u 9 9 + + & 0 } J J J } J } } t ~ B B B | | @ @ + +   + J $.4.; 0 q q t q 0 9 y 9 9 9 0 0 9 y + 9 4.9 9 t + 9 9 9 9 9 9 9 9 y 0 9 w q w 9 + @ & V n 0 y y 9 y w w w 9 w 6 6 7 w 1 % > 9 9 9 y 6 9 y y 9 9 6 6 [ t O X O   @ O                 > X O O O O + 9 [ w > > w 6 6 w 6 6 > r } >   O X     X R R O w 9 6 6 9 6 O X O O O 6 > X R X.r + 6 w 6 6 6 7 6 > 7 [ *.} }  .[ O X O   6 X.X.X.*.X.*.*.*.*.X.X.X.X.X.} [ 6       6 [ X.X.X.[ 7 < 6 6 r r w 6 6 6 6 6 6 6 7 6 6 O [ } 6 7 w w 6 w w w w 7 w 7 w 7 6 7 r 6 O X X } [ r 6 6 w y w w r w r w w t O X r r w r r r w t y t t y t t y t X > t t t t t y y ~ t 0 B :   < < > q y y t q t 9 R 1 t y g :XbXi $ # @ t ! 0 n n q q t t t t q 0 0 n n n n V N F . 9 y y - q & 0 q q 9 9 0 0 2 $ i /.nXMXpXi p . @ . -X:Xf k.l.l.l.l.l.l.l.l.9.9.l.l.bXxXi f s.vXiX7.i d h v 0 q q 9 9 u y y u w 1 > 6 q # = }.-X# 0 ^ v 0 q 0 0 ; - 0 0 0 0 0 0 y 9 + @   t y 9 9 9 9 9 9 9 9 > O O O O O > 9 y + + +                       X   O + + > O X   r } r O O O X   X X X O O O + > 6 6 6 6 6 6 6 > > > > > > > > > > > 6 > > > < X 7 r ",
"    @ O O O < < > > < < O O O O + + + + + + + + X + + O O + + O + + + + + + + + + - +                                   + > 9 > > > + + + > > > 9 > 9 9 } > + + & 9 0 t 9 9 9 t 9 9 9 9 9 9 9 9 - + + O X O X O O + @ + 9 0 y 0 9 0 t t t t 9 9 9 9 9 9 + + + + J J J } } } X.X.X.X.X.+.| X.J @ @ u 9 + . @ n $.$.J - & 0 t t 9 0 9 y t y 0 9 9   ~ X.9 9 q + + - 9 9 9 9 9 9 9 9 9 w w w 9 O @ * #.v q y y 9 t w w w w 7 7 8 7 w > < > 9 9 9 9 9 9 9 y 9 9 w w } R X   + + u + 6 9 9 9 9 9 9 9 6 6 9 6 6 6 6 + t t 6 O 6 w 7 > 9 9 O > R >   O O X O X 6 R 6 w 9 6 6 w 6 > > > 6 > r y O O r [ 6 6 w w > 6 r 7 > 7 [ *.X.[ r X     X   O r w w 6 6 6 6 6 6 6 6 9 y 9 6 6 X   O X     O r } X.X.[ r 6 > 6 7 w 7 7 7 7 7 w r w 6 6 X.[ 6 r r r 7 r w w w w w w w w w w 6 O   O y [ r w w r r y y w r w r w r t > X r r r r w t w t t t y y y y t t   > t w t w t y 9 } t 0 n :   X X < y t t t t t t ~ 9 r t & P MXbX8.$ # @ | 0 n n t t t q q q t 0 0 v v n n n _ z 2 u 5.5.: : J n : : 0 q n z b C f ;XbXl.i = =   @   E.mXbXbXbXbXbXbXbXbXbXbXbXnXbXnXMXl.i f 6.nXnXnXuX8.f $ a a * 9 9 y 8 8 6 t 1 O 9 : # g.MXg.# V N ) 2 B q q 0 0 0 q q 0 q y t 9 +     9 9 9 9 9 9 9 9 9 + + O + O + 6 6 > 9 + > >     O X             X     9 t t t r y > w r 6 > 6 6 O O O O > > > 6 6 6 6 6 6 6 6 > > > > > > 6 6 > > > > > 6 > > > < X 7 r ",
"    O + O + < > > > > < O O O O X X + + + + + + + + + + + O O O + + + + + + + + + - +                                 @ + 1 9 9 > 6 6 u > > > > > > 9 9 } 9 + X + 9 0 t 0 9 0 t 9 0 9 9 9 9 9 0 q 0 - + O O O + + O @ + 9 9 y t t t 0 t t t t q 0 9 1 + + @ @ @ .     . @ . @ + & + + & @ & @   +     @ @ . @ 0 | | J B 0 - 9 9 t 0 q B 0 0 t 0 + 4.} y t 9 9 + + - 9 y y y 9 9 9 9 y 9 9 + + . n $.; 0 y y 9 y w w w w w w 7 7 7 O O + 6 9 9 9 9 9 w w r r w w } R X X 6 r r y 9 6 6 6 9 9 9 w 6 7 6 6 9 y 9 + + } t O O 6 r > 6 6 6 9 w 6 O       O X + [ t 6 w w 9 w w 7 6 7 w w w r w X X R X.r > 6 6 7 7 < 7 T } [ 6 X     X   O O O O O + + + + + O > > > O O O O O O O + O X         6 r  .X. .[ r 6 6 w r r r r r r 6 O r X.w 6 r r r r r w w w r r r w r 6 O X X 6 R [ y 9 6 r r r w w w t w t w w t + X t t r t r t q w w w y y y y y t X 6 t y t w t t 9 t t 9 n :   X X + y t t t t e M R r r 5.5.= h.GXnX7.$ . 9 } n n t t t n n n t t 0 g j j g 0 >XF = - : : g g a a ; q n g g g s d f.;XS # = @ @   @   $ C e.8.l k l l l l S g.8.g.0.g.f.i i $ $ d j.cXMXMXcX(.f f d p ; 9 r w 9 y 9 9 q : i {.bXd A V 2 ! ~ t q n 0 n q q q 0 q 0 t 9 +     + 9 9 9 9 9 9 9 9 6 6 6 6 6 9 9 9 9 9 O + +     X     X               w R 9 w y y R 6 > > 6 6 6 6 6 6 > > > 6 6 6 6 6 6 6 6 6 6 6 > > > > > > > > > > 6 6 6 > > > X w r ",
"    O O O O < > > > > > > O O O X X + + + + + + O O O O + O O O + + + + + + + + + + +                     @             O + > + > 6 u u > > > > 6 O 9 t } +   + + + 9 0 0 0 q t 0 0 0 0 9 0 0 q q 0 - + O O O u + + + & 9 0 y t B t 0 0 q q 9 9 + + + + + & 1 0 0 - & & & & & & & + 9 0 0 ; & 0 - + @ @ @ @ @   . 0 | $.| t t t 0 - 0 0 - B X.t 9 4.0 t t 9 9 @ + - 9 y y 9 9 9 t t t 9 +   X @ $.J ; q q y y y q q q q w w w w 9 u O + 9 w w 9 q q r w r r w r } T X O r y y 9 9 9 9 6 6 6 w w w w 6 6 9 y 6 X + *.X.t + O r 6 6 6 w w 6 r t 6 O         r [ 6 w w w w r r w w w r 6 > T w O > 4.[ 6 6 6 7 r r r r 6 O       O 6 > > 6 6 > > 9 6 6 > > 6 6 6 6 9 6 6 6 6 > O     O + + O       O 6 [ X.X.} r w w w w w r r 6 O [ [ X 6 r w r r r w w w y y w w O X   > R  .[ r y r w r r w w r w t w t w r t > X r t t t r t q y y y y t y y y t X 9 t t t t t R w t t 0 K $.  @   @ y y t t t M 0 t } r y [ ; f p.VXvX$ #   t n n t t q v n v t t q n j j ; g d.[.= : = : j A A A j g = = j P -X:XS.i # = .   @ @   = p # $ $ # . . . # # # p h p h p a V m * g . $ $ f ~.{.bXbX{.0.d $ v n B : : ; q J = d bXuXf C v B M | 0 n n n n n q q q B 0 q - @     - 9 9 9 9 9 9 9 9 6 6 6 9 6 9 6 6 w w O > 6     X                     r R > > 6 6 R w 6 w w 6 6 7 6 6 6 6 6 6 6 6 6 6 6 6 6 6 6 6 > > > > > > > > > > 6 6 6 > > > X w r ",
"O O O O O < > > > > > > > O + + + + + + + + + + O O O O + + O + + + + + + + + + + + +                                   + + + + + + u u + u u u 9 u 9 t 9 +   +   @ - 9 0 q q y 0 0 q q 0 0 0 0 0 0 9 u @ @ + + + . & 2 0 0 0 y 9 0 ^ X.B 0 + . + & - 9 0 0 B B q - & & & + + & + - B B B B ; q 0 t t 0 - & + . & .   & B X.X.| n 0 0 0 0 $.$.0 B | - 0 q 0 & @ - - 0 y 0 0 0 0 y y t 9 @   o & E.n q q q 0 0 q q q 0 q 0 e e w 9 + + + 9 q q e t w w y w w r r  .r   X 9 6 6 u 9 9 9 6 6 6 7 7 w w 6 9 9 9 +   t 4.} } t O 7 6 r 6 6 6 > w R r r w O X X > t r w r r r r r r r w r w 7 r R 7 X r [ [ w w r T R 6 <     X > 6 6 O > O > > > 6 > > > > > > > > > O O O 6 6 6 > O 6 O X X > 6 > O X     + y [  . .t y 9 9 y y 6 O [ [   < > 6 r r r w w r y r 9 6 O X 6 [ X.[ r 6 r r r r w r r r w r w r w w t O X r r r t r t w y y r r t t y y t X > t t t t t t t t t 0 E.[.@ .   @ y q t t t J 0 n n 0 n B m f f v.MX8.. . + n v B B n v v n t t t n n n n g f MXh.i p S.S s k i $ j L W.}.;XS h # . # .   & @ 0 ; # g P b a & & & & 1 & 0 n V v m V m | 2 B * K m # # . $ k J.;XbXcX/.8.f d j : : : q = f nX_.6.s b _ n m g n n n n n n n q B 0 q - . . @ 9 9 9 9 9 9 9 9 9 6 6 6 6 6 6 6 6 6 9   O +                           t [ > 6 w 6 6 6 7 7 6 < < 6 6 6 6 6 6 6 6 6 6 6 6 6 6 6 6 6 6 > 6 > > > > > 6 > > 6 6 6 > > X 7 r ",
"O + O O < > > > > > > > > O + + + + + + + + + + + + O + + O + + 9 9 9 9 + + + @ @ + +                                 @ + + 1 > + + + + + u u u 9 t t t   + + +   @ + 9 0 t q y 0 q t t t t 0 0 0 t t 9 + @ + + + . & 0 B 0 0 0 +.| | n & & 0 t t B B B B B B n J q - & & + @ @ + 9 B 0 0 J n B t q q B B 0 - & . @ @ . . + 0 J $.| | | | 2.$.. | J - 0 0 q @ & 0 0 0 0 0 0 y y 9 y 9 +     + 0 E.a g g n ; 0 0 0 M M 0 0 0 e q w 1 O > e q e e r t w y y y y r X.r     + @ + - @ + + O O O < < O O + > > +     X.} + } X.6 7 7 6 6 6 9 r 9 6 w r X.R [ R X 6 [ r r r r r r r 7 r 6 r T 7 7 w X 6  .} r [ X.T > X X X O 6 6 6 6 > w 6 > > 9 9 O > > > > > > > > 9 6 6 > + > > O O 6 6 6 6 > > O O O X   X 6 r } 4.X.[ t t y 6 X } [   O X 6 R 7 r r w r y r 6 > r r R  .[ > 6 [ w r r w w t w 9 w r w r w w t O   w r r r w t w y r r t t t y y R X > t t t w t w ~ q 0 * [.>X. #   . 0 q t R ! t ; m p b o.- m r.f 9.MX8.. &   B m m n v v n n 0 t t q 0 n n h f {./.d d {.'.f f 8.K.;X:XW.k $ $ . . . o q r | | v K F g J v 0 & + O + > O 1 0 v o.* B B B q ! V v V B n - & . # $ l /.cXbXuX/.8.l p p g j f MX~.f F n * n g n v n n n n n n n n 0 B 0 .   . - 9 9 9 - 9 9 9 9 9 9 9 9 9 9 9 9 9 9 + + u @                     O   r [ 6 9 w > 6 w w > 6 7 7 6 6 6 6 6 6 6 6 6 6 6 6 6 6 6 6 6 6 6 6 6 6 6 6 6 6 > > 6 6 6 > > X 7 r ",
"O O > > > > > > > > > > < O + + + + + + + + + + 9   @ + + + + + 9 9 t t t 9 9 9 t 9 +             @ @         @         + + + 9 u + u u + u 9 9 t 9     1 q t q & . . & 0 0 0 q B - B q 0 B 0 n 0 } 0 y 9 @ + @ @ # n n 2 0 | >.J 0 # & B | B - @ @ # & 0 n n n q n 0 & + & & + + - B B B V n n B B B B q q q B 0 & @ . @ & .   @ 0 o.#.$.o.V & | B J q 0 - n ; q - q 9 9 q 0 B 9 B y   @ @   n -XS.A.Q.p b v 0 v 2 2 n 0 t w w R O O + 1 t w e 1 q B - 0 q & q } t   +       . . .       X   X   X       X   + X.} 6 9 r w 9 6 6 6 6 6 6 6 6 6 6 > r R [ 9 O  .r r r w r r 7 T w r w w r r 7 O X 9 } X.R > X X < < > > 6 6 6 + > > > 6 > > > > > > > > 6 > > > 6 > > 6 6 6 > O + + > > 6 6 > > + u O O   X X   6 [ 4.4.*.} w O *.R 6 O O O 6 w r 9 t r r R X   6 X.X.r r r r r y y w w w w y y r w r y w t w O X 9 t w w t t r y y y y y y y y t O O t t w w t R 9 } B # Q.bX# . . = q B B M n q j J.r.a J q v d 7.nXGXK.. O X n :Xm j h m V n n t t w } q 0 a i J.bXd f x.9Xc.vXnXbXK.# . @   . . @ 0 R R 4 5 * z m m m n t q & & & + + . & B m m m m m n n n V n n n M B B B @ . . . i 8.{.vXnXvXcX}.d.i 8.nXt.l : - 5.q : n n ; B 0 n 0 V 0 ; J q   . @   .   + 9 y y y 9 9 9 9 9 9 9 9 9 9 u 9 + + +     @ + +   +         X   r R 9 9 w 6 6 R 7 > 7 7 w > 6 6 6 7 6 6 6 > 6 6 6 6 6 6 6 6 > > > > 6 6 6 6 > 6 6 6 6 > > < X 6 r ",
"O O > > > > > > > > > > > O + + + + + + @ + + + 9     + +   + @   + + + + + + +         @ @                   @       @ + + + + + + u u 6 + + + + + + 1 9 9 0 y 9 + . @ - q q q q - B n 0 B n B 0 B 0 q y + @ @ # # 0 n ^ | t & * 0 n B n n n J ; & & & 0 B n n n B n ; & @ + + + - B B n V n n n n B B B B B q 0 q 0 - @ . . . @ . ; n $.>.n . J $.J 0 B J 0 0 q q - B B - n 0 9 X.9   @ & & = s A.S >XD a a n z b $.* & B 9 0 - . . n B 0 ! q M t t - 0 q & 0 X.t   @ 9 - & . . . . B r R R R w r y 6 > +     X.} + 9 r 6 6 9 6 6 6 6 9 9 9 6 r 6 w 6 w r 6 R R r r 7 r r > r r r w w w r 7 > X O + O O X < < > > > > O O O + > > > 6 > > > > > > > > > > 6 6 6 6 > 6 6 > > O > > > > 6 6 > > 6 6 + O X O O X O O O 9 [ X.y O X.[ r w w w y r > w r w r 6   > [ [ t w r t y w w w w w w w y y r w y y w t w O O w R t w t t w y y t t t t y y t O O t t t t t t q B n = Q.mX= # = * n n 0 q q q j cXxXp q - m ;XMXcXl : &   X   #.:Xk j m v J n 0 t t 7 r V L 0.f ;X8.f cXnXnXvXp.d # . @ + 1 ; ; q } } R 4 1 % a b m m n q q ; & & & & + + 0 m m m m m n n n n n n n M M e e 9 & @ . # $ i f u.7XbXMX;Xd 9.MXj.$ K q 0 : n n ; 0 n n V 0 0 0 n 0 ; & & 0 & - + @     + - 9 9 y 9 9 9 9 6 9 9 9 y + + u     @             +       r R w w w > r r 6 w r < 6 7 > 6 6 6 6 6 6 6 6 6 6 6 6 6 6 6 > > > > 6 6 6 6 > 6 w w 6 > > < < w R ",
"< > > > > > > > > > > > > O + O + + @ @ @ + + + 9 @   +                                                               @ @ + + + 9 9 9 9 9 & + + @ + 9 t t t t t 9 0 & . @ - n 0 n 0 n n n n 0 n n 0 0 0 q - @ ; $.E.E.o.# . @ 9 n n n B n n n n & @ # & 0 n V V n n B q - @ + & + - B B n V n B n n n n n B n 0 & 0 0 0 & @ & 0 ;   @ # ; J * v E.R.V n ; n 0 n 0 B 0 q n 0 B & J X.&   # 0 B # # $ s W.:X= F # $ -XW.a F * v g p I = . m * 0 0 o 1 R r r r 1 R X.9 . B $.@ # J B & 0 | e q R > 6 y w w w 9 + + X.} 9 9 w 6 6 w 9 9 9 9 w w w w w 6 y 6 r } t O [ r r w r r 7 r w w w w w 7 6 < X     X O > > > 6 6 > O X   O + > > 6 6 > > > > 6 > > > > > 6 6 6 > > > > > + O > > > > 6 6 > > > > > O O O O O X     X O > > +  .[ r 6 r r 6 X 9 [ r y r O 6 [ X.r 6 r r r r w w w r w w r r r w 9 w w w t 9 O X 9 t t t t t 9 w w y y y y w w t + + 9 t t t w t t 0 n = Q.mX$ # 5 v n n B M B 5.: h.MXS L * O.NX0.# . . & 2 o . = :XK.i h m v v n 0 ~ R e = `.bXbXMXl.d }.mX}.f $ # # . & 4 ^ V m B } t w > + % * m V B V B B t 9 + + 9 > + 0 B n m m B n B B n n n n q 0 0 2 = = * g v ; @ . $ i i Q.S.$ 8.MX7.uXg.j A A p p m V v v n n 0 | V . & 0 0 B B 0 y 9 - + + & 9 9 - - 9 9 9 9 9 9 9 9   O + @ @     + @     +     X   y R 9 9 > + w 7 > r [ r 7 6 6 6 6 6 6 > > 6 6 6 6 6 6 6 6 6 > > > 6 6 6 6 6 6 6 7 7 6 > > > O 6 r ",
"> > > > > > > > > > > > > > + O + + + @ @ + + + 9           @   + + + + + +                     @                         @ @ @ + + + @ @ + + + 0 0 0 t t q 0 9 & q n - . @ ; 0 0 n n n n n 0 n B 0 B q q 0 @ ; E.$.* . # ; + + | V n n V B 0 & & & & 0 n V B n n n n n 0 & + & + - B n n V n B V n n n B n 0 2 & & & 0 0 n n B n & & . . # # n [.; = J ; g V v n 0 B 0 ; n ; B >.B . . & 0 n 0 a # # # $.# n E.mX>Xa C i C C k d 8.mXK.d j * V } R w w T R w w X.+   V o.. v :Xo.. | | 1 9 R w w y 9 9 9 >     } } t 9 9 9 w r w w w r r r r r w w t r r X.} > r w T w 6 r r r 7 w w w w 6 < X O O > 6 w w 7 > > > < O X O + 6 > > 6 6 > > > > 6 6 > > > 6 6 6 6 6 > > > > + O > > > > > 6 > > > > > + O > > > > > 6 >       > X.[ r O 6 r [ [ [ t 6 t 9 O [ X.[ w r r 6 6 r r r r r r t t r r y 9 w y w t 9 X   1 t t t t t t t t t y y t t t t +   + 9 t t w t B q n * E.mX$ . 5 n n n n ! B : = S mX:Xd s $ $ . @ - @ B ^ . & # k ;XK.d b m m g v 0 n o.d f f ~.MXS # j P # . . & . . n V N m m n q 9 6 + + 2 n B V V V V B B 0 + + > > 1 t n n m m B n B n v n n q - & & & * 2 b V | | y + # n # . # $ l.nXpXGXl.d f Z G L g n n v n n n n ; . ; n 0 B B 0 y t t y & @ @ + 9 9 9 9 9 9 9 - 9 9   O 9 u + +   + + + + 9 9 + + X y t w w 9 9 r r X O R [ [ 6 6 6 6 6 > > 6 6 6 6 6 6 6 6 6 6 > 6 6 6 6 6 6 6 6 w w 6 6 > > > O 6 r ",
"> > > < > > > , > > > > > > + X + + + @ + + + + 9         @ + + + + + + + +             + + + 9 9 +     +     @ @ @ @ @ @ @ + @ @ @ @ @ + & 0 0 t 0 0 9 & & @ . 0 q B n & @ @ & & n v v n n n n 0 0 J q q 0 . # # # = * v * . 0 n n B n n B n n n n n B V V n n V n n n 0 & @ + + - B B n V n B B m B B n n 0 2 n 0 0 n V J V n B q . & ; # . . v = #.[.o.= m v J ; n n n 0 0 2.o.. . . & 0 0 n n n & @   @ . *Xb W.:Xi d i i d 6.7XnXbX;Xj g * 1 6 r W T U T U *.9 . B V # F :X$.. R.n 9 w R r r r 9 9 y 9     9 X.} t w y r w r r r r r r r r r r r y w [ *.} O 6 [ y > w y w w w 9 6 6 + O O + 6 6 6 > > > 6 > < O O > 6 6 6 6 6 6 6 6 6 6 6 6 6 6 6 6 6 6 6 > > > > > > > > > > > > > > > > > 6 > < < > 9 9 w 9 > 6 > O O X 9 [ } [ r r r r 9 O 6 t X   X.} w 6 r t 6 w t w r r r r r r r r w w w w w t 9 X X 9 t t w t t t t t w 9 9 w t t t +     O 9 t t 9 9 0 n = E.mX$ . 5 0 n B B n 0 = Q.# m mXQ.$ # # * t ~ ! 2 . . . . # }.DXK.i L k b F a h d f /.6.i g.p =   . # | 0 @   & n m b A V B B q 0 y y B V V V B V V B B v & @ & . & n m m m m m m m m j j j g ; * 0 e ( ! ! B B B v = @   . & ; # f cXGXvXi f ;XG.h g m v J g n n o.; . & n 0 0 B 0 0 0 q B t 0 - & & & & 9 9 9 9 9 9 9 -   + 9 9 - + + + - 9 9 + + 9     O + + 6 > 6 [ R X   6 r [ R 6 6 6 > > > 6 6 6 6 6 6 6 6 6 6 6 6 6 6 6 6 6 6 w w w w 6 > > > O > w ",
"> > > > > > > > > > > > > > O X + + + + + + + + 9     + @ + + + + + + + + + +         + + + 9 9 t 9 + + + + + + + + + + + + + + 9 9 0 0 t t B B 0 t B 0 & . @ & B 0 0 n B 0 @ . & B n 0 n n n n n n n * & @ . = m g v V $.B . & n B V B B B V J V V V n B B B B V n n B B q 0 9 + - B n n V m V m m m B V n n n n B B B B n n n n J . ; K ; ; . . v E.Q.E.K m g ; V 0 0 v B $.o.= . = # & n 0 B q q q - J & . # # i -XmX;X;X}.{.iXnX6.'.DXd.g 0 B t 9 w O X w t ~ @   n * = Q.mXO.# E.B t w w 6 w w 9 w t 9 @ @ 9 X.X.t y t R w r r r r r r r r y r r R r r X.X.6 6 } [ w y w w r 9 > O O O O > O + 6 6 > > > 6 > > < > 6 6 6 > 6 6 6 6 6 6 6 6 6 6 6 6 6 6 6 6 > > > > > > > > > > > > > > > > > 6 > > < > 9 9 6 > > 6 w w < X   + r [ [ 5.6 X O   r [   O X.[ w w r r w R R 6 r r r r r r r r y w t t w t 9 X   + 9 9 > 9 9 9 9 6 + O O + > 9 9 X       > t t J t J | v E.>X: . % & 0 B J B n *XW.= # # = . p g n Y 3 Y ^ n . . . # p :XMXS d h s k d f f uXMXDXg.. # . . | B ^ ^ B - : n n F V V V V n n J J B V V B n V V m m n n 0 0 @ @ 0 m m A A A m m m j m m n g v n B ~ ~ B n V _ F m - } ... . : $ f /.j.f NXNXd d m m v V v n m V # & n V 0 0 B 0 n n 0 & 9 q B t y & + + + + & 9 9 + +     + @ @   @ + + + + @ @ + +   O O O O   O 6 6 X > 6 > r X.[ R r w 6 6 > > 6 6 6 6 6 6 6 6 6 6 6 6 6 6 6 6 w w w w 6 > > > X O O ",
"> > > > > > > , > > > > 6 > O X + + + + + + + + 9     + + + + + + + + + + + + + + + + + + + + + t 9 + + 9 + + - u - - - - - - - 0 0 0 0 0 0 0 0 0 B B 0 & & 0 n q q 0 q n B * . ; o.n v B v v n B 0 & & & . & J o.F m B | n . 0 | V B B V V V n n n n n B B B V n n n n B B q 0 & - B n n V m V m m B B B B V V n n V n n n m V n J & ; J n n n # = # # O.W.S.b * K g = n #.$.# . = n v n V B n 0 J B q 0 & ; # # $ $ S S.K.}.}.;XS $ $ K v . ; - = v W.:X:X}.S @ @ 9 =XJ # # L g # o.0 t t w w 9 w 9 9 +     + } 4.} t t y R r r r r r r r r r w t r [ [ y [ X.} 6 [ X.[ t w w w 6 O O + + + > O + 6 w w 6 > > > > > > 6 6 6 > 6 6 6 6 6 6 6 6 6 6 6 6 6 6 6 6 > > 6 > > < > > > > > > 9 9 9 > > > > < < > w w < > w > , > < X 6 X   X 6 5.[ } 9 6 t 9 O 5.X. .t [ r w r t r w r r r r r r r r y y t t y t 9     X > 9 > + > > > + + O O + + > > + +     X + + @ @ + @ . = I . . o . - y y y 0 E.$ &   # # : g * ^ / Q { t g A ; & * # i mXxXf k i f 8.9.pXBXv.G.# & @ . V V D x F m . @ m n B V V m m m n n m m V V V B V V V V J B B t & & n V m m A A m V V N D N m m m m I m m m v B V V v . n @.^ e 9 # # # # $ mXe.d :Xk = m v V V n . . #.n n n n n n n & @ @ & 0 t B q B t 0 1 + o @   @ @     @               @ y t y t y t 9 9 9 O 6   X   6 6 X > r } [ r w w 6 > > 6 6 6 6 6 6 6 6 6 6 6 6 6 6 6 6 w w w w > > < < > < > ",
"> > > > > > > > > > > > 9 > O X + + + + + + + + 9 +   + + + + + + + + + + + + + + @     + + + + t 9 + u 9 9 + & & - - - 9 9 9 9 0 0 0 0 0 n B B n 0 & % & & 0 t 0 B B 0 0 n v @ * o.n v B n n n * & . V J # ; $.g m F m V 0 . 0 B B B B V V V n n B V V V V B m n V V n 0 9 9 + + - B n n V m V m m V B B B V V B n n n B V V m n n & = J J v V m m g a # m Z.Q.K ; g v $.Q.; . # V B V V n n n B ; B 0 q B J v v g h p $ # # . . * = &   @ y @ & # = L d.l l $ .   . 4.# = . . . . .     O X     X         9 | 4.4.t t t 9 t t r r r r r r r r R [ 6 r R r [ X.X.O 6 *.X.t 9 r 6 O O + 6 6 > + O + > 6 6 6 > 6 > > > > 6 6 6 6 6 6 6 6 6 6 6 6 6 6 6 6 6 6 > 6 > > 6 > > < > > > > > > 9 9 9 > > 6 > O < > w 9 > 9 > > > w w O > u u O     6 [ X.} y   6 X.} } [ X.[ w w 9 9 t q q q r r r r r y y t t y t 9     + w t t t t t t t t t t t t t w 9 w 9 X   X           @   . . o       @     + # # 0 t n v I ; J 0 Y / T t m h v m A d $ g.DX/.d /.8.{.GXMXv.d # . + 0 >.n D D D F v # ; J n B B B m m m m m m b V V V V F F V B B q y 9 & & n V m m A A m m V _ _ D F m m m j j j m m V o.^ M a D N ' ..t | n q # = $ i w.bXp Q.[.* v g m # Z.:Xv * J n n n n . & n B B 0 n B 0 n B B B t 0 9 9 0 - - 0 - 9 y 0 t 9   @ } } 9 9 9 9 9 y y > 9 > 6         O O r 6 > > 6 w w 6 6 6 6 6 6 6 6 6 6 6 6 6 6 6 6 6 w w w 6 > > < O O O O ",
"> > < > > > > > > > + O 9 9 + @ + + + + + + + + 9 +   + + + + + + + + + + + + @ 9 9 + + @   + + 9 t O u 9 9 9 & & & & & & 0 0 t q t n n n n v n v ; . n B + 9 t 0 n n 0 q B n ; . o.Z.v v K v # # n n B ; g #.b A A D F V 0 . 0 V V V V V V B B V V V V V V F F V n 0 & + + 9 9 + 9 B B n B V m m m m B B B V B B B B B B m m m V n # m m v m F b G K b = # * o.Z.Z.K a Q.m # # g K v v V n n n n n n n n n n n n n n n n n v n n B t + t y t 9 y 0 0 & @ = # = @     + -   & & + + + + + + O + O O + + . - 4.4.*.t w t t t t t r r r r T T T r R [ r r R r r *.*.R > 6 } 4.} > O > > > 9 9 > O O + 6 6 6 6 6 > 6 6 6 6 > > > > 6 6 6 6 6 6 6 6 6 6 6 6 > 6 6 6 9 > > > > > > > > > > > > > > > > > > O O > 9 9 9 9 9 9 9 9 > X 6 6 9 6 6 + X   t w O X 6 } X.X.X.X.X.9 9 B t 0 1 q t t q t t t t t t r r r 9 O   + t t r t r t t t q t t t t t 9 t t t 9   O   9 9 - 0 0 0 - - 9 9 9 - 9 9 0 0 n n B n n n v n n n n M n t n n ^ i {./.$ $ K.MXpXGX}.g.{.h.d s ; @ * *XG b C b m o.;   & J | V V V V m m m m V V V V V _ V n ; ; & & & + + 1 n V m m A A A m F D D F A A m m A m m m F V V o.m a K F V | n J o.n 0 * * a a p = *X*X$ d.K.f i bX;Xd m g m n n n B 1 . B n B v v v v n n B t t t q 0 q q q q q q 0 q q . + X.- + +     @ + @ + u 9 9 9 6 > + X   X X X X X r r O w 6 > > > 6 6 6 w 6 > > w > > r w w r > > O > > X X X ",
"9 9 1 > O O O + O > O + > 9 + + +     + + + + + 9 +   + + + + + + + + + + + + + + - 9 9 u + + + 9 y @ + u 9 9 9 1 1 9 0 0 0 0 0 t n n n n n n v n n * n B - 9 B n v n J B ; 0 V # g L.W.L.b # * v v n K ; . m m C C D F F n & B n B B B B B B m m m m m m m A m = = & & 9 9 + + 1 & 0 ^ o.V F o.m m m m m n B B B B n V m V V V K V = V K F F b A m m v = & * ; = p L.W.A h A $ g m m v B n n n n n v v n n n n n n n B n n q 0 9 w t t t y y y t q e w q 9 O +   t t @ 9 9 y 6 9 9 9 9 9 1 1 1 w q 9 @ @ J 4.X.} w w t t t t t r r r r T T r r r r r r R r w R  . .t > 9 [ t O > > 9 9 9 9 > > O + 6 6 6 6 6 > + + > > > > > 6 6 6 6 6 6 6 > 6 > > > > > > > > > + + > > O O > > > > > > > > > > 6 > > > 6 6 > > 6 > > > > O X > > 6 6 6 > O X O X X   X 9 w r 6 r } t t t 0 B >.^ 0 0 t t w 9 r t r r t t w 1 X > t t r t r t t t t t t t t t R t t 9 q   o & q q t B B t t t t t t t q B n n B n n n n n n n n n m n n B B B v l nXpXd a $ /.GXnX8.i j s C m B @ * o.a H h F g n : @ 0 J V V B B V V V V V V F F m m n v v ; = = - - & + & n o.K m h A G F A A A A A A A F F F F V F V V F v $ A m m J J | V o.0 # & v v = # = . $ Q.bXd i bXxXl k j J ; v n B 0 & 0 n n g v v v v n n n M t q q q q q q q q q q q . + X.9 9       @     @ 9 6 9 9 9 9 9 > O 6 6 w 6 > 6 r R O > w w 6 > > 7 6 6 > 6 w 6 6 r [ r r w w > > < O O O ",
"> 1 9 1 + O O + + + X X + 1 + + + @ @ + + + + + + +   + + + + + + + + + + + + + + + 9 9 9 + + + 9 y   + + 9 9 9 0 0 0 q t t 0 0 n n n q n n n n 0 n n 0 n 0 & B n m B n 0 0 v v = = F P h = = m m B v n ; * K m G C D D V * . 0 V V F V V V V V m m m m F A F F v g ; ; 0 0 9 + + 0 B n n V b b F V V F F V V V V V V V V V V V n n # V V F F A F m V v = * 0 = = p $ L L W.L $ A g m m n m B n v v v v n n n n B B n B n n q q B 0 0 t y q q y q 9 r w t 9   + + 3.3.- t t w 9 w w w w 9 9 9 0 t q t   @ $.X.t 9 9 r R r t t t r r r r t T r r r r R [ [ [ [ R  . .t O O > 6 O > > > > > > > < O > 6 6 6 6 6 > O O O < > > 6 6 6 6 6 6 > > > 6 > > > > > > > > > > > > > O > 6 > > > > > > > > > > > + + > > O O O O O O O O X   X X X O X X X     X X X X O > X w } t 0 9 0 4.>XR.B 0 t t t } w w w w t t t 9   + t t q t q t t t t t t t t t r t R 9 q     B B B B B B B B B B B B n B B B B B n n n n n n n m m m n n B n n h }.BXpX$ z a $ (.9.i h h h G m J . . b b N.s A V n & @ 0 V V V V V V F V V A A A F F F m g a = ; ; n q 9 + & 0 v b A A A A A A A A A A A m F F F F V K K F F g g P A m K V V B ^ 2 = v V V m b a s = # g $ d cXcXf k m g n o.n n n ; & n n v v v n n n n n B t q q q q 0 0 0 0 q q y . + X.y y + +         + 9 6 9 9 9 9 9 9 + w w w y 6 O 6 [ R w > > 6 6 6 6 > 6 6 6 w 6 6 R r > > > w < < O O O O ",
"1 9 9 9 > + + X   + X   + + + + + + + + + + + + + +   + + + + + + + + + + + + + + + + + + + + + y y   + & 9 9 9 0 0 n n B t t 0 n B B B n n B B 0 n B 0 n 0 . n m m v ; v m v = g a C a p A A h m B v g = * K A A b b F o.0 % B V V m m m m m m m m m A A A A A m v v v n n 0 0 . 0 | o.V F D F b b m m m m B B V B V V m m m m K J a K F b m A F m V v . * V n $ m . # b L # p Q.h b m b m V m n n n v n n n n B B B B n n B n V n B 0 q 0 q y t w w w w 6   + & J | - q 9 w r w 9 9 1 1 9 9 9 w 1 t @ - 4.t - 9 w R R w t t y r r r r r r t r R r } } R } *.}  .w O > 6 O O > < > > > > > > > O > 6 6 6 6 6 > > > > > > > > 6 6 6 6 6 > > 6 6 > > > > 6 6 6 6 9 > > > > > > > > > > > > > > > > > > + + > > O O O X O O > > O > > > > > > > > > O O > O X X > O r } t 9 9 0 4.+.t 9 0 q 9 6 w t w w w t t t t o + t t t t q t t t t t t t t t w t t B B . & B n n n B B B B B B B n B n B n n n n n n n n n B m m n B n n n m d uXBXaXi E.:Xs d f h V A h s h ; ; = Z.N.s s F V m & . 0 V V V V V m m m m A A b A F L F m h g g ; n 0 9 & 0 B V m A L L A A F A A A A F F F F V V m F K F F g j A h A P b m K V * = v V v g b p s # g . j i ;XmXf k k m g v v n B v # B n n n n n n n n n n n q q q q n n n n q q q . + X.y y t +     O 6 9 9 9 9 9 9 9 9 9 O w 9 6 w r > X > X.R w > 6 7 6 6 > 6 6 6 6 > 6 R < X O X 6 > > O O O O ",
"w 9 9 w 9 1 +     +     + + + + @ @ + + - 9 9 9 + + + + + + + + + + + + + + + + + + + + + + + + y y O u 9 0 0 0 q q 0 n n n n n B n n B B B B B n n n n V v # m m h m J m g g m m p s k h A m g v v m o.v = K [.F b F F V ; . ; V A m m m m m m m m m A A A A A L O.O.o.V n * @ & & n #.O.b h G A A D F G F F V V V V V A F A m V v $ O.O.b A P K K K m = 0 $.$.o.O.Z.O.F a p b :XO.b b b m V V m v m m n n n n n n B n n n n n v V K ; J q q q t t t w 9 + X 9 } + 0 0 9 1 w w w 9 > + + + 9 9 w + t + 9 4.9 9 t w R t w t t 9 r r r r T T r r R r } } w r } R r O X 6 w > O > < > > > > > > > O > 6 6 6 6 6 > 6 6 6 > > > > > 6 6 6 > > > 6 6 > > > > > > > > > > > > > O O > > > > > > > > > 6 6 6 > > > > > > O O > 6 9 9 9 w w w w w w 9 9 w 6 > 9 9 O O O   r X.t t t 9 t 9 0 t t t t t R t t w t t t t t + > t t t t q t t t t t t t t t ~ t 9 B B . 0 0 B n B B B B B B n n n n n n n n n n n n n n n m m m m m B n n m 6.pXBX2X$ ^ 2 = f k m 2 g C s A V n # O.Q.G C A v m ; . v J V n F m m m m F P L A A A A L L L L K J n 0 ; & ; v Z.L k k A F F F m m m m m m V m F F m F F F F a p S S A P A P O.K a = m #.Z.O.K O.a v g g : # d.}.f J.f k F ; n g m v = V n n n B B B B n n n n n q q q n n n n n q q . + X.9 9 y +   @ u 9 6 + 9 9 9 9 9 9 6 + 9 w 6 6 t 9 X   6 R } [ r 6 > 6 6 6 6 6 6 6 w [ > + 6 O 9 6 9 > O O O ",
"1 > > 9 w w > +   + X   + O + + + + @ + + + + +       + + + + + + + + + + + + + + + + + u - + + y t + 9 9 t 0 q n q q q 0 n n B B B B B t t B B ^ n n n B g = g a K #.K g = h O.Q.L S.S.d.S.L O.#.#.$.o.; . = m E.Q.L.#.#.n @ 0 m A m m K K K K #.S.S.S.S.S.S.Z.N.N.O.K m * = # * = * F O.L A A C C A F F V V V F F F F F F F K K m = L.W.L.S.O.F m b g = v V n o.g V F F a a $ :XW.D C F b F m m m m m m n n n n n B n n B n n m b g = m n n q q t R t w + @ 9 2.& B q 9 w r 9 w w 6 > + 6 9 9 t > t @ 9 } u t w 9 w r r t t w r r r r T T r r r r  .X.6 > 6 > O > 9 6 > 9 > O O < > < > > > O O > 6 6 6 6 6 6 6 > > > > > 6 6 6 6 6 > > > > > > > 6 6 7 7 7 6 9 > > 9 > > > 6 9 9 6 9 9 9 9 9 w w 6 > + > > O > O O > 9 9 9 9 6 6 6 6 9 9 9 9 9 9 9 w w 9 O X X w } t 9 t 0 9 B t 0 & > 9 r r t t t t t t t t O 1 t t t t t t t t t t t t t t t t t B 0   0 n n B B B V V V B n B n n n n n n B n n B n n n m m m m m B n n m f pXBX2X$ M ( +.N.G :.>.#.Z.A.Z.K & # = O.W.O.O.K $.n # ; V _ F K J K K K O.N.S.N.S.L S.S.S.d.P S.K m ; & = = = K S.S.A h A F A F F K A A A F V K K V K K V F a P [.[.S.S.S.S.P m p = m O.$.O.#.Z.L.E.O.$.$.: . $ $ NX{.f h J J g m v ; B n n n B B B B n n n v n n n n n n n n n n n @ + X.- + O + 6 9 9 u + + 9 9 9 9 9 w 9 > 9 r r 6 w 9 + X   O w r w 6 > 6 6 6 6 6 w 6 y } > + 6 > w 6 w 6 > > > ",
"O O O O > 9 1 + X O +   + O @ + + +                             @ @ + + + + + + + + + + 9 9 + + 9 t + 9 9 t q B q q n n n n B B B n n B B B B B B n v B v b A b A O.O.m = = m m m F O.F F L m h = ; * # # g * * m v b g n 0 . ; g g g g g g g v g g g g g h g h a p = = = = * ; # = * a F Q.Q.S.S.S.N.N.O.O.o.F m m m m m m m m m b $ m F h g $ = # # # = = @ . & = = # g $ $ i A.-XO.b F b F b m m m m m m n n n n B n n n n n P h j L m m n q q 9 t t w 6   9 4.& 0 & 9 t r w w w 9 9 9 9 9 9 w 9 9   u 5.u t 9 > w r t y t t r r r r T r r r r r } X.w O > O O 9 w > > 9 9 O O > > > > > < O O > 6 6 6 6 6 6 6 6 > > > 6 6 6 6 6 > > > > > > > > > > > > > > > > > > > O > > > > > > > > > > > 6 > O O + O O O X X > 6 6 1 9 9 9 9 9 w w w w 9 w w w w w 6 O > 6 } } 9 t B q 9 0 0 9 t t t w t t t t t w t t + 1 t t t R t t t t t t t t t t 0 q J 0 | v = J n n n B V V V B B n B n n n n n B n B B n n n m m m b m m m n m f pXnX|.$ B @X+.K V | ..v = a = = = v = $ F G #.o.o.0 . * v n V B n m m V J K K P P K L L A m j j p = = * ; 0 g p L Q.S.d.d.O.O.#.O.L K K m V V m m b m m b m a d d.L s s p p # = $ = = # # # = & * = b v n : : : # ;XbX`.d g n m m b m n n n n B B n n n v v v n n n n n n n n n n n @ + X.- + @ u y y 9 u + + 9 9 9 9 w y 9 > 9 9 9 9 6 9 > X       X < > 6 6 9 9 6 9 w 9 9 R w O O > t 6 9 w t t t ",
"+ O X X X X X X + + +   + +   +         + + + +     + @ @ + + +   @ @ + + + + + - + + + + + + + 9 t + 9 0 t t B q q n n n n B B B n n B B B B B M n b V h A Q.L W.O.a = ; ; = = a = $ $ p a # = ; = = * ; = # ; = = = # = * . * * = = = = = = : = = = = = = = = p = = = * = = # = = = # $ h A G F F F b v a = # = = = = = = = = = h $ a = p g p = a * * g * * 0 @ 0 ; = * = = a p -XN.h D b G b m m m m m m B n n n B n n n n m h s S.:Xm j g n B t t y t 9 @ 0 >.0 B & t t > t 9 w w w 9 9 9 9 9 w 9 @ - J 9 t 6 O w R R y t t r r r r T T r r r r [ } T > 6 6 w > > > 9 9 > O 9 w w w 9 9 > < O > 6 6 6 6 6 6 w 6 6 6 6 6 6 6 6 > > > < O O O < < < < < < < < O O O O X X X O X X X X O O O O X O O O > > > > O O O > 9 9 9 9 9 9 9 9 9 9 9 9 9 w w > > 9 9 > X X X.*.t 9 t 0 t y 0 9 9 9 w w t w y t t w t t + 1 t t t R t t t t t t t t t t B 0 n @ [.*X# V n n n B V V V V B B B n n n n n B n B B n n n m m m b b m m n m f {.nXl.= q   & # * . @ & = = = = & # * * # a # # = . @ ; & # & # @ = = = @ # # # # $ # $ $ $ = = = = = = * = = = $ p L Q.S.S.N.K m h a = = $ = $ = = * * * g $ i d $ $ p p p h g = = = ; ; ; ; & 0 = a = = @ : = h i f NX-XK j j k h A g B n n n n n n n v v v v n n n n n n n n B n . + X.9 u 9 9 9 9 9 9 9 u 9 9 9 9 9 9 9 + y + > w w w 6   X X O X X O > w 9 9 6 9 w > > 9 X.> O w } > > 9 9 9 9 ",
"> > > > O X X + + + O + O + +   + + + & & + + + + 9 9 + + 9 9 9 t 0     9 + + + & + + + + + + + y y + - B 0 0 B n n n n B B B B n q n B n n V n N N v b A s [.s $ * ; ; ; ; ; ; a a a a a * * ; : = = = ; ; ; * * * ; ; ; # n ; * = * ; ; ; ; : ; ; * & * * * * p g g m m K g m n g g g a a p p p p a = g v = * g v v m m m J K A A F F A A A A A A m m m v ; & 0 & & = * a p p $ L N.A h F F b A A g m V n B B n n n V V n n m p L DXW.h p m V 0 9 t t 9 t   V =X2 9 B 9 q q 9 w w w w 9 9 9 9 9 w 9 + + } + R 9 X 6 R r r r r [ r w r t r r t R T [ X.R > O w 9 > > > > > > > O < > > > 6 9 w > + < O O O O O O O O X O < < O O O X X X X O < X X X X O < < X X < < O < < O > > > > > > > > > 6 6 6 6 6 6 > > O O O O O > > > X O 9 > O > 9 > > > > 6 6 6 > > O X + R X.} t y 0 9 9 q t t w 9 t t t 9 y t t t + & t t t t t t t 9 t t & + 9 t B - J ; [.-X# m n B n n n B m v m m B B n n n n v B V n n J V v b m h m F m v m k S l d = 1 9 & # = & & = = = = @ @ @ # = = = * * & . & 0 & # 0 & & & - * ; * * = = * = g m g g p m h v m v * g = = p p i p p = $ = * = = m m g m m m F F F F A A G G F F F F F m F m ; ; ; ; & ; & v v = = ; $.= = h i s S.d.L mXl k m m m n B 0 V B n n v m v v n n n n n n n n 0 J . & X.9 + u 9 9 9 9 9 9 9 y 9 w w 9 w w > 9 9 9 9 9 9 > O   9 w 9 w > O 9 w > > w w 6 > X w  .  } 9 > 9 O > 9 9 ",
"1 > 1 1 > O X + + O O O O O + @ + + + + + + & & 1 9 9 & 1 9 0 9 t B + @ + + + + + + + + + + & 1 t y + - t 0 0 B n n n n B B B B B n n n n n n m N F D C C s W.s a a g ; ; ; ; ; * a * * * ; ; ; n g g g v v v v B n n n ; = n ; * * ; ; ; ; ; : ; ; ; ; ; ; v v b g m K J K n J v v v v m b h g b b m g v v * v K J J J K K m m A A A A A A A A A m A K F m g * = : 0 ; * = p a F a a A F m m F h A b b F m B v n n n n n n n n A Q.:Xp p [.:XJ B y t y 9 n # J R.9 0 t 9 q w w w w w w 9 9 9 9 w w w + u } + t w O > R r r r r r r T r r r t R w  .*.[ > O O O > O O O > O O > O O O O O O O O O O O O O O O O O O < O < < < O X O O O < O < O < > > 7 7 r w 7 O > > > > > > 6 > > > > > > > > 6 6 6 6 6 6 > > O O O O > 9 1 1 w 9 9 > O > r w t t t t t t r w 6 X   + t } J t t 9 & + 9 9 t t t 9 6 t t t t t + & t t t t t t t q t t + + 0 B t 0 B 0 #.Q.= V n n n V V V V o.V V B B n n B ^ n n n n n n m v g K G p F V * J ; g p = & & - = = = : ; ; ; ; ; : q q q n n n n n 0 & 0 n ; & 0 & & & & & & & & & * 0 * v m a g L L F F K V m m m m h h k m m m m m J g g m m K K K A m m m A F F F F F F F F F V K V v ; ; ; * * ; a = g F K K v = g $ $ d i d bXS k h h m F B V V n m V v v v v n n n n n n n B n V @ @ } + + 9 9 y y 9 9 y y w 9 9 9 9 9 9 + 9 9 9 9 9 9 > O X 9 w w w > O > > > w w > O > O > R O t > X 9 9 > > > ",
"1 1 1 1 > O + + O + + + + + + + & + + + + & 9 9 9 9 9 1 9 0 t 9 t X.t + + + 1 + + + & + + + & 9 t t @ + t 0 0 n n n n n n n n n B n n n m m A D C h C k C k S.s a v v v 0 0 0 0 * 2 * * * ; 0 0 n n n v m m m m m v v V = ; m v * ; ; ; ; ; ; ; 0 0 0 0 0 n n n v = m $.m n : g g g v m m m m m m m m g v v * v J J J m g g g g m A A A A A A A A A A K K F v * ; ; ; * * g b A L h p a b V V m b L A b m V B ; v n V n n B V n g m h b G S.Z.n q y t t n ; $ g | 0 0 0 9 w w w w w w w 9 9 9 9 w w w + u } + t t 6 7 T r r t r r r r w r r t r r X.} w X > > > > O O > > > > > O < < > > < O O > > O O < < > > > > > > > > > < 6 w r r r r 7 > > 6 r r T T U w O > 9 > w 9 6 9 9 9 9 9 9 9 9 9 6 6 6 6 6 6 6 6 O O > > 9 9 9 9 t w w > X > t r w w w 9 w 9 9 9 w >     u t } 5.t 9 +   + > w t t 9 + 9 t t t t + & t t t t t t 0 t t -   + t t y J q 0 V ; = n n n n ^ V n K Z.m g g B V n B n V n 0 0 n n m m m m W.L g K m v & & = = - - : = = = : : ; 0 q y q q q q n n n n B ; ; n 0 ; ; & 9 9 9 9 9 9 0 ; 0 0 n v n n * b S.A h m v v n b g h h j h h m m m m m a p m A K A m b h h m A F A F F G F F P K K K K m ; * ; ; * = = h G O.G F K m A h p i $ s bXS A A b b m b V n m m m m v v n n n n n n n n n 0 V . @ } 9 - 9 9 9 9 9 9 9 9 y 9 w w 9 9 9 + 9 9 9 9 9 9 > + O w w w r 6 X > > > 9 9 + + 9 > + y 9 w + + 9 > > > > ",
"> > > 9 > O + + + + + + + + + + + + + + 1 9 9 0 q 9 9 9 9 t t 0 t } B 9 + + + + & & + + + 9 q t t t @ & B B n n n n n n n n n n n n n n m b S S.k Z w.k w.A.Q.i a g v v 0 ; 0 0 v v * * * ; 0 ; g g g n m b m v v * & n # v F b v v v v v 0 0 0 n n n v n n n n v * K O.g g ; ; ; g g v g v v m n g m g v v * v o.V v g g b m m A A A A A A A A A A A F L G m g g ; # a m F L G C F A p a m V b Z.A.D b m m V v 0 n n n n B B m g V g A b g m n q t t J v = j A 0 0 y 9 w q w w w w w w 9 9 9 9 w 9 w + + X.u 9 R r r r T r r r R w > 6 r R r y *.R 6 > > 6 6 w 9 > > > 6 > > > > > > 9 9 9 9 9 > > > > 6 6 6 6 6 7 w 7 7 7 > < w w w w 7 > > > 7 w r r r r r , O > 9 9 w 9 > 9 6 6 6 6 6 6 6 6 6 6 6 6 6 6 6 6 O > > 9 9 w 9 9 w 9 w > O > w 9 9 9 6 6 6 9 6 > 9 9 > X   + t } t y 9 + + 9 9 9 w t 9   @ y t t + & t t t t t t y t t @   9 t t 9 q 9 - * . & n n n n V B v V O.:XE.B v n n B B V v * 0 n V m m F h [.*Xb V m # * & & 9 0 0 ; : = = = : ; q y y q g q q ; ; ; ; 0 & ; n 0 0 0 ; 0 0 0 0 0 q 0 0 0 n n n n n v m Q.h p g g ; n v b h h j h m m m m v v a b K K m g h h b A A A A A F F G G L P P P P P F v ; * g = h A L N.H b V F b F A h p i h :Xk s k S A D b b b F m v V m n n n n n B B B B n n B @ . B 0 9 y y y y y y y y y 9 w y 9 w 9 + 9 9 9 9 9 w 9 O O w w w w 9 O 9 y > > 6 > > > O t w w > 6 9 6 + w 9 > ",
"> > > 9 1 > + + + + + + O O + + + + & 9 9 0 q t t 9 9 9 9 t t 0 0 B B t 9 o + + + + + & 0 t ~ } t t @ & B B n n n n n n n n n n 0 B n b b h S K.l l f.K.}.Q.A $ h g g v v v v g v v v ; ; ; ; ; g n m b b b m m n ; ; 0 # m m h m v v v v n n n n n n n n n n n v g K F = ; g ; g g v m m m m m m g m m m m = ; K v * g A L P A A A A A A A A A L A A F L G D C p p = F N.d.L C A A F A b = * g W.Q.A b F m V m 0 0 v B B m m V B | V g b V B n B t y q g p K.W.= q t 9 q w w w w w w w 9 9 9 9 w 9 w + + X.u 6 R R T r T r r r r > O 6 T T R [ *.w O > w 6 > 6 > > O > > > O > > > > 9 9 9 9 6 > > > > > 6 7 7 > 7 7 7 7 7 > O 7 > > < < < > > r r w 7 7 r 7 7 O > w > w 9 > 9 > > > > > > > > 6 6 6 6 6 6 9 9 O > 6 9 9 9 9 9 6 9 9 > O > 9 > 9 9 9 9 9 9 9 9 O > > > @   + t J J t t t t r 9 9 t y +   9 t t + & t t t t t t y B 9 @ + t t 9 9 + & & & @ @ B B B B n n m m m :XE.V n n n B n n 2 * 0 n B m m h A Z.*XA g = * n 0 0 0 0 0 ; ; : = = = ; 0 y q n v n n n 0 ; * * & v B v n B v n n n n n n B n n n n n n n v K S.j = g g v n v m m A A A m m m V m m a g A m h A A A G G A A A A F G G G S S L S A P P A b a p = S.S.G G H G A F b D C C h = = >XS.A d k k Z k A.A A m b V n V n m m m B B B B n n B @ @ y 9 9 9 9 9 y y y 9 9 w 9 9 w 9 9 9 + 9 9 9 9 w y 9 > + w w w w 9 1 R t + + 9 > O + + } t w + O 9 9 9 O > > ",
"1 > > 1 1 > O O + O + O + + + + + & 9 9 q t t t q 0 9 9 0 t t q q t t } 0 @ + + + + + 1 0 t 9 1 9 y @ + B B n n n n n n n n n n B B n b k s S /.H.8.d d d $ $ A h h b m m m v g v v g g g ; ; ; g n m m b b b m n 0 ; ; * V m b m m m v v v v v v v v v n m m m a a K g = g g ; g n m m m m m m m h m m m m = * g b m m A A A A A A A A A A A A L G G G G G G G h h p d.S.S G Z G C A F A a = = A.N.C A F m V V n 0 0 n V m m V n ; V m o.m * n t t q n h i {.}.= t y y t w t w w w w w 9 9 9 9 9 6 w + + X.9 + R } [ R R r r t > < 6 r R T [ X.6 > > > 6 7 6 > > > O > > O O O > > > > > > > > < > > > > 6 7 7 > 7 7 7 7 7 > < 7 > > < > , r r w w 7 7 7 r r r O > w > w 9 6 9 6 6 9 6 6 6 6 6 6 6 6 6 6 6 9 9 O > 6 9 9 9 9 9 9 9 9 > O > w w 9 9 9 9 9 9 9 9 9 > > 9 9 @   + t 5.5.t t t R q 9 9 9 9 9 + 9 t + & t t t t t t t B 9 + 9 t t 9 } 9 q 9 0 0 @ B B B n n m V m b b h v V J B B B 2 0 0 n B V m m m b A Q.a $ g m F m v 0 0 0 ; ; ; ; = = ; 0 0 0 v g v n n n 0 2 * * m V m m B v v v v v n n n n n n B v n v v K A p = g v v n v b b b h h h b b b m m * = g h m L L G G G G S S S S G S S S S S S S S L L A h p k K.g.S S A G H G G D D F m g # S.W.:X-XK.Z f k :XS h A V B v J n m m m B B n n n n B @ @ t t y y 9 9 9 9 y 9 y y 9 w y 9 w 9 + + + 9 9 9 t 9 9 + w w 9 w 9 9 ~ +   + 9 + O 9 t 6 9 t w > 9 + 9 w R } ",
"> > O > > O + + o o + o X X + + 9 9 0 q t t t t q 0 0 t t t t t t 0 t } 0 @ & + + + + + & + @   + 9 @ + n n n n n n n n n B n n B B n b A f l /./.{.h.f k S L h C A A A F m m g h h h h g g ; ; ; g b m b b b m n 0 ; # v F b A A m m m h m m v v v b b m m m b b b K b m m m m b m m m m m m m m h m m m b = g b G O.O.H C S L A A A A A A A A L L L G G G G G S k p d.S.l 0.0.Z S S C A F v # C S A A F m V V B n 0 v n m m B B B | v n B B B q t q n m $ ;XW.= y 0 y t 9 R w w w w w 0 0 0 9 w 9 w + + X.9 O w [ [ r r 6 > 9 O 6 w r R [ [ R X > 6 6 6 w w w > > > > > > > > 9 6 > > > < O O O O < > > > 7 7 7 7 w 7 7 7 , < < < > > > 7 w r , 7 7 7 7 r r 7 < w w > 9 9 9 w 9 6 6 6 6 6 6 6 6 6 6 6 6 6 9 9 O > 6 9 9 9 9 9 w w w > O 6 w w r w w w w w 9 9 w 6 6 9 y u @   + y t t t t t 9 + @ + 9 t 9 9 t o & t t t t t t t B 9 9 t t t t R 9 t t t 9   B B B B n V V m m m m m n n n B 0 2 n V V B V V m F g L L $ a L A Z Z b * * v 0 0 0 0 * * * ; 0 n v g g v n n 0 * = b b m m m b b h h v b v v v v n v m b m b a A A A m m V V n V m m m m m m m m m m V g g P K L F F G G S S G G S S S S S S S S S S S S S G A d l J.S A K m G w.r.r.D b B n g = $ k 0.f.S.i f ;X;Xl k A V V 0 V n m m m B n n n n B n @ @ 9 y 9 y y y y t t t t 9 9 w y 9 w 9 +   + + 9 9 w 9 9 + 9 w 9 w 9 > t + O 9 > + 9 t t   9 9 } t t 9 9 > 9 9 ",
"> O X O O o         X     X + & 0 0 q t t t q q 0 q t t t t t t q 0 t B 9 @ & @ + @ @ @ . @ @ @ @ - @ @ 0 v n n n n n n n n n n B B v b S f l J.{./.f f S A A A A A S G P A h a h h h h h g g ; g j b C C C C m m n n . m F h C A A m m h h m m m b b b b b b b g a m g F b g m m m m m m m A m m m m m m m g A O.G D D G G H C G G G S G S S G S G d.w.G G G G d.k i f.K.0.0.r.Z 0.S A A F m p i Z Z A A A F V V B v * v B V n B B n V m m B B B 5.y q m $ xX}.= y 0 t q w R 9 w w 9 9 0 0 9 9 w 9 t + + 4.9 X   w r > X     @ > w y w [ *.R X 6 6 6 w w w w w > < < > > > > > 6 > > > O O O O O O O O < > > > > 7 7 > 7 7 > < > > 7 w r r 7 7 7 7 7 7 r r r 7 < w w > 9 9 9 w 9 6 6 6 6 6 6 6 6 6 6 6 6 6 9 9 O < > 9 9 9 w w 9 9 w 6 O > w 6 9 9 9 9 9 > O O X O + 6 9 y 6 O   9 t 5.R t 9 +       + 9 t t t o & t t t t t t t t y y J t 9 t o + + 9 t + @ B B q q V V n v m m m n n B | 0 . & n V V n B m b h A Q.i b F A A S Z C a a v n 0 0 0 ; * * * v n m b v v n n v 0 = n V m F V b m b m b b m m m m m v m m m b * b h A m m V m v m m m m m m m m m m m m g F S.O.F G G G G G G S S S S S S S 0.0.0.S g.d.S S G S k f /.f.A P P w.r.r.r.C F m g v m G i $ S.;X0.h.MXJ.f A m g J B B B m m m n n n n V V n @   + +   @       @ + + @ 9 + 9 9 + 9 +     + + + 9 9 9 9 O 9 9 9 q 9 O 9 t [ t > + 9 9   9 t + } t } t R 9 > O ",
"  > +     + X         o O + > 9 t q q q q q q 0 0 0 0 0 q q 0 q y t t 9 & + @ @ . + 0 B | | | | B } @ @ & n n v m n n n n m m n n J a C S f f `./.f d G A b F D S A L G S L C h h h h h b m g g g p S C S k k A b m ; = P h C C A m b b b m m m m N C C C C C b g g g g m m v m m m m b b m A A F n V V v g a A G G H H G L O.L G G G G G G w.w.w.w.w.w.w.G G G S k i g.K.0.Z f.0.0.l S L j L m i l `.S.k A O.b _ v n * v n o.0 B n m m m m n t R [ y J j $ uX/.# t ! 2 ) ( , r 7 6 9 @ ~ 1 > r > 9 9 + 9 X.X.t 0 0 9 - - - 0 y t 5.} 4.4.[ 6 + > > > 6 6 6 w w < > > > > > > > 6 9 9 > O + O +   X X O O O > > 6 6 > > 6 7 > < w w 6 6 6 6 6 6 7 7 7 > 7 r r 7 O > w w > > 9 9 6 6 6 > > 6 6 9 6 6 6 6 6 6 r R O > 6 6 9 w w 9 9 9 t 6 X > 9 w 9 9 w 9 9 > > + O > 6 9 9 9 9 6     u t } t t t 0 9 9 9 9 0 t t   & t B t y t t y t y 9 t t t t 9 9 q 0 q & @ t q q B ! ^ n n n n n B B ! | q   = $.b V V b C s A.Y.C i G L A P S A F a g g v v v ; * ; ; * ; v m b b m m n n v # n | V m n v m b b b b b b m m n m V v m a v m b b b m m m B m v m m m m m m m A m A = F N.L O.L G G G S G S S G G G S 0.w.w.0.0.0.w.d.d.w.G l f /.H.l S g.Z q.Z w.Z C h b L D D L g # K.f MXvXl.f j I n g ` N n B B B n n n n n B n . @   &   + @ @ @ & & . .     . .               @ + + & +   t 5.y t 9 O 9 9 + + w w 9 + > R 9 9 t t 9 } + X X + ",
"+ 9 9 9 > +   X o o o + + + 1 9 t q q q q q q q 0 0 0 0 t q q 0 q t t 9 + @ @ @ @ & B | | | ^ | +.B J # = ; J g m n B n n n v v n b C Z l f /.cXf f Z H b C L C G Z G S G P k h C h h g h h h h p s G S d.S A F m m = # m b C h b m b m m m n n m m N b b C A m p n m m J m v m m m m A A A A C m v n m m m a A d.d.G G G F F F G G G G L G w.w.w.w.w.w.S S A A P l p d.K.f.Z l 0.Z Z k S k P P S i f }.G s C G b N V = * n o.n B B m b A m n t w [ [ q = d uX}.j & M ( z 4 } r r t - ; 0 9 6 X 9 9 & @ - X.3.4.R.R.2.2.2.2.2.3.4.4.4.X.r O O 6 w w w w w w r r < < , , > > > > > > > > + + + + X X X @ O O O + 6 6 6 6 7 7 > < w 9 6 6 6 6 6 6 7 7 7 7 7 r r 7 O > w w 9 9 9 w 6 6 6 6 6 6 6 6 6 6 6 6 w w w w X O 6 6 6 9 9 9 w 9 r > O 6 9 9 9 9 9 6 6 6 9 9 > 6 9 9 9 9 6 6 6 O   6 t } } B } } } J t B J J @ - t t J } J t t J 5.t B t B B B B B B t &   y q q n V ^ V v n n n B M M B :   # v B V o.G s W.-Xp i G S L O.b F A A p m m g g g ; ; ; = # v K P A A m v n n ; 0 n v ; v v g g g g b m m m m m b m V v V g v V m m m m b b m m m m m m m m A A h h A p F N.G L G G w.G w.L L d.G d.d.d.w.d.d.w.S.d.w.S G d.G k d h.J.8.0.0.8.0.0.l S S k S G A H C F g i i /.MXk.f I j j #.F D V V B V B V V V V n 0 @ @ &   B $.$.$.$.$.| B 0 0 0 0 0 - & & & @ @   @         + } X.X.X.t O O + > t t 9 9 > R  .+ + t t t R + + + X ",
"> > 9 t w X   + o + + + + + 9 0 q 0 0 q q q t t 0 0 q q t t q 0 q t y - @ @ @ @ + 9 B } B B n V 0 n n #.g ; m g v n B B B m n m b b C k f g.xXJ.i l w.G C G L G S Z S S d.d.k Z d.k k A k h b h g m S.S S A h h m J : : m A A A m m m m m m m m m n n m m m m m = g m v m m b m b b b b A A A C m F V h m h p L 0.S 0.S G L L L A A A A A L L G w.w.w.d.L L L P A k p k G.K.K.D.g.0.f.S S S l S S g.i p -XL h F V V V ; ; ; B J V V N C A A m n ( ! 0 V S d uX}.# J 0 0 ^ 0 y 6 u @ ; ; & - 9 6 + 1 + @   + 9 - - - - ; 0 q q q y u u + @ X + 9 6 7 7 7 6 6 > > < < , , > > > > O O O O O O + O @ X O O O O O + > 6 6 6 7 7 > O w w 6 6 6 6 7 7 7 7 7 6 7 r r 7 O < w w 9 9 9 9 6 6 6 6 6 6 6 6 > > 6 6 w 6 > O O > 6 6 9 9 w 9 w 9 t 9 O w w w w w w w w w w w w w w w r w 9 9 r 6     + 9 9 9 9 - - - + + + +   @ - - + + - + @ + + + + + & & & & & & & +   q n n n N N N m m m m V N N V v . & J J K g g O.*X= = A S.L m A A S S A p F P m m g g g m g p b K A m m m g V J 0 = n n v n n g g m m m m m m m m m m m v m = g m h b m m m m V F m b b m A A A A P A A p L S.S S 0.0.0.0.S S S S S L L S S S S S S Z S S L S.L k d g.K.K.K.D.g.0.g.f 0.0.S f.w.w.d.k d.L i p f cXMX9.f 8.l m a F m m m m m m m V V V v   0 ; & n | | o.$.$.| B 0 B B n q q q q q + @ @ @           9 9 9 9 O   O O + 9 9 > > > w 9   9 w + 9 9 t } 9 + ",
"+ O + w t +   + + + > > + > 9 q 0 0 0 q q q t t 0 0 q q t t 0 q t t 0 & @ @ + + & 9 t B n 0 0 n n V = E.m . g K v n n n n n n v b h s S 0.;X;Xd f l Z C S C C S 0.0.0.S d.S d k f.k k A h h h p p m S.A A A A A m J : m m m k S A A A A m m m m m m v v v n n m p m m m m m V F F F A A C A S G A F A m L j p d.0.0.0.0.0.S S S P L L P L P L P S 0.S S S P P I I I j p k S S d.g.g.h.f.D.S S 0.g.k P $ p -XL g F J m g v n n B V V V m A m m n 0 ^ b a S i cX{.$ = = $ = a B q : J E.= * & @ X   O 1 & & + + o + @ @ @ . . .           O 6 6 6 < < < < < < O O < < , w w > > > O O O O O O + + O @ O O O O O O > 6 6 6 7 7 > < w w 7 6 6 6 7 7 7 7 7 7 w r r 7 < > w w w 9 w 9 9 9 9 9 9 9 9 6 w w w r r w > O O 6 6 6 9 9 9 9 9 9 t 9 O 9 9 9 9 9 9 w w w w w w w 9 9 6 6 6 6 6 6 +       @                                               .           @     B n B n n N V V V N V V B B B v . ; J ; J n #.W.= $ L P h d.d.k d.k S S p L A h b m g p p p p A O.P A A m m P K = ; m K F A K K P A A m m m m m m m m F m m p g A m A A A m b b b F b A F G S A A A h A p S f.0.g.q.q.0.g.g.d.d.P P P d.P 0.d.d.d.d.g.f.d.P P L j $ p j l S f.K.K.G.D.D.q.w.e.l Z 0.l S Z P p = f MXcX9.6.l S F F V m m m m m V V B V = = J 0 J * n n 0 n n n n n q q 0 0 q q q q 9 - + @     + +   +     X + + y + + 9   + + O X     t w   9 > t } t 9 ",
"> + + 9 w 9 + + + + 1 > > 1 9 q 0 0 0 q t t t t q t t t t t t t t t 0 & @ + + + 0 0 0 0 0 n n n V n n J E.= # g V V V V V n n n F L }.:XcXbXK.i l S C C w.S k w.Z S 0.0.f.0.d S f.k d k s j C k p l S.S k k k l P A p L d.S k S 0.S S S S A A A A A m m m m m m p m m b m m m m V F F A C k C C k C A P Q.S p g.0.0.0.0.0.g.0.d.S S S S S S S 0.f.f.q.q.0.d.d.P P m h j h p i d k l Z J.`.0.q.g.S P k d.$ s -XL h P F g = J K v V ~ B n n m n n M ^ n D C i ;XMXcXcXbX;X}.G.i j # W.W.# 2 9 8 < w 9 9 9 w w t t 9 9 9 9 & + - 9 u 9 9 9 + + > > > , , , , , > < < , w w w w > > > > O O O X O X O O O O O O O O < > 6 6 7 7 > < w 7 7 6 6 6 w w 7 7 7 7 w r r 7 < 9 w w w w w 6 6 9 6 9 9 9 9 6 > 6 6 6 > > O O O > 9 9 9 w w 9 9 9 t 9 X O O > O O O O O > > 6 O O + + + + O O @ + + @ @ + & & 9 - - - 9 0 0 q 4.9   + 0 0 & + 9 @ + 9 0 0 0 9 0 0 0 & &     0 B n B m m B B V n n V V m B 0 . J v J m F [.S.$ d.S l S 0.S Z l Z S Z d d.L s j p p h h h p C d.k k k k A L A i L L C s Z S S Z A A A A A A A A j h m h m p g A m b g g b m V m F m b C C C C C S.d.S.k 0.g.8.g.8.8.0.0.0.d.d.d.d.0.0.0.0.f.f.g.g.0.0.S l S S k A h j p p d l k f.}.J.8.e.q.r.q.S S 0.l P p : # k.MXvXp.f d j K m m m m m m m m m g # E.B m n n V V n n n n B B B n q q q q q q t y 9 + + @       + + + 9 9 9 w 9 9 t + 9 9 9 > 9   t 9 X X.9 O > + > ",
"> 9 + + 9 9 + + + > 1 > > 9 w w q 0 0 q q q t t q q t t t t t t t t 0 & @ + + + 0 0 9 & 0 B B n n * o.g E.[.. # * v n n B B n n a S -X`.}./.l i d Z S C S S S d.d.d.d.d.g.S k Z K.S.S.K.S.S.S.d.d l G.d.0.0.S S d.h i d.K.G.B.f.0.S S Z Z Z Z A C C b h m j j j = b m m V m a = * a b A A A A A L d.S.S.L d d G.S S 0.8.8.8.0.0.0.S 0.0.0.0.g.g.D.t.q.8.0.0.g.d.L m g j m A j k s l f D.`.8.r.8.0.l d.k d.p k [.S A A A p j m m V B B J J J n v V b N F i s Z ;XbXcX'.~.MXUXf.$ k :Xl i z . > r R w 9 9 9 9 9 9 q t t t t ~ } X.} [ y 6 > 6 7 6 w 7 7 7 r 7 7 > < , w w w w , , 9 > > O O O O X O O O O O O O O X O < < > > < O w w 7 7 6 w w w 7 7 7 7 w r r 7 O > > > > > > > > > > > > > > > O < > > O X O O O > 9 9 w w w w w w R 9 X O X X w w 9 O X X O > O + O + + + + + + +     + t t t B t t t t B J } 3.t + 0 B B t t J + & t B J } B B } } B 0 @   0 n B v v m v n B B n m m m J B & g A j A h i $ Z 0.f 0.D.r.l q.e.S.S h i L S.L L A L S.d.C p C S.S S Z S d.d.k d S.S.S.w.w.w.0.S k m A A A A m h A m K m A = g A m h a a a b V F m F A A S G N.N.S.P A i 0.h.8.8.q.q.0.0.g.P S S 0.0.0.0.f.j.j.h.8.8.8.g.f.h.d.k p = g m A k k f f `.h.l q.r.q.e.S l 0.S S j : p $ /.MXMXcX/.A g m m V m m m m m g # $.[.g V v V n n n n n n n n B B B B B B q q t t t y 9 9 + +       + 9 9 9 9 t 9 t + t t t 9 9   9 6 > *.t O   X + ",
"+ 9 + + + + + + + 1 > 1 9 q t q t t q q q q q 0 0 0 t t t t q t t q 0 & @ + + + & & & & 0 n B n B m v g m :X# = . # 2 v 0 & & = # $ d $ $ d i i l d.S.S.S.S.S.S.Q.S.S.S k k i d S S S P G A h p p k S.f.G.G.K.G.S s p Z S.S.G.B.G.K.K.G.G.G.S.S.S.S.S.S.S.S.S.S.a F o.o.$.o.m * a a b F O.S.S.S.S.S.S.A p i d f.K.K.K.H.J.h.f.f.S.S.S.f.f.S.D.J.H.J.J.J.J.J.J.S.P g j p j j j h k l f 0./.q.q.8.0.0.f 0.r.0.i Z G.S l 0.d l 0.A F V V J J J J m a D D a a A $ # p # $ . p [.d.$ }.MXbXMXUXH.d * 1 9 w w t t t w t r w 9 w t t t X.X.[ 6 6 w w > 7 7 , 7 7 7 , > > , 7 w 7 7 7 7 w 6 > O O O O O O O O O O O O < O < < < < < < O w w 7 7 w w w w 7 7 7 7 r r r 7 X O > > > > > < > > > > > > > > w w w w w w w w O > 6 9 9 9 9 9 9 9 w > O + O X t t t 9 +   + > 9 9 9 9 9 9 9 9 9 +     - t B t 0 0 0 0 0 0 0 0 B 0 0 0 0 0 0 B q . @ q q q B 0 n n B q q & . q q n h j m m n t B B m m m m J 0 K P k W.N.i S d.S.B.w.0.f.J.J.G.d.A h $ m L O.S.S.O.L b p p F W.G.K.S.S.S.S d d w.G.T.T.G.D.D.S.Q.Q.Q.Q.S.S.S.S.O.O.O.L L g b K O.O.K m a = * a V O.Z.S.S.A.A.A.L h h i D.}./.K.j.h.h.h.S.d.d.d.f.h.h.h.H./.!.J.J.h.J.H.J.f.r.d b g g a s h k l l J.H.q.q.q.y.8.S l 0.Z Z S $ = j $ J.uXxXbXbXK v v m m V V B m # . *X$.v V V n n n n n B B n n n n n B B B t t y y t t t t q 9 +     + 9 9 t t t + 9 X t 9 w 9 +   t 9 O t t t O + > ",
"O > > > > + + 1 1 1 > > 9 t t q t t t q q q q 0 0 0 q q t q q q q 0 9 & @ + + + @ + & & 0 n B n n V v m g E.g # $ b o.+.n & . # K L G S.P l p p j p g b A C k k h s h d p h h k d s p i p h h h p p A h A A h h s s s p d p G S G G L G S k s d h h h k b h h j = b F V o.O.V a v a a h F S.N.N.G C s p p h p p k l S 0.0.0.g.f.S.S.d.d.d.d.d.g.q.q.q.q.q.8.f d d p k j d j j j j k k f J./.J.H.h.K.J.D.H.g.Z i H.D.q.l f `.}.l D F m m I I m m G k d C.-X= g ; ; = 0 q & : = $ d e.'.!.'.y.i h 0 t t w w w w w w 9 > 9 t R R w w [ } r > > 7 r w 7 7 7 w 7 , < > > 7 7 7 7 7 7 w 6 > O O O O O O O O O O O < < > 7 7 > > > > > w w 7 w w w w w 7 7 7 7 r r r 6 O > 6 9 9 w w 6 9 9 9 9 9 9 9 9 w w w r r T r r X O > O O O O X O   O X X 6 + X X > w 9 > + + 9 9 9 9 9 9 9 6 6 9 +   + 9 y t B 0 q t B B B t t 0 B B B B B B 0 J @ & B q q B B B B B B B - . 0 q v k k k k n q B v j d d j n ; K i S.W.$ h W.Q.S.G.G.S.S.d.l k p p m p a = = $ # # $ a a p a b h A A A L h $ h i h C H N.A.S.S.O.K A h g h b m A m K m F = g K m K $.o.m g a g g K Z.N.L L C s p p h $ k S l g.q.q.g.f.g.S.S.S.d.f.D.D.D.h.h.q.h.q.g.q.l d d f a h h h k k k l f 0./.K.h.!.J.h.g.Q.S.0.e.Z C = . a $ i f i k # . . . # @ @ @ # . & R.o.n v B n B n n n n n n n B B B B q q 0 9 B t y 0 t t t t t +   + > 9 t t 9 > } O 9   9 t 9   t 9 + X w } > + + ",
"> + 9 9 9 +   1 + + + 9 q t q q q t t t 0 0 0 0 0 t t t t 0 0 0 q 0 & @ @ & + @ + @ + - 0 t n n n V b b g [.m . m #.L.>.>.$.| $.E.O.Z.L Q.W.k = g a * a g a d d s a h h h h h h h h h g h g g g g : ; ; ; : : : g g g = g = g = : = : = # = a $ = = = = = = = = a a = = * * * * g g g g a a p a p s a p g m P A k k k k k f d d p $ = p = = p p i d k k l l S Z S S S S Z Z S S S k S l f 0.h.h.q.0.0.r.l l Z k d `.K.r.f /.MXf r.Z Z k k k k l f f `.NXG.p m ; ; : - u u u : : = # i $ # $ ^ * q w r w w w t t R 6 X O w R R w r [ [ r 7 7 w 7 7 7 7 7 w w 7 < > 7 7 7 7 w w 7 w 7 6 > > > > > > > > , 7 7 7 w 7 r r r T r 7 < r r w w 7 w w 7 w 7 7 w r r w > X O 6 9 9 9 9 9 w 9 9 9 6 9 9 9 6 w w 6 w R R w O O O > 9 w w 9 + + 9 9 9 9 9 9 X > q R t 9 X + 9 9 9 9 9 9 9 9 9 +   @ 0 t q t B B B B B B B B B B B B B B B B t & & q n q n B n n B B B ; . 0 n p l /.6.l g 0 ; S.:XxXxXK.= m A Q.[.# = A = g = = g a p p g p g g g g g ; * v = * * g g g a * = : = ; ; = : = : ; = = * * = * = $ p = $ = = = = = = = = = * = = = = = ; g g g g a a a p p p i a v b C k k k f d f f d s p $ p $ p p p i i d d k k k k k k k k C C C C Z l l Z f l q.g.J.J.g.h.S P Z S Z Z H a # : n S.K.G.A.O.J . & $.2.#.n . # . 0 n V v V n B n n n V n n n n n n B B B 0 @ J t q t t t 9 9 t 9 + +   X t X t > 9 9 w X 9 } } X O 9   X   9 t + 9 ",
"+ O > + > +   > 1 1 9 9 t t t t t t t 0 0 q t t 0 0 t q t t 0 0 t 0 & @ + + + + + + & 9 0 0 n n B a V m . :XA . $.#.o.^ $.| n B b z m F S.Q.K p g v v v v g h h h g h h a h h p h g g g g g g ; ; ; ; : ; ; ; ; g g m ; v ; g ; ; ; ; ; ; g m m m m m m b m b b g g g g g g g g g g a p p p p a s s C o.O.K K O.N.S.A.A.A.S.S.S.m h g g = = a p A S d.d.f.f.d.S.f.h.h.f.f.f.f.f.f.f.f.0.S l f f Z l Z Z Z S 0.S d l }.K.i h.MXh.e.n.e.0.g.0.0.0.D.mXNXZ $ h K n 0 0 9 u y y - - ; * * & @ - [.q q w w r w r t w R t 6 X O w R R y R [ r 7 w w 7 7 7 w 7 w w 7 < > 7 7 7 7 w w 7 r w 7 7 6 6 w w w r w w r r r r 7 w r r U r , < w w 6 6 > 7 7 7 7 7 7 r r r 6 > O > w 9 9 9 9 6 9 9 6 6 6 9 9 9 6 w 7 6 w R t 9 O O O > 9 w w 9 + 1 9 9 9 9 9 9 + O X O +   X 9 9 9 9 9 9 9 9 9 9 u   @ y t t B B B B B B B B B B B B B n B B t t + & q n q n B n B B B B 0 @ 0 V C 8.'./.h.a n ; L cXMXMX;Xh = [.:Xh $ P g V g g ; ; n g g v v * g g ; g g ; ; ; ; ; ; g g ; ; : : & ; : : ; q ; ; : = ; ; & * = $ a g g m g m g g v v v v v g : * g * a * a a g a a s h h k A V O.Z.N.O.S.S.G.S.K.Q.S.N.A a a a g p $ p k S g.g.g.f.f.f.d.S.S.S.B.B.B.f.h.h.f.q.8.8.f f l l S S S Z S Z H D a & $.$.m g h A m | t V $.$.| | B . # V | B B n n n n n n n n n V B B B 0 0 0 0 & 0 q t t t t B } t t t     O   9 t     O t O + +     9 9 + R >   t + + ",
"> + > + > +   > 1 9 9 q t t t t q 0 0 q t t q q 0 q 0 t t t t q B & . . + + + + + + & & & & 0 n B V V b g -Xm # Z.o.* = v 2 = = = = a K O.Q.L.g * v n v a g h h s h h h C A A h h g g g g g v g g g g ; ; ; g g g = F g a ; * ; : ; ; ; v m A K P L G G G G G G K P P K K K P K F F F K A P A G L N.O.$.J g v b F K O.O.L G A C $ $ a h h m F A w.w.f.f.f.f.d.f.h.h.h.h.h.f.f.f.g.g.f.f.f.g.f l S k Z Z C Z S A P $ S f.d g.cXcX;X:X;X;X-X;X;X;XbX`.d i h b m B ! Y U r w y 9 9 9 y + - : : :Xn 0 w w r t t r w r R t O X 6 R R y t R r w r r 7 w w w 7 w w 6 < > 6 7 7 7 w w 7 w w 7 7 7 w w r r r r r w 7 7 w w r r r r 7 > < T r w 7 w r w w 6 7 w r r w > O > 9 w 9 9 9 9 9 9 9 6 6 > 6 6 9 6 7 9 9 w t w > O O > 1 9 w w 9 + 9 9 9 9 9 9 9 + X   + > +   9 9 9 9 9 9 9 9 9 9 +   @ 0 B t B t t t B t B B B t t t t t t t t B & & q B B n n B B B B J 0 . * m -X;XxXxX;XP ; g # d d f d # a S.S i A F h b = V v v n ; = ; g g m v * ; g ; ; ; ; ; ; * * * ; : : : : : @ ; J ; ; ; ; ; ; ; ; = a h A F O.A O.L O.O.o.o.o.o.K P K K K F K F F m m A A A P d.N.O.V v g b F L L S.L L G h s a a h h b k Z d.f.S.f.g.f.f.f.f.f.B.f.e.D.h.h.h.h.h.h.h.g.l f 0.l S Z S Z H D F F z = E.E.n : # = = & & & & # & | R.* . 0 n n o.n B n v 0 v n n n B B V n & . & - & 0 t B t 0 t t t 0 X.t t R 9 X R } O     9 O + X +   + 9 9 } 9 + t + + ",
"> + 9 + > +   + 1 9 q t t t t q q 0 q B B t q 0 0 0 t t t B B q B & @ + & + + + @ + + & & & & 2 = n = # g a $ # #.O.v # * * = * v n m O.O.Z.W.a a n V n v m h p h A S S L d.S A h h h g h h b h h h h h g j j h s d N.C p g = ; ; ; = * A F A L G G G G G G G G L L L L L L L L L L L L P P L d.G S.L g = ; v * * a a s a a p p h C G O.L N.S.d.f.f.h.h.h.f.f.h.h.h.j.h.h.h.h.h.f.h.f.f.D.g.f S d.S S A A A A m m m p i d d i i k k d s d p d d k i s h # * $.B ! ! Y r w w 9 9 1 9 + @ @ j >Xj 0 r w r t r w t w R R w 9 w r r r r r r r r r 7 w w w 7 7 7 6 < > 6 7 7 7 w w 7 7 7 6 6 7 7 7 w 7 7 7 7 7 7 7 7 r r r 7 7 7 > < r 7 7 7 7 7 7 7 7 w w r w > O O > > 9 6 6 9 9 9 9 9 9 6 9 6 6 9 6 6 9 w r t w > O > > 9 9 w 9 9 + 9 9 9 9 9 9 9 9 O + t t >   + 9 9 9 9 9 9 9 9 9 +   @ 0 t t t B t t B t B B B t B B t B t t t B & & q B B n n B B B B B 0 . ; # m k l l k # q : # d i d k m = i $ f d.C L p b v * * g g h A A A K m g g g g g ; ; ; g ; g g g ; ; g = * = ; K = = = * = = * = p b L A L L F L L L L L L L L L L L L L L O.O.O.O.L L L L d.d.S.P a # = a = = g b p p a i d A A A L N.N.S.S.f.q.h.h.h.h.h.h.h.h.h.t.j.j.j.j.h.h.q.h.h.0.l f.g.S Z 0.Z G F ^ ^ z p E.E.| J 0 * * & & . . = 0 o.E.B # o.| J V * V V v & * n V n n n V n @ . & 9 - - t B 0 9 0 9 1 & 0 & t t + t 9 } 9 9 + 9 O 9 w t   O 9 > t 9 9 t + 9 ",
"+ + 9 + > +   + 9 q t t t t t t t t q t t t t t 0 0 0 t t t t t 0 & . @ & + @ + + + & & & & & & # # = $ $ # = # G E.#.V V F V K o.o.F O.F N.W.a F _ o.o.K O.P h S f.d.0.w.0.S S k k s h h C A C Z Z Z Z Z Z Z Z Z l G.B.c Z h A b C s s d.S.w.0.w.w.w.w.w.w.w.w.G S S G G G G L G L G S L P d.d.w.d.A g a v n * * a a a h b F L N.B.G.S.d.d.B.f.h.t.t.t.j.j.j.j.j.j.j.j.j.j.j.j.j.h.h.g.D.d.k S d.A A A F F K A P m = A j d Z j p p = = = = p p = h g g ; ; B J V n n n n n v v 0 1 9 + # d.bXl v t q q t w w R r r R } } R t t r r r r r r r 7 w w 7 7 7 7 6 O > 6 7 7 7 7 7 7 7 7 7 7 7 7 7 7 7 7 7 7 w w w w r r w 7 7 7 > < U r r r r r r r r r w 7 > < O O O + > + > 9 9 9 9 w 6 6 7 6 w w 9 9 9 w r r 9 > > > 1 9 9 9 9 9 O 9 9 9 9 9 9 9 w > O 9 t > + > 9 9 9 9 9 9 9 9 9 +   @ 0 B q q B B t B t B B B t B B t B t t t B & & q B n n n n n V n V n & B J m p h b A J J : @ p a P Q.$.= 0.;Xf l B.d.C N.C A A b h G N.G d.L S A A h p g a g b m m b b b b b C h C k h S.A h h C h h h a s S Q.C S A G S G G G G G G G L S S S L L L L L N.d.d.d.d.d.d.P = p m m g * * v a = b L L d.f.d.S.S.S.f.h.h.h.t.j.j.j.j.x.x.J.J.j.j.j.j.j.j.j.j.k.h.h.0.f f.0.l 0.w.S G o.| J a C W.A.F | | V _ V J V V o.$.$.#.V . V g n V m V V n ; v n n n n n V n & & 0 B 0 + 0 t 0 0 t t 9 &   0   + + + > + + t t t > 9 t + X 9 9 + } 9 > t + > ",
"+ + 9 + 9 >   o 9 t t t q q t q t 0 - & & & 0 B 0 0 0 t t t t t * # . + & + @ + + + + & & & + & n v m m S.-Xa $ $ @.E.O.o.O.K K o.o.F L A N.W.s b C V F P L A j 0.D.f.r.q.q.q.f.0.Z k k k Z S Z r.8.r.0.S S r.r.r.8.J.H.r.0.Z G G G C k d.G.f.r.0.0.w.w.w.w.d.d.d.d.d.d.d.d.N.d.d.d.d.d.d.d.g.g.D.d.L L P v * * g g a a h A O.A.d.f.w.Z c Z g.f.t.t.t.t.t.t.j.k.k.k.k.k.k.t.t.t.k.k.h.h.J.f.l S d.A A A A A K A P = $ -XW.s Z h j j g g g g g g m Z.F = * ; B V V m m n n m B n ! q t & # K.bX8.b ~ t q R w 1 t t w w R } R t t r r r r r r r 7 w w 7 7 w w 6 O > 6 7 7 7 7 7 7 r r r 7 7 7 7 7 7 7 7 7 7 r r r w r w 7 7 7 > < U r r r r r r r w w 6 > < O O O O O + + > 9 9 6 w w 9 9 w w w w w w w w w w 6 > > 1 9 w 9 9 9 9 O > 9 9 9 9 9 9 9 > O 9 w 9 + + 9 9 9 0 9 9 y y 9 + . @ y B q B B B B B t B B B t B B B B t q q 0 @ & B B n n n n n V n B 0 & J m m K V n V m @ g . & 0 V V J j f.MXg.f 0.S G A L O.L C k w.f.l 0.0.S d.d.Z s s s h A A A A A A C C S k 0.S k S.G.0.S d.G H G C k S K.d.S S d.S d.d.d.d.d.d.d.d.d.d.d.d.d.d.d.d.w.d.d.g.g.g.g.d.k P A g * v v = * * b N.S.S.S.f.d.S S 0.h.h.j.j.t.t.t.t.p.p.x.x.j.j.j.j.j.j.k.k.j.j.h.g.f f.g.S 0.0.A F J J V p C T.A.A F $.O.o.o.K o.K K O.O.o.= . O.P g A L m m V V B n 0 B | n n 0 & ; n B q & 0 t t B ~ t 0 @ t } @ t 1 + 9 + X + + 9 + 9 9 9   9 w + t 9 w t + 9 ",
"+ + > + + 1   + + 9 w 1 + 1 9 9 & + @ @ @ . & q 0 0 t t t t 0 0 # # @ @ + & + @ + @ @ + + @ & 1 B ^ B m [.>X# $ . V O.F F K F m V F F G S A.W.k s s a h h h j d 8.j.t.8.t.t.k.J.h.q.l f l 0.S S 8.8.r.0.S S S 0.8.f t./.0.S P S S G S k 0.G.G.S 0.0.0.0.L L L L 0.0.0.0.w.w.w.d.d.d.d.d.w.g.g.g.g.0.d.S.K g ; n m m b a a b F N.S.S.d.S s k d.g.h.h.t.k.j.j.j.j.j.k.j.j.x.x.x.x.x.j.J.h.h.f.l k B.S S G G A A A A L p Q.Y.w.S.S L K K o.o.o.o.o.#.F b b a b @.V m n J J J m B B B t 9 : # /.vX9.C } q t } q + 9 t w w r t t r r r y r r r w w w w 7 7 7 w w 6 O > 6 7 7 7 7 7 7 7 7 7 7 7 7 7 7 , , , 7 7 7 7 U 7 7 7 7 7 7 > < < < < < < < < O > > < O O O O O X O + > 9 w w w w w w w w w w w w w w w w 6 > < > 9 w w w 9 9 w O 9 9 9 9 9 9 9 + & + & 9 9 + + 9 9 9 9 9 9 9 9 - +   @ 0 B q B B t t t B t t t t t B B t t q q & . & B B n n n n n n n B n & m F h B ..! 0 m L K v V ~ ~ 0 A S l bXK.d p j A p g b h s s d.B.0.0.0.0.g.f.g.l k s k k A l k A Z Z l 0.l 0.S d D.K.0.S S Z S G k Z l J.G.0.0.g.0.0.0.0.0.0.0.0.0.0.0.w.w.w.d.w.w.d.d.f.f.f.f.f.f.Q.d.j = g V B 0 n z a A f.f.h.D.S j k d.h.g.l.j.k.k.j.j.x.x.x.x.x.x.x.x.x.x.x.j.t.k.h.h.f h.w.Z 0.S A K K F A p d N.N.w.G G O.V o.F A A A L O.F . = -XmXL g m m B V J V n n n V n 0 & @ & & 0 q t t B B t q 9 & + X.0 t } + > O w + O   O + > + t   O 9 + 9 > t t > 9 ",
"X X X     O   X   + > o     + o @ . @ + @ . + 0 0 0 q t t 0 0 0 . @ & + + + + @ @ @ & & @ + 9 B ~ B V v P L # = = V V n _ O.F L V F G G S G.K.f c s s h h h j k l j.j.9.t.t.9.j.~.t.8.f 8.0.0.Z 8.8.8.0.0.0.8.8.q.8.t.`.g.S P P S G w.k Z K.K.g.0.0.g.P P L P L 0.0.0.0.d.d.d.d.d.g.d.d.g.g.g.g.0.f.d.L j p g m K A m h a h A L S w.d.l j l d.f.f.h.t.k.k.j.j.j.j.j.j.j.x.x.x.x.x.t.j.j.h.J.0.k f.0.S w.G G G G A A s W.G.Z 0.d.P K K K _ o.o.O.F O.O.b $ G E.b m j n J J m B V B } + : $ /.vX9.A | q B X.t o O t R R t r t R r r r r r r w w w 7 7 7 7 w w 6 O > 6 7 7 7 7 7 7 7 7 7 7 7 7 7 7 7 7 7 7 7 w U U , 7 7 7 7 7 > O < O O O < O O O O X X X O O O O X + > 9 w t R t w w w w w w w r r r r r w > O < > 9 w w w 9 9 9 O 9 9 9 9 9 9 9 9 9 +   + + @ + + + + + + + + + + @     0 q t B t t t t t t t t B B B B B t q q .   @ n B n n B V n n n J n & n C F V 0 ~ o.F a m m V ! | V L k l mXf.$ j j m h h g g p h S g.0.q.t.q.0.f.h.0.l l l Z S l l S S Z S 0.l 0.l d J.`.f.0.d.S S d.A S l g.`.0.f.0.q.q.q.e.0.g.g.g.0.q.e.w.e.f.f.f.f.S.f.g.g.g.g.f.g.d.j = h F V V o.n g p C d.g.0.g.P j k g.h.g.t.j.k.k.j.j.x.x.x.x.x.x.x.x.x.x.j.j.x.j.j.h.f h.f.0.S P A K P F G d d k k G w.H ` o.O.m A L G L A $ = . L mXL A A P F B n B V B B n | n & @ . @ & 0 B t t t 9 + + + 4.t 0 }   q o o } t t > 9 o +       +     t 9 + R 6 9 ",
"    + + 1 + + + +   + t 9     + @ @ @ @   + + 1 0 q t B B t 1 + . & + + + + @ @ # & @ @ & 0 n } t t J j j $ $ $ m >.o.n V N.Z S F O.F C S K.K.f c k k C d.Q.d.d k r.D.j.9.t.p.t.x.x.k.f 8.0.0.8.0.8.8.8.0.q.q.q.8.f t.'.h.g.g.S H N.d.l l g.h.h.0.0.g.g.S g.d.g.0.0.0.g.d.d.d.d.f.d.g.g.g.g.g.g.g.f.d.k i k L A A A A A A k k k s k s p p l d.S.f.t.t.j.x.x.x.x.x.x.x.x.x.x.x.p.x.x.x.x.j.J.q.f h.0.0.0.S G G L A F p W.K.S S d.F P G F G G O.O.G L F h = G Q.m m m I J V B V N B ~ - : p /.vXp.S B B 0 q 4.+ + 9 y t t r R R r r t r r w w w w w w w w w 9 > > 6 6 7 7 7 w w w w w w 7 U 7 7 7 7 7 7 7 7 7 7 7 7 7 7 > 7 6 > O O O O O o X o X + O o X O + + O O O O O < > > > O O O O O O O O < O O O O O > O > > > 9 y y 9 9 O 9 w w 9 9 9 9 9 9 9 + X X O + + + + + + + + + + +     0 B B B t n q q q B B q B 0 B B 0 B B B 9 + & 0 B B B B B B B B B n n n m m V V V B m m b F V V V F D A 8.cXK.p j j l k Z L d.A j j S D.q.q.8.q.h.h.h.l f 0.S S 0.Z 0.S l S S S S 0.f h.`.q.f.f.S S P A P S l K.K.0.8.g.g.q.q.f.0.0.S.0.g.e.e.w.w.d.f.f.f.0.D.h.f.J.B.B.h j h P L A A P F A h s p j j j : : k g.J.j.t.t.x.k.k.j.x.x.x.x.x.x.x.x.x.x.x.x.x.j.J.q.l g.D.S L L L G S L F s l cXG.C S G O.o.K J L C N.b.C # = . # = m m m K F B V V n J B q & & @ . @ @ & & y 9 9 + + + + + 9 9 w   t X + + 9 9 9   t + @ + +       9 t     + + 9 ",
"+ 1 9 9 q 9 9 9     + 9 t t 9   + @ @ + + + + + t t t t 0 9 & @ . & + o + + @ @ * * = = = # 5 B B K m A k }.P # v $.| | _ L k d.F O.N.L S S.K.f l Z c k k S S j j l h.J.t.9.p.p.x.x.t.f 8.q.l.l.q.q.q.q.q.q.9.9.t.8.t.'.g.0.g.f.N.` N.f.0.8.h./.0.l g.g.g.g.r.0.q.g.g.g.d.d.d.d.g.g.g.g.g.g.g.g.d.S.S s k S S P S S S S S A A A H G H C k P d.f.D.h.t.j.x.x.x.x.x.x.x.x.x.x.x.x.x.x.x.t.k.j.q.f h.f.0.0.d.G A C A A $ K.d.S g.0.L L G G G G L P L L G A p P Q.m A K J J V V ^ ^ ..B - : $ /.nXx.0.g V o.B +.&   9 q t t r r R r t t r r w w w w w w w w w w > > > 6 7 7 7 7 7 7 7 7 7 7 7 7 7 7 7 7 7 7 7 7 7 7 7 7 7 7 6 6 > O   @ @ @ @ @ @ + + o + + + + O O O O O O > > > > > > > > > > > > > > > > > > > + > > > 9 9 9 6 + > 9 w 9 9 9 w 9 9 9 9 + + O O O 9 9 9 9 9 9 9 9 9 9 + + 0 B t B B B B B B q n n n ; B n n B 0 0 t - & 0 B n 0 0 n V B n n * * V V m m v n m V V F F V m b A F A 8.bXk.p P k Z f Z S P A j j S f.q.q.t.t.t.h.h.q.f r.r.Z r.Z 0.Z Z 0.S S 0.8.d h.}.8.8.g.g.f.d.A k k l f./.J.q.8.8.8.0.q.g.0.0.0.f.f.g.f.d.d.f.g.f.g.f.h.f.f.B.w.p h A A S G G G G S A A A A A m J n h w.D.J.j.j.t.k.x.x.x.x.x.c.x.x.x.x.x.x.x.x.x.j.j.k.8.0.D.l d.L D D S d.m $ q.'.B.d.L G D F v m K A O.N.V.G # = *XJ m I P m F V o.V B B t q & & @ @ @ @ & + + + + + + + + + + + 9   R > 9 w 9 9 t 9 }   + t     +   @ +   }     + ",
"9 9 0 t t t q 9 + +   + 9 } t 9 9 +   + + o   o 0 q 0 9 & . @ + @ + + o + + @ & & * * ; n B V o.b G l 0.l mX`.$ z ^ ^ ..| _ C L K m A P P K.W.k S G S C k k k k s k 0.h.~.p.t.x.x.x.k.6.8.8.q.q.q.q.q.q.8.q.9.q.8.f 8.{.h.g.0.S d.H G f.g.l 0.K.K.h.g.0.0.q.j.J.h.D.D.B.f.g.d.d.0.d.g.g.g.g.g.g.d.d.h d L L A d.S S S S S S S S G w.G A A S S S g.f.h.j.x.x.x.v.v.x.x.x.x.x.x.x.x.x.x.x.x.~.q.f h.J.0.Z g.d.d.d.L G d K.d.0.0.0.d.L L L L L L L L F A b $ A Q.A m m m m m B n n B 9 - ; # K.nXv.q.G L $ # E.E.2 M M ! e t R R t t t r r w w w w w w w w w w 6 > > > 6 6 7 7 7 7 7 7 7 7 7 w U U 7 w 7 7 r U U U 7 7 7 7 6 6 > O O @ @ @ @ @ + + + + + + O + + + > > > > 6 9 9 9 w w w w 9 w w w 6 6 w w 9 6 > + > > > > > > + O 9 9 9 9 9 9 9 9 9 9 9 > O + O + 9 9 9 9 9 9 9 9 q 9 + o 0 B t t B B t B B q B J J 0 B B n B n B q + @ 0 J J B | B V n V #.V v V m m V V V V V V V F F D D A A k f bXh.p P A P Z Z l k j h h C Z J.h.8.q.h.h.J.8.l q.0.0.0.0.q.0.Z 0.S S g.0.f J.{.l.8.q.S S P P g.g.0.g.D.K.f.q.g.h.g.q.h.J.h.K.h.f.f.f.d.d.g.g.g.h.q.f.f.w.B.Z s A L S S S L S S S S S L L P S L A A S 0.0.f.J.k.j.x.x.x.x.c.c.x.x.x.x.x.x.x.x.x.x.x.x.6.8.!.0.S w.B.d.w.d.F p 8.q.l A P S.O.O.S.P L K $.J #.E.$ s mXQ.k k P j F F V n n q 0 - & & & & @ @ & + + + + + + + + + + + 9 + } t } } + t t   9 9 t t +   t +   + + 4.+ @ + ",
"9 9 9 0 q q 0 9 t +     + + t } B +   @ +     o & & & + @ @ @ + @ + + + + + + - 0 V m m V o.V z Z f 6.6.t.bX/.i $ V | ^ o.O.G A S S g.g.l f.K.d 0.w.d.w.G C k k k k f 8.~.~.x.p.x.x.j.6.t.t.t.t.q.q.9.q.q.q.t.t.h.f q.{.q.g.h.h.N.d.w.g.g.g.g.g.f.D.K.`.`./.'.j.D.D.D.B.f.g.d.d.g.g.f.f.g.g.g.d.S.d.h k d.L l L S S S S S P S G H G G S A A k k k r.h.J.j.j.x.x.v.v.v.v.v.v.v.v.p.x.x.x.x.~.q.f t./.k.q.h.0.0.l l f d `.q.q.q.0.0.S S P S P L L S A S h i L W.A K J J J V V V V ^ 0 9 : = K.MXbXq.f k d.W.-XE._ n M M M Y Y Y R t t r r w w w w w w w w w w 9 > > > 6 6 w w 7 7 7 7 7 7 w U U U 7 7 7 7 7 7 7 7 7 7 7 7 w 6 > O + @ @ @ + + + + X + + + + O + > > > > 6 9 w w w w w w w w w w w 6 6 w w 9 6 > > 6 6 > + O O + + t R t t t R t t 9 9 9 > O O O + 9 9 9 9 9 9 9 9 9 9 o o 0 B t t 0 9 0 q 0 - 0 B B 0 0 | B ; n B B + @ 0 B n n n n B v V >.| * B m m m m m m m m m m F F F G G S f bXh.p P l d.f.r.Z k j h h k l H.j.q.q.h.J.J.8.l q.0.r.8.8.8.0.0.g.0.0.g.l i h./.8.q.h.f.g.g.g.0.S 0.l 0.K.J.K.K.J.H./.j.J.h.J.f.f.f.f.g.g.g.g.f.h.q.f.B.S.S.h C S d.S S S S S S S S S S S S Z S G w.S k s S g.J.j.x.x.x.c.c.c.c.c.c.c.c.c.c.c.x.x.x.x.6.6./.j.8.q.e.8.f 8.Z d 8.uX{.K.l f f l 8.f l K $.J K Q.i i MX/.l l P P b F m B n ; & . & & & & & & @ @ + + + + + + + +   + + X t 9 t t   9 9   9 t t + t   t 9 + 9 + }     + ",
"q 0 0 q t t q q 9 + + + +   + y t +     +     + + @ @ @ @ + + @ + + @ @ + + & 0 B B m n m b n A 8.6.u.x.iXnXl.i i C O.F C C l l 8.6.8.6.8././.f 0.w.w.B.B.w.Z k k S l l j.~.x.x.~.x.t.6.p.p.9.9.9.9.9.9.q.q.t.t.8.f q.'.8.8.8.q.d.d.d.0.g.f.g.S Z 0.f f f 8.'.~.t.e.f.f.f.d.g.g.f.h.D.f.f.f.B.f.S.S k S d.d.S d.S S S d.S S S G G G G G L P S S k k r.t.j.x.x.x.c.c.c.c.v.v.x.x.c.v.x.x.x.~.h.f 9./.j.t.t.q.h.h.`.q.f /.q.8.6.8.0.0.0.0.S S S S A P P j i L W.h K J V m m V V V V B u - = p 0.8.8.h.{.:X:XN.a m n M M e Y Y Y Y R t t r r w w w w w w w w w > > O > > 6 6 w w w 6 > 7 7 7 7 w 7 7 7 7 7 7 7 7 7 w 7 7 7 w 6 > O + + + + + + + + + + + + O O O + O O O > 6 9 9 9 w w w w w w w w w 6 6 w 6 > > 6 9 9 9 + O + O + 9 9 9 9 9 9 > O > + O O + X + + 9 9 9 9 9 9 9 9 9 9 + + q B t t B q q B 0 & - q 0 B q [.2.& B q B - @ 0 B B n V V o.V B V * & o.K A m m F K K K F A C C k h k k 6.cXg.d S.S w.0.e.e.0.A k k C Z r.h.J.h.l.h.J.q.8.g.q.q.q.8.q.q.8.0.0.S 0.l d f.{.q.8.q.q.g.0.0.f.g.D.0.0.0.f l 0.l h.}.j.h.t.q.g.g.f.f.g.f.f.f.h.g.h.f.B.G.G k d.S S w.0.S 0.0.d.d.0.0.w.w.S S r.w.d.G m j j k g.h.x.x.x.c.c.c.c.c.c.c.c.c.c.c.c.x.x.~.7.6.'.'.9.9.9.t.x.x.q.f u.BXGXnXpX2X2Xv.(.~.D.A I J $.Q.i f MX{.6.6.f d h F g * * . & & + & & & @ @ @ @ @ + + + + + + + + + +   + + 9 9 +   + 9 J 9 + + 9   9 + + t + + + 9 J ",
"t q q q t t t t q q 9 + @ + +   - @   + + + @ @ + @ @ @ + & + . + + @ + & + & 0 B n n V V g O.-XbXMXMXnXMXnXq.i $ p F G L N.-XmXMXbXMXMXDXDX{.f q.w.e.n.D.e.q.r.f l l l 8.j.~.~./.~.t.7.p.p.p.p.p.t.t.t.k.l.t.t.8.f t.{.`./.H.q.0.d.g.f.d.0.d.d.w.N.w.l 8.6.uX~.q.e.f.f.f.f.f.f.f.h.h.h.D.D.D.S.0.k Z d.S S d.S d.d.d.d.d.w.w.G w.G G P d.d.d.d.Z k f l t.~.~.x.c.c.c.c.c.v.v.x.x.x.x.x.x.~.q.f 6.x.x.j.~.!.`.`.t.8.r.cXNXcXxX'./././.K.K.K.K.G.S.Q.P d $ P W.O.K J V V F F F V 0 9 @ y J : $ i i ;XmXK.k i a B B M e R R R R R t t r w w w w w , , , , > > > < O O > > 6 6 6 6 r r r U U U U U T T T T T T T T U r 7 w 7 > O O + + + + + + + + + + X X O O O + > > > > 9 w w w w w w w w w w w w 6 w w 6 > > w 9 w 9 > O O > 9 O O O + O O + X +     + O + + + 9 9 9 9 9 9 9 9 9 9 + + 9 q 9 9 0 0 0 0 - & & - - B 0 2.4.@ B 0 0 + @ ; B B n V B V n v n = & V m b m F K K F m A G S.W.-X;X:X:XbXMXh.d 0.S f.e.h.h.g.0.Z l l l f h.J.J.J./.H.8.8.l.q.q.q.8.q.8.8.q.q.0.0.g.f h.;X/.J.h.q.q.0.f.0.0.0.d.f.f.S d.l i r.;Xj.t.x.h.g.g.f.g.g.h.h.h.J.q.J.f.d.S.Z A d.S Z 0.d.0.0.d.w.w.0.0.d.d.d.w.e.e.w.L L K h p j 0.j.~.c.c.c.c.c.c.c.c.c.c.c.c.x.v.x.x.6.f j.x.x.x.(.(.(./.q.d 2XGXGXGXGXGXGXGXGXUXmXQ.J J Q.L i f NXMXbXbXcXbX:X-Xb # # @ - - & & & & @ @ @ @ @ + + + + @ + + + + + @ + + + + 9 9 y t t + 9 9 + @ +   + t + +   + t ",
"q 0 0 q t t t q t t 9 + + + +   @   @ + + @ @ @ @ @ + + + & + + + + @ @ & @ & q | n n V m a A K.S.K.K.S l l p = ; = 0 * * i N.`././.}.k.k.K.g.l g.g.e.e.t.t.t.t.8.8.8.8.8.q.x.x.x.t.9.7.^.^.^.^.~.~.~.x.j.j.j.j.8.f f q.J.H.!.t.e.0.g.f.f.d.d.A.N.A.B.B.q.f {.~.t.h.h.h.h.h.h.h.t.h.h.h.D.J.S.d.k S S S S 0.0.0.d.d.d.d.d.d.0.w.w.G S 0.d.d.0.0.d.Z k f 8.j.x.x.c.c.c.c.(.(.(.(.(.^.(.(.(./.h.8.f l././.K.D.f.0.0.f d 0.J.K./././././././.K.K.K.Q.S.Z j s A Q.Q.o.| J V F F F V o.t + u 0 & = p $ P d.p g g V B t w w r r r r r w w w 9 9 6 > > , , > > > > < O O + + O O > > 6 w w r r r r r r r r r r U U U U w , > > > > O O O + O O O O O O O O X o O O > > w w 9 w w w w w w w w w w w w w w w w w 9 > > w 9 w 9 > + + 9 t R R t t t } } } + + + > > O + + 9 9 9 9 9 9 9 9 9 9 + @ + & & &     . @ . . . . @ @ . - @   & @ & @ . @ & @ # # = = . # * = # = = p p g h h a p p a C d.d.d.0.q.8.l.f f f.f.t.q.t.t.q.q.0.r.8.8.8.8.q.h.j.j.h.6.k.~.~./.~.x.x.x.j.j.h.f.l l d f h.h././.H.h.g.D.h.D.d.d.f.d.d.d.Q.S l ;X/.t.t.t.g.g.g.g.h.h.j.j.j.h.G.D.0.l A L d.0.0.w.w.w.w.w.w.0.0.0.w.d.d.w.B.w.w.L L L K h d l q.x.c.c.c.c.(.^.(.(.(.(././.(.(./.~.q.8.f./././.!.h.r.k g p f j.f.f.g.g.h.h.8.f.S.m m J K m = i D.:XcXcXcXcXmX>XK # ; & & . & + + & @ @ @ @ & & & @ + + + + + . + + @ @ @   9 9 9 + + 9 t y + +     9 9 + +   + 9 ",
"q 0 q t t t t t 0 0 t t 9     + @ @ @ @       @ @ @ + + . . @ + @ @ . @ & @ & q & 2 & = = p i $ # . # . # # = # . . * = a i i $ $ i i i d f d l 0.g.t.q.t.t.p.p.x.8.6.8.6.8.9.8.8.9.7.7.p.p.u.9.9.9.9.9.9.8.9.8.f f 8.6.8.f 8.8.8.f f l 0.0.L G O.O.O.A.g.f {./.t.h.h.h.l.g.l.l.h.j.j.h.J.D.f.Z d g.d.S g.d.S d.0.0.0.0.0.0.0.w.d.w.d.d.g.g.d.d.S d.S f f 8.j.~.c.c.c.x.x.x.x.x.x.x.t.t.8.8.8.l 8.8.q.l l k k k l k k d d i d i d d d d d i i i $ i $ p h = = a * * = = = = = = @ @ + 9 9 - ; * = # # # ; @ - + 9 > > 6 6 6 6 6 6 6 > > > > > > > > < < > < < O O + O O O O > > O O < < < < < < < < < < < < < < > < X < < < O O O O O O O O O O O o X X O > > 1 r w w w w w w 9 w w w w w w w w w w w r w > > 9 9 9 9 > + + w t t t w 9 9 t } } 9 9 9 9 9 + + + 9 9 9 9 9 9 0 0 0 0 & @ @ + + & & - - & & - & @ @ . & . . & @ . . @ @ @ & 0 n 0 v * & # # = * v L A a = = a b A F C k k l l r.q.8.6.f l g.q.t.t.9.9.t.t.k.t.8.8.8.8.8.8.8.6.8.6.8.k.l.l.k.t.9.9.t.8.l.g.f l d f l f l f f f f 8.l f.0.d.d.L S.L S.P d ;X}.t.t.t.f.f.g.h.k.k.j.j.j.J.J.G.S i S d.S d.d.w.0.w.w.S w.w.w.d.d.d.d.w.w.w.d.w.G G L L k f l t.x.c.c.c.x.x.x.x.x.x.x.x.k.t.q.8.l f r.J.8.l Z Z k A B n s d i p # i i $ p $ $ $ p $ $ # # = $ # $ $ d $ $ s # # ; @ & @ & + + + @ @ @ @ @ @ @ & & - 0 0 0 0 0 t 9 9 & o       + + 9 + + - 9   + t u + + + + 9 ",
"q q q q q q q q t 0 q t 9 + o @ 9 9 9 9 9 0 9 0 0 0 0 0 0 0 0 0 & & @ & @ = &   . n # . a s :X}.# j j p j j L Q.L L j s i q./././.~.~.8.9.f 6.8.q.k.j.x.p.p.p.p.p.x.x.t.7.7.9.7.9.p.x.x.p.p.p.p.p.p.p.p.9.q.t.k.l l j.~./.J././.!.J./.J.0.Z C a a * v F k d h.xXq.h.h.q.k.k.8.~.j.x.j.j.f.G.K.i Z S 0.d.0.0.0.d.d.d.d.w.w.g.g.g.B.0.0.f.g.0.0.d.d.d.S S f f j.v.c.x.9.7.6.6.6.6.6.6.6.6.f 8.l l l l l 0.0.0.Z k S k s p k Z S l S S 0.l d l d.L L L O.P h p a v * v # m Q.a = = @ @ 9 + 6 9 9 & - - - - - 9 6 6 > 6 6 6 6 9 9 9 9 9 9 9 6 > < > > > , , > > > < O + O + + + O O < < > > < < < < > O < > < < < 7 < < > w w w w 9 > > > > > > > > < < O > O X > > r r w w w w w w r r r r r w w w w t R t w 9 9 w w w 9 + + 9 t w 9 q w w t 9 t } t + 9 9 9 + + + - y 9 9 9 9 t y q q &   + 0 B B B B B B B B B B @ @ . . @ & @ . & @ . 0 | $.#.#.E.>.o.n * v | #.[.:Xh $ Z.[.W.[.[.W.G.`.K.J.`./.cXIX/.f l.k.~.p.p.p.x.p.j.x.p.x.8.6.6.8.8.q.t.9.9.9.9.9.9.7.9.8.9.8.8.8.g.d g.f.K.H././.!.J.j.h.H.w.Z d p h g h h j d K.;X/.8.j.h.g.q.j.l.j./.j.j.h.H.S.d k S d.0.d.d.0.0.0.d.d.d.g.d.d.g.d.w.0.k S.0.w.B.w.w.d.Z k l 6.x.c.c.c.7.6.6.6.6.6.6.6.8.f 6.8.f 8.8.f 8.Z w.G S C o.a f f d.f.q.k./.h.S.P $ B.F.e.F.G.G.A p p p p d d i }.[.# g # @ & + & & & & + & - & & & 9 q B B B B B B B B t 0 9 9 t 9   + 9 9 + t + + t t t 9 t w 9 6 ",
"q q q q q q q q t q q t 9 + + + t t t t t t t B t t B B B B B B ~ ^ n V n n B ; & | n * s $ ;X;X$ m A A A A L O.W.:XmXS d ;XxXxXcX'.{.cXcX}.f f l.x.x.x.x.c.c.a.a.c.c.x.p.9.9.9.x.x.c.c.c.c.c.c.c.c.c.c.x.x.x.~.8.q.J.j.j.h.J.J.~.j.J.J.f.d.L b V v v b h d l f.:XJ.g.h.j.l.q./.x.j.j.h.`.f.k d S d.d.d.g.0.d.d.d.w.d.w.0.0.0.0.Z B.q.8.8.q.0.0.d.Z S 0.l f t.(.c.c.c.x.p.9.9.9.t.9.t.t.6.h.t.h.h.h.h.h.h.D.f.0.Z f k G.f.D.S.G.K.G.K.S.S S.W.K.Q.Q.Z.O.V v g v * 0 = N.W.a = * ; & 9 + + 9 9 9 9 9 9 9 6 6 6 6 6 w w 9 9 9 0 0 9 9 9 9 9 6 > > > > , , w > > > O + + + + + O O 9 9 9 9 w , , , > 6 > 6 7 7 7 > , , w U r r r w > > > 6 6 6 > > 9 > > w > O 6 > R R R R R R R R R R R R t r r r w r w 9 > O > > > > > O + 9 t w 9 w w w t 9 t } t + 9 + > + + + + - + - - + 9 - + & + @ 9 B B t B B B B B B B B & & @ . . . @ . @ @ & 0 B V B n n n V | v # & m A -XA $ A S.F C h k l d 8.8.f 6.bXbXl.f /.j.t.c.a.c.x.x.x.x.x.x.x.l.8.8.9.t.x.x.x.x.x.x.x.x.x.x.x.x.j.j.K.l J.K.h.h.j.H.!./././.D.f.d.C h b g g g m p s K.}.J.q.r./.l.q.uXx.x.x.~.H.G.w.d S d.d.d.d.d.0.d.0.d.d.d.0.0.f.d.0.0.f.d.d.0.0.e.n.r.0.S k l l x.(.c.c.p.p.9.9.t.t.t.t.t.8.8.k.t.h.j.k.k.h.D.h.f.S O.a 8.J.J.`.`./.`.K.[.S.p Y.;X;X`.H.B.S j j j g = p i :X[.$ = ; & @ & & 0 B B q q q q q q t B J J B B B B B B B t 0 t [ t   9 t y 9 t 9 + t t y 9 9 > + + ",
"q q q q q q q q q q t t 9 + o + t B t t n n n n n B B B n B V V ~ B n m v v B & & ^ V v d $ }.{.$ _ _ _ _ ^ F _ b F *XA k S.d S k k P k g.mXk.l l.j.x.x.c.c.c.<Xa.c.c.c.c.x.u.p.p.x.c.c.c.c.c.c.c.a.a.c.x.x.x.x.q.l.~.t.q.q.t.t.q.q.q.g.e.d.G g B n v g g j d d S }.{.g.8.l.l.(.(.t.j.8.K.S i j d.g.d.d.w.w.0.w.w.w.w.0.q.q.q.q.0.h.q.t.l.h.q.g.0.k w.k 0.6.8.^.c.c.c.x.x.x.j.j.x.p.p.t.9.~.~.~.~.~.~.~.~.~.~.t.q.8.e.cXe.e.r.e.0.Z S k p h S A A b b b m m v v B v p N.Q.p g m n n 0 & & t t y t r q w r r r w r r r q q n n B t y y w w > > 6 > , w w w 3 > > O O O O O O O > 9 w w w w w w w O 6 6 6 7 r 7 < w w w U r r w w w w w w w w w w w w , r > X > > > > > > > > > > > > < O O O O O < > < < O O > 1 O > O + + 9 q 9 9 q 9 9 q 9 t } t o + o + o o + @ @   @ @ @ +   @ + . @ 0 B B 0 n n n n B B B n & @ . @ @ . . & & - n V V n n n n o.| 0 & 0 n V A -XL i h A C s p S.K.f.g.k.6.cXnX8.l 8.l.j.c.c.a.a.z.v.c.c.c.c.~.x.9.7.p.x.x.c.x.x.x.x.x.x.x.x.x.x.j.j.j.f h.h.g.q.q.q.q.q.q.q.g.f.S.A h m g g g A m p d g./.{.J.q.8.t.{.(.x.x.J.D.w.s d d.g.d.d.d.d.d.d.d.d.d.d.d.0.0.0.g.w.S g.P f.q.q.e.r.r.0.k l f x.(.c.c.c.x.p.p.p.p.p.p.j.9.t.~.~.~.^.x.v.v.v.x.j.q.L i }.xXZ H k f f h a : # A H C D D G P K J J q - : $ }.d.= g $.0 ; & % 0 B J J J B J J B B B B B B B B B B B B B B t } y   9 t t 9 t 9 9 9 t y 9 9 + > > ",
"q q q q q q q q 0 q t t 9 +   + q 0 0 0 n n n n n n n n n n V V ^ ^ n m m m m & 2 ^ ^ F S i {.}.i _ ' _ ' ) _ _ O.G C i k k S P L A P k l mX8.f q.t.x.c.c.c.<X<X,X<Xc.c.6Xc.u.c.c.c.c.c.c.c.c.c.c.a.a.a.x.x.p.x.8.j.~.9.q.q.t.t.t.q.q.f.f.d.S h v n n v g h j k k i f.xX{.j.9.x.'.t././.g.p p h d.g.g.g.w.0.0.w.w.w.e.g.e.f.f.e.f.8.q.q.8.8.q.0.S f.K.k r.8.8.~.c.c.x.p.p.t.j.x.x.p.p.p.9.~.~.~.c.c.^.x.~.~.~.~.t.6.t.NXy.q.8.r.w.S G A h k G A L F F G K K o.K o.b p G S.p A K J B B 2 * B t t ~ ! ! R ! ! R ! R ! M M n n n n t y y y 9 > > > , w w w w w w 6 O O O O O O > > 9 9 w w w w w w O > 6 6 7 w , < U U w w w w w w w w r r r w w w w w w r > X > O O O O O O O O O O O O O O < > > O O > 9 9 w 9 9 9 9 + O 9 q w 9 9 q 9 9 q 9 q } t X + o 1 + 1 9 9 - @ u 9 - 9 & 9 & . . 0 B B B n n n B B B n n & . . & - & - 0 n B V V V n V | V V n & * V | m A }.d.s A h A L }.}.f.q.6.9.8.MX{.d l f q.k.p.c.a.a.a.z.c.z.c.c.x.x.t.9.x.p.u.c.x.x.x.x.x.x.x.x.x.x.j.j.j.l h.h.q.q.q.q.q.q.q.g.f.S.S.A a h g g v g h k k d l q.;X`.~.9.x.cX9.x./.F.C d d d.0.0.g.g.g.d.d.d.d.d.f.d.0.0.0.f.e.0.8.8.q.r.q.q.e.`.0.k l f x.c.c.c.p.p.p.p.p.p.p.p.x.9.t.^.^.c.c.c.v.v.c.x.x.l.g.i '.xXk S G w.` N.m m p m F D ` G C G P K J J 5.q d {.d.h P $.* @ 0 & 2 V V B J J J J B B B B B B B B B B B B B B t t 9   9 y t 9 t t t y y y 9 9 6 9 y ",
"q q q q t t t q q t t t 9 @   + n B n n n B B n n n n n n n V | | | B m m m V = 0 | | G d.l cX{.i G G H H H b.w.c f.0.Z f.S f.S 0.Z 0.g.h.bX8.8.t.t.p.c.c.c.c.<X<X<X,Xc.2Xa.u.c.c.c.<X<Xc.c.c.c.c.c.c.c.x.x.c.^.8.j.~.t.h.h.h.h.h.D.h.h.h.f.S h m m n v h h k S S l d f }.xX(./.cX~.t./.S p s a d.0.0.0.0.g.g.g.q.e.q.q.q.q.q.q.q.q.t.8.x.9.q.q.S K.:Xl Z 6.8.^.6Xc.a.p.p.p.x.x.p.p.p.p.9.~.x.c.c.c.c.x.x.x.~.x.j.f h.bXr.q.f.0.S S G S C C S S G G G F A A F m K m s N.K.A K V V B n * * n q q t B B B ! ! ! ! ! ! B B B B B B q y y y 9 > > > w w w w w w w 9 O O O O O O > > w w w w w w w w > > 6 w 7 > , w T U U U w w r w r U U U U r w w w w r R w < , > 9 9 9 9 9 w w w 9 9 9 w w r t R r r r t t r w 9 w w > + q t 9 9 9 w 9 9 q 9 q } t o > + q 9 9 9 y 9 + 9 t y t 0 t 0 . . 0 B B B n n B B n n n n * . . 0 B B B B V V B n n B B V V * # v V B n F j }.d.p S k S.[.S.0.d 8.q.l.{.GXj.f 8.f h.t.p.a.a.a.z.c.c.c.c.c.c.v.u.u.c.p.p.c.c.c.c.x.x.x.x.x.x.x.x.j.~.8.J.~.t.t.t.h.h.h.h.D.S.S.S.C s m b m m g h k k l f i f /.bXxX9.uX(.k.h.Z i p s d.0.f.w.w.w.d.d.d.d.d.0.0.w.f.f.r.q.D.q./.q.8.t.8.F.:XS k Z 8.x.^.c.c.a.a.p.p.p.p.p.p.x.9.p.^.^.c.c.c.c.v.~.x.x.j.f.i {.{.q.g.g.g.Z C d.A h b L O.N.Z Z 0.G S F o.K m i cX}.k P K n & ^ 1 0 V B n J J J J V V V V V J V B B B n B n B B t 9   9 t t t t t t 9 9 y 9 9 9 y t ",
"q q q q t q q q B q 9 9 +   + & B B n n n n n n n n n n n B V | ^ V n m b b m = 2 | ^ b l f cX(.i S G H G G w.Z w.r.0.0.g.l S d.0.h.q.8.q.bXx.6.t.t.p.x.c.c.c.c.<X<X<X<X<Xi.u.c.a.,X,X,X<Xc.z.a.c.a.a.a.x.p.a.x.7.x.~.t.h.h.h.h.e.D.f.f.f.g.k h A b g b m A A S d.Z 0.l f 8.6.i (.cX!.D.k b a a d.g.0.g.g.g.g.g.g.g.q.q.q.q.q.q.t.8.7.~.nX(.8.g.Z f.G.k 0.8.8.^.6X<Xa.a.x.x.x.p.p.p.p.p.u.c.c.c.c.c.c.c.v.v.x.x.~.6.j.cX0.0.f.0.0.G w.d.d.G S S S S L L G G L L A A s d.W.G K n B B B a a V n q n B B B B B ~ B B B B B t B B t t q t y 9 + > 9 w w w w w w w 9 > O O O < > > 1 w w w w w w 3 w > > 6 w 7 < , R U U U U w w r U U U U T U r w w w w r R w < w w 9 9 9 9 w w w w w w w w w w r r R R r r w w w w w w + + t t 9 q 9 w 9 9 q 9 q } t + 9 9 t 9 9 9 9 - @ - 0 9 0 9 q 9 . + 0 B B B B B n n n n n n ; @ . ; B B B B B n n n B V B n v * 0 V V n n V s }.d.i S.S.S.S.k S h.h.j.9.bXGXg.d k S f.q.p.p.a.a.c.c.c.c.c.c.c.c.p.u.a.a.a.c.c.c.c.c.x.x.p.p.x.x.t.t.x.6.j.j.t.t.j.h.h.h.g.g.f.f.f.k h A b b b b A C C 0.B.B.l f 6.9.f 9.bX/.f.s # a h d.0.f.e.e.e.d.e.e.g.g.q.g.q.r.q.e.e.8.x.vXuXt.8.l d.Q.k k r.6.x.^.<Xc.a.a.p.p.x.x.x.x.x.9.p.^.6Xc.c.c.c.c.^.~.~.x.h.d uX(.8.S l g.w.w.Z S d.S F b G G w.w.0.S G L O.A i xX`.k L m o.| | & 2 n 2 & n B J J J J J B B B J V B B B B n B B t 9   y y t t 9 t t 9 9 9 9 9 w t t ",
"q q q q q q t t B 9 + o @   + & n n n n n n n n n n n n n B V V | ^ m m A A V = 0 +.o.F S 6.vX{.$ J K m K G G C w.S 0.Z A N.G A 0.0.0.q.l.bXt.6.t.t.p.p.x.c.c.c.<X<X<X<Xc.i.i.c.,X,X<X1X<X<X<Xc.c.c.a.a.x.x.c.^.9.x.~.9.j.f.f.h.f.D.D.f.D.f.l k C b b F G G w.w.b.B.S.0.q.h.q.t.f {.cX}.C s z b d.d.0.0.g.g.g.q.e.e.e.e.e.e.e.t.8.8.9.uXvX^.6.8.l l k l q.8.9.^.<X<Xa.a.a.p.p.p.a.x.x.i.u.c.c.c.c.c.c.c.v.v.x.x.j.f l.xXq.q.g.q.0.w.0.w.d.0.S S G S G G S S Z A P A d 0.K.S K J V V F z a V J n n n n J J J B t t t t t t t t t t t t t 9 > > 9 w w w w w w w w 9 > < > > 1 w w w w 3 3 3 3 3 , > > > > > > w R w w w w w w w w R Y T U U w w w w w r R w < w w w w w w w w w w w w w w w w w w r w w 9 9 9 w q w q > + t t 9 t w w w w q 9 q } t O 9 9 t 9 9 9 t 9 + 9 t 0 t q 0 9 + & q B B B n n n n B n n n * @ . @ ; n B n n n n B V | B v . 2 V B n n * # $ }.g.j [.K.S s S.D.J.l.x.x.nXMXf S p d K.D.9.^.a.a.c.c.c.c.c.c.c.i.u.i.a.a.a.c.<Xc.c.c.c.x.x.p.x.x.x.j.x.8.~.x.t.t.t.j.h.h.h.D.f.f.f.l h C b A G C C L N.d.0.0.D.D.q.9.9.f /.cX}.L z v h d.d.g.e.e.e.e.e.g.g.g.e.h.e.r.r.t.q.7.7XvXuXt.f l A p k k 8.6.x.6X<Xc.a.a.p.p.x.x.x.x.x.9.p.c.c.c.<Xc.c.c.^.x.c.x.h.f uXuXl g.P S H A w.0.d.S O.P L G L 0.0.0.w.w.G Z f xXK.k S.b J | | % 2 n * # v n B J J J J B B B V V B B B B n B t t 9   9 9 9 y 9 9 9 9 9 9 9 9 t R R ",
"q q q q q q t q q & @ @ @ @ + & n n n n n n n n n n n n B V V o.^ V m m A m V = M ^ V F 0.8.cX(.$ J J m K K O.G G G S N.A G O.L 0.g.g.g.8.MXt.8.t.t.p.p.x.x.c.c.<X,X<X<Xa.i.a.a.,X,X1X1X1X1X<X<Xc.c.a.a.p.a.a.^.9.x.x.t.J.h.h.D.f.D.f.g.D.g.k s h H N.N.N.N.B.B.N.S f.B.f.h.h.k.8.f h.B.k s a a d.0.0.q.q.q.q.q.q.t.t.t.h.h.h.j.8.x.uXcX6.6.8.8.l 0.S 0.8.6.9.(.<X<X<Xz.a.a.x.c.c.c.c.u.u.c.c.c.c.c.c.c.c.c.v.x.x.8.l.cXl.q.8.q.g.0.0.w.f.0.S w.S S S S 0.0.0.S P P d d.`.Z A K V V F a a m n n n n n J J J t t t t R R R R R R t t t t 9 > > 9 w w w w w w w w w > > > 3 w w w w w w w w w w w < 6 6 > > r R U w w w w w w w U R U U w w 3 3 , w w r R w < w w 9 9 9 w w w w w w w w w w w w w w w r r w w w w w t 1 > t t 9 t w q w w q w t } q + w 9 t 9 9 0 y 9 + 9 y 9 y 9 0 9 + & 0 B B B B B n n B n n n * & @ . & n B B n B n n n n * # V B v * & & * v i }.f.d W.L L W.f.D.g.g.8.8.x.x.f l C C e.J.p.p.a.c.c.c.c.c.c.c.c.a.i.a.a.a.c.c.2X2X<X<Xc.c.x.x.x.x.x.x.x.9.~.x.t.t.t.j.h.h.f.f.J.f.f.Z k C C L N.S.N.w.d.f.f.f.e.0.l.l.l.8.f f.W.A = = = N.f.g.e.q.t.t.t.t.t.q.q.8.t./.x.6.9.(.vXu.6.f S S m A A Z 8.6.x.6X<X<Xz.x.x.x.v.v.x.x.x.9.u.c.c.c.c.c.c.c.^.c.c.x.J.f (.cXd f.P P L L d.S d.A L A L L P S 0.w.w.w.w.r.i cX/.l L A O.| o.& 0 ^ 0 & n V V J K K J V B V B B B B B B B B t t 9 @ 9 9 9 9 9 9 9 9 9 9 9 t R R t ",
"q q q q q q q q 0 & +   + + . & B n n n n n n n n n B V V V V o.V V V V V V B % n _ F H 0.6.cX(.$ m K F G L G G H G G G w.N.d.S d.S 0.0.8.mXk.8.t.t.t.p.p.x.x.x.c.c.<X<X,Xi.a.<X<X<X1X1X1X1X1X2Xc.c.z.2X7X7X7X7X7.x./.k.j.h.J.h.t.j.h.G.f.k C h G G w.w.w.e.g.g.f.f.f.g.e.e.f.e.e.h.e.l k Z C s Z h.q.8.x.x.v.(.9.9.9.x.6.x.MXnXiXnXpX9.8.6.0.f S k k 0.r.8.t.c.<X3Xc.c.c.x.c.z.c.c.c.u.u.6X^.6X^.c.c.c.c.^.x.x.x.8.k.bXq.q.q.q.0.0.q.e.e.e.e.e.0.0.0.0.S 0.0.w.S P d d.W.l P A A K V * * V m n n n n B J J J B B t t t t t R t t t t t 9 > 1 > w w w w w w w w w 7 w 7 w 7 w r w 7 w w w 7 w , , > < , w r U w w w w w w U U U U r r w w w w w w 3 U R w , w w w 9 w w w w w w 9 w w w w w w w 9 9 w w w w w w t q 1 + } t 9 q 0 q t 0 9 9 R } w + 9 t t t 9 y y - + & 9 q q y y - + @ B q B B t t B n n n B V ; @ @ @ & 0 0 V n n B q 9 9 0 n o.V m V V V V F j }.f.s [.K P S f f d i p d f f f f k S k.t.^.p.p.p.a.a.i.a.,Xc.c.u.i.a.a.a.a.c.<X<X1X1X<Xc.x.x.v.z.(.pX(.9.x.~.x.p.t.t.j.j.h.f.f.G.d.k A Z A N.d.d.w.d.g.g.e.f.g.g.g.g.h.h.q.0.f s h s p G S.0.g.q.l.9.u.u.9.l.l.l.6.nXnXpXvXnXl.f 0.S A A a F k S q.f x.7X<X<Xz.z.x.x.x.x.a.a.v.x.u.c.c.c.c.c.c.c.^.x.c.x.H.f {.uXf 0.f.S A L G 0.L L L L L L S S w.w.w.b.b.Z d xX`.k L G K o.V = * V V n m V V V J | | V V J B B B B B B B B 5.t 9 + - 9 9 9 9 9 9 9 y t t t y y y ",
"q q q q q q q q t 9 & @ o + . & B n n n n n n n n n n V V V | o.V m V m B V n & n _ G G 0.6.cX}.$ m L S G w.w.G S.` G w.d.w.w.g.0.S d.g.q.MXh.6.t.t.t.p.p.p.c.c.c.<X<X<X,X,X,X,X,X3X1X1X4X4X8X1Xu.u.c.6X7Xc.9.7.6.x./.l.h.h.J.h.t.~.q.f.K.S h G G G w.w.e.g.g.g.g.d.g.g.e.f.f.f.D.0.w.B.S.S.d.d.Z 0.l ~.uXnXMX(.9.u.7.7.x.(.uXuXnXpX9.f f 0.S P h G S Z q.8.6.(.1X,Xi.a.c.c.a.a.i.a.z.z.u.c.6X^.^.c.c.c.c.~.~.x.(.6.8.cXq.q.q.q.0.0.q.e.e.e.e.w.w.0.S S S w.w.G S S p g.W.l d.S A K J ; * V V m n n B B B B B B B B t t t t R t t t t t w 1 w > w w w w w w w w w w 7 7 7 7 r r r r w r w r 7 7 , < < , w w U w w w w w w w U w r w w w w w w w w w Y R w > 3 w w w w w w w w w w w 9 9 w w w w w w r r r r q w q w > O } t 9 0 9 0 0 9 9 t t } t + 9 y 9 0 9 y 0 - @ @ - 0 y y q - @ @ B q B B t q q n V V B n ; @ + @ + & & 0 = = ; ; 0 t B V m m m F F F V m 0.{.g.h E.K I i 8.t.F.`.K.`.uXuX{.l.f r.~.p.x.9.p.p.a.a.z.<X<X<Xv.u.i.a.,X,Xa.c.,X<X1X1X<Xa.t.t.7X(.v.l.8.f x.x.x.x.x.x.j.k.h.J.f.S.S s k P w.w.d.d.w.e.e.e.e.f.g.g.g.g.h.f.e.0.B.d.N.N.C C d.0.8.{.nXvXaXz.u.9.8.8.k.vXvXnXnXv.f S G k A G N.C S l 8.8.v.c.a.<Xa.i.x.x.p.a.a.a.v.9.x.c.c.6X6Xc.^.c.c.v.v.x.~.f uX{.l 0.l w.S.S w.w.w.0.d.d.w.L S S G w.G b.w.Z d cX`.k w.G G K | * * J J n m V V V J | | J B V J B J B J J B B t t 9 + u 9 - 9 9 9 9 9 y y t t t y y ",
"q q q q t t q q q 9 1 @ @ + @ 1 B B n B n n n n B n n n B V | | V V V m B V n % n o.G S 0.6.cX}.$ m K A G G G G S A S G w.w.0.0.e.0.q.8.8.MXl.6.t.p.p.p.p.p.a.c.c.<X<X,X,X,X<X<X,X3X1X4X4XqX1X<X9.9.8.8.8.8.8.8.8.j./.k.j.h.J.h.t.j.q.f.S.k h S G d.d.d.f.g.g.g.g.d.g.g.f.f.f.f.e.0.Z Z S w.N.S.N.d.l 6.6.u.vXBXiX7XcXvXuXj.6.f 7.9.6.j.r.w.s H D G Z f q.r.9.9X1X1X<Xz.c.c.a.a.c.z.i.c.u.z.0Xc.c.c.c.c.c.c.x.x.x.9.k.xX8.g.f.8.g.d.g.w.w.w.w.w.L P P P P L G G S S p g.W.k P S A F V ; & B V n V n n n B B B B B B t t t R R t t t t t 9 1 w 1 w w w w w w w w r r r r w 7 7 w r w 7 7 r r r w < < > , w r w w w w w w w w , , , > > 1 w 3 w w w w R R 1 > w r w 9 9 9 9 9 9 9 w w 9 9 w w w q 9 9 w w w 9 9 9 w w 1 + } t 9 q t 0 9 9 9 t R } y + 9 y 9 q 9 y q - @ @ + 9 y q q - & @ B q B B q B V B n v v n ; @ @ @ @ + @ & * * g n V V V V F F F A A F J A q.xXD.s F p S K.'.'.{.'.(.2XaXGXGX{.k f x.u.a.x.p.p.a.a.<X<X<X<Xa.i.i.,X,X,X<X<Xz.<X1X1Xi.9.8.8.f 6.8.f l l /./.k.k.l.l.k.h.D.D.K.g.S k S d.d.w.d.w.w.e.g.e.f.f.g.g.g.g.f.f.e.w.Z k G S.d.S S r.8.|.2XBXBXaX3Xv.(.cX'.f f 8.8.8.0.S S d.w.C C S l l 8.8.(.7X2Xc.a.a.c.c.a.a.a.c.c.u.u.8Xz.<Xz.c.<Xc.c.c.c.c.~.f uXuX6.h.D.q.0.0.w.w.0.0.0.0.d.0.P S P L G L L Z d xX`.l d.L G K ^ * ; J J V J J V V J | | J B B B B B B B B B B B t 9 + - 9 - 9 9 9 9 y y y y y 9 9 9 ",
"t t q t t t t q t q 0 + o + @ & B B n B n B n n n n n n B V | V V V V m B V n % n o.K S 0.l cX/.# v F A G G G G G N.S.d.w.f.e.8.q.q.q.8.8.MXx.9.x.x.p.p.a.a.a.a.<X,X,X,X,X,X3X3X,X1X4X4X4X4X1Xi.9.q.8.8.r.0.0.q.6.j.(.x.x.j.J.j.j.h.H.K.l k d.L d.w.w.g.e.e.g.d.g.g.g.g.f.f.e.f.f.B.e.l d k w.S.N.S.K.g.x.6.6.pXnXVXvXx.6.8.8.8.6.6.7.6.8.8.Z r.r.f 8.9.7.7.u.i.<X1X2Xa.i.z.a.i.a.i.u.z.s.u.8X<Xc.c.c.c.c.c.v.x.x.8.q.cXk.q.g.g.g.d.d.d.w.w.w.d.L P P P P L G G G S p g.W.k P S A K J ; * V V V V B n n n B B B B B t t t t t t t t t t 9 > w > w w w w w w w w 7 7 7 7 7 7 7 7 7 7 7 w r r w 7 < < > w r r w w w w w w w w U w w w r r r r r r r Y R R w > w w w w w w w w w w w w w w w w w q w w r r r w w w q r 9 > } t 9 0 t 0 9 0 t } }  .9 + 9 t q t 9 0 0 - + @ + - y y y - & @ B B B B B n n m F F F m ; @ @ @ + + + 9 V m m V K K V m F F A A A F K l l.bXh.$ A Q.K.`./.j.x.9.9.s.sXVXpXk.d 0.^.a.a.c.p.a.a.,X,X,X<X<Xi.i.,X,X,X<X<X<X<X2X2X<Xu.9.8.q.q.r.l S l l K./.x.j.k.j.j.J.J.S.K.S k 0.f.d.w.f.w.w.e.e.e.e.f.f.g.g.g.g.e.f.f.f.f i s L S.S.f.0.8.6.f 9.nXnXBXnXcX6.f 8.f f l f 8.l f f f q.l 8.8.8.6.6.u.c.<X<X,Xa.i.a.a.a.a.a.z.c.7.iXaX,X<X<Xc.c.c.c.c.c.~.f (.pX8.r.q.q.0.g.w.w.0.0.0.0.d.d.d.S P L G L L k i xX/.l 0.S F K V = * J J V K K V V V J J J V J V V B B J J J J B t 9 + - 9 - 9 9 9 9 y y y 9 9 w w w ",
"9 9 9 9 0 0 0 9 0 q t & + +   & B B B B n n n n n n n n V | | V V V V m V V n = n o._ H 0.l cXK.# n F F G G G G G G G G 0.0.q.l.8.q.q.8.9.nX9.7.^.c.a.c.c.<X<X<X<X<X,X,X,X1X1X1X1X4X4X4X4X4X3Xi.9.9.t.q.0.0.0.8.6.x.(.x.p.p.x.j.k.g.J.f.l S S.w.w.w.w.w.w.w.g.g.g.g.g.g.g.g.g.f.B.f.f.B.0.d k w.N.d.g.f {.k.6.v.p.x.7.6.6.8./.'.uX7XpX(.uXuXuXuX6.c.7XaXaX8XpX3X1X,X<Xz.z.<X<X<X,X<Xa.<Xu.i.aXpXz.c.c.c.v.v.v.x.x.8.8.}.8.8.q.8.q.e.e.e.e.w.w.w.w.0.d.0.w.G w.G L S p d.W.k S S F K J * & B J B V B n n B B B B B t t t t t t t t t t t 9 > 1 > w w w w w r r r 7 7 w w r r r r r r r U U w 7 > < > > 9 w w w w w w w w w r Y R R R R R R R R R R R } R 1 > 9 w w w w w w w w w 9 w w w w w w w w w w w w w w w w r 1 O } t 9 9 9 9 0 t } } } } 6 O 9 9 9 9 9 0 - & @ @ @ + + + - @ @ @ B B B n n V F C b b b v ; @ @ @ + u + 0 V m m m F F F A A A A P L L A l x.iX8.d K.[.f.g.h.q.q.v.9.v.HX2Xf f k e.(.c.c.i.c.c.<X<X,X,X<X,Xi.,X,X,X<X1X<X<X<X<X<Xz.u.7.8.8.q.l f 0.0.Z /.{.x.x.x.x.x.k.j.J.f.l l g.g.0.0.d.w.w.e.e.e.e.e.f.g.g.g.g.f.f.f.f.d.k s h Z d.B.f.8.~.8.8.{.v.v.9.f f 8.j.uXpXpXpXuXuXuXuX(.7.c.uXpXpXpXpX8X3X,X,X,X,Xa.z.a.<X<Xa.i.i.7.<XBX,X,X3Xz.z.c.v.v.x.J.f {.(.l h.0.0.g.d.0.e.0.0.0.0.d.d.d.S P P P L P k i cX`.l 0.S L K F = * V K V K J J V B V V B V J B B B B B B B B B t - @ + - 9 9 9 9 9 9 9 9 9 9 9 9 9 ",
"@ @ @ @ o o + + @ + 9 + + + @ & B B B B n n n n n n V n V | | V V V V V V F n = V o.G A S l xXk.# n F F G G G w.d.G w.S.f.0.8.l.q.9.9.9.9.nXu.p.^.c.a.a.6X<X<X<X1X1X1X1X1X1X1X1X1X4X4X4X4X4X1X,Xi.p.9.8.8.8.q.t.6.x.6Xa.a.a.c.x.j.J.g.k g.S.0.w.w.e.e.e.w.w.d.d.f.f.g.g.g.f.f.f.e.e.f.B.f.S l l w.f.J./.{.8.x.{.{.(.(.'.j./.bX(.(.7XpXpX7X7XiXBXu.aXaXaXaXaXzXzXaXi.,X8X8X8X8X8X8X8X8X8Xz.i.aXaX<X<X<Xc.c.c.c.v.(.9.7.'.9.8.l.k.q.e.e.e.n.n.e.e.e.w.0.0.w.w.w.w.G S d f.`.k S S F K J * & B J B V B n n B B n n B B B B ~ ~ t t t t t t 9 9 9 > 3 w w w w w w w U U U T T T T T T T T U r 7 > < O > > 9 w w w w w w w w w U Y R r r r w w w w w w w w 9 O > w w 9 9 9 w w w w w w w w w w w w w w w w w w w w w q t 9 + } t w 9 t t } } } } y 9 + X + + @ + & & @ @ @ @ @ @ @ @ & @ @ @ B B B n b b b h C L O.O.; # @ @ @ + + 9 B m m m m m A P A A A A k k k l {.cX8.d S.G.0.J.f.h.j.k.9.MXvX6.8.8.Z r.~.c.<X<X<X<X1X1X1X1X1X1X,X,X<X1X1X1X1X<X3X<X,Xz.i.u.9.q.r.r.r.q.r.f x.x.v.u.p.u.x.x.j.j.r.0.f.0.0.g.e.0.e.e.e.g.e.e.e.f.g.g.f.f.f.f.f.g.f.f.0.k k 0.f.D.J.`.f 8.l.{.(.'.xX/.j./.pX(.2X2X2X7X9XvXvXs.vXnXaXaXvXvXBXaX,X,X1X1X2X8X8X8X8X8X0X8Xs.,XaXaX,X3X3Xc.v.v.v.v./.f 9.v.f 0.q.0.g.d.w.w.w.0.0.g.d.d.P P P P P P P k i cX}.l d.S G K F = = V K V K F K V V B n n B J B B B B B B B B B t 9 + - 9 9 y y y y t y y y y 9 9 y ",
"+ + o         @   @ + @ @ + + - B n B n n n n n n V n n n V | V V V V m V F n = V o._ A d.l xXf.# n K K L L G d.w.w.w.0.Z l 8.8.8.8.8.7.9.nX9.p.c.a.a.a.<X,X,X1X1X4X4XwXwX4X4X4X4X4X4X5XqXqX4X1X1X7X6Xx.l.9.8.7.7.c.8X8X8X8X7X(./.K.0.l G.K.0.f.e.e.e.e.e.d.d.g.g.f.f.f.f.f.f.f.f.D.S.w.d.G.D.0.f.q.q./.j.d 8.9.8.t.8.x.~.6.8.(.^.v.v.v.v.c.v.iX<XpX2Xz.3X3X3XaXaXi.<XaXpXaX8X8X1X8X<X<Xi.s.8XpX<X,X,Xi.a.c.a.a.c.6.p.GXMX9Xt.9.q.t.e.e.n.n.e.e.e.g.q.q.w.w.w.w.G A i S.}.l S S P K J * & V J J V V V B B n 0 0 B t t B ! ~ B t t t t t 9 1 9 1 3 , > > > > > > w w w w r r r r w w w , , < < O O O > 9 9 9 9 9 9 9 w w w w w , O O O O O O O O X X O O X > q w w w w w w w q r t t q w w r t R } } } } ~ R R R q t 9 o } ~ t t } J ~ t t 9 + O O X 9 + + 9 & - & - - - - - - - - + @ . n n n n K h h L [.:X*XS.; # & @ @ + + 9 J J J J m J A A A A L d.0.0.e.J.NXcXS # h G.`.~.J././.9.cXGX9.8.8.8.l r.^.c.<X,X<X<X1X1X1X1X1X8X,X<X<X1X1X1X1X1X1X4X4X1X2X2Xc.x.9.q.8.8.8.6.(.pXpX7X2X7X9X(.x.q.l D.J.0.q.f.g.q.g.g.e.f.e.e.f.f.g.g.f.h.h.f.f.g.d.S.S.f.S.f.f.f.`.D.l l k.l.9.u.x.t.l.j./.^.(.c.c.^.c.c.iX7XaXi.z.z.z.u.8XvXi.i.8X4X8X8X8X8X8X8X<X2Xs.i.1XvX,X,X,Xi.i.u.i.c.~.f uXGXbX/.t.h.g.l d.d.d.d.d.d.d.L d.P P L P P P k i cX}.l d.S G K K = = V K F K F J V V V n 0 0 n V V J J B B B J q q - + - 9 9 9 9 9 9 9 9 9 9 9 } } } ",
"t t q 9 +   + + 9 0 q + + +   & n n B n n n n n n n n 0 0 n V V V V V V V F B = V o.F F d.S ;Xg.= n o.K L L d.d.N.K.G.0.f.{.cXcXcXcXcXcXiXGXp.c.c.c.a.a.,X,X,X1X1X4X4X4XwX4X4X4X4X5X5X5XqXqXqXqX1X1X<Xu.9.8.9.9.7.2XvXaXvXaXiXuXJ.l f l 0.f.0.e.e.e.e.e.e.g.g.g.g.f.f.f.f.f.f.f.e.g.f.B.f.f.f.D.h.q.f q.8.x.x.x.x.x.x.x.x.9.9.~./.v.(.v.(.(.x.pXiXu.z.<X2X3X3XaX8Xs.3X3X,X3X3X,X,Xi.i.i.i.i.aXvXvXaXaXiXiXiXiXiXiXu.6.(.uXnXcXt.t.e.e.f.B.f.f.f.g.g.0.w.w.w.w.G A A i S.}.S P P P K J * & V J V V V V V B n ; & 0 0 9 0 q q q q 9 9 y w > > 9 > , , > > > < < < < < < < < < < < < < < < < < < O O O > > > 9 6 9 > > 6 6 > < O X O O O O O O O O O O O O o 1 q w t t R R R R ~ ~ } R t r r t ~ } ~ ~ ~ R R R t t 9 q 1   ~ R t t t 0 1 + @ @ + + + + t ~ B } B t q n B B t t t t q - & @ n n B V m S.[.:X-XQ.b . = # = & & & + 9 } J J J J K F A A S.-X:X:X;X;XbXbXL # g a d e.H./.`.h.'.IXuXf 6.8.8.f t.7Xa.,X<X<X<X1X1X4X4X4X4X<X<X1X1X1X1X1X1X4X4X4X1X1X2X6X^.9.8.8.q.9.7.uXiXaXaXaXiXuX/.8.f f D.D.q.e.e.0.f.e.e.e.f.f.f.f.f.f.g.h.h.h.h.f.g.f.g.d.d.f.0.l l 6.8.h.j.x.x.x.c.p.t.8.8.H./.~.(.~.c.7Xc.c.8Xz.z.<X<X2Xz.pXaXs.,X3X3X,X,Xz.i.i.i.i.u.s.a.aXaXaXaXaXaXaXiXiXxXCX6.6.iXbXMX'.8.0.f.d.d.d.d.d.d.d.d.L L L L P P P k i cX}.l d.S G K o.* * V K F K F V V J V n * * ; * * - - & & & & - - + @ + - + - - u - + + + 9 9 t t t ",
"t q q 9     1 t 9 0 0 & o @ + & & = # & & & = = & & = = = * n o.o.V V m F m F # B o.F F G s :XP = * v g s h k d f.-X`.f f {.bXbXbXnXnXMXMXnX9.c.^.a.a.a.,X<X,X1X1X4X5X4XwX4X5X5X5XrXrXrXrXqXqX4X1X1X<Xv.9.8.8.9.9.9.u.c.v.x.9.8.f l k f 0.w.0.f.e.e.e.e.f.f.g.d.e.e.f.f.f.f.f.f.f.e.J.g.g.G.f.h.l q.~./.(.(.(.(.(.7X(.'.'.(.k.6.'.(.^.(.(.x.^.^.iXc.c.6X<X<XpXaXs.i.3X3X3X,X3X,X,X,Xi.i.a.i.z.z.2XiXiX9XuXuX(.(.x.l.f f f f f f f k k A A k h k k k k k j h h a a C $ S.}.k d.A A F J ; ; V V m m m V V V n B n 0 0 0 9 + + & > + + + + > 1 9 9 > > > > 6 w w 9 3 w > > w > < < > < O O < < > > O O O > > > > > > > > > > > < O O O O O O O O O O O O O o O > O 1 1 1 9 9 9 9 9 > > + O O O O O > O O o O O + + o o o + + + + + @   + + + + X 6 t } B 9 1 t B B 0 0 q q q q q q q 0 @ . & & & * = g g = # = = # = = = # = = & & B B n K m g P m g O.Q.S.G 0.H.;Xl # : : = j i d s s k 0.q.l j l 8.6.8.t.6X,X,X,X,X<X1X4X4X4X4XqX1X1X1X4X4X4XwX5X4X4X4X1X1X1X<X^.t.8.8.8.8.8.9.l.uX(.(.x.8.f j k l r.e.f.e.q.e.f.e.f.f.f.f.f.f.f.f.f.h.h.h.f.f.D.g.G.f.g.f.l 8./.(.(.(.(.(.(.6X6X7X(.'.r.w.`.).'.~.(.c.(.c.6X2Xc.<Xz.<Xu.nXi.z.<X,X3X3X,Xi.z.z.i.i.u.u.u.6X8X8XaXaXpXpXpXuX(.H.y.6.f f i f l i k h h A h A h k h k h h h s p p s d {.K.l d.d.A O.o.* * V o.F F F J V V V V V V V n n ; @ . @ & @ @ @ @ & + + @ @ + + + @ @ @ @ @ @ @ @ ",
"t t t 9 @ o 9 q t t t 9 + + + @ & & * & & & & ; 0 v v 0 ; v V o.V m V V F m b = V $.o.O.O.L :XA * * * p p d d d d d f f f f f f 6.6.f 6.6.9.f c.^.a.a.<X,X<X,X1X4XwXwXwXwX5X5X5XeXeXeXrXrX5X4XqX1X1X<Xv.9.9.q.q.9.9.9.7.6.6.f k k d 0.K.f.0.f.e.e.e.t.e.e.g.f.f.f.f.e.e.f.f.f.f.g.J.q.h.J.q.h.8.h.J./.(.(.(.^.7X^.6X(.(.(.(.x.q.x.(.^.~.^.(.^.^.c.a.c.^.c.7X8X6Xu.i.3XFXHX3X,X,Xi.s.i.c.a.a.i.u.u.s.7.9.9.7.6.8.8.f f l.q.l.g.q.0.0.k p h j j k k d d k j a g b a s p Q.}.l G L L o.o.; * V V J m m V V B n B n B B t 0 9 1 & + + + + + > 1 9 9 w w w > 9 w w w w w 3 3 w > < < < < < < < < O O > > > > > > > 6 > 6 > > > > > O O O O O O O O X O O O O o + 1 > O O O O O O O O O O O O + + + + > > O O > > > > 9 9 9 9 9 9 9 9 y 9 t 9 + + O 9 R t 9 + 9 B B B 0 q q q n n q q q 0 . . & & & & # # = = # # = = $ $ # $ * = # * # % * . # $ . = = = # . # $ i i p j : I : # h p g $ i f f 6.8.f f 6.f 9.6X,X,X,X,X,X1X4X4X5XqX5X4X4X5XwX4X5X5X4XqXqX4X4X8X8X2X(.t.8.8.8.q.6.8.8.6.8.8.8.d p m O.K.h.q.f.h.e.q.f.e.f.f.f.f.f.f.f.g.g.h.h.h.h.h.q.G.0.h.h.f 8./.(.^.^.(.(.(.(.^.^.^.^.'.!.q.J.'.~.~.(.v.c.c.2X2X<Xz.z.2X8X2Xi.<Xi.8XHXBX3X3Xz.u.z.z.u.a.p.u.u.s.s.s.s.7.9.7.7.q.f f 8.f l l d S i h g b g h h h s s s s h h s s s i {.:Xg.A L L A J * * V o.K F F F J V V V V V V B V n ; & @ @ @ @ @ & - - 9 - - - - - - - u - - + + u ",
"t t t 9 + + 0 t t t 0 1 + + + @ n V V n n v n | B B V B B B V V V m F F A F m a n B n b b h S.p * n m F S Z S g.B.0.r.e.h.q.t.t.9.9.9.9.9.9.6.c.^.a.a.a.,X<X<X1X1XwX4XrX5X5X5XeXeXrXrXeXeX4X4X1X1X1X<Xc.p.t.t.t.8.9.9.8.8.Z S S l k l S.K.D.0.f.e.t.t.t.e.e.g.f.h.f.e.e.f.h.h.f.h.q.h.h.q.h.q.f /./.(.(.(.c.^.(.^.^.^.^.(.(.(.x.7.(.9X(.c.7Xc.2Xc.z.c.<X8XiXpXa.i.,X5XHXHX5X3X3XaX3X<X<Xa.a.i.i.i.a.a.u.s.u.p.v.x.6.9.cX'.'././.`.`.g.k l k d d d d d f k h g b b $ p S [.K.S.L F F V * * V V V m m m m V n B n B B B B t 0 9 + + + + + > 1 9 9 9 9 9 6 9 w w w w r w w w > < < < > w w w w 3 9 > 6 6 6 6 9 9 9 9 9 9 9 w w > > O O > > > > > O > > > > O > w 9 w w w w w w w w 9 9 9 9 9 1 1 1 > > + > 9 9 9 9 w q 0 0 q q q t t 9 } t + 6 w t t 9 + + 0 ~ B q 0 q q n n n n q q - . @ 0 n n n | J K $.o.K $.Z.[.[.W.[.W.F = = ' ` V.C N.[.A p = & # # * = $ $ p $ # # # a b a s d (.nXBXBXBXnXpXx.f t.8X,X,X1X<X1X1X4X5X5X5X5X5X5X5X5X5X5X5X5X5X4X1X<X<Xc.z.v.j.q.q.8.g.8.8.8.8.6.l l C V B V Q.K.J.q.q.h.h.q.q.q.f.h.h.h.f.f.g.h.h.t.t.h.h.f.g.h.h.8.8.~.{./.^.^.^.(././._._._._.^.'.p.9.7Xc.(.(.c.c.c.2X<X2X2X<X2XaXi.i.<X,XaXIXVX3X,X3XsXu.z.z.c.c.c.c.c.a.i.i.u.u.u.p.t.6.x.pX{.{.{.`.cXZ h g g h h h s s s k C h b b b s i G.-X[.Q.P P m n = * V o.K K K F V V V V V V V V J V n ; & & @ @ @ & - - 0 9 - - - - 9 - - u u - - - ",
"t t t 9 + 9 t t 9 1 + + + + + + V J V B | n n V V V V V V V V V V V G F b F b b v v v v $ $ h h a V F L d.d.d.f.w.B.D.e.e.h.j.k.x.x.x.x.p.x.7.p.^.a.a.<X,X<X1X1X,X4XjX5XwXeXeX5XeXeXjXrX5X5X1X,X,X,X<Xa.p.p.t.t.t.x.~.~.e.0.Z k c Z f f S.G.g.g.q.e.t.t.h.h.g.e.h.e.e.f.h.D.h.h.q.h.h.q./.j.f ~.(.(.(.(.(.(.(.(.(.(.(.(.(.7X7X(.u.x.(.(.c.(.c.7X7Xc.a.<X8XiX8Xa.<X,X5XyXjX5X3XyXPXsXz.i.<X6Xa.i.i.i.i.s.i.6X6Xp.x.7.x.nXx.x.p.x.j.J.r.f l k d 0.g.J.l.f l S C h b b A p h k j s g g n 0 v V V m V V V m V n B B n B B B ~ B t 9 & + + + > 9 9 w w 9 9 6 9 w w w w r w w w > < > w w r r r r U Y w 9 9 9 9 9 9 w w w w 9 w w w > O O > > 9 9 9 9 9 9 9 1 + 1 w w q r r r r r w w w w w w w w 1 > 9 1 > > 9 9 q q w q 9 9 9 9 q q y - } t + 9 t t 9 + + 9 B } B 0 q q n n n n n q B 0 @ & n | V V n n n n q g m K A F O.A.L.F * = O.` H w.d.:X:XA # n X.$.o.K P P S S g.P h g 2 v x f x.aXzXVXFXVXBXnXv.9.<X,X1X1X1X1X4X4X5X5X5XeXeXeX5XeXeXeXeXeXeX5X1X<X<Xz.z.x.x.t.t.8.l.q.j.J.j.q.8.l Z F V n C D.K.D.q.f.h.g.t.t.q.h.h.h.f.f.h.h.h.h.h.h.h.h.h.H.8.f ~.'.~.(.^.(.^././.(._.^.^.9Xc.(.(.u.c.7Xv./.(.(.6X7Xz.2X2X2X2X<X,X,X<X,X3XjX5X5X3XzXPXsXz.z.i.a.a.p.a.i.i.a.i.z.a.c.p.f pXaX(./.~./.`.l k C h S L L S d.w.G S C D G D C S s p h g # # * ; = * V o.K K F F V V V V V V V n V J V n n ; & @ @ + & & & - & & - - - + + + + - - - ",
"t t B t 9 9 9 + + o   @ + + + & V B B n #.B n V V V B V V V V V V F F b C F F b V V ^ n = g b L F G A A w.g.q.r.0.e.f.h.t.q.t.t.j.9.t.x.p.(.u.x.^.a.a.<X,X1X1X1X,XjXIXkX5XeXdXdXfXdXjXrXeX5X4X,X1X1X<X<Xc.a.p.p.p.^.'.'./.~.t.r.Z f l Z k d.G.g.f.e.e.t.t.h.e.q.f.f.f.h.h.h.h.h.h.h.8.!.~.8.j.'.(.^.^.c.(.(.(.(.(.(.(.(.(.7X7X7Xv.7.x.(.'.(.uX(.v.p.u.c.c.z.z.c.<X,X5XwX5XdX3XyXKXgXz.,X<Xi.i.<Xi.i.<X8X0X6Xc.x.c.7.(.MXp.x.p.x.p.~.q.6.r.r.q.`.DXMXxXt.r.h.B.A.Z.#.L h h p A A b b V B V o.F V V V m m V n B B n B B B B B B t - + + + > 9 9 w w w 9 > 9 w w w w r w w r > < 1 r r w > > > > 1 w w w w w w w w w r w w w w w > < < > > > 9 w w 1 1 9 > O > w w 9 9 w w w w w w w w w w w 9 1 > 9 9 9 > 9 w y w 0 0 0 0 0 0 0 t t 9 } y + 9 t 9 + > 9 t ~ B 0 0 n n n n n n n n B 0 @ & n V n n n V n ; : v m V F G A C F m * * _ ` w.S l ;X:XA # n | o.O.L P g.K.MXDXDX:X= 0 n a D.(.z.i.3XaXVXBXGX(.u.<X1X1X,X1X1X4X4X5X5XeXrXdXeXdXdXdXeXeXeXeX5X1X<X<Xc.c.c.c.x.p.9.t.t./.'./.~.~.q.8.c D D k l f.K.J.q.8.h.l.l.e.e.h.h.h.h.h.q.q.h.J.j.h.q./.8.f j.(./.^.(.(.(.(.(.(.(.(.^.c.7Xc.(.7Xx.9.j././.'.xX9Xx.9.u.c.c.z.s.<X<X<X<X4X5X5X5X,XzXKXsXz.3X<X<Xc.i.i.,X0X6Xc.c.c.c.x.f iXpX9.j.x.x.q.q.d l d S D.g.0.f.f.d.w.w.N.N.O.F L L $ # * ; * & * @ ; V K F G F F V V V V V V V n B B V J B 0 @ & & & & & - & & - - - + & & + + - - - ",
"9 0 t B t 9 +   o     @ + + + & V B V B E.$.V F V V B B V V F F V F F A N.A F F F o.$.n * V F b a h G d.0.0.f.q.f.e.e.q.e.j.j.x.x.x.x.v.p.iXu.u.^.a.<X<X,X1X1X1XwX5XjX5XeXdXFXKXFXfXdXtXrX5XwX1X1X<X<X<X<Xc.a.a.u.c.7X7X(.(.'.'.D.Z k k k k d.S.J.D.h.t.t.t.h.f.f.f.f.f.f.f.f.h.q.h.j.j.8.j.'.(.(.^.^.(.(.(.(.(.(.(.(.(.(.7X6X7X9Xt.x.6.6.6.uX7Xu.u.c.a.i.a.a.,X1X3X5X5XdXdX3XyXKXyXi.3X3X<X,Xi.i.1X8X8X<Xz.z.c.c.7.7XnXu.c.a.p.p.~.t.6.8.f 6.j.t.p.t.t.t.e.r.Z G * # h L s L F L F o.V F o.V F V V V m V m B B B B B B B B B B 9 - + + > 9 9 w w w 9 > 6 w w 9 w r w w r 1 > w r w > O < > > 3 w w w w w w w w w r w w w w w > > > > > > > > > O O > > O > w w w w w w r r r r w w w w w w w w w w 9 9 9 w t w 0 9 0 q q t t t t y 5.9 u t t 9 9 w t t B q 0 B n n n B B B q n B 0 # & n V n n m V n & * n J m m F D b F o.J J V G N.s S ;Xk $ = V $.o.L d.g.k./.v.x.v./.P m 0 C D.x.c.2X<Xz.8XBXGXu.u.8X,X,X1X1X1X4X4X5X5XeXtXfXkXFXHXFXdXeXjXeX5X1X<X<Xz.c.c.c.c.c.p.t.9.~.(.'.9X'.(.~.h.r.l Z k f g.K.J.h.h.h.l.t.e.h.h.h.h.h.g.l.h.h.q.h.j.8.6.k.'.(.(.(.(.(.(.(.^.^.^.(.(.7Xc.6X7X^.(.~.h.f f 6.'.(.p.t.p.p.u.c.a.a.<X1X1X4X5XeX5X3XzXKXyX3X3Xz.<Xc.i.<XqX0X0Xc.v.z.c.x.f vXGX(.x.~.~.x.t.8.J.f q.}.8.q.q.e.0.d.d.N.G b h $ K b = v ; @ @ & = 0 J J F G F K J V V V V V V V V B B J V 0 # & @ & & & - & & - - - - - - - - - - - ",
"9 + - t 9 +     +     + + + + & B m B m E.o.m V V V V F F F F F F F V N.W.p C g b b V b = a m b a $ C S.0.0.h.h.h.D.J.h.D.J.j.9.x.p.p.u.9.nXu.u.<Xa.,X,X,X1X1X1X4X4XwX5XdXeXFXHXFXfXfXjXeX5XwX1X3X<X<X<X<X<Xa.a.u.c.2Xc.c.c.^.^./.H.Z f Z k k d.f.h.D.h.h.t.t.h.h.f.h.f.f.f.h.h.q./.j.f x.uXx.(.(.(.(.(.(.(.6X(.7X(.(.(.(.(.(.(.(.'.uX(.t.7.uX^.p.z.a.i.<X1X1X1X1XqX5XeXrXeX5XdXKXyXgXzX,X,X3X,X<X8X8Xz.z.2Xc.z.c.7.9XBXc.c.a.a.p.~.t.8.8.q.l.k.j.t.t.t.t.h.B.N.a a m O.S $ S S.O.F F V F K F F m V V m V V B B B B B B B B B B 9 - + + > 9 9 w w w 9 6 6 w w w w r r w r w 1 r w > < < 1 r r r w w w w w w w w w w r w w w w > > > 6 6 > > < O > > 1 > O > w w w w w w w w w w w w w w w r r t w t 9 9 9 t t w 9 9 0 0 0 0 0 0 y t t 9 u 5.R t t t t t q t n n n n n B B B B n 0 ; @ & n V V V V V n 0 0 V V m m F F F K J n n K n m p g.:Xk d p F O.N.B.j.x.^.(.x.c.v.v.K.p b c !.(.x.z.(.c.z.aXHX2Xs.<X,X1X1X1X1X4X5X5XeXeXfXdXfXFXKXFXdXeXdXrX5X4X1X<X<X<X<X<Xc.c.u.u.9.v.(.c.c.c.7X(.(.x.q.S l f f 0.J.J.l.h.h.t.t.h.h.h.h.f.h.h.h.t.h.j.h.f j.(.(.(.(.(.c.(.(.2X6X6X(.(.(.(.^.7X6X^.7X(.(.x.9.7.uX7Xu.p.p.c.i.<X<X,X1X1X4X4X5X5XeX3XzXKX3XFXaX3X<Xz.i.8XqX,X,Xz.z.z.c.c.6.vXHXBXc.u.^.(.x.x.cXk.~.bXq.j.k.l.q.e.d.S s p a g V * = ; @ & B & ; n J J K K F K J J J J V V V J V B B V B 0 @ @ @ @ & & - & & + + & + - - - & + + + ",
"+     + +     + +   @ + + o + & V V V m E.F m m N V F _ _ F F F F m b A.-X$ i $ a # v V v # O.Q.-Xk s d.0.q.h.q.f.e.t.h.j.h.j.x.x.x.x.x.v.GXz.i.<Xa.,X,X,X1X1X4X4XwXqX5XeXfXdXfXfXdXkXkXeX5X1X3X3X3X3X<X1X<X<Xa.i.c.2X2X2X2X2Xc.(./.`.h.k k k d 0.e.J.J.J.t.t.h.f.f.h.h.f.h.J.K.}.8.6.~.(.^.9X^.(.(.(.(.(.(.6X6X7X6X^.7X(.(.(.(.^.9X^.(.c.u.iX7Xu.a.a.,X,X,X,X4X4X5X5XeXdXdX5XgXKXsXFXFX,X1X3X,X3X8X<X,X<Xc.z.c.c.7.8XBXz.i.a.c.x.x.9.f f l.j.l.t.l.x.k.t.h.f.k p g L L k p A F F m V V o.o.F F F V V V V V V B n n B B B B B B 9 - + + > 9 9 w r r w 9 9 w w w w r r r r w w R 3 > < > w r r w w w w w w w w w w r r w w w w > > 9 w w w 9 > < w w r w > > w w r r r r r q q q w w w w w w w w w t 9 > 9 y t w w q q q t t t t 9 t t + + t t t t t t t B ~ B 0 q n n B B B n n n 0 & & n V n B _ V m n B V V m F F A m F m n | m m P Q.K.}.g.$ s S b.B.!./.^.^.x.(.c.c.(./.0.k f t.(.(.v.(.(.c.8XGXz.u.8X1X1X1X1X1X4X5XeXeXeXfXlXhXgXgXdXfXfXeXrXeX4X1X<X<X<X<X,X<X<Xa.p.u.c.(.2X2Xc.c.v.(.(./.q.0.Z f f f q.j.j.h.l.h.h.h.h.f.f.f.g.f.`.{.J.f x./.(.(.(.c.^.7Xc.c.2X6X^.(.(.(.v.7X^.c.7X(.x.(.uX9.6.iX7X9.c.i.a.i.,X,X3X3X,X4X5XtXeXeX5XzXHXyXKXzX,X3Xz.,XqX1X1X<X<X<Xz.z.p.7.7.2XGX7Xc.^.x.^.x.cXt.x.nX8.k.t.h.q.g.d.Z p s F O.F * * 0 & ; & ; 0 V K K K K F K J J J J V V V V V V B B n 0 & & & & & - - & & & & & + - - - - - - - ",
"t 9 @     9 9 + @   + @ @ @ @ & B V V F Z.K m b G b O.W.P.G D G K m L k K.`.f i s $ * n g a F A.;Xf.f 0.f.g.q.g.h.h.l.k.j.j.x.x.x.p.^.u.2XHX2Xz.,X<X,X<X1X1X4X4X4X4X5XrXeXfXfXfXdXkXkXtXtX5X3X3X3X3X3X3X1X1X<X<Xi.2XnX2X2Xz.2X2X(.(././.J.l k.k.8.6.6.~.'.t.q.J.q.h.e.D.J.8.f.mXH.f x.9X6X6Xc.(.(.(.(.(.(.7X7X7X(.7X7X7X7X(.7X7X(.7X^.(.c.9.pX7Xi.i.,X<X,X,X3X4X4XeXeXdXdXdX5XhXKXgXSXFX3XwX3X,X1XqX,X3X<Xc.c.z.c.s.8XBXi.i.a.c.x.x.6.(./.9.^.9.t.k.k.t.h.h.r.f Z G G S s p L O.V * = B o.o.V F F F F F V B B B n n B B B B B B y - + + > 9 w w w r w 1 1 w r w w 9 r t > > r r w w w r U U r w w w w w w r r r w r r r Y R r > > w w w w 9 > > w t R w O > r w w w w e w q q q w w w w w w q t w t t > 9 t 9 t q q q t t t t t 9 t t 9 + t } B t 0 0 B J B t t 0 B B B B B B n n 0 = & n V V V V V V V V V m m m F F F V V F A j P h.h.k.xX0.i d T.).!._.^.^.x./.~.~./.(./.l.8.f 6.'.(.x.(.7Xc.8XGXv.s.1X1X1X4X4X4X5X5XeXeXeXfXkXlXgXhXdXfXfXfXtXeX4X1X3X3X<X<X<X,X<Xz.u.u.c.nX(.v.v.(.(.c.c.(.'.~.6./.l.f 8.f './.j.t.l.h.g.g.f.B.S.s W.}.f t.(.(.^.(.(.2X6X6Xc.(.(.6X(.(.(.(.(.(.6X7X7X7X(.(.(.v.6.uX7Xp.i.i.i.,X3X3X,X3X5XwXeXeXeXdX5XlXKXsXKXgX3X3X,Xi.aX,X<X<X3X<X<Xc.x.6.iXpXu.<X^.~.x.~.j.xXt.x.bX8.j.q.e.f.B.0.k k S S.b a a ; ; ; ; & & v J K F A F F F K K K F V J J J V J B B J ; & @ @ & & & & & & & & - - & & & & & & & ",
"t 9 @   + t t y + . + . @ + @ & V V N V Z.K m A F b G S.` C D F m A S S l {.mXK.$ p = v a a N.S 0.8.q.f.f.0.q.h.h.h.h.k.j.x.x.x.x.x.u.v.z.HXHX3X,X,X1X1X,X1X4X4XqX4XqXrXtXfXdXhXZXhXkXtXtX5X3X3X3X3X1X1X1X1X1X<X<X<XaXvX2X2Xv.z.c.v.v.(.(.l.J.{.6.j.t.y.q.h.D.q.G.J.h.e.r.k l G.l t.(.7X6X6X^.c.(.(.(.(.(.7X7X7X(.7X7X7X7X7X7X7X7X7X(.(.(.7.pX8Xz.2X,Xi.3X4X3X5X5XeXdXdXdXyXdXdXgXsXKXZX4X4X,X3X1XqX3X3X<X<Xc.c.c.s.8XBXz.c.c.p.p.x.p.MXcXu.7.v.t.k.k.k.h.h.q.l 0.d.w.G s a G O.F v * n o.V B V V F F F V V B B n n B B B B B B y - + + > 9 w w w t r 9 9 r t w r w t R w w r r Y U r w w w U R R R R R R R R R R R R R R R R w > r r r t w > > 9 > 1 > < w t w q q r r r r r r r r q q q q q t 9 w w > 9 t t R t t t t t t t t t t 0 + @ 9 ~ B J J B q 0 B B B B B B q n B n 0 0 * @ * n V V V V m m m V V m m m V V V F F F F l g.J.j.h.xX0.i k K.!.~.^.^./.^./././.~.x.~.(.(.cXt.x./.(.c.c.c.2XGXv.s.1XwX4X4X4X4X5X5XeXeXtXfXkXhXZXZXZXhXfXdXeXeX4X1X3X3X<X<X<X<X2X<Xu.u.c.iXvX7Xv.(.2X(.c.(.(.^.9.'./.t.~.j.6.t.j.J.h.l.h.D.f.k C h h l q.'.^.6X6Xc.c.6X6X6X6X(.(.(.(.(.(.(.6X6X6X7X7X7X6X(.(.(.6.(.iXa.c.<Xi.3X,X,X5X5X3X5XeXtXeXdX5XzXHXgXKXgX3X3X,Xi.aX1X<X<X<X<X<Xc.x.6.v.GXvXa.c.(.~.x.x.xXx.9.cX8.k.g.e.f.B.w.0.r.w.N.C a a ; ; ; ; ; = v F K F A A A F F K K V V V V V V J B B J ; & @ @ & & & & & & & & & - & & & & & & & ",
"t 0 & @ 9 B J B & @ + . @ + @ & V V m m L.K m m m m F A C D ` F K K s d.r.l ;XmXd $ = m * a N.w.Z q.f.e.e.f.D.h.D.j.t.j.x.x.x.x.p.x.c.u.3XHXzX,X,X<X1X1X1X1X1X4X4X4X5XeXtXfXgXKXKXhXfXfXtXeX5XwX4X4X4X1X1X8X1X1X,X<Xc.8XnX7Xc.7X7Xc.(.(.(.9.8./.8.`.}.J.0.l l k S S 0.l d k j p i `.'.^.(.(.(.^.(.c.(.(.(.(.7X6X(.(.7X6X6X6X6X7X7X^.7X7X7X7.pXiX<Xi.,X1X1X4X4X5X5X5XdXZXFXgXdXeX5XyXKXZX,X4X4X,X1XqX3X3X<X<Xc.c.6X7.2XGX<Xu.i.^.p.c.x.uXx.x.p.x.p.x.j.k.h.h.h.0.w.f.d.d.k s F F v * = a m F F V F V F V V V B V n n B B B B B B y - + + > 9 w 9 1 w w > > w w 9 w 9 w w > < w w R R R r , , w R r r r r w w w w w w w w w r w > < 6 9 9 w > O < O < 9 1 X O 9 r w w w w w w w w q q q q 9 9 9 9 w r t > 9 t t } } } } } } } } } + + + + + 0 } X.J X.} 0 9 t } t q 0 0 - ; 0 0 * & & @ * B V B V V m m m V V m m V m m V F F G F L S.G.G.D.:XS $ h W.`.).).~.~./.~./.(.~.v.c.(.'.cXx.~.~.(.(.^.c.2XGXv.u.8X4X4X4X4X5X5XeXrXrXdXkXlXlXSXJXKXKXKXZXdXeX4X4X1X1X<X<X1X<X<X2Xc.a.c.u.pXnXc.2X6Xc.7Xc.^.(.9.x./.9.(./.~.9.f f e.F.B.S 0.f d k p k /.^.^.^.^.(.(.(.6X6X(.(.(.(.(.(.(.(.(.(.(.7X7X7X(.(.^.9X9.(.iXu.c.i.1X1X1XwXwXwXwX5XeXeXeXeXeXdXyXgXKXyX3XwX,X,XaX3X3X<X<X<X<Xc.v.7.7.(.GXBXz.v.x.(.x.'.x.l.cX9.8.j.g.f.f.f.f.g.g.d.L A g * ; ; ; * = v F K P F A m K K F F V V J V V n | B B J ; & @ & & & & - & & & & - - - & & & & & & ",
"B q 9 - 0 B B t & . + @ @ + @ & V V V m Q.V g m m A F V F _ _ F m O.G Z g.f 0.mXS.i P F $ b D A.D.f.e.r.e.J.J.e.J.m.m.].].x.~.x.x.x.c.u.3XHXsXi.<X<X1X1X1X1X4X4XwX5XrXeXdXfXgXKXKXgXfXfXtXeX5XwX4X4X4X4X4X4X8X1X,X<X<Xu.7XvXc.c.c.<X7Xv.(.~.l.{.k./.~./.}.H.f.0.k f f f d k A j d /./.~.(.(.(.(.(.(.(.(.(.(.6X6X(.(.7X7X6X2X6X7X7X^.7X7XvXu.7XvXi.1X1X1X4X4X5XjXFXgXgXKXKXZXdXfXgXZXJXZXyX5X5X,X4XqX3X3X<X<Xc.z.c.u.<XGXz.z.c.c.c.a.a.p.u.x.x.u.x.x.j.k.h.h.h.f.g.f.d.d.k s A F a * = * v F K F F V V V V V V V n n B B B B B B y - + 9 > 9 9 9 > > > > > 1 1 > 6 > 6 9 < O < > w w r w , < < < < < < < < < < < < < O O < < < O O < O O > > O > > 9 t r > O w R t r r r r q q w 9 1 1 1 1 1 > + O > +   X > + + + + + + + + + + + + + 9 + + 1 & - 0 9 + @ & & @ & & & & & & & & & & = ; V V B V V m V V V V m m F V m F F F F D S.S.G.J.D.:XG $ g N.G.T./././.~.^.^.^.c.c.c.c.x.x.x.'.~.~.(.7Xc.2XGXc.u.4X4X4X4X5X5X5XeXrXrXfXkXlXZXSXJXJXKXKXZXdXeX5X4X4X4X1X1X1X1X1X8X<Xa.9X^.u.6XnX6X7X7X7X(.^.(.x.x.(.9.(.(.(.'.(.~.r.f f f i 0.k A k s D.(.(.^.(.(.(.(.(.^.^.(.(.(.(.(.(.(.(.(.(.7X7X(.(.(.^.vXu.c.iXz.a.1X,X,X1X4XwXjXFXlXeXlXlXfXeXdXyXZXZXgXgXyX,X3XaX3X3X<X6X<X<Xz.v.9.6.9.u.VXGXz.v.l.x.(.x.p.bX9.q.h.g.g.f.f.B.f.g.0.N.L h p ; ; ; * g m F K K K F F K F F J V V V V V B J V B J ; & @ & & & - - - & - & - - - - & & & & & ",
"B B t q B B B t & @ + @ @ + @ & m m V v Q.m g m m V V V _ F V V F b O.Z 0.g.Z K.:X[.:XQ.p A H w.0.e.e.f.h.m.m.m.J.m.].].].p.].x.c.p.c.z.,XHXyX,X3X1X1X1X1X1X4X4X5X5XeXeXdXfXhXKXKXgXfXkXtXeXeX5X4X4X4X4X4X4X4X1X<X<X<Xc.u.^.vXc.6X6X7Xc.^.x.7.(.6.^.(.^.(.(.(.(.!.J.q.8.l f k P l h.(.^.(.7X(.(.(.c.(.(.(.(.(.(.(.(.7X6X7X7X7X7X6X7X7X7XnXz.i.vX8X,X,X4X5X5X5XkXKXhXgXKXKXZXdXZXJXAXAXAXKXgX3X3X4XaX3X3X<X<X<Xz.<Xu.s.GX2Xc.c.p.c.u.c.c.c.x.p.x.x.x.j.t.t.h.h.h.f.f.d.d.k s A F F m b v m F K F F V V V V V V V n n n n n B B B y + + 9 > 9 w 1 1 9 w w w w w 9 w w w w 9 > > 9 > > > > w > < O < < < > > > > > > < < < > > > > > 9 > > 9 9 6 w r > > 1 > 9 w 1 1 1 1 1 1 1 1 1 > > + + + + + + 1 9 9 O 9 t 9 9 9 9 9 9 9 9 0 9 B t t } t 9 - + - + + & - & & @ @ & ; 0 - & * 0 ; & & ; V J V V V F V m m m F F K V m F F F D G S.G.G.J.J.bXL # a a s Z J././.~.(.c.c.c.c.c.^.c.(.x.^.^.^.^.^.z.2XGX(.u.4X4X4X5X5X5XeXeXrXrXfXkXlXZXSXJXSXZXZXgXdXdX5X4X4X4X4X4X4X4X4X1X<Xi.8X7Xc.s.iXcXc.~.x.'.~.'.x.x.'.9.(.(.^.~.~.(.'.'.~.t.8.8.d j k d q.{.^.(.(.(.(.(.(.(.(.(.(.(.(.(.7X(.(.(.(.7X7X7X(.(.<XvXa.i.vXaXs.<X1X1X4X4X3XVXPXFXyXKXKXFXyXgXKXJXJXKXKXFX,X3XdX4X1X<X6X<X<X<Xv.7.9.l.9.7.aXGXv.v.u.pXx.9.cX9.k.q.f.f.B.B.B.f.f.e.d.L h p g m m m V F K G F K K K K K K F V V V V V V | V V V ; = & & & & & - - & - - - & & & & & u u - ",
"B B B B B B B t - @ + @ @ + @ & B m m g E.m g K V V V V o.V V _ #.m A L Z l Z k L G L P i p S.d.0.q.f.D.D.e.t.j.j.p.p.p.p.x.a.x.c.a.c.i.i.VX3Xi.3X1X1X1X1X4X4X4X5X5XeXdXfXfXlXKXKXgXdXfXtXeX5X5X5X5X5X5X5X5X4X4X,X8XiXi.c.7.iXcXc.c.^.(.7X^.9.uXp.(.^.^.6X7X7X^.'.'././.J.8.f l f j.9X(.^.7X(.(.(.(.(.(.(.(.(.(.(.7X7X7X7X7X7X7X2X7X2X2XBX2Xs.aXBX1XwX4XwX5X5XeXgXyXgXZXZXgXdXFXJXAXSXSXKXgX5X3X5XaX3X3X3X<X<X<X6Xs.u.GXpXu.u.c.c.c.c.x.9.c.p.x.x.x.j.j.h.h.h.h.f.f.d.d.k s A L O.K F V F K F F V V V V V V V V n n B B n n B B 0 + + 9 9 9 w 9 w w w r r r r r r t r w r w > w r > < > r R R r > > w w w r r r w , > w r r r r w r w w t w 9 9 t 9 1 > O O > O O O + > > > + + 1 > + + 1 1 1 + O + > O 9 R q t t t t t t t B B t 9 t t t t t t t - & t } B B J & 0 n B B n n B 0 ; & ; V o.V J V F F V F V F F K V F F F F F d.G.G.J.J.J.cXP $ p $ p d f q.J./.~.^.^.^.c.c.(.(.(.^./.^.(.^.^.v.2XHX(.i.4X4X4X5X5XeXeXeXrXtXfXhXZXZXSXJXSXgXgXhXdXdX5X5X4X4X4X4X4X4X4XqX8Xi.8X7Xu.z.7.iXiX(.~./.`.`.h.j./.9.(.(.7X7X(.(.(.(.(.(.'.l.l k d S J./.(.(.(.(.(.(.(.(.(.(.(.(.(.7X7X7X^.(.7X7X7X7X(.6X<XnX8Xs.8XBX8Xi.3X4X3X5X3X5XzXyXyXFXHXZXyXhXKXSXSXSXKXzX,X3XjXwX1X1X1X<X<X<Xc.6.bXk.l.u.6.2XnX(.u.uXu.x.nX9.k.h.h.D.D.B.B.f.f.f.d.d.h p A K K o.K o.K F F K K K K K _ F V V V V V B | V V V ; = & & & & & - - - - - - - & - & & u u + ",
"n B B B B t B B 9 + + @ @ + @ & m A m g [.m ; m m J V B o.F V o.m O.F S S 0.S.w.L L A O.h i w.d.D.g.q.g.h.h.h.j.j.p.p.p.p.p.a.c.c.c.s.c.i.BXVX,X3X1X1X1X4X4X4X4X5X5XkXHXFXgXZXKXKXZXZXdXfXeX5X5X5X5XeX5X5X5X5X5X,XzXVX<Xu.7X7.pXcXuX(.(./.j.8.'.7.^.7X7X7Xc.6X7X^.(.(.'.(.~.q.f 6./.9X7X6X6X7X^.6X6X(.7X^.(.(.(.7X7X7X7X7X7X7X7X2X2X2X2XVXpXu.3XaXVXjX3XwX5X5X5X5XdXgXgXgXgXgXhXhXgXgXyXdXeX5X,X5XaX3X3X3X3X3X<Xa.<XaXaX2Xz.c.c.c.p.i.c.x.c.p.x.x.x.t.j.j.j.h.h.f.f.f.g.k d C A P F F F F F F F F V V V V V V V B B B B B B B B 0 + + 9 9 9 w w w w w w w w w r w t w w t w > w t w > , R R R R 9 w w w w w w w 9 > < > 9 w w w w w w w r w > > R R R w o > e r w w w w q w w w 1 > + > 9 9 1 > 9 w w 9 t  .} } } } } } } } } } X.X.} } J } } } y + + y J B t J 0 0 0 B B B n B n ; = ; J o.J V m A F A V V F V F V F F F A G S.J.j.x.x.j.cXd.$ a = h s i d S J.!././._././.~./.~.).'././.^.(.c.8XHX2Xi.4XwX4X5X5XeXeXeXrXtXfXhXSXSXAXJXSXZXZXhXfXdXeX5X5X4X4X4X4X4XqX1X1Xi.aXBX2Xz.u.7.nXcXuX{.`.!.q.!./.9.(.7Xc.c.6X6X6X(.(.(.(./.}.K.d 8./.^.(.^.(.(.(.(.(.(.(.(.(.(.(.(.7X7X(.(.6X6X7X(.(.c.2XnXaX7.u.vXBXaX3X3X3X5X5XwX5X5X5XdXdXdXfXfXgXZXZXsXsX3Xi.4XjX4X1X1X1X1X1X<Xc.6.MXDX8.x.x.6.z.aXu.7Xv.9.cXt.t.J.D.D.D.D.D.D.h.f.f.d.k p A O.K o.K o.G G F o.K K K | J J V J ^ ^ ^ V V V V V ; = & & & & & - - - - - - - - - - - u u - ",
"n n n n B n B B 9 + + @ @ + @ & m C A h *XA = = g J V n F o.V _ o.B V F S S S S S G L C s C w.d.0.g.g.g.f.h.h.t.t.p.p.p.p.p.a.c.u.c.z.i.aXHXBX,X1X1X1XwX4X4X4X5X5X5XkXPXHXgXZXKXKXKXKXfXeXeX5X5X5XeXeXeXeX5X5X5X3X1XVXVX7Xu.v.9.cXuX/.l.q.q.q.{.9.(.(.c.^.7X7X2X7Xc.^.(.^.'.'.8.t.'.^.6X0Xc.7X(.6X6X6X6X^.6X7X7X7X7X7X7X7X7X7X6X2X2X2X2XBXvXz.z.,X5XBXVXzXdXdXlXFXhXgXKXKXZXgXgXhXhXfXeXeXtX5XwX5XjX3X3X3X1X3X<X<X<XBX3Xz.z.<Xi.z.a.c.u.c.c.c.p.x.x.t.j.j.j.h.h.f.f.f.g.k i h b L F F K K F A F F V V V V V V V B B B B n n B B 0 + + 9 9 9 w w w 9 9 w w w w w w t w w t w > w w 6 < > w r r w 9 w w w 9 9 > > > < O > > > 6 9 9 9 > > 6 > < > > > > O O w R r R R R t t q w w 9 1 + > 1 9 1 + t w 9 O 9 t t t B ~ B B B B B B t t t y 9 0 0 - - + + y B 0 0 q 0 ; ; 0 B n 0 0 v * @ ; o.$.J V m A m F V V V V V m F F G A L S.J.j.x.x.x.cXg.$ a # a s d s p k `.).!.!./.(././.'./.~.~.(.v.c.z.sXHX2Xi.qXwX5X5XeXeXeXeXrXtXfXhXSXJXAXAXJXKXZXlXkXfXeX5X5X4X5X5X5X5X5X1X8Xz.aXBXBXpXz.u.9.iXuXx.q.r.8./.'.t.(.(.7X7X6X6X6X6X6X7X(.(.(./.l.8.'.(.(.6X^.(.(.(.7X7X(.(.6X6X6X6X6X7Xc.c.2X6X6X6X2Xv.z.GXnXu.z.u.8XVXVXzXdXyXyXhXdXdXzXzXgXhXlXfXZXKXSXsX3XyX3X1XjX4X1X1XwXwX1X<Xc.6.l.IXbX6.6.cXaX2Xu.pX(.f v.9.l.l.h.h.f.h.D.h.h.f.g.d.h p A L F K K o.G G G o.K F K | | J J J ^ ^ ^ V | V V V ; = & & & & & - - - - - - - - - - - u u - ",
"B B B B B B 0 t B & @ + + + + & A L $ *X:X# a # = ; n B V F _ F _ F F G G G G G L A L G s h d.d.f.S f.f.f.h.l.k.j.t.t.~.p.c.c.a.c.a.c.u.8XGXi.,X1X1XwXwX4X4X4X5X5XeXdXlXlXlXlXZXZXZXhXdXdXkXzX5X5XeXeXeXeXeX5X5X5X,X3XvXnX7Xu.x.u.9.9.9.9.8.8.{.t.~./.^.(.(.(.7X7X(.7X7X^.(.}.k.8.{.(.^.7Xc.(.(.7X7X6X6X6X7X7X7X7X7X7X7X7X7X7X6X2X2X2X2XBXBXz.u.3X3X3XyXzXFXHXKXKXZXgXKXKXKXgXhXhXdXfXfXeXtXeXwX5XjXwX3X3X1X3X,X<X,XaX8Xu.z.i.z.i.2Xc.c.c.x.x.x.x.x.j.j.j.h.h.h.f.g.g.d.S h s h h P O.F A G G A F F V V J V V V V n n V n n B B 9 9 9 - 9 9 9 9 9 1 1 1 1 9 9 9 9 9 9 1 > > > < < O O < > < < < < < < O O O O O O > > > > > O X X X X O O O O > O > > 1 1 w w e w w w r q w w w w w 1 > + + + + q q 9 1 + + + + + + @ @ @ @ @ @ + + + + + + & & @ @ @ + + + & & & & & & & * ; * * 0 = g $.o.V o.F A F F V F V V F K K A A L S.G.J.h./.x.x.cXg.= : ; a a a z a p f K./././.v./.(.c.v.v.pXpX2X2X2XBXHXz.i.qXwXwXeXeXeXeXeXtXtXfXhXSXJXAXAXAXJXZXhXkXkXtXeX5X5X5X5X5X5X4XqX1X<Xz.z.pXnXaXu.u.9.9.9.9.l.f /.}.8.(.(.7X7X6X6X6X6X6X7X7X(.(.(.x.6.'.^.6X6X6X6X(.7X7X7Xc.(.7X7X6Xc.2X2X2X7X7X2X2X7X7X2X3XBXGXz.z.z.z.3XsXVXHXHXHXKXFXyXKXKXZXhXhXhXZXSXAXLXLXsX3X3XzX5X4X3X4XwX3X<X7X9.f '.IXMXf 7.nXBXpXGXnXv.v.v.9.l.l.l.l.g.l.l.l.g.f.d.k s h A O.L K o.G G G K F K J o.o.K o.J V | V | V B J V ; * & & & & - - - - & - - - - - - - u u u ",
"0 n B B q B B B 0 0 & @ + + + ; b s Q.-X# $ = v # = * * n V F V _ F F F F F G G L D L G s s d.d.d.L S.d.0.q.q.h.j.x.x.p.p.x.x.x.u.<Xu.u.aXVXi.1X1X1XwXwXwX4X4X5X5XeXdXfXkXlXlXZXZXgXhXgXeXlXPXzX5XeXeXeXrXrXrXqX3X1X,Xi.8XnXvX(.(.7XiX'.~.t.6./.q./.(./.(.7X(.2X7Xc.2X7Xc.(././.6.(.(.(.7X6X(.(.6X6X7X7X7X7X7X(.6X7X7X7X6X6X2X2X<X<X2XaXGXnXu.v.z.<X3X3X5XyXdXgXgXgXgXZXZXZXgXgXhXZXhXgXdX5X5X5XdXlXjXdX4XwX1X1X,X,XaXVXaX3Xi.<Xc.u.i.c.v.c.x.t.x.t.t.h.J.J.D.h.f.g.g.d.S s p p g m P L L L L F F F F F F V B B V B n n B B V J 0 9 9 9 9 9 9 9 9 9 9 9 9 9 9 9 9 9 9 9 9 1 1 > > > > 9 w w 3 3 > > 9 w r t R R R t t R t w 1 > r R R R R R R R r r r r w w w w q q r r q q w w w w 9 9 1 > + + q q 9 1 + 1 9 9 0 0 0 0 0 0 0 0 0 9 9 y 0 0 0 q 0 0 q q q q q q 0 0 0 0 0 n n n n v = ; o.o.m F K A m m m V V V m F A C G S.G.S.K.J.J.t./.bXd.$ = * * * 2 * * * d f H.~.x.(.x.u.z.z.z.pXHXVXBXFXzXHX2Xi.5XwX5XeXeXeXeXtXtXfXfXhXSXJXAXAXAXSXZXhXhXfXtXeXeX5X5X5X5X5XqX4X1X<X2X2Xz.pXnXiXuX(.uXuX{.(.8.l.x.7.(.(.7X(.6X7X9X9X9X9X7X7X(.(.x.6.(.^.6X6X6X(.(.c.6X2X7X7Xc.c.(.7X7X7X2Xc.c.2X2X<Xc.c.aXnXBXz.u.z.z.2Xz.3XyXjXzXzXzXgXZXZXhXgXhXgXZXAXAXJXKXsX3X3XlXzXyX5XwXwX4X<X<Xu.9.f /.UXMX7.f v.(.pXnXMXGXDX9.x.k.l.l.h.j.k.l.h.0.0.k h b A O.K K K ` L L O.O.o.K K J V o.o.| o.V | V B J V ; = & & & & - - - - & & - - & & + & u u u ",
"0 B B 0 n ~ B 0 @ 0 9 + & + @ & g A.>X# * g # # = & = = v V F F F F F K F K F F G F ` D a h L d.L O.N.C k Z r.J.j.~.x.p.~.~.p.x.c.u.z.BXBXpXs.,X1XwXwXwXwX4X5X5XeXdXfXkXlXZXZXSXSXSXSXZXdXlXHXdXeXrXrXrXrXjXrXqXqX4X1X,Xs.a.9XvXvXiXcXuXcXcX^.x.q.~.(.(.7X7X6X6X7Xc.6X7X7X(.(./.8.(.7X6X7X2X7X(.7X2Xc.c.(.(.c.c.c.2X7X7X2X2X<X<X2XvXnXpXu.p.x.c.c.<X1X1X4X5XyXdXdXdXgXgXgXhXhXgXZXAXSXAXSXZXhX3XdXlXzXjX5XwXwX,X<Xi.yXHXBX3Xs.z.z.c.c.c.v.x.t.x.j.9.8.8.t.h.h.h.f.f.f.g.S h s h a g m P L A A A K K K K K J V V n V n n B B B B 9 9 9 9 9 9 w 9 9 9 9 9 9 9 9 9 9 9 9 w w w w 9 w 9 9 w t r r r 9 w r R R R R R R t R R t w > 1 R } R r r } } t r r r r r r r r r r r r q q r r t r q w 9 9 > + 9 9 9 + 1 9 t t t t t B t t B B t t t t t B t t B B B B B B B B n B n n n n n n n 0 = g $.#.K K K P P K K o.K V F F F L S.Q.K.K.A.W.T.D.`.bXA = ; ; 0 2 2 2 q 0 h d l j.v.x.v.(.v.z.z.z.zXFXFXVXFXHXz.,X5XeXeX5XeXeXeXtXtXfXfXhXZXZXSXAXAXAXZXhXZXZXlXdXeXeX5X5XeXrXrXqXqX1Xc.c.c.v.(.{.xXcXcXxXuXiX7X^.x.7.(.(.(.(.(.(.'.(.(.^.6X2X(.(.(.9.(.(.^.6X(.6X7X7X7X7X7X7X7X(.c.c.c.c.2X2X2X<Xc.2XiXnXcXu.9.9.v.v.v.z.2X3X1X5X5XyXdXfXfXhXhXhXlXhXZXAXAXJXKXsXzXyX5X5XzXjX5X,X1X3Xz.7.8.k.6.9.9Xx.6.6.6.6.6.7.(.GXuX9.x.t.m.m.e.e.e.e.B.f.k s g m K K O.K O.G F A A m K K V V o.o.J o.J | V J | J 0 & & & & & & & - & - - - & + + + + & & - ",
"B B B B ~ | 0 @ . t 9 . & + @ n -X*X# b # = ; # * * & = v V F F _ _ F K K P K K O.G O.G b h L L O.N.N.k c l f r.J.t.t.~.~.~.p.x.c.u.aXGXu.6.u.1X1XwXwXwXwX4X5X5XeXeXfXlXlXZXZXSXAXJXJXKXgXdXdXeXeXrXrXrXrXrXjXrXqX1X1X1X<Xz.u.s.9.9.7.6.x.cXcXbX~.~.~.(.(.6X6X0X6X6X8X7X6X(.(.j.6./.7X6X7X7X9X7Xv.2X7X(.v.7XiXnXMXMXBXBXBXBXBXBXVXBX9Xu.x.c.x.c.c.<X1X1XqXyXyXdXdXdXfXdXfXfXhXgXZXAXAXAXAXAXKXgX5XdXyXdXjXjXjXaXqX,Xz.FXHXBX8Xz.i.u.c.c.x.x.(.j.8.6.f l 8.q.q.e.0.0.0.S k s p g a a g A L L L O.F F A F F V V V V | V B | | B t 9 - 9 9 9 9 w 9 w w w 9 w w w w 9 w w w w w w w w 1 9 r t r r t w w w r r w w w w 9 w w 9 O > w t w > O > r r w w w w w w r r r r r r r q q q r t t q q w 9 1 > + & + & 9 t t t 0 0 q q t t t t 0 q 0 0 0 0 q q q q q q n n n n n n n n n n n n n 0 = v o.$.K K A A A A F K K o.F F O.Q.W.S.D.Q.P.Z.A.D.}.bXS.p j g a a z v ; ; p s $ h.MXDXDXMXBXnXGXGXHXFXFXFXFXGXz.3X5XeXeXeXeXeXeXeXtXfXfXhXZXZXZXAXAXAXZXZXZXKXKXlX5XeXrX5XrXrXrXqXqX8X1X2X2Xv.p.9.t.l.l.q.x.uXvXcXuX~./.~.(.(.(.(.(.(.(.9X2X2X(.(.j.8./.(.7X7X(.(.(.c.c.c.v.v.^.uXvXMXMXBXBXBXnXnXnXBXnXvXx.t.^.l.l.x.c.2X8X8XqX5X5XdXdXfXkXlXhXlXlXhXZXAXAXSXKXsXPXKXyXdXdXlXVXaXqXqX8Xz.7.6.9.9.7.6.r.f 8.f 6.6.6.9.9.9.9.t.J.t.D.F.J.e.f.d.k p p g K K K G N.O.O.L Z.O.P L P K o.K V J V | | V J B 0 - & & & & & & & & & & + + + + + + + + + ",
"B t t B B 0 & . B B & . & + & | :X# a = # & & 9 & & & & * v v m V V F F F K K F F G O._ b h A P A C C k l 0.8.8.~.x.x.(.t.x.x.^.u.v.GXvX9.z.s.8X1X4X4X4X4X5X5XeXeXfXfXlXlXFXZXSXAXAXJXKXgXdXdXdXeXeXrXjXrXrXjXjXqX4X4X3Xi.i.i.u.9.l.l.9.8.8.8.8.8.q.h.j.~.(.^.c.<X<X<Xc.(.9X(.x.8.(.9X7X7X7X(.^.(.v.(.uXiXvXiXpX(.7X7X7XpXpXpXpX8Xc.p.c.u.u.^.c.6X<X1X4XqXyXdXdXfXfXhXhXhXhXhXgXZXJXAXAXAXAXAXLXgXlXdX5XyX5X5XaX8Xi.s.sXGXHXHXGXGXnXc.u.v.x.x.9.8.8.r.0.r.f f l l l k k h h a a g g g g b m b h A A A A A m V V n n n 0 t t 0 9 - - - 9 9 9 w w w w w 9 9 w w w w w w w w w 9 9 9 1 1 w r w w w 9 9 9 9 w w w w 9 9 9 9 > O w R r > X > w r w w r r r e e e e e r r e e q q r r q q q q q w 1 > + & 1 9 0 t t 0 0 0 q q t q q q q q n n n n 0 0 B B B B n n n n n n n n n n B B B v * ; m v g g p p p = = = * ; a = $ p s k f k m a D f i l d $ i $ i i d d p = * 0 n # L D.q.k.k.k.(.(.v.v.z.z.z.3X6.1XrXeXeXeXtXtXfXfXkXkXlXZXZXZXZXJXAXAXZXZXSXKXKXZX5X5XyXrXrXrXrX5XqXqX1Xz.u.v.v.x.x.k.l.l.q.q.g.l S 0.q.q.t.(.9X7X2X<X<X<X2Xc.{.{.q.l {.{.(.(.(.(.(.(.7X(.uXcXnXnXuXuX9XuXuXuXpXiXiXpXc.s.p.p.p.t.x.c.c.i.<X8XqXqXjXdXdXfXlXlXlXlXlXZXZXAXAXAXKXsXKXHXjXjXyXyXyXqXaXaX8X7.9.9.9.7.9.7.f 0.f k.9.6.u.u.9.9.7.7.6.6.f f f f f k s h g g m g b h A h C h A m m A m m m m m V 0 B n 0 0 ; & & & & & - - - - & - - + + + + + + + + + ",
"0 0 B B 0 & & 0 B B & + 9 + @ n . * * . ; 9 & @ @ & & & & = * * a a g g g g g g v b N b g g g h S d j f f l 6.6.8.9.9.9.9.x.p.9.u.9.9.u.7.9.u.aXaXqXrXrXrXrXjXjXkXlXlXlXZXZXZXSXJXAXJXZXdXdXdXeXdXeXeXjXrXrXjXqX5X4X3X3X3X8X3Xz.u.9.9.7.6.8.8.8.l l f f t.xXnXnXvXvXiXcXuX(.k.8.q.~.^._.9XuXxXcXcXcXbXcXuXx.9.6.6.7.7.9.u.u.z.z.a.<Xc.c.7X7X7X6X0X8XqXaXjXjXkXkXkXlXhXhXlXlXhXhXZXJXAXAXAXAXAXJXKXKXgX3X5X3X3X,Xi.i.u.u.i.z.3X<X2Xc.u.x.v.9.7.6.8.8.8.r.l l l 0.k k k h h h g g g g a * = = = $ # # # # # # # . = . @ & . + & + u - 9 9 9 9 w w w w w w 9 w w w w w w w w w 9 9 w 1 1 r r w 9 w w w 9 9 9 w w w w w w 9 > 1 t } 9 O < r ~ t w q r r r r r r e e r r e e q q r r q q q q q w 1 > & 9 9 0 t t t 0 q t q t q q q q B B B B n B B B n n n n n n n n n n n n n n V V m v * g g * * a L O.Z.Z.O.m * = * b L N.K.K.0.i m # C l 8.{.bXbXcXuXuX{.(.x.l.l m @ m h s i l 8.6.f f 6.9.u.u.2X3X3X7.aXkXkXkXkXkXkXkXkXlXlXlXZXZXZXZXJXJXAXZXLXZXZXZXgXyX5X5X5XeXeXeXjXqX1X3X,X<X2Xz.z.z.v.u.9.l.8.8.f 0.0.Z f f ~.uXvXvXvXvXaXvX(.'./.l l K.j././.'.{.{.uXcXcXbX{.x.8.6.6.6.6.6.7.9.p.u.u.u.c.^.^.c.^.9X^.6XiXqXqXaXjXjXfXfXkXlXlXlXlXlXZXSXAXAXAXLX2XsX3X3X,XwX,X,X3X,Xi.i.s.9.u.pXnX9.8.0.k 0.f 6.6.nXGXBXBXBXnXMXGXMX}.q.l l A h h g p g = a p a $ s $ $ $ $ = # # $ # # # # & & & & & & - - : - - 0 0 9 9 9 9 9 9 9 9 9 9 - - - ",
"+ 0 B t 0 9 0 B n 0 & & & & . & ; # # - @ + + 9 + + - & & * = $ $ = = = = = = * * z z a a a g j j i l 8.f 6.8.8.6.7.7.6.9.6.6.7.7.9.6.9.u.9.u.2X1XwXwXwXwX5XeXeXdXfXhXlXZXZXZXSXAXAXAXZXzXkXkXfXfXdXfXfXjXjXjX5XwXjXVXVXHXHXzXyXpXpXiXiX7X^.~.j.q.0.0.0.8.j.~.9.x.x.x.(./.k.l k f.f.q.8.6.9.8.q.t.9.8.8.8.q.l.k.t.x.~.(.(.7X7X7X7X<X7X7X(.7X7X8X8XqXaXjXjXdXfXkXkXlXhXlXlXlXZXZXSXJXAXAXAXAXAXSXZXhXyXyXdX5X5X3X,Xi.z.7.s.s.s.7.7.6.7.7.6.6.6.6.f f f f f l f f k k k h h j a a a * a g g g K Q.Q.Q.S.S.S.Z.#.$.v . ; B & + 9 9 + - 9 9 9 9 w w w w w w 9 w 9 w 9 9 w w w w 9 9 w > 1 r t w 9 w w w w w 9 9 9 9 9 w 9 > > w t t O > w R R w 9 w w w w e r r e r r r r r r r r r t r q q q w 1 > 9 9 t t t t t 0 t t t t q 0 0 0 n n n n n n B B n n n n n n n n n n n n v n B B B ; * ; g g v m L O.Z.Z.#.V * # Z.O.L G d.K.K.W.p a S.J.x.uXnXnXGXGXGXHXHXHXGXGX0.$ i f d d bXGXpX6.9.vXHXHXGXHXHXGXu.8XrXeXeXeXtXtXfXfXkXlXhXhXhXZXZXSXAXAXZXgXgXgXgXdXjXkXfXdXjXyXyXyX3X3XaXzXHXHXFXBXaX8X8X8X2X2X(.v.~.q.q.w.r.r.t.t.9.p.p.x.x.9.f l k d.K.q.8.8.8.8.8.8.9.q.8.8.6.8.q.q.t.j.'.(.(.(.7X(.(.(.7XuX7X(.(.9X8X8XaXqXdXjXfXfXkXlXlXlXlXZXZXZXSXAXAXAXLXsXgXgXyXyX5X5X5XwX4X<Xz.u.z.BXHXHXl.f S S l r./.j.x.c.c.c.7Xc.c.(./.h.g.f.S.L h p = = g g g a a p Q.S.S.S.d.d.L L #.K g * * ; & @ & - - - - : - 0 y y y y q q t t t t t t y y y ",
"@ 0 t 0 0 B B t B B & . . & 9 0 | n B 0 & 9 9 + u u + & * * = $ p p p g ; ; ; ; a v z a b b h A 0.l.cXDXDXDXGXGXGXGXGXnXBX2XpXGXGXVXGXGXHXGXi.<X1XwXwXwXwXeXeXeXdXfXlXhXZXKXSXAXAXAXAXSXFXlXlXlXlXlXlXlXlXlXlX5X5XjXzXVXVXzXyXaXaXaXaXiXiXxXcXuXh.r.Z S l 8.t.j.9.x.9.9.q.g.0.S S S 0.q.t.q.8.8.q.8.q.q.q.q.e.t.q.x.(.9X9X7X7X7X6X2X7X2X7X7X7X8X8XqXqXjXjXkXkXkXlXhXlXhXlXlXZXSXAXAXAXAXAXAXAXLXsXyXZXKXHXjXyXyX3X3XFXFXVXBXBXBXnXGXaX7.iXvX9.uXnXbXbXbXcX{.h.l 0.0.0.Z k h g g b a a a $ $ F [.W.W.Q.E.E.Q.Q.Q.v # n +.0 & 9 + + + 9 9 9 9 9 w w w w w 9 9 9 w w w w w w w w w w > 1 t R w 9 r 9 9 w w w w w w w w 1 O 9 R R w < r R R w w w t r r r r e e e w r r r r r r r r R r q q q w 1 + 9 q t t 0 q q q t t t t q 0 0 0 0 n n n n n B B n n n n n n n n n B n n v n B n V g * ; g v F K P m b m V K o.F F A A N.g.0.J.}.p C J.~.x.x.u.u.z.z.2X8XpXsXsXpXl.l l.8.l.x.pXnXu.u.GXGXvX8XsX3XHXBXs.1X5XeXeXeXtXtXfXfXkXlXlXZXZXSXSXJXAXAXSXZXZXZXZXlXlXlXlXlXlXlXVXaX3XyXBXBXBXBXVXVXaXaXaXqX8XpXiXpX'.g.0.S d.r.0.j.x.x.9.p.t.j.q.S P d.S Z q.q.8.8.8.8.8.8.8.8.8.q.8.8.j.(./.(.'.(.^.(.7X(.(.c.c.9X7X9X8X8XqXjXdXfXfXfXkXkXlXlXZXZXZXSXAXAXAXAXAXJXKXKXZXyXgXFXlX5X4X1Xz.7.BXHXaXGX{.8.f l m.!.j.j.x.p.u.u.u.u.u.9.t.j.h.g.d.G g g g g h g p a p p -X-X[.[.[.[.[.[.[.Z.g . o.K n * ; ; & & & & - 0 y q q q y y y t t t t t y 0 0 ",
"@ @ 9 B B B B q B 0 & + & + + 0 | n V J ; & & & + 1 & & # g Q.;Xp i $ = ; ; ; ; v = g h h a a L 0.l.x.(.uXuXpXpXpXpXpXz.BX2XpXVXnXaXpX2XaXIX1X,X4XwX4XwXwX5XeXeXfXfXlXhXZXJXAXAXAXAXAXSXhXlXlXlXlXlXlXlXfXlXlXeXjXjXqX5X5XjXzXVXjX5X8XpXuX(.p.y.r.e.S A P g.'.9X7X9X9X(.(.'.J.f l 0.f.e.e.e.q.q.q.t.l.q.q.q.e.e./.'.9X9X7X7X7X7X7X7X7X7X7X7X8X8X8XqXaXjXjXkXkXlXlXlXlXlXlXhXSXJXAXAXAXAXAXAXAXSXLXSXgXZXlXdXdXyX5XyXKXsXqXaXaXaXaXnXaX7.pXIXz.pXnXnXnXMXnXuXx.9.j.k.h.f.A p b b a C s s i S d.h F A m B B m V V v $ *X$.v n 0 9 0 + & 9 9 9 w 9 w w w 1 1 w w q w w w w w w w w w > 9 R t w w w w w w 9 w w w w w w O > R } R R } R R r r r r w w w r r r r r r q q q r r r r w t 9 t w w t + + 9 9 0 t t q 0 t 0 q t t 0 0 0 0 0 0 0 n n n B n n n n n n n n n B n B n v V V m V g * v V F K F K K J J J J K K K F C 0.D.h.H.;Xk f.H.~.~.~.~.~.x.x.~.p.p.u.u.x.^.9.vXiXiXvX|.z.GXGXaXv.2X2X8X2XGXGXs.qX5XeXeXeXtXtXfXfXkXlXhXZXSXJXJXAXAXAXAXAXZXhXhXlXlXlXlXkXkXkXzXzX3XaXqXqX5X5X5XqXqXqXqX8XpXpX7Xx.8.8.d.d.A w.r.;X'.9X7X7X(.'.`.f.l S 0.q.h.j.t.t.q.q.0.g.q.q.f.q.8.h./.'.(.(.(.7X7X7X6X2X(.7X7X7X8X8X8XqXqXrXjXfXfXkXlXlXlXlXhXZXSXSXAXAXAXAXAXAXAXAXSXgXsXgXhXdX5X5X,X3XHXBXi.c.v.9.9.x.x.x.x.x.x.x.x.x.x.x.x.j.j.j.h.h.f.d.a g : = h k k i d N.S G L P K F K F o.K v m *XF o.m v * & - - - - 0 t t t t t t t t t r t t y y y ",
"+ + 0 B B B B n B 0 & + & + + 0 B n ^ B * ; 0 & 9 @ % ; a p d.}.:XK.h h V v = * v g p h h h h S q.q.q.9.9.9.9.7.u.s.s.u.VXpXu.s.i.i.i.z.i.8X3X3XwXwX4XwXwX5XeXdXdXfXlXhXZXAXAXAXAXAXAXSXZXlXlXlXlXlXlXlXlXlXlX5XjXjXjXqX5XqXjXjXjXaX2Xv.x.q.9.t.y.r.G S S k.iX7X0Xc.^.9X(.h.8.r.e.B.D.D.h.h.h.l.q.t.g.g.g.f.f.e.h.~.(.(.7X7X7X6X7X7X7X7X7X8X8X8X8XqXaXjXjXjXkXlXlXhXhXhXlXhXSXJXAXAXAXAXAXAXAXSXZXSXgXgXdXdXdXdXyXgXHXyX,X,X,X,Xi.i.i.i.2XHXz.u.i.u.s.s.9.9.9.x.k.j.h.g.C a h a p h i k K.:XQ.$ K K K J | | o.K m = *XO.m V B q 0 + & 9 9 9 w 9 w w w 9 9 w r w w w w w w w w w w > 9 t r w w w 9 9 9 9 w w w w w > < w R R r R R t r w w r r r r r r r r r r r q q q r r r r w t 9 t w y t + + q 0 q t t q 0 t q q t t t 0 0 0 0 0 0 n n B B n n n n n n n n n B n B n 0 V V B V g * v V F F F K J J J J J K F G G w.f.J.h./.;Xf B.!.~.~.~.~.!.).!.!.~.~.^.x./.~.6.iX7Xv.l.8.9.pX2X(.7X9X9X8X2XGXvXs.4X5XeXeXeXeXfXkXkXlXlXhXZXSXAXAXAXAXAXAXSXZXhXhXlXlXlXlXfXkXfXlXjX3XaXqXaXaX5X5XjXjXaX8XiX7Xv.9.8.t.h.d.Z S 0.8.uX(.7X2X2XuX/.t.l l 0.f.J.D.m.t.t.t.t.f.d.0.0.0.0.0.q.j.x.'.(.7X7X7X6X6X6X(.7X7X8X8X8X8XqXqXeXdXfXkXfXlXlXlXlXZXZXAXAXAXAXAXAXAXAXAXAXSXSXgXgXgXdXdX5X,X3XHXzXz.<X7.iXVXpXx.x.x.x.x.x.x.x.x.j.j.j.j.j.j.h.J.B.p : : m k d i i W.>Xd.h O.O.O.o.O.o.$.o.m F -XL O.F V n ; - - - - 0 t t t t t t t t t r r r t y y ",
"@ @ & t t B B n B 0 & + & + + 0 ~ V o.V * * 0 & 1 0 2 = = a k S }.K.G A F $.$.K m A a h h h b A D.k.k.k.j.x.x.x.x.u.u.u.aX2Xz.c.a.<X,X3Xi.aXjX3XwXwX4XwX5XeXeXdXlXlXlXgXSXAXAXAXAXAXAXSXZXlXlXlXlXlXhXhXlXlXlXeXjXjXjXaXyXqXqXqXvXaX(.x.8.6.y.t.~.~.h.8.8.u.aX8X6X7X7X/.j.8.r.f.B.F.F.D.D.D.J.h.h.h.f.f.d.d.d.0.q.l.k.x.^.7X7X7X6X7X7X7X8X8X8X8XqXaXjXjXfXkXkXlXlXlXlXlXlXZXSXAXAXAXAXAXAXAXAXSXZXSXZXZXdXfXfXdXyXgXHXyXwX4X,X,X1X,X<X<Xi.vX2Xz.z.z.p.c.v.x.x.x.t.j.h.g.k h s s i s d.-X-Xk # m o.K o.| | | o.K b $ [.O.n V ^ B 0 - & 9 9 9 w w 9 w w w w w w w r w w w w w w w w > 1 t t w r r w w 9 9 w w w 6 w O > R R r w R r w w w w r r r r r r r r r r r r r r r r r q q q 9 t w t t & + t q q t t t t t q q t t t 0 0 0 0 0 0 n n B B B n n n n n n n n n n B 0 0 V V m V g * v V F F F K K F F F G G G G N.S.D.J.h./.xXf B.!.~.~.~.~.!.!.J.~.~.~.~.x./.`.r.;XJ.0.0.r.e./.^.~.^.uX7X2XaXHXsXs.4XrXeXeXeXtXtXkXkXlXlXlXZXSXAXAXAXAXAXAXAXZXZXhXhXhXlXlXlXlXfXlXkX5XaXqXqXqX5X5XqXaXaX8X6Xt.t.t.q.8.r.q.h.8.8.7.iXc.2X8X7X(.t.f 8.f.f.D.D.D.h.h.J.J.D.D.f.f.0.d.g.d.g.g.q.j.x.(.(.(.(.(.(.(.(.7X7X8X8X8X8XaXjXjXkXkXkXlXlXlXlXZXZXAXAXAXAXAXAXAXAXSXAXAXAXJXKXZXdXdX5X3X,XFXzX,X1Xa.8XaXi.c.x.x.x.x.x.x.x.x.j.j.j.j.j.h.h.D.w.g J : p d d w.:X-XA i L O.K O.o.O.o.$.o.b m *XG L F o.J 0 & - & - 0 t t t t t t t t t r r r t t t ",
"+ @ 9 B B B ^ B B 0 & + & + + 0 ^ ^ ^ _ a = n n # 2 2 # = A G C f S d.G F O.@.O.L G G h s h h G 0.q.q.t.t.t.t.x.x.p.u.u.c.u.z.c.<X,X<Xi.8XHXHX,X4XwXwXwX5XeXeXfXHXHXhXgXSXAXAXAXAXAXAXSXZXhXhXlXlXlXlXhXlXlXlXdXjXjXaXaXaXaXqXqX1Xa.7.8.8.t.~.~.9X(./.k.9.u.aX2X7X9X(.t.8.e.D.B.B.B.D.D.D.J.J.j.j.j.h.f.f.d.d.g.g.q.9.9.x.(.7X7X6X7X7X8X8X8X8X8XqXqX5XdXfXkXkXkXkXkXlXlXhXZXSXAXAXAXJXAXAXAXAXSXSXKXKXSXgXfXfXfXdXdXHXyX,XqX1X1X,X<X<Xa.i.i.z.z.c.x.a.x.x.x.t.t.j.k.h.f.l k s G S.}.;XG.s p p b K K | J V | J K b # [.O.n V B B q - & - 1 9 q w w w w 9 9 w w 9 w w w w w w w w w > 9 R t w w w w w w 9 w w w 9 > < r } R r r r t r w w r r r w r r r r r r r r r r r r r r q q t w t q q t 1 + t t t t t t t t q q t t B t 0 0 0 0 n n n B B n B B n n n n n n B n B n 0 V V m m g * v V F F F F F F F G G G G G B.D.G.H.h./.xXf S./.~.~.~.~.!.!.J.~././.x.l.H.}.S {.h.Z n.U.F.!.'.(.c.7X2XzXHXHXsXs.qXrXeXeXeXtXtXkXkXlXlXhXZXAXAXAXAXAXAXAXAXZXZXZXlXlXlXhXfXfXfXlXkX5XaXaXqXqXqXqX1X1X8Xc.9.9.q.9.j.J.~./.(.x.9.9.iX7X8X8X(.9.8.8.h.J.h.f.f.D.h.h.D.D.J.j.h.J.d.d.g.g.g.0.q.8.t.x.(.(.(.(.(.(.(.7X7X8X8X8XpXaXaXjXjXfXkXlXlXlXlXZXSXAXAXAXAXAXAXAXAXSXAXAXSXSXKXFXdXdXyX3Xi.FXFXi.,X<Xi.i.i.c.x.x.x.x.x.x.x.x.j.j.j.j.h.h.h.D.0.j m p S G.}.:XQ.h g h F O.#.o.o.o.K o.K g h *XF K F o.J 0 & - & - 0 t t t t t t t t t r r r t t t ",
"+ @ & 0 0 0 n 0 0 9 + + & + + 0 ~ ^ V V a a N.Z.F m * = a C G N.w.S G O.O.G G G d.S `.d.d A p d.S.D.h.D.J.j.t.t.p.p.x.c.c.c.c.c.<Xi.<Xi.aXHXVX,X4XwXwXwX5XeXeXdXKXHXgXZXSXAXAXAXJXJXAXSXZXhXlXhXlXlXlXlXlXlXlXeXjXjXjXqXqXqXqX8X8Xa.u.9.j.~._.9X9X^.(.(.v.u.vX2X9Xx.9.8.h.D.D.B.B.D.D.J.J.J.J.j.t.x.~.!.D.e.e.h.t.t.t.p.c.(.7X7X7X7X7X7X8X8X8XqXqXaXjXdXfXfXkXlXlXkXlXlXhXZXAXAXAXJXJXJXAXAXAXSXZXZXZXZXgXlXfXkXdXdXKXZX3X1X,X1X<X<X<Xc.7Xz.c.c.c.c.p.p.x.x.x.x.j.k.k.h.l k d K.:XK.f.d.h h F $.K K o.o.| | o.K m $ [.$.n B ~ ~ t - & - 1 9 q w r r w 9 9 w r r w w w w r w w w 9 > w R t w w 9 9 9 9 9 w w w w O > R ~ r r R w r r r r r r w w r r r r r r r r r r r r q q q q t w t q q t 1 + B t t t t t t t q q t t t q q t 0 n n n n n n n B B B n n n n n B n J n 0 B B B m g * v V F F F F F G G G G G G S.G.J.J.J.j./.;Xk S./.~.x.x.~.~./.!./.~.j.8.8.J.}.l }.j.r.y.n.`.'.^.6X6X2X2XHXFXHXaXs.qX5XeXeXtXtXkXkXlXlXlXhXZXAXAXAXAXAXJXAXSXZXZXhXhXlXlXhXhXhXfXlXjX5XjXaXqXaXqX8X8X8X2Xz.x.x.t.t.~.(.9X7X(.7Xx.7.iX7X9X^.9.8.0.h.h.h.h.h.J.h.f.h.h.h.j.x.~.!.D.q.q.g.0.8.l.t.x.^.(.(.(.(.(.(.7X9X0X7X8X8XaXaXjXjXkXkXkXlXlXlXhXZXSXAXAXAXJXJXJXSXAXAXAXSXsXgXZXZXfXfXdX3Xs.zXFXz.i.c.c.<X<Xc.x.x.x.x.x.x.x.x.j.J.J.J.h.h.h.D.f.j p d -X;X`.S.L m * V Z.Z.V O.K O.K $.o.b g [.P L K K J q : - - 9 y t t t t t t t t t t r r t t t ",
"& + & 9 & & & & & & . . & + + 0 B _ V F s C Q.Q.W.A.F a a C G w.d.w.G G ` N.N.N.d.Z :XK.s S p d.S.f.e.h.D.J.J.~.x.~.~.x.p.a.^.c.<X<X<Xz.3XaX1X,X4XwXwXwXeXeXeXdXzXzXgXZXAXAXAXAXJXJXJXSXZXhXlXhXlXlXhXhXlXlXlXeXjXjXjXjXqXqXqX8XqX8X7X7X(.(.7X6X7X^.(.'.(.p.vX7Xv.t.q.k.J.D.f.B.F.D.J.J.J.j.j.x.x.c.(.'.~.q.q.t.t.x.~.(.7X7X7X7X7X7X7X7X7X8X8XqXqXyXjXjXfXfXkXlXhXlXlXlXgXZXAXAXAXJXKXJXAXAXAXSXLXgXLXgXgXlXlXlXdXdXFXHXzX1X1X,X1X<Xa.<Xc.a.c.a.c.c.x.c.x.x.k.t.j.t.t.h.l f d }.}.f S d.S K $.J K K o.o.| | | J m $ [.$.n B ! ~ t - - - 1 9 w w r r w w w t R R R R R R R t w w > O 9 R R R R R t t w w w w w > O 9 R R r R R w w w w r r r r w r r r r r r r t r r r r q q q q t w t q q t 1 + } t t t t t t t q q t t t t t t n n n n n B n n B B B n n n n n B n J n 0 n m n v ; * m F F F K K G G G G G ` G S.G.J.J.J.J./.;Xk S./.~.x.x.x.x.x.J.~.t.y.l l h.}.8.(.k.t.t.)._.9X^.6X2X2X3XHXFXHXVX,XqX5XeXtXtXtXkXkXlXlXlXgXZXAXAXAXAXJXJXSXZXZXZXlXlXhXhXhXhXgXhXlXzX5XrXqXqXqX8X8X8X7X8X7X7X(.7X7X9X7Xc.2X7X8Xc.a.cX(.~.p.8.l.h.h.h.h.h.J.h.h.h.h.h.j.x.~.^.'.!.t.q.l.k.k.x.^.^.(.7X7X7X7X7X(.7X7X0X8X8X8XqXaXjXjXkXkXkXfXhXlXhXZXSXAXAXJXJXJXJXAXAXAXAXSXLXgXgXdXdXfXdX4Xi.zXFXz.c.c.c.c.i.c.x.x.x.x.x.x.x.x.x.J.J.J.J.J.h.h.g.j j k ;X`.f C S.o.v O._ F @.o.K o.K $.$.v g [.K O.F K J q - - - 9 y t t t t t t t t t t r r t t t ",
"t 0 0 B 0 0 0 0 + + . + & & + 0 ^ V F Q.S.0.G.S.S.G.N.C C N.G.w.S d.B.w.G b.b.w.f.l ;X`.d l j L D.h.h.h.J.j.J.x.~.p.p.p.^.^.^.a.<X<X<X,X,XaX3X3XwXwXwXwXeXeXeXkXdXyXgXZXJXAXAXJXPXPXJXSXZXgXhXhXlXlXlXlXhXlXlXeXkXjXjXjXqXqXqXqX1X1X8X8X7X7X7X6X0X7X(.(.(.u.vX7Xx.~.~.j.h.h.D.D.D.D.J.J.p.x.x.x.6X0X9X9X~.t.t.p.~.^.7X7X0X7X6X7X7X7X7X7X0X8XqXqXqXqXrXdXfXkXkXhXgXhXfXlXgXSXAXAXJXPXPXKXAXAXSXSXKXKXZXgXhXlXlXlXfX5XyXzXaXwXqX1X<X,X<X0X<X<Xc.c.c.a.p.p.p.x.x.x.j.k.t.h.l f d }.;Xf l k L $.$.| K K o.J | | V V m # [.$.n B B ~ q - & - 1 9 w 9 w w w 9 9 w t t R R t t t r w 9 > O > w w t ~ R R R t w 9 9 > O 1 w r r R R r r w w w r t t r r r r r r r e e e r r r r q q w w t w t q t t 1 + } t q t t t t t t t t q t t t q n n n n n B B B B B B n n n n n n n | n 0 n v v v ; a m V F F F K K G G G G G G N.G.G.J.J.J./.;Xk S./.~.x.x.x.~./.!.!.J.t.t.g.K.`.8.v.u.k.~._.~.c.6X6Xc.7X7XaXFXHXHXyX5X5XeXeXtXfXkXfXlXFXhXgXSXAXAXAXAXJXJXSXZXZXZXZXlXFXZXgXgXgXZXzXdX5XjXqXqXqXqX8X2X2X8X0X<X7X6X6X7X8X8X6X6X<X2Xc.cX(.^.~.~.h.h.h.h.h.J.h.f.h.k.h.j.x.^.(.7X9X(.t.t.x.~.~.(.(.(.6X6X6X6X7X7X(.(.6X6X1XqXqXqXrXjXjXfXfXhXhXhXhXhXZXSXAXSXKXPXPXKXAXAXAXAXSXJXKXZXhXhXkXjXwXi.zXFXi.<X^.a.a.c.c.c.c.x.c.x.x.x.x.x.x.j.j.j.j.h.J.0.d j f ;X'.r.A ; $.$.o._ L._ o.K o.J $.$.v g W.F o.V K J q - - - 9 y t t t t t t t t t t t t t t t ",
"n 0 0 n 0 0 0 0 & & & & 9 & + 2 o.a C :X:XJ.J.J.J.G.G.Y.Y.F.B.B.S.G H N.N.w.w.B.D.f ;X`.d j k L f.t.h.J.J.J.j.x.p.~.^.p.^.a.a.6X6Xa.<X,X,XjX,X3X4XwXwXwX5XeXfXlXHXzXgXSXAXAXAXKXPXPXJXSXJXgXgXlXhXlXFXFXlXhXlXeXjXjXjXrXqXqXqXqX8X8X8X6X2X6X7X0X6X7X7X7X(.p.nX7XuX(.x.j.j.j.D.h.J.h.j.x.x.x.x.(.8X0X0X7X^.p.x.^.'.7X7X7X6X6X7X7X7X7X7X7X0X8XqXqXjXjXrXjXlXlXlXlXKXFXhXhXgXJXAXSXKXPXPXPXAXAXAXSXSXKXZXgXlXlXlXhXfXdX5X5X4X1X1X1X1X,X<Xi.<Xc.a.c.c.c.x.x.x.x.j.k.j.j.h.l.f l d /.{.l l s L o.B | K K o.o.| | J J m # [.#.B V ! ~ 0 - & - 1 9 w 9 1 9 9 > > 1 1 > 1 1 1 1 1 > > < w > < < O > 1 > 9 9 9 > > > > < r t r r R r w R r r t R R R r e r r r r r e e e r r r r r r w w t w t q t t 1 + } t q q t t t t t q q q 0 t t q n n n n B B B B B B B n n n n n n n | n 0 n v ; v ; a m V F F F K K F G K G G G d.S.G.G.H.J./.;Xk S.H.~.x.x.x.~.J.H.!.J.H./.G.K.`.8.(.(./.x./.(.^.c.7X(.^.uXv.2XFXFXzX5XeXeXeXtXkXfXlXFXKXZXZXSXAXAXJXJXPXKXJXSXSXZXhXhXHXKXZXgXKXKXZXdX5XjXqXqXqXqX8X8X8X8X6X0X7X7X7X6X6X6X6X6X7X6Xa.vXuXuX(.'.x.j.h.h.h.h.h.h.j.j.j.x.^.7X9X9X9X(.t.9.~.(.(.(.(.^.7X7X7X7X6X6X7X(.<X1XqXqXqX5XeXkXlXkXlXFXFXFXfXgXZXSXAXJXPXPXPXKXAXAXAXSXLXSXSXZXgXhXdXjX4Xi.jXVXi.6Xa.a.6Xc.c.c.c.c.c.x.x.x.p.x.x.x.j.j.j.h.f.f.k d d cX'.f A v J J #._ ` O.o.o.$.o.$.$.n g [.F o.V o.| q u 9 - 9 y t B t t t t t t t t t t t t t ",
"0 q n 0 0 0 0 0 B . & + + & & 0 b A d ;X;Xk.j.j.J.D.G.G.G.G.G.B.N.G B.N.b.n.w.e.e.r.;X`.k j h S h.h.k.j.j.j.x.x.p.p.a.a.c.c.<X<X6Xa.<X2X,XBX3X,X4XwXwXwXeXeXfXdXdXyXZXJXAXSXJXKXPXPXJXSXSXZXgXhXzXgXHXKXFXhXlXeXjXjXjXyXqXqXqX0X0X0X7X7X7X8X8X8X2X8X<X2X7Xu.nX8X7XuX7Xx.j.k.j.j.t.t.x.p.x.v.(.9X8X8X7X9X^.t.x.'.(.(.(.7X7X7X6X7X7X7X7X8X8X4XqXjXjXjXeXfXkXlXkXhXKXPXgXyXZXJXAXAXPXPXPXPXAXAXAXSXgXgXgXgXZXlXlXhXfXdXdXyX4X1X<X1X1X1X1X<X<Xc.c.c.c.c.c.x.x.x.x.j.j.j.h.g.f l d }.{.8.l k A K | | o.F o.o.| V V K b # E.E.n J B B 9 + 9 9 9 9 9 w 1 1 1 1 1 1 1 1 1 1 > > > > > > > > > > > > > > O O > O > > X w R r r Y Y r w r r r r R ~ } } } ~ R R t t r e e t R R t t t t t t q q r t r 9 + } t t t t 0 q t t t q q t t B q n q q n B n B B n B n n n n V V 0 V J n n n V V m v g n F o.K F K K K F K L L G G S.G.G.K.J.!.;Xs A./.J.~.~.~.~.J.H.!.!.H.H.G.B.B.f /.x.^.(././.(.c.(.(.(.(.7Xz.ZXHXzX5XeXeXtXtXkXkXfXlXlXgXZXAXAXAXJXKXPXPXJXSXAXZXdX5XZXKXZXgXFXFXzXjX5XaXjXqXqXqX8X8X8X0X0X0X7X7X7X7X6X6X6X9X6X0Xi.iXiX7X8XpX~.x.j.h.h.h.h.j.j.p.x.^.9XiX9X7XuX(.9.9.^.(.(.(.(.(.7X7Xc.6X2X2X2X2X<X4XqXjXjXrX5XkXfXfXdXZXKXHXdXyXSXJXSXKXPXPXPXKXAXAXAXSXLXgXyXhXlXfXfXjX4X,X,X,Xz.a.^.^.^.c.c.c.c.c.c.c.x.x.x.p.x.x.x.j.h.h.h.f.d d f xX;Xr.S J | X.$.$.O.@.$.o.$.$.o.| V * E.O.$.o.o.| 0 - 9 9 9 t t t t 5.t t t t t t t y t t t ",
"0 n n 0 0 0 0 0 0 & & & & & & ; C S i `.;Xk.k./.J.J.H.H.J.B.B.G.A.N.N.b.N.B.n.n.D.r.`.K.s k m L l.t.k.k.j.j.x.x.x.c.c.c.c.<X<X<X<X6X<X<Xi.BX1X3X4XwXwXwXeXrXfXdXeX5XFXJXAXAXJXPXPXPXJXSXAXZXgXgXHXZXZXKXFXhXlXdXjXjXjXyXyXqXqX0X0X0X7X0X8X6X6X8X8X8X8X2X2Xu.vXiXc.7X9X7X(.x.t.x.x.p.p.x.c.(.7X7X2X2X8XuX(.p.x./.(.(.(.(.7X2X2X8X8X2X8X4X4XqXjXjXjXfXeXtXfXfXfXfXFXZXyXgXJXJXAXJXPXPXPXPXJXAXAXZXgXgXgXZXZXhXhXhXdXzXHXyX1X3X3X<X<X<X<X<X<Xc.c.c.c.c.c.x.x.x.x.j.k.h.h.h.l l d }.{.0.0.S L K | | V V J o.| V V K m p W.E.v V | B } - + + 1 9 9 9 9 9 9 9 9 9 9 9 9 9 9 9 9 9 9 9 1 1 1 > > > < > O > > O > > O t R t r r r r r Y r r r R ~ } } } } } ~ ~ ~ R R t t r t ~ ~ R t t t t q t t q 9 + } t 0 0 q q t t B q q q t t t t B n q q n n n 0 n n n n n n n n n J J n v n V V n g * v V F F V K K K K K F A A S d.K.K.f.f.`.cXk G.H.~.~.~.!./.K.H.H.J.m.e.l f i d /./.~./.~.x.(.v.c.7X(.(.iXBXFXHXlX5XeXeXtXkXkXkXkXfXdXgXSXAXAXJXKXPXPXPXAXSXAXZXyXhXKXKXZXgXgXgXzXdX5XjXqXqXqXqX8X1X8X8X0X0X7X7X9X9X9X7X(.7X7X^.c.vXpX<X2X2X^.~.t.h.h.h.h.j.x.c.6X0X0X7X7X7X9X(.9.9./.(.(.(.^.c.(.(.2X7X7X2X2X3X1XqXaXqX5XeXwXdXfXfXdXhXFXFXyXgXJXJXJXKXPXPXPXKXAXAXSXJXSXgXZXZXZXhXkXjX4X,X3X3Xz.c.^.a.a.6Xc.c.c.c.c.c.c.c.x.x.p.x.x.j.j.j.J.g.p j k ;X;Xq.d.K J J | $.O.@.$.o.o.o.+.o.n = E.O.o.V | X.q 9 0 9 9 t } t t t t t t t t t t t R R R ",
"0 0 0 0 0 n 0 0 & 0 & & & + & * A l d }.xX~.j.l.J.J.G.G.G.G.G.W.B.S.G G N.G w.f.f.0.`.K.k j m L h.k.j.j.j.x.x.x.x.a.a.a.a.<X<X<X<X<X<Xi.<XBX,X,X4X4XwXwXeXrXkXfXeX5XZXJXAXAXJXPXPXPXJXSXJXZXyXFXPXFXZXZXhXzXlX5XjXjXjXdXqXqXqX8X8X8X2X2X8X8X8X2X8X<X2X7X7Xs.cXBX9X7X7X7X(.~.t.t.p.u.p.c.7X7X7X2X8X8X8X7Xc.p.v.9X(.7X7X2X8X8X2X8X1X1X4X4X5XrXjXjXfXkXeXtXfXfXfXkXfXdXyXZXJXAXJXPXPXPXPXPXJXAXJXLXgXZXZXSXZXhXhXhXfXfXKXFX,X3X1X1X,X,X,X<Xc.c.c.c.c.c.c.x.x.x.j.j.j.j.h.f.k d i W.;X0.g.d.L K o.o.o.o.o.| V | o.F h = W.[.m m B n 0 + - - 1 9 9 q w w w w w w w w w w w w w w w w w w w 9 > > < > > > > O > > < ~ R r r r Y Y R ~ r r r R ~ ......} } ....} ( ~ ~ ! t ! ( } R q q q q q t ! e 9 & } t t q t t q q q 0 0 0 t t t B B B B B B V V V n n n B V | | ^ V J V n v n m m n v g n V K K K V J K K K K L L G Z S.`.D.H.`.K.i B.H.!./.~.!.J.H.H.D.q.y.f f Z b.c h./././.'.(.v.c.7X7Xc.2XnXHXFXHXlX5XtXtXtXtXfXkXkXfXdXgXSXAXJXJXPXPXPXPXAXAXAXZXyXZXKXKXSXZXhXgXzXdX5XjXqXaX4XqXaX8X8X7X6X7X8X2X<X6X7X7X7X(.9Xc.u.vXiX2X2X<X7X^.~.j.h.l.k.t.~.6X0X0X0X7X7X7X9X7X9.9.(.(.^.^.7X(.7X<X<X2Xc.<X1X1X4XrXjXjXjXjX5XdXfXkXfXfXlXdX5XZXKXSXJXPXPXPXPXKXAXAXJXSXsXZXKXKXZXgXgXdX3X,XFXFX,Xi.6X<X<Xi.a.c.c.c.c.a.p.x.x.x.x.j.j.j.h.h.h.d.j h s ;X;X0.G K J K $.$.o._ _ o.$.$.+.o.V n L.$.o.^ | | y 9 9 9 9 t } } } t t t t t t t t t y y y ",
"0 0 0 0 n B 0 9 @ t & + 9 + & * S i f xX}.q.H./.H.G.A.A.Y.G.A.A.B.A.S.S.S.G d.S.f.g.}.K.k h b L f.k.k.k.k.j.x.x.x.x.c.c.c.a.<X<X<X<X<X<X,XBXaX3X4XwXwXwXeXjXkXdXeXdXgXKXJXSXJXPXPXPXJXSXJXKXyXhXZXZXZXZXgXzXzX5XjXjXjXdXyXqXqXqX1X8X8X2X<X2X8X7X6X7X9X7X^.9.(.cXvXvXiX9X9X9X(.x.x.c.(.7X7X7X8X8X8X8X8X8Xc.u.p.(.c.6X2X<X<X2X2X<X8XqXqXqXqXjXjXjXtXfXeXeXkXfXfXkXkXkX5XZXJXJXJXPXPXPXPXPXJXJXKXZXdXgXJXSXZXhXhXfXdXdXZXKXzX3X,X,X<X<X<Xc.c.c.c.c.c.x.x.x.x.x.j.k.k.l.g.f.k s k }.:X0.S S G F K | o.o.| V V J K F A $ K.:XS.m g v 0 + 9 9 9 9 9 t r r r r w w r w r r r r r r r r w w w 9 > > > > > > > O > > > ~ R r r R ~ ~ ~ ( ! t r r ~ } ....( } ..........} ( } ....} } } ~ q q q t t q 1 + } } ~ } t t 0 0 0 0 0 0 0 0 0 0 q q B B B J J J n 0 0 n V | | | B B n v v n n n n v g n V K K K K K K K P P L L N.Z S.`.K.`.G.d d H./././.!.`.K.K.D.r.y.t.~.J.H.-XZ 0.`.`./.`.!.'.(.c.c.2X2X2XsXsXgXdX5XkXtXeXtXkXlXfXdXdXZXJXJXJXJXPXPXPXKXAXAXJXZX5XyXgXKXKXZXgXlXkX5X5XjXjXaXqX8X1X2X2X7X7X9X2X8X8X8X7X^.(.7X(.(.9.7XnXnXaXiX9X9X'.(.~.j.x.x.7X0X0X0X8X8X7X7X9X9X9.9.(.(.(.(.c.c.2X<X2X8X2X8XqXqXrXrXrXjXjXqXwXjXfXfXfXfXfXdX5XFXKXSXKXPXPXPXPXPXAXAXSXgXyXgXKXJXZXgXgXdX3X3XHXyXi.<Xi.<X<X<Xc.c.c.c.c.c.x.x.x.x.x.x.j.h.h.f.h.d.j a p :X;XZ L K o.o.$.O.$.o.o.$.o.o.| V 2 = #.$.O.^ V B 9 9 9 9 9 } X.X.X.X.} } } } } } } } X.X.X.",
"v 0 0 0 n B 0 9 9 B + + 0 & 2 * h G.cXmX}.K.K.B.N.V.V.V.P.P.A.A.S.S.S.S.S.N.S.S.d.d.W.K.C h m L B.h.h.h.j.j.j.j.x.x.x.x.c.a.a.a.i.<X<X<Xi.BXHX3X4X4X4XwXeXjXkXeX5X5XyXsXZXJXKXPXPXPXJXJXLXgXdX5XdXZXZXlXgXjXjX5XjXjXdX5X5X5X4X1X1X3X1X1X<X2X6Xc.9X(.^.(.'.t.9.9.7.u.v.x.x.^.(.9X(.7X9X7X8X7X2X2X8X8X8X8Xc.u.x.uX9XpX8X8XiXiX8X8XaXaXaXaXjXjXjXjXkXkXeXeXkXfXfXkXkXdX3XHXKXJXPXPXPXPXPXPXKXKXZXgXdXyXZXSXZXhXhXfXdX5X3XzXHX3X<X6X<X<Xc.c.c.c.c.x.p.p.p.x.x.j.j.k.j.h.f.f.k h h Q.:Xd.d.S L L K F o.o.o.| | o.K A A p Q.:X}.[.[.*X+.0 9 & 9 t q q r r r r q q q q r r r r r r r r w w w w > > > 1 > > 6 > 9 > O ~ R t R ~ ( ( ( } ~ R e t ~ } ....( ( ............} *...( ~ X.*.X.*.*...X.X.~ q 9 t t } } ~ t 0 0 9 9 9 9 0 0 0 0 0 0 0 0 0 0 0 0 0 0 0 0 v n v 0 n n n v n n n n v g * v n m m v m b v g h h s d d d k f d f d i i f.J.~.~.~./.K.K.`.).~./._././.W.b l K.H.Y.%X-X/.(.(.9XuXpXaXBXHXHXFX5XeXtXtXkXkXkXkXfXyXZXKXKXJXKXPXPXPXKXJXSXZXgXyXyXyXKXKXZXhXlXzX5X4XaXqXaXqX8X8X2X2X7X(.7X<X<X<X2X2X7X7X(.7X9X9.6.9.9.p.(.(.(.(.(.(.(.(.7X7X7X0X0X0X0X8X7X9X7X9.9.(.uX9X7X9X8X8X8XqXaXiXaXaXjXjXjXrXjXjXaXwXjXfXkXkXkXkXeXwXgXZXLXKXPXPXPXPXKXJXSXsXyXyX3XZXSXhXgXdXdX3X3XFXFXi.c.c.c.c.i.c.x.x.x.x.x.x.x.p.j.j.j.J.J.h.h.D.d.a : h :X:XS N.O.O.o.F _ o.$.$.$.| o.$.$.v = m m n v & - + - - 9 9 9 y y t t X.X.X.X.X.X.X.X.} } } ",
"n n 0 0 0 B 0 0 t t & . 2 & & = W.mXcXg.i f i $ $ # = * = a b h A s C b b G F b S k S S h b V G N.f.f.f.f.f.h.h.t.t.t.x.^.^.^.^.6X<Xc.i.pXVXBX,X4X4X4XwXeXjXkXeX5X5X5X3XLXKXKXPXPXPXKXZXyX5XdX5XhXFXlXlXzXzXrX5XjXjXjXyXyX5X8X8XaX3X8XaXaXpXpXuX(.9X(.(.p.6.9.x.u.p.t.t.9.7.9.~.(.7X7X7X8X8X8X8X8X8X7X7Xc.p.^.cXcXvXvXaXvXvXvXvXaXaXaXaXjXjXjXjXjXjXrXeXlXkXkXkXkXkX3XsXLXLXPXPXPXPXPXPXPXHXyX5X5X3XgXKXFXhXfXfXjX5X3Xz.aXz.c.6Xc.c.c.c.c.x.~.~.~.~.~.x.j.j.h.h.q.q.g.d.b p a b O.i C f k C b a g * * * * & = $ $ # d S A P L O.J - - 9 9 t r t r r r r r r r r r r r r r r r r w w w w > > 1 w 9 9 w 9 w > < } ~ R ~ ..........( ~ t t ! ( } ....X.....X.........*.} w 1 e q q q t t t t q 9 & + & 9 t q 9 1 9 9 9 9 9 0 0 0 0 0 0 0 0 0 0 0 0 n 0 0 0 v n v 0 v n n n B B m n m v ; g v g * * $ = h A G L G S w.B.f.e.f.h.D.J.f.q.6.6.8.6.f 0.d.f.J.j.7.6.6.f f i d f i f d f 6.7.7.7.9.9.u.z.sXFXVX5XeXtXtXtXkXkXkXdX5XyXsXsXKXKXPXPXPXKXKXLX3X5X5XyXyXZXKXZXzXjXzX5XqXzXaXaXyX3X3X3X2X7X7X9XiXiX8X8X7X7X7X(.c.9.6.9.k.t.t.9.9.9.9.t.~.(.7X7X7X0X7X0X7X8X8X9X9X^.t.x.uXcXvXvXvXvXvXiXvXvXaXaXaXaXaXjXjXjXaXjXwXjXkXkXkXkXjX5X5XsXLXHXPXPXPXIXPXKXKXZXsX3XyX3XgXZXhXhXfXdX3Xi.3XHXpXp.~.x.c.p.x.x.x.x.x.x.x.x.~.j.j.e.0.0.d.d.f.Z g q : #.S.Z h h m m C N B V n F m v n g = = = $ * # # : - y + + + + + + + 9 + + + + + + + + + + + ",
"v n n n 0 t t 0 B - & + & & % = A d.k k G S h *X@.2 2 M 2 = a p p i O.b $ b h p h p s h h b V b C C C C k k l l r.8.t.x.~.~.^.^.6Xa.a.<XBXBXi.1X4X4X4XwXeXjXjX5X1X8X4XaXHXPXPXPXKXPXPXFX5XqX5XyXyXZXFXFXjXyX5X4XHXHXHXFXFXFXGXVXnX6Xu.8XnXMXvX^.v.(.u.7XiXBXBXiX(.^.x.j.j.t.t.x.9X7X6X7X8X8X8X8X8X7X9X(.~.t.j.x.t.p.p.u.p.u.a.2Xc.c.c.z.,X,X,X1X,XwX,XwX5X5X5X5X5XeX5XyXsXHXPXPXPXPXPXPXPXGX3XyX5X3XsXKXFXzXgXfXrX5X1X<Xs.s.s.7.7.7.7.7.6.7.6.6.y.6.6.6.f f f f f f f k h g n v h p A.B.d.d.L F V n n v ; * m O.P P g.k k k j a ; @ 9 9 9 q w t r r r r r r r r r r r r r r r r w w r w 1 > 9 w w w w w r 1 >  ... . ...&.........( R R ~ } ......X.X.X.........;.} e > O O @ +     o @ + + o @ + + + & 9 9 9 9 9 9 0 0 0 0 0 0 0 0 n n n n B n B B B n n n n n n n B B B B n m m v g g v g * a a b G S.A.Y.W.`.H.H.H.`.}.'.`.'.}.'.uXxXcX{.l i l d q.uXcXnXnXvXnXvXvXaXiXnXv.9.7XiXaXaXpXpX8X3X3X3X3X5XrXeXeXkXkXkXdX5XqXaXsXLXPXPXPXPXPXPXKXgX3XqX5X5X5XZXFXZXlXVXjXi.3XGXHXHXHXVXVXGXGXBX7X7.cXvXnXvX7Xv.z.v.2XpXnXMXcX(.(.v.8.8.9.9.x.(.7X6X6X7X7X7X7X6X7X7XuX/.t.t.t.8.9.6.9.u.u.u.c.(.u.z.v.x.z.i.z.i.z.,Xs.3X5XwXwXwX5X5XqXaXHXPXPXPXPXIXPXKXPXGX2XqX3X3XgXFXlXkXjXrX1Xi.i.z.nXcXj.j.t.x.x.x.x.x.x.~.~.~.J.J.e.r.l k C C Z C g q @ = p k C C C F F F n n * m ; # = # # = = $ = = = ; @ @ 9 9 9 9 t t t t 9 9 9 9 9 9 9 9 - - u ",
"M n B n 0 n B t B . & & & 0 & ; b L d.N.N.O.` -X#X2 5 _ _ F O.C s C :XW.s G A A k s k C h b b C C C C C Z l l 8.f f 6.7.7.7.7.7.7.s.7.2XpX7.i.1XwXwXwXwXeXjXrXwXi.i.i.s.pXbXGXDXDXHXKXGX8XaXaX3XjXFXFXzX3X,X,X,X3X3X3X3X2X2X2Xc.u.9.u.9.6.9.t.7.9.7.7.nXVXvXpX2X(.9XuX'.(.(.(.(.7X7X6X<X<X<X<X<Xz.c.c.u.9.9.k.k.k.l.u.p.u.s.p.7Xx.u.u.u.i.i.,X,X4XqX5X5XyXyXyXyX5X4X3X8X2XGXHXGXHXLXsXGXDXcXpX8XaX3XsXZXzXdXdX5X5X1X<X8Xu.i.a.a.i.i.i.u.u.u.u.9.9.9.9.9.8.9.9.9.9.8.l k j v V a a C -XK.d.G G F V v g * * v L.:X[.}.}.}.-X[.W.[.| - & 1 9 t q q r r r r r r r r w w r q r q r q w r r w 1 1 9 w w w w 9 w 1 > X.:.&...............} ~ R ~ } ....................:.R 5 1 9 1 1 q :.:.:.>.:.>.:.:.~ q 1 9 w t q t 0 0 0 q t B n 0 n n n n n n n n n B n B n n n n B B B B B n n m v g * ; v v g g g b F F A H d.D.Z k 0.J.J.D.D.f.t.k././.cXbXh.f f f /.bXcX9XpXpXiXpXaXaXnXBX7Xv.GXnXvXnXBXGXHXFXFXFXaX5XeXeXtXtXtXfXjXwX,X2Xu.|.LXLXDXLXLXDXLX2X2X1X8XqX3XFXHXgXyX5Xi.s.i.u.z.3X3X3X3X3Xz.u.u.9.9.t.t.9.9.7.7.7.nXnXvX7X7X7X7X(.(.(.(.(.^.7X7X9Xc.c.c.2X2X2X<Xc.c.9.8.t.t.9.j.k.9.9.9.u.(.(.u.9.9.9.9.7.i.2X8X8X8X5X5XqXaXaXqX,X<Xu.l.k.[.[.|.|.|.|.|.l.u.i.2X3XyXFXdXdXeX5X,Xi.c.7.6.~.t.f q.6.6.6.8.8.q.q.q.e.e.e.q.l l l l l f k a : n m h s -XW.S.L O.O.$.o.O.K m K [.:X:X:X:X-X-X*X*X[.o.q 9 6 + 9 t t y 9 t t y y 9 9 9 9 9 9 w ",
"0 n 0 0 B 0 0 B n . + & & 1 & 0 V V V N D D D D b D G F S.G.w.S s h G.cX`.f S k 0.f.d.C m g k b.B.e.f.D.e.q.t.x.^.v.v.x.c.6X7XpX2Xz.7.7.p.p.a.aXjXjXfXkXfXkXjXi.s.9.p.9.l d x.vX6.pXcXf 9.7.9.v.8XaX3X5X5XdXzXzXzXzXyX,Xi.u.u.p.u.u.p.t.t.D.q.8.9.9.u.aX<X<X7X7X7X7X(.(.7X7X7X7X<XBXnX7.2XVXaXaXzXaXaXpX2Xz.u.u.9.9.9.u.p.x.u.iX(.x.p.i.1XqX4XqXzXVXFXFXHXHXFXFXyX3X6.f f 6.d l.nX3Xz.sXv.6.9.7.p.u.z.BXaXgXgXdX5X1Xa.i.u.u.8XHXFXFXFXGXGXGXHXGXGX2Xu.nXGXGXGXGXGXpXf d j g m p g s ;X`.0.L L P m g p h $ A.S.A F K m m m V V V q - + 9 9 9 w r r r r r r r r r w w w w w w w y w 9 w 9 > 9 w 9 w w w w t 1 5 *.;.+.+.+.+.+.+.......} } ............^ ........:...> > > e O 1 2.;.*...........| } ~ ! t t t t t q 9 B B 0 B n 0 n n n n n n n n n n n v B B n n B m m m m m m m n v ; 0 v 0 ; ; m V K P L N.S.S.B.k k f.S.S k w.r.8.~.9.9.cX9.6.f j.xXt.~.x.p.x.p.u.p.u.x.u.x.(.MXu.c.c.z.2XzXFXFXFX1XjXVXlXfXlXlXlXqXs.7.f 8.d # j DXv.9.nX|.i d f 6.s.3XVXzXyX3X3XyXzXzXaXsX3Xu.s.7.u.9.9.p.t.t.t.q.8.9.x.7.u.vX2Xc.7X7X(.9X(.7X(.7X(.7X2XvXnXu.x.VXBX8XaXaXaXaXpX2Xv.9.9.9.9.9.q.j.t.(.uXx.x.u.z.<X1X1XjXzXVXFXHXFXHXHXFX3X7.f l i i p f pXvX9.v./.$ d f 6.u.3XzXdXdXjX5Xi.^.p.6.r.l 8.f 7.6.6.6.6.f i k k k l f f f f 8.8.8.6.8.p m g g m k cXK.d.L L o.^ o.K m $ P >XE.Q.E.E.E.E.L.E.L.o.n 9 9 9 w t t q q t q t t 9 9 9 9 9 9 w ",
"0 n 0 0 B 0 0 B q . & & & & 1 n ^ V V V V F F F V.:XNXNXc e.D.0.A p Z '.cX`.l f J.H.K.S.P A Z w.B.B.D.J.j.t.x.x.cXvXiXiXvXvXvXnXVXHXnXu.p.^.s.qX5XeXeXeXeXjXqXs.9.8.f f.0.f (.nX7.nXbXi f f f 9.<XVXHXFXVXFXFXlXzXVXVXaXz.x.p.p.p.9.t.j.e.q.q.j.6.p.nX8X8X8X6X7X7X7X7X7X7X7X7X7X6XiXvX9.c.nXaXqXBXVXVXBXVXVXnXaXiXpX(.v.u.u.u.iX9Xa.c.qXqXqXqX5X5X5X5XdXlXFXFXlX3Xz.6.f j.!.d x.GXyXi.aXsX6.f y.6.6.9.BXHXFXFXlX4XqXs.7.u.u.7.zXzX5X3X3X3X3X3X3X3Xz.v.pX2X2X3X,X2XpXpX}.I : m h h s ;X`.0.P A m m j g i p -XW.F K J | J | V V V B 9 9 9 9 w t R t t r t r r r r t t t t y y y w t w y 9 + 9 y w w t t t ~ 9 & ..:.+.+.+.+.+.$.+...X.} X...........~ ..;.....;.:.w O 1 O 1 > t 3.( ( ^ ............( ( ~ ~ R t q q 9 B B 0 B n v n n n n n n n n n n n n B B n B m m m m B B m m n v ; 0 ; ; 0 n V K K L N.S.D.D.f.f.B.D.S.N.G S 0.q.`./.(.cX(.6.6.cX/.~.~.^._.~.^.^.~.^.^.~.^.9XxX~.(.c.c.2X3XBXFXFX3XaXjXjXdXfXkXjX<X7.9.l K.g.d 8.GXpXu.GXxXi j d i f i.BXFXFXHXFXFXFXFXVXVXGX2Xu.p.x.t.9.j.t.t.q.t.j.p.7.7.nXiX7X6X7X7X7X9X7X7X6X7X(.7X2XiXvXx.v.nXiX3XaXVXBXVXBXGXGXBXnXpX^.x.l.t.9.(.uXt.t.8X8XqXqX1X4X5X5X5XlXFXFXFXaXz.9.f i d.}.d 8.GXGXz.9X{.i d l l 6.2XBXFXzXlXjX2Xx.t.8.q.6.x.pXiXiXpXvXpXuXbXK.k 0.f j.cXMXMXMXMXMXDXbXg.j g a g s cXK.P P O.O...o.h p # A -XF m o.V ^ ^ V | o.V 0 q 9 w w t t q t q t q t q 9 y y w w w ",
"0 n 0 0 B 0 0 B 0 . & & & & 1 B ^ ^ ^ ^ _ _ F F G S.s :X;Xf g.S Z C f J.cX}.f 0.H.J.J.S.h h C w.F.D.D.J.J.j.x.x.u.u.u.u.a.a.p.i.i.aXHXGXz.7.,XqX4X5X5XeX5XaXa.u.9.6.d /.j.f (.nX7.vXvXf f f f 6.7.3XaXyXdXeXdX5XdXjXkXjXi.c.x.p.p.p.p.t.t.t.9.7.s.aXvX<X6X0X0X9X7X7X(.(.(.(.7X7X7X^.uXp.p.iX7X<XaXjXaX3X8XaXaXaXvXvXvXvXiXc.u.0X7Xu.<XvXaXqXqX5XeXeXeXeXeXdXdX5X3Xx.6.d /.uXf k.BXaXi.aXaX6.f 6.9.6.f z.BXyXdXeXqX,X1XVXsX3X,XzXFX1X<X<X<X3Xi.3X,Xa.7Xv.p.c.<Xi.qXVXGXMXh.d S.G.k f xX'.0.P P P m # $ h A.>XQ.F K J | | | J V B B 9 6 9 9 w t t t t t t r r r r w w w w w w w w w w y 9 O > w w t t R ~ ..e 5 ..:.;.+.+.;.+.+.+...................^ ......:.:.! o 1 w > 5 1 X...! ( ....( ^ ^ ( ........} ~ ! t q 0 B B 0 n n n n n n n n n n n 0 n n n V n n B m m m B B m m m n v ; ; ; ; n V G G ` w.B.F.H.J.J.!.H.D.D.G.G.B.w.g.;XbXbXbXbXj.f ;Xh././.~.^.~.~.~.~.x.~.~.~.(.x.x.^.c.7X2Xi.zXFXFX3XqXjXdXeXdXdXaXi.9.6.f x.8.f 8.GXsXz.GXiXd d f f 6.s.,XyXyXyX5X5X5X5X5XqXBXaXu.a.t.t.t.x.t.t.8.t.9.7.u.iXBX8X8X8X7X7X7X0X7X7X(.'.'.7X(.7XuXx.j.uXc.c.aXaX2X<X<Xc.v.v.7XiXnXcX{./.t.^.9Xp.p.8X8XiXiXqXqXqX5X5XeXdXdXzX3Xu.6.f $ l.cXd 9.GXHXz.v./.i d f f f 7.3XVXyXdX5X3Xi.7.6.6.f z.HXBXBXBXnXnXMXnX'.j.8.t.x.uXiX9XpXuXuXuX{.d j Q.Q.A h cXH.P P O.O.^ V p d.W.[.-XO.O.O.o.o.+.| | | | B t t w t r q q t q q q q t q y y w w w ",
"0 n 0 0 B 0 0 B 0 . & & & & 9 B ^ ) ^ ^ V F F G N.A S l f.g.f 8.k d.l `.;XS l J.!.~.J.D.S.h C S.D.D.h.J.j.j.x.x.x.c.c.c.c.c.c.c.i.i.sXHXHX3Xi.qXqXqXrXrXqX8Xi.p.v.(.v.iXx.f z.aXs.8XpX7.u.(.uXvX2Xi.qXqXrXeXeXdXeXrXkXVX,Xa.p.t.t.p.t.9.t.p.u.u.vXHX8X8X1X0X9X6X7X7X(.(.(.(.7X9X9X^.uXx.p.9X7Xc.<XaXaXaXaX8X<X2X<X2X7XiX9Xc.u.0X0Xa.<XqXqXqXqXqX5X5XeXeXeXdXdX5Xs.7.f f c.7Xf 7.BXzXi.aXpX7.9.9.u.v.v.z.aXjXdXeX4X,X3XHXHXHXFXGXBXaX6X6X6X8XjXVXvX6X^.^.7X^.c.0X,X,Xi.v.f j B.B.f k ;X`.0.G F F m L [.:X:X:XG F K J J J | J V B B 9 9 9 9 w t r t t t t r r r t r r r r t t t t w w r w > 6 w r R ~ } } X.r 5 +.:.;.:.;.1.;.+.+.+.................+...~ +.<.( o w R ~ w > 5 :...........( ^ ( ............} ~ B t 9 B ~ 0 n n n n n n n n B n n n n n n V n n B m m m B m m m m n v g ; v v B F G G G w.n.J.F.J.~.J.J.D.F.J.F.B.d.l Z 8.t.k.xX{.i q.H.e./.~.x.^.~.^.~.x.^.^.~.^.(.(.(.(.v.z.<XaXFXFX3XyXjXrXeXeXjX8Xu.7.t.x.^.6.d 6.nX2Xs.aX7X9.v.7XiXvXiX,X5X5X5X5XeXeXeX5XrXVXaXs.a.9.p.t.j.t.j.t.t.9.x.vXVXaX<X8X8X6X0X0X7X7X7X(.'.'.9X7X7XuX~.q./.(.7XiX7Xc.6Xc.v.(.iXvXiXuXx.x.v.p.^.9Xp.x.iX0X8X2X<X,XqX5X5X5X5X5X4Xi.z.(.v.9.u.v.f 7.3XsX7.u.^.l.v.uXpXvXu.,XjX5XeX5X1Xa.pX2X2Xz.aXHXsXi.z.u.a.c.7.9.7Xc.7Xc.c.c.a.c.v.x.k.j.p h W.Q.A k cXK.g.P K o.M N Q.:XbX:X-XO.O.B $.$.+.....X.} R t t t t t r q t q q t t t t 9 9 y w w ",
"0 n q q B q q B 0 . & & & & 9 ~ V ) ) ) ^ V F F A k d.l g.DX;Xl k k 0.;XK.d S J.~.~.~./.NXS h N.D.D.J.J.J.x.x.x.x.c.c.c.c.c.c.c.<X<Xz.sXHXFX1X4XqX5XrX5XaX1Xu.p.c.iXvXBX8X,X,X,XwX4XqXaXBXBXaX7Xz.u.8XaXeXeXeXeXrXjXVXVX3Xi.9.t.t.t.9.9.x.9.u.vXVXVXqX1X8X0X0X7X7X7X(.(.7X7X7X7X7X(.uXx.9.uX7Xc.c.c.c.2X2X2X2X<Xc.c.c.(.^.c.p.iX6Xi.a.i.,X<X,XwXjXeXeXeXrXjX5X,X8XiXiXpXpX<X7.7.5X3Xs.,X2XpXnXBXBXnXpXz.4XjXrXeXwXi.i.sXzXyX2Xc.c.c.^.^.c.2XaXaXaX<X6X^.7Xc.c.c.6Xc.(./.s * O.E.` k ;X`.b.V.` F K [.E.S.L G F $.K J J J J | J J J 9 9 9 9 t R r t t t t t t t t r r r r r r r r R R R w > w R R ~ } ~ ~ } r 1 ;.:.:.;.;.1.;.;.+.+.................:...( >...5 5 ( } } q > + :.&...} ( ( ^ ..................} } B 9 B ^ n n n n n n n n B B B B n n n n J V n B m B m B m m m m m v a g m V F V F G G G b.B.G.J.J.D.J.H.F.w.r.G G S 0.0.g.t.J.}.d 0.`.d q.~.~.~.~./.^.~.^.^.^.^.x.~.x.x.c.pXVXHXFXZX3XqXjXrXrXrXaX<Xx.x.uXvXnX8XuXu.2X3X,X3XaXnXvXvXvXiX7Xs.1XqXrXrXrXeXrXeXrXVXaXi.c.u.x.t.t.t.t.j.9.9.vXnXnX8X2X8X8X8X0X7X6X0X7X7X'.'.(.7X(.uX_.t.~./.c.2X^.7X^.iXnXvX9Xc.7.u.x./.(.p.^.9Xx.p.a.z.c.u.i.,XaXqX5XeXeXrX1Xi.v.pXnXBXvXaX2X,Xi.i.3XqXnXvXvXBXaXpXi.i.qXqXrXqX,Xi.HXHXHXHXHXFX3Xz.2X7X(.c.9XiX^.c.c.c.6X6X^.(.(.(.(./.l p W.A.h C xXH.d.P K o.^ o.:X-X-X-XW.O.o.$.| | } | X.X.} t t t t R ~ t q q q q q q t y 9 9 y t w ",
"0 n q q B q q ~ 0 . & & & & 0 ~ ^ ^ ) ^ ^ V F F A P k g.K.bXDXmXS.i B.-Xg.s 0.J.j.~.~.J.mXk p d.D.j.J.j.J.x.x.x.x.x.x.p.c.c.c.c.c.c.2Xz.nXHXBX4XrXeXeX5XaX<Xp.p.p.u.a.<X<X8XaXVXVXaXqXqX1X,Xu.z.u.u.3XqXeXrXrXrXrXrXjXjX,Xi.p.t.t.x.t.9.x.9.7.iXiX2X8X<X8X0X0X0X8X2X2X7X7X7X6X2X7X7X9Xu.9.7X7Xc.^.x.^.^.6X7X0X<X8X7X7X7X(.(.p.7X9Xa.c.c.7X8X,XqXqXeXeXrXrXqX4X,Xi.7X8XaXaXaXvXvXyXyXaXaXaXvXaXaX1Xi.u.s.,XjXrXrXqX,XyXFXzXi.<Xc.u.9.9X7X2X2X,X,X,X<X7X^.(.(.^.6X(.c.~./.A m ` N.G C ;X`.G ` _ o.J O.g A O.L O.V o.J J J | | J B t 9 9 9 9 y R t t t t t r r r t r r r R R R [ [ } R r 6 < 9 R ~ } } } ~ } e 1 :.:.:.:.:.1.1.;.+.+.+.....+.+.......;...;.:.1 o ....} } w 1 > *.3...X...} ^ ..........^ ^ ....| | B 9 B ^ n n n n n n n B B B B B n n n n J V n V n B m m m m m m m v a g V K K V F F G G w.B.G.J.J.H.J.w.Z Z w.N.N.A.S.D.h.J.h.{.f 0.J.l t.~._.x.~.~.~.x.^.~.~.~./.(.^.^.7Xc.nXHXFXFX3X5XrXrXrXjXaXa.^.p.p.c.a.<X7XiXBXzXzXvXaX8X6Xi.u.u.u.u.1XjXqXeXeXeXeXeXrXzXqXi.a.u.x.t.t.t.t.t.8.9.uXuX7X7X8X8X2X2X7X7X6X7X7X7X9X(.7X7Xc.uX'.t.~.9X7XpX9X^.vXiXx.6.7.c.6XiXiXuX7Xu.x.9Xx.p.c.7Xc.c.<X1XqXqXrX5X5XqX1Xi.u.9.u.3XqX8XaXvXVXVXBXaX0X<Xi.i.i.s.s.s.1XaXqXqX,Xi.zXyXsXsXsX,Xi.2X^.7X^.7XnXnXc.c.6X<X7Xc.c.^.~./.~.J.k p W.W.C Z xXH.d.L K $.o.>.Z.G D G O.F _ $.+.| X.X.*.*.} R t r t } } } t q e e q q q t y y t t t ",
"0 n q 0 n q n ~ B % & & & & 0 B ^ ^ ^ ^ ^ F F F A A d.d S 0.8./.G.Z S.K.l d 0.H.~.~.~.~.bXk h S.h.j.t.j.j.x.x.x.~.^.x.x.^.^.^.^.c.z.c.u.2X2X,XqXrXeXeXrXqXa.i.x.x.9.p.p.7.6.<XBXVX1X7.6.s.p.9.l.x.u.i.aXrXrXeXeXjXrXrX4X,Xz.u.t.t.j.k.8.l.q.6.t.(.7X7X8X6X7X8X2X1X1X7X7X7X7X7X0X9X7XiX^.9.7X0X7X^./.~.x.c.6X6X<X6Xc.u.u.x.^.p.(.7Xu.x.7X7X2X1XqXqXrXeXeXrXrX4Xa.a.p.s.i.i.z.c.z.zXlXVX,Xu.9.i.i.a.p.t.p.,XqXjXrX5X5XFXFXzX3X1X<X(.9.~.^.c.8X3X2X<X8Xc.6X^.^.6X6X<X<X(./.f p k S.A j {./.P P K K K K V o.O.m V o.| J | | | J B t 9 - 9 9 9 w R R R R R R R R R R [ [ [ [ }  . . .r w > > < r ~ ~ } } ( / ..r 1 :.:.:.:.:.;.1.;.+.:.+.+.+.+.+.+.+.....;.&.R 1 e &. .} } 1 1 1 ! :.*.*.:.....} } ....| ^ ......| | B 9 B | n n n B n B B B B n B B n B n B V n n | n n n n m m m m m v v v m G G V J | K F G N.S.G.G.D.f.Z Z N.A.A.S.B.D.J.J.~.~.'.8.f e.J.!.~.^.~.~./.~.~.^.^.^.^.^.~.~.^.(.u.v.BXFXFX5X5XjXrXrXjXqXs.p.t.p.a.u.u.6.s.aXFXaXu.6.7.i.u.p.p.x.x.i.qXaXqXrXrXeXeX5XqX4X<Xu.9.t.t.q.t.h.8.q.8.9.(.(.(.7X7X6X6X7X7X7X7X6X6X7X^.6X8Xz.9X(.9.^.nXvXnXnX7Xu.u.u.^.vXnX7Xs.u.9.u.7.c.9Xp.p.c.9Xc.6X8X8XqXqX5X5XqXqX<Xu.x.x.x.9.u.7.7.u.zXBX<X7.6.p.p.u.9.9.p.p.z.aXqXqX,Xi.BX3Xu.s.i.<X<X^.^.^.^.c.c.c.c.6Xc.c.^.^.(.(.(./.'.H.k p K.G.C Z cXK.d.L O.$.o.+.F O.N._ o.O.o.o.+.....X.X.} R r t t R } ....~ t t t q r t q t t t t t ",
"n n q 0 M n n ~ B % & & & 9 0 B ^ V ^ ^ V V V V G A A S.k f.d.S Z B.G S.P j d.h.j.~.~.~.cXl A L h.j.j.j.j.~.~.x.p.~.x.p.^.^.^.^.c.6Xc.2Xz.s.,XqXrXeXeXrX8Xu.u.x.k.j.~.j.t.6.z.aXaX2X7.6.~.x.q.j.p.u.i.qXrXeXjXeX5XrXjXqX8Xi.7.t.t.8.q.q.0.l l q.'.(.9X7X7X0X2X2X8X0X7X(.(.(.9XvX9X^.9X9X7.^.9X9X'./.t.p.9X0X6X7X8X2Xa.u.x.(.p.(.7Xp.u.7X2X<XqXqX5XrXrXrXrXqX1Xa.a.p.i.i.i.i.6.7.3XlXVXs.7.7.p.a.p.^.t.p.a.8XjXeX5X3XFXzXyX3X,X<X^.t.9.^.7X2X6Xc.c.7Xc.^.^.6X6X<X2X<X^./.0.k Z K.Q.A }.}.[.[.E.o.K K $.K o.$.o.J J J | | | J B 0 9 - 9 9 9 t } } ~ ~ } } } ~ ~ } } [ [ T r 7 > > < < < > w R } } ~ / ( ( ..r 1 :.:.:.:.:.>.1.;.+.>.:.+.+.+.+.+.+...+.:.( o r :.~  .} X.> 1 1 1 X.( X.:.;.X.} ..............| | } B 1 B | n n n B B B B B n n B B n n B V V n n o.n n n n m B m m v b v g b F K F V J K F G N.S.G.K.f.0.w.A.P.A.N.C.B.n.J.J.~./.~.6.f ).H.!.~._.~.~.~.~.~./.~.~./.~.~.'.~.x.uXv.2XHXHXyX5XjXrXrXqX<Xa.].p.x.p.p.u.6.9.8XVX2Xz.6.9.p.p.c.x.t.x.u.qXqX5XrXrXeXrXqXqX8X2Xu.9.q.q.r.e.0.8.8.f k.xX(.9X(.7X7X7X7X7X7X7X2X2X7X(.7XpXz.7X'.6.~.cXc.c.c.7.u.c.7X9XvXiXc.u.u.9.u.9.^.9Xt.x.^.8Xa.6X8XqXqXqXqXqXqXqXi.a.x.j.x.l.u.p.7.7.aXBX8X7.6.j.9.9.j.k.j.9.u.aXaXqX<Xi.VXzXGXnXc.6X6X^.^.^.^.7Xc.c.7Xc.7X^.(._.^.(.^.~./.J.S s W.G.Z S xXH.P $.$.$.o.$.o.o.F o.#.#.^ $.......X.} ~ R R R t R  .&.*.} ! t t t e t q t t t t t ",
"M 0 e B ~ B B :.q 2 & & & & 9 0 n V V V V V V F ` N D ` G w.B.w.N.d.N.S.A j d.J.J.~.p./.cXl k S f.h.h.J.J.~.~.~.~.~.~.~.x.x.^.^.a.6X<X,XsXzXaXqXrXrXrXaX<Xp.p.~.].~.t.t.8.6.u.aXaXa.7.6.t.p.t.j.p.p.i.8XrXeXeXdXyXdXqXaX8X7.7.6.e.f r.Z Z Z c y.J._.9X9X9X8X8X2X7X7X(.(.~.~.uXuXp.p.'./.6.'.^.^.^.t.^.7X0X0X6X0X6X8X8X0X7XiXu.c.9Xp.c.7Xc.8XqXrXrXeXeXrXrXqXi.a.a.a.i.i.a.p.6.7.5XdXjXi.7.6.x.p.a.u.p.p.a.1XjXdX5X3XVXHX2Xc.6Xc.^.x.9.x.7X6X(.(.(.(.^.7X7X6X2X2Xc.^.'.J.k b C D A A A A K $.X.} V J V J o.J V J | J | | B 0 & - 9 9 9 9 9 w R } } } } } } } } } r 6 < < > 7 w r R r > < w ~ } R ~ ( ..R ..~ 5 :.:.<.;.;.<.:.;.>.;.;.>.>.;.....+.+.3.} 5 w ....} } } 1 1 e + 1 + o @ e ;.;.......^ ..| ..^ | :.X.B 0 B | | n 0 n B B B B B B n n n V J n 0 0 B o.m B B V V B m m m v a g m F F F o.V D G H d.G.J.H.e.B.H.G.N.N.G B.C.H.F.J.j.~./.r.f H.H.H.~.~.~.~.!.~.~.~.~.^.^.~._./.x.(.(.v.2XFXHXaX5XqXrXjXqX,Xa.p.p.p.x.t.t.6.u.3XzX3X9.f q.j.t.p.p.j.x.p.1XaXqXrXeXeX5XqXqXaX7X7.6.r.r.r.l f f 8.f 9.~.(.9X9X9X9X9X7X7X9X7X(.v.x.uXcXuX9.(.'.8.l.8.9.9.x.(.9X7XpX7X7X8X8X7XuX(.uXx.p.9X9.p.(.2X<XqXqXqXqXqX4XqXqX1Xi.c.p.~.x.x.9.9.6.u.8XzX8Xs.6.8.k.x.t.t.k.9.u.8XaXqXa.u.BXFXGXpXc._._._.^.6X6Xc.^.^.c._._._._._._.^.^.^./.`.s k `.G.G w.cX-XQ.#.Q.Z.#.o.$.+.$.+.+.+.+.o.+.+.+...~ t t R r R q ~ :.....X.B t q t t q w t w w w ",
"M M M e q q 0 B 2 & & & & & & 0 n n B V V V ^ _ N _ ` ` N.N.b.C.w.w.O.#.A h d.H.J.J.~.J.cXl h S.g.e.h.t.h.j.J.J.~.~.x.p.~.^.^.p.^.u.<X,XFXHXzXqXrXrXrXyXz.p.].].t.t.t.J.q.6.a.aXaXa.7.6.x.p.t.p.p.p.u.1XrXeXeX5XyXyX5XqX8X7.9.y.c r.w.f 8.f 6.6.6.7.9.u.i.c.2X2X<X7X(././.j.j.t.9.x.uX(.8.x.9.x.p.^.iX0X0X6X0X8X8X8X8X8X6X7Xc.i.7Xp.a.2X<XqXqXrXeXeXeXrXqXqX<Xi.a.a.u.p.p.].y.6.4XjXjXi.9.q.~.p.p.u.].p.a.<XaXjXqX1XaXBX2Xu.u.c.^.u.u.6.7.9X(.(.(.(.(.c.c.2X<Xc.(.~.'./.A s s p s p d d = = = * = * = # & ; * 0 & & # # & - 9 9 - 9 9 9 9 9 9 9 > > 1 > > > > > w r 7 6 7 w r R r w > > w / ......( ..( ..~ 5 :.;.:.;.;.>.:.;.;.>.;.+.+.+.:.:.:.2.( 5 w ..&.~ t 5 5 o 1 9 1 9 1 e o o 9 ..3.:.M ....^ ....~ B 1 0 9 0 | | ^ n B n n n n n B B n J J B n ; 0 V o.V V B B n n v v m v g g v m V K V G G G d.w.r.F.w.J.W.G.Z C N.V.Y.B.n.J.J.J.H./.f k K.K.T.H.!./././.`./././././././._./.(.v.v.pXHXHXaXqXjXjX5XqXi.a.p.x.j.j.j.j.f 7.3XBX2X9.f S D.t.p.p.x.p.u.<XjXjXrXrXeX5XqXqXiX7X6.6.l k w.r.8.l.8.6.6.6.f 6.7.7.p.c.7X6X7Xc.(.x.8.l.9.7.7.{.`.r.h.x.^.7XuXuX8X8XpXpX7X7X8XpX(.'.v.x.p.9Xx.x.c.<X<XqXqXqX4X5XqXqX8Xc.i.p.t.t.t.x.l.k.6.7.yXVX1Xs.6.q.h.j.t.m.t.9.u.2XqX8Xa.i.BXFXz.u.<X6X9X_.6X6Xa.<X^.^.^.^.^._._.~._.9X7X~./.f.A k C Z c f r.w.P J m m V o.B J } | ..+.+.+...^ ! ! ! ! M r r R w ~ ;.....X.~ t q t t t t t t t t ",
"o o o o & 1 0 & & & & & & & & ; 0 v n B V ^ ^ ^ N _ ' _ ` ` ` n.b.N.O.#.m p w.D.K.D.h.q.bX0.p L f.h.D.h.J.J.J.J.~.~.~.~.^.p.p.^.p.^.c.2XHX3Xs.aXrXrXjXyXi.u.t.t.p.t.t.h.0.6.p.aXaXi.6.6.j.t.t.p.p.p.a.,XrXrXrXeXeXeXqXaX0X7.y.y.r.8.6.k.GXGXGXGXBXBXBXBXnXnXnXBXnXnX7X9.k.l.9.p.^.^.^.v.7.x.v.v.c.c.^.a.c.6X<Xc.c.a.c.a.c.i.s.c.7Xc.c.2X1XqXqX5XrXeXeXqXqX<Xi.i.i.p.u.p.p.~.8.6.3XzXjXu.6.8.j.t.t.t.].].p.a.aXaXqX1Xi.<X8XnXaX2Xu.7.2XaXu.6.x.'.'././.(.7X7X2Xc.(.(.(.~.f l `.;X}./.{.xX;X;X;X%XP.E.$.n 0 ; & & & V #.>.o.B 9 + 9 9 9 9 9 9 9 > w w 9 9 9 9 9 9 w w w 6 w r R t r 9 > > 9 t ~ ( } R ( ( ..! 5 :.<.<.>.>.>.>.>.:.+.>.R.R.>.+.+.>.:.e 1 ! } t 1 1 9 @ 5 5 . @ & & @ & 2 2 & 1 0 2 % & % & & 1 q 0 0 0 0 B | | | | | | | | | | | | V n 0 * * 0 n B K K K J V V m m v v v g a g m K V #.G A d.w.w.K.T.B.G k C P.W.Z.N.H Z B.H.J.J.K.s k N.N.A.N.S.B.B.F.D.J.J.J.~.~./.~.x.x.~.v.(.nXGXnXaXqXrXrXqXqXs.u.t.j.k.h.m.t.6.u.1XBX8Xt.f N.D.e.p.p.p.p.u.,XjXrXeXeXeX5XqXaXpX(.8.q.w.k C f l.GXGXGXBXBXnXnXaXaXpX8X2X2X2XpXx.t.q.j.x.x.v.uX&Xy.q.x.x.c.x.c.u.z.v.u.u.v.u.u.x.l.9.t.u.9Xt.9.6X8X8XqX4XqX5XqX4X8XiXa.a.x.~.p.j.j.t.l.6.9.8XzX3X7.6.g.t.t.t.t.t.t.u.3XaXaXa.7.HXaXz.2X2X<Xu.^.^.^.c.^.c.^.^.(./.`.'.'._.^.c.^.`.B.A i f S f w.Z Z m J K V m n ~ t t t q 0 0 n n M M 0 M ! ! ! r R r } :.&.;.;...} ~ B R t t q y y t ",
"0 0 4 4 5 & & o & & & 1 & & 9 0 0 v n n V V N N _ _ ' ` O.V.V.b.b.N.#.$.m a w.A.N.S.K.H.cXe.s d.d.f.B.B.D.F.J.J.J.~.x.x.~.^.^.^.(.^.c.vXGXz.i.aXqXrXjXqXu.u.].].p.t.t.f.l f u.iXaXa.8.6.t.t.t.p.t.p.p.i.qXrXrXjXqXqXqXqX7X6.6.Z r.f f v.GXaXaXsXsXsXsXsXaXaXaXpXaXvX(.9.k.J./.(.(.(.9X(.9.uXMXnXnXvXvXvXvXvXcXvXvXvXvX7.7XnXz.s.u.u.i.<X8XqXqXqX5XrX5XqXaX<Xu.a.p.u.u.l.t.J.f 6.z.zXnXu.6.8.t.j.t.t.m.m.m.p.8XaXqXa.a.2X8XBXVXBXc.u.aXGXVXiX7.6./.(.(.(.^.c.^.(.(.(.~.j.f q.'./././.(./.J.).`.T.P.E.o.n 0 0 0 0 0 $.E.R.+.| } J B y 9 9 w w w w w w w 9 9 9 9 9 > 6 6 6 9 r r w 1 1 5 1 e R } ..:.........R 5 ....( ..^ ^ +.+.+.+.( ^ ( +...^ ! 1 5 e e o O + o o @ :.R.2.+X2.>.^ 1 @ & 1 2 0 2 2 o.$.$.^ 2 0 0 0 0 0 0 n B B B 0 0 0 0 0 0 0 0 0 0 ; ; ; 0 0 0 n v n n n v v v v v v ; * ; v m n O.L A L G S w.d.Z k C O.O.o.b $ i k w.B.w.0.0.p p = # g $ s p s d d f f y.9.9.6.9.9.9.t.9.7.u.u.u.<XqXqXqXqX1Xs.t.t.h.l.t.m.m.6.9.2XvX6X9.d N.C.e.t.p.p.p.u.i.aXrXrXrXrXqXqXqXiXx.f f Z k S l u.GXvXpX2XpXaXnXnXnXBXVXGXGXBXVXuXJ.H.`./.'.(.uX`.y.~.bXnXnXvXvXnXiXpXpXiXiXiXvXx.t.bXuXp.c.9.p.i.<XqXqXqX5X4X4XqX8X8Xu.9.t.p.t.j.l.8.q.f 9.2XzX2X7.f 0.l.k.t.t.t.~.u.,XaXaXa.u.GXaXu.z.z.c.2Xv.x.x.(.(.v.(.x./.'././.`./.~./.(.D.S A S.-XNX:XNXNX:X:X=X=X*X#.V } t t t q n +.R.L.R.R.+.! e M ~ R R t } X.} ..X.( ~ t t q w 9 9 9 9 9 ",
";.......M 5 0 0 & & & & & & 9 0 n n n n n n v v _ N _ O.` O.V.` N.V.$.#.V s G S.Q.S.L l r.f d l S S G S S S 0.0.h.t.t.x.t.9.7.9.l.8.p.7.7.7.c.aXaXjXaX8Xu.9.p.t.p.t.t.h.S l x.7X9Xp.q.8.j.t.9.t.t.t.p.i.vXjXaXaXaXqXqX8X(.8.r.w.e.y.6.(.BXi.3X,X3X<X<X<X<X2Xc.c.^.(./.g.S Z g.8.q.t.~.j.f 9.uXv.pX2X7XpXuXuX(.{.{.cXbX9.p.nXiXu.z.c.<X,X3X1X,X,X3X,X,Xi.i.s.p.u.p.p.t.t.t.m.Z f (.vXvXp.6.r.m.t.t.t.t.t.p.p.8XaXvXa.a.c.7.7.pXnX~.6.i.<X2XvX_.6.f 6.p.~._.'.'./._.'.'.!.c Z T.B.S Z q.0.C C F D b n v & & 0 - 0 B | V B B | | } X.t 9 9 9 9 9 9 > > > > > > > > > > > > 1 w 9 + O o o % o % 5 e 5 1 1 + 5 %   % o . % o o % . % % o o % 5 % o o 5 % 1 1 5 e R 1 0 2 >.@XR.R.R.2.+.0 0 ..R.R.:.0 | @X*XR...0 0 0 0 0 0 0 0 0 0 2 0 0 0 0 0 0 0 0 ; ; 0 0 n 0 0 0 * ; ; g g g ; ; ; ; g ; ; ; g g v ; * = p p s p i i a g v * * * C C k f d f d i b m v ; n a b h b h k Z e.J.~.~._.'.'.'.uXuX7Xv.u.7.<XvXjXaXvX2X9.t.j.j.k.t.m.J.f 9.c.iX^.9.c b.F.t.t.p.p.p.t.a.qXaXqXqXqXqXqXiX9Xj.8.Z Z Z 0.f v.BXc.c.c.c.c.c.2X<X<Xc.<X2X2XiX`.k S L 0.q.j./.h.f h.uXpXpX(.7X(.7XuX{.'.uXuXcX/.8.bXcXu.u.p.u.i.i.,X,X,XwX,X,X,Xs.u.u.t.t.9.j.t.t.t.q.f q.2XnXc.6.f g.l.t.j.t.t.t.7.i.aXaXc.7.z.nXnXpXpX2Xz.v.(.(.l.v.u.u.9.9.x.~.'.`./././.~.D.s h Q.K.K.W.G.n.B.#.$.$.#.o.o.~ ~ ! B B ^ >.*XE.@X+X>...! ~ } R R q t t w e e 1 1 9 9 1 1 1 1 9 9 9 ",
"~ ! ! ..e 5 ..+.& & & & & & 9 q B B n n n n v v b z F Z.O.G N.N.V.V.$.$.N a C A = : a A l 0.l j h b C C k k k f f f 8.9.7.9.u.7.6.k.c.7.7.7.v.aXaXaXaX8Xu.l.x.t.t.t.h.h.S l 8.9.9.6.8.8.t.t.t.t.j.t.p.p.qXqX6Xa.a.u.i.s.8.f k Z c y.6.x.nX2XiX2X2X6X6X7X0X9X9X9X9X'.'.0.d p Z l y.q.6.9.6.6.6.6.7.6.6.6.f 6.8.8.8.f f 8.6.uXnXi.8XaXaXaXBXBXVXVXjXi.pXnXaX7X7Xu.p.p.t.t.t.].f f t.~.x.6.y.e.t.t.p.t.t.k.x.u.<X8X6Xa.u.pX2X7.7.9.9.9XpX3X3Xa.u.t.~.9.6.6.6.y.e.J.J.!.).J.s a Y.;XW.d.w.S.A.O._ @._ _ B v 0 0 - - | o.o.o.o.| | B } t 9 9 w w w w r r w w r r w w w 9 > > > 1 1 1 e ( ^ ! e e e 0 e ~ ( ~ ............;...+.^ % M ^ +.>.+.M 0 ~ :.:.;.;.:.3.2.XXR.@X2.R.>.^ ^ ..+.^ +.>.R.R.R.$.2 M >.+.v 0 0 B B 0 B ^ B n n 0 & ; - ; ; 0 ; ; ; 0 0 0 0 0 0 n n v n v n n v v v ; ; ; ; 0 ; ; * v $ a F A G N.S.d.N.F b b v v n A.T.`.`.`.`.f.k i $ v 0 n * a g a g C w.F.H.!.~./.~._.^.(.7X7XpXnX(.s.aXaXiXvX(.t.t.t.t.t.t.t.m.Z r.8.l.q.q.r.w.h.t.t.t.t.t.9.p.vXvXqX,Xi.i.u.9.y.8.r.Z f f f f v.nXc.7X9X9X9X9X7X7X9X7X7X7X6XcX}.d h k f 8.6.8.8.l f 6.f 6.6.6.6.6.6.f f 6.6.f 6.6.~.nXu.<XvXvXnXvXBXBXjXjX1Xs.qXaXvXuXx.x.9.9.t.t.t.q.c 0.l.v.8.y.C d.t.9.t.t.t.j.p.c.aX8Xx.9.7.9.MXGXIXGXu.8.8.j.9.pXGXaXvXpX9.6.6.8.6.8.8.8.S b b Q.Q.0.S.S.n.C.#.$.| F F _ ^ ( ~ M 0 B +.>.+.+.............R t r ~ t q ( ! ! ~ ~ ~ t q 9 1 > > > ",
"^ ^ ! ..e 5 :.:.& & 1 1 & & 9 0 B V B B M n v v b V D Z.W.S.Z N.N.` V V b a h a ; n : p i i k k b m C b h k l S q.J.~.9.(.MXMXc.x.uXVXHXBXz.u.z.,X,X6X^.6.l e.e.h.t.m.m.Z Z f f f f r.c t.t.t.t.t.8.9.9.x.p.7.6.8.6.7.6.8.S S 0.'.cX(.(.nXc.7X6X7X9X9X9X9X6X6X7X7X^.'.t.h.j./.^.7X9XvXvXnXvXnXVXVXGXGXaX7.6.8.q.q.e.h.~.6.c.BX<X1X1XqXqXqXqXaXaXBXi.8XaXiXa.a.u.p.t.t.t.t.p.6.f 6.f f 6.8.8.9.t.p.t.g.l.k.7.<XaX<Xs.pXHXGX7X9.9.8.(.HXHXFXHXpXu.iXiXiXpXx.f i k k d k h v a h L -X[.f.S L O._ ` _ N v 0 0 - & 0 | o.$.o.^ | | $.} y 9 y t t t R t t t t r r r r t 9 > > + + 9 B X.>.2.>.R.@X+X>.>.4.:.:.>.:.:.:.>.>.>.:.2.+.% +.=X>.! 0 ! ..:.3...............;.+.$.+.+.+.+.+.+.>.:.+.^ ^ +.^ 2 2 >.$.n V | | B ^ | | | | B n 0 0 0 0 0 0 0 0 0 0 0 ; ; 0 0 n v v v v v v v 0 ; 0 ; ; ; ; ; ; * p G W.%X-X`.`.T.T.`.`.W.A.x $ b Y.F.J.J.!.'.}.-XG $ n v b z g b a m O.A.G.H.~.~./.~.(.(.(.c.c.c.GXnX7.i.p.x.v.t.e.m.t.p.t.9.q.e.c C i i i f Z r.e.q.t.q.t.h.q.h.j.v.u.7.7.7.6.r.l Z w.Z r./.{./.u.nX(.(.(.(.7X(.7X(.9X7X7X7Xc.cX(.f 8.8.j.(.uXiXiXcXvXvXBXVXVXBXnXt.f h.h.y.q.!.J.j.7.vX<X<X8X8X8X8X8XaXaXBX8X<XaXvXvXc.7.t.j.j.k.t.t.e.c w.d i i H D G t.t.t.t.r.q.t.9.u.7.9.t.9.8.f ~.nXv.f f f 6.f z.GXFXHXHXGX8Xu.x.x.t.8.6.c A m S.-XK.d.B.B.B.O.| $.O.O._ ^ ~ ! M ^ +.#.#.#.$.+.X.:.X.X. .R t R } ( ( :.;.:.:.;.*.X.X.t 1 9 9 9 ",
"! ^ ! ! 5 5 >.:.& 5 1 9 9 & 0 0 V V V ^ ^ ^ n v a m p L -XQ.i k k s a b h s C h g n = Q.bXcX/.8.h m b b k A w.f.J.h.~.x.9.(.uXc.~.x.u.sXHXHXu.z.<X6X6X9Xl.f.B.D.t.t.m.e.H w.8.f f 6.e.y.r.t.j.t.t.t.x.p.9.9.8.f.r.r.e.y.0.S k d /.cXv.v.nXc.^.7X(._._.9X9X9X9X9X0X7X(.q././.~.^.^.a.6X<X<X8X8X2XpXpXaXiX7.7.9.7.9.6.6.9.u.s.iX8X8X1X4X4X4X1X1X4X2Xi.8Xi.c.a.s.p.t.t.q.t.9.p.6.f 8.f f t.q.8.9.p.p.m.f.h.x.u.8XBXiXu.nXaXz.8X~.~.9.u.pXaXaXBXpXz.v.pXpXv.x.(./.0.f d k p v n = a g [.}.B.N.N.` N.O.F v v v ; 0 J +.| | o.+.| ^ B X.t 9 t t t t R R R R R R R R t t 9 1 9 > + R :.e ~ ( B ^ +.! & + + @ 9 q e e t ! ! ! B >...5 2.! 0 4 ^ :.>...! ( ....~ +.;.....+.:.^ ..+.^ +...^ ! ..:.+...! 0 0 L.$.2 n | +.| o.| ^ | | B B 0 0 0 0 0 0 0 0 0 0 0 ; 0 n n 0 ; v v n v v v v v 0 0 ; ; ; ; ; g s W.`.w.r.e.e.e.n.r.w.T.W.k i b.F.J.H.~.t.t.J.!.-Xc h $ a b s b a V N.A.D.D.J.!.'.~._.^.^.(.c.c.nXVX7.9.p.v.(./.e.m.t.p.t.t.t.e.x G l d i l y.y.e.t.k.t.h.h.e.j.9.p.9.8.q.8.f w.Z Z 0.l r.{.xX/.^.cXx.(.(./.(.(.(.(.(.(.9X9X(.vX'.t./.~.x.^.c.(.(.7X6X2XaXaXaXaXiX9.6.8.f 6.6.6.6.6.9.cX0X8X,X1X1X<X<X1X<X8Xi.a.8X<Xc.u.p.t.t.t.t.t.t.q.c b.f d s ` c H m.t.t.t.J.e.t.^.iXpX~.y.t.f e.f f x.MXbXuXuX(.z.BXBXsX3XpX2XiXMXMXnXvXcX}.C $ = S.-XW.S.B.C.#.$.$.O.o.F ^ ^ M n ^ L.L.$.+.$.>.:.*.X.X.*.R R ! ..~ ~ :.;.*.......;.*.R 1 1 9 1 ",
"! ! | ~ o 2 >...5 2 % 0 & & 0 B V ^ ^ ^ ^ V V B B v A A 0.`.`.f d d i i i d d d d f i j.GXGXGX|.p b h A d.f.D.D.D.J.J.j.x.x.x.x.~.~.p.p.<XVXpXu.c.6Xz.iXj.h.h.h.t.q.D.e.e.8.8.9.6.6.t.6.t.q.t.k.t.p.p.u.vXnX^.8.8.r.r.r.r.S Z l k.q.l J.uXuXuX'.'.'.9X'._.CX'.9X9X'.'.h.0.f j.x.p.p.x.p.c.c.6X<X<X<X8XaX6.c.8XvXvXvXaX<Xs.s.7X7X<X1X1X1X4X4X8X8X7Xi.8X<X<Xp.t.t.e.m.t.9.9.t.6.l f f f q.q.8.p.p.].t.h.l.k.p.0X8X0Xi.aXnXu.a.^._.x.v.v.z.z.c.c.v.v.u.u.p.v.9XcXbXuX'.8.k b v v v = b N.S.d.G G N.O.F b a h # K [.J o.+.o.| ^ ^ ^ X.t 9 t t R R R R R R R R R R t R w 9 > 6 O R R r ~ ( ( ^ ^ ! 1 w 9 w t R r r ~ ( ( } ~ :.;.1 M e e ( :.:.+.( ( ( ( ........................( ( 0 M ^ ....;.( 2 B R.n 0 >.V @.^ o.o.| | | ^ B 0 0 0 ; ; 0 0 0 0 0 0 0 0 n v v 0 v g v g v v v g g ; ; ; ; 0 0 g d K.J.0.F.B.e.B.B.B.B.A.W.d w.B.F.m.J.J.!.~.t.q.y.).:X;XW.s s h b N.G.H.J.J.J.j././.~.~.(.(.^.c.vXBXl.l.k.(.^.^.q.h.t.9.k.l.w.S.f r.8.f f 8.f r.m.t.t.q.k.t.9.p.vXvXvX9.8.r.Z w.r.r.8.r.r.D.Z f /.xX{./.{.{.9X7X(.'.(.'.9X9X(.bX'.8.q.q.j.x.x.x.x.x.a.<X<X3X1X1XnXv.7.v.9XiXiXiXu.s.6.uXiXc.6X8X8X8X1X1X8X8Xa.a.0X6X^.9.t.q.t.t.q.l.t.8.f D.i i f r.y.r.q.j.q.h.e.t.9.c.pXpXx.x.nX9.f h.f l.bXIXIXGXHXHXBXBXaXs.u.u.t.x.uXnXnXnXcXS.A p p O.W.W.V.V.Z.#.@.@.o.+.| ^ 0 0 $.*X| $.:.:.*.*.&.&.*.X.R R } ..! ( :.;.;.+.....;...( R 9 1 1 ",
"( ! M e % 0 >.+.% 0 0 ( 0 2 1 n V ^ ^ ^ ^ ^ V B v m S.S.Z Z }.MX}.`.`.K.K.K.K.K.`.`.!.9.(.aXHX|.d m C G B.h.J.J.J.J.J.J.~.~.x.x.x.~.~.~.a.BX9Xx.(.s.aXBXp.t.t.k.t.q.e.q.8.f p.pXvXv.7.f t.J.j.t.t.t.p.c.nXVX(.6.8.r.r.r.r.0.S S h.f.l q.j.t.~.j.J.~.(.(.~.!.t.~.j.j.h.0.l f J.~.~.~.~.x.^.^.6X6X8X8XqXvXs.2X8XaXqXqXBXBXaXi.x.^.0X0X4X4X8X1X2X7X6Xu.8X<X<Xa.t.t.e.e.t.t.t.l.6.6.9.p.x.t.8.6.t.t.].t.h.l.t.p.0X8X0Xi.pXnXc.c.^.a.^.c.c.~.~.^.c.c.c.c.v.c.v.c.(.7XiXxX/.l s ; 0 0 #.@.N.S.S.N.O.O.F O.O.A h m [.[.J | o.....^ ( +...t w t R R ~ R R R R R R R R R R w 9 > 6 O R R r R ~ ~ ( ( e O O O > w t t R R / ( ..~ ;.;.1 e e e e ! ~ ~ ..;.( ( ............................! ! ......;.( 1 } >.0 ^ $.^ o._ o.o.o.o.| ^ B q 0 0 0 0 0 0 0 0 0 0 0 0 n n n v g g g g g g g g g g ; ; 0 0 0 g d `.`.d.B.B.B.B.N.N.N.A.`.s N.D.H.F.J.J.J.D.t.q.t./.;X}.K.k s h G B.H.H.J.J.J.J.~./.'.(./.'.(.c.nXnX8.8.9.c.nXvXt.h.t.9.k.g.e.B.f 8.x.pXuXl.8.8.m.m.t.t.k.t.9.a.BXBXvXx.8.0.C Z r.r.8.8.0.G.L Z 8.t.g.g.h.j.^.7X(.(././.(.9X'.bXK.Z r.8.j.~.~.~.~.~.^.6X6X1X1X1XVXc.s.iXaXaXaXBXVXaXc.u.9X7X8X1X2X8X8X6X0X0Xa.a.9X6X^.9.t.q.t.t.t.q.8.8.6.6.~.{.t.9.6.8.q.t.q.h.m.t.9.c.2X7Xc.c.vXnX6.f q.f f (.2X3XaXaXBXGXBXu.x.x.~.x.x.c.pXpX{.`.K.s a * B #.#.@.V.V.V.@.+.+.o.V n n *XE...:.;.:.*.&.*.*.&.X.R R } ..! } :.;.;.+...+.:.:.+...} ( ~ ",
"! ! ! ..! ! ..! 5 M | +.q 0 1 n V V ^ ^ ^ ^ ^ V n F A F S.0.0.}.;X;X;X{.}.}.;X;X-XH./.j.9.9.nXpXd b C d.D.D.J.h.J.J.J.J.~.~.x.x.k.~./.~.u.nX7Xu.c.aXVXaX7.~.t.q.q.t.f.f.f 6.u.pXnXc.p.7.t.t.q.j.t.x.p.u.<X2Xu.8.8.r.r.r.r.r.Z Z J.h.l 0.8.6.q.r.y.j.^.~.e.e.8.q.8.8.r.l l l J.~.~.~.~.~.^.^.6X0X<X1X8XaXs.6X1X1X1X1X1XvXGXaX7.c.6X1X1X1X1X8X8X0X6Xi.8X<X6Xp.9.t.t.t.t.t.t.t.6.6.c.pXvX^.9.8.j.t.m.t.k.l.t.p.6X0X0Xu.pXBXc.a.^.^.^.^.^.^.^.^.^.^.^.^.^.^.^.^.c.c.c.(.l.l s # 0 | R.>.@.` ' @.o.( _ o._ V p a E.o.o.| | ....| o.....t w R R R ~ R R R R R R R R R R w 9 > 6 < R R r r t ~ X.&...~ w w r r r R Y Y / ~ } ~ :.&.1 t e r R ! ~ ( ....( ( ............................^ ^ ......+.^ 1 ..| 0 $.o.o._ o.o.o.o.o.| | B 0 n 0 0 0 0 0 0 0 0 0 0 0 n n n v g g g g g g g g ; ; ; ; ; 0 0 v d }.}.B.w.N.N.N.N.N.N.B.`.f B.G.J.J.J.J.J.D.h.t.J.H.H.K.Q.h g h V.F.H.H.J.H.H.J.~._._.).)._.^.a.aXnX9.q.u.vXVX6X9.j.t.t.t.t.e.n.f t.v.vXiX9.8.y.m.m.t.t.h.k.t.c.<X3X2X7.8.Z Z w.Z r.8.8.0.G.d.Z r.y.l 0.S 8.x.^.~.t.q.8.9.9.t.J.e.l l r.~.~.~.~.~.^.^.6X6X0X1X1XvXa.s.6X<X<X3X1XaXVXBXs.a.0X1X1X2X7X8X8X0X0Xp.c.0X6X^.9.l.q.e.q.l.q.q.q.f 6.uXnX9Xp.6.q.m.e.q.q.m.m.p.c.2X2Xv.v.nXnXbXj.Z 0.h.j.v.z.u.u.u.pXiXx.~.~.!.~.x.x.v.c.j.f f i b #.E.#.#.Z.V.V.V.#.>.+.$.V n | =X>.+.:.;.*.&.&.*.&.&.*.R R X...! } :.;.+.+.+.;.;.:.;.;.;.*...",
"e ~ ( +.;.! 0 2 M ^ +...0 0 1 B ^ V ^ ^ ^ ^ ^ V B o.b s L d.Z r.l Z Z l l S S S B.b.e.t.x.9.pXcXi b C d.J.h.h.h.J.J.J.J.J.~.x.x.j.j.J.x.u.nX7X9.2XVXvX1Xa.p.9.t.q.h.f.e.f 9.u.z.BXc.u.6.q.t.q.j.t.x.p.c.8X7Xc.9.8.r.r.r.r.r.r.l J.f.C f.j.t.h.r.8.J./.~.r.w.r.h.t.e.Z l k r.J.~.~.~.~.^.^.^.6X6X6X8X8X8Xu.7X1X1X1X1X1X1XBXaX7.(.0X8X4X4X1X8X0X0X0Xi.0X<X6Xa.9.t.t.9.t.t.t.q.6.7.i.8XBXc.9.6.t.q.m.t.h.l.t.x.0X0X0Xs.2XBXc.c.^.^.^.^.^.^.^.^.^.^.^.^.^.^._.^.^.7X^.x.q.0.P v 0 B $.@.@.@.@.o.;.;.:.+.o.n v O.Z.V o.| ......| ^ | ..t r R R R R R R R R R R R R R R w 9 > 6 > R R r r e R } :.3.3.*.X.} R r r R Y R / } ~ :.&.1 R r ~ ......;...( ( ........................................+.^ 1 ~ 0 ^ >.^ +.o._ o.o.o.o.| | B q n n 0 0 0 n n v v v v v n n n n v g g g g g g g ; ; ; ; ; 0 0 v s `.W.N.b.N.N.N.C.N.N.C.`.f S.G.F.F.G.G.J.G.G.J.J.D.B.S.S.s g A G.T.H.J.J.H.!.~.!._._._._.'.7X^.vXnX6.8.6XBX8X0Xt.t.t.t.t.t.m.t.f x.z.aXvX9.6.f m.m.t.t.k.k.t.c.8X8XpXp.r.Z C Z Z Z r.r.r.D.w.Z ).D.f.S.Z Z ~.~./.8.g.8.t.q.q.8.Z Z Z q.!.~.x.~.~.^.^.6X6X0X1X1X0Xa.a.6X6X8X4X1X1X8XvXs.a.0X1X8X2X2X8X8X7X9Xu.p.8X6Xc.9.t.g.q.q.8.r.w.r.f j.z.aX2X7.6.y.m.e.j.t.m.m.p.7X2X2Xz.z.nXv.uXcXq.0.f /.x.x.c.v.p.x.x.x.~.J.F.)././.x.x.h.d k a * V L.$.#.Z.Z.V.V.#.#.@.#.V v V *X| :.$.:.;.&.&.*.*.&.*.t R X...! ..:.;.;.;.;.+.+.+.+.+.+.....",
"t ~ e ~ ^ 0 0 M ^ ..+.^ 5 0 1 ! ^ ^ ^ ^ ^ ^ ^ ^ V V F ` G H d.D.f.B.f.f.f.g.d.N.N.A.B.e.j.f l.{.d m C d.J.h.h.j.j.j.J.J.J.~.x.x.x.j.J.x.p.nX(.7.pXBX1XqXc.9.t.J.t.h.0.q.8.9.z.z.BX<Xu.6.q.J.h.h.q.9.7.6XiX8X^.6.8.0.Z Z r.r.8.8.h.g.C B./.J.J.0.0.H./.!.0.d.g.J.`.H.0.S C w.H.~.~.~.^.^.^.6X6X6X0X0X0X0Xu.7X8X8X1X1XqX1X1X<X7.6X8X1X1X4X4X1X0X0X0Xa.0X<X<Xa.t.t.9.9.9.t.t.q.8.u.a.8XBX2Xv.8.h.D.t.t.l.l.t.^.0X0X0Xs.2XBXc.c.^.^.^.^.^.^.^.^.^.^.^.^.^.^.^.^.^.(._.'.e.C _ | ~ 9 n V G G F V V | B X.+.& $.:XE.o.| ....X.X...| | } t t R R R R t R R R R R R R R R w 6 > 9 > ~ R r r r r t } &.:.&...} Y r R R R R R  ./ *.X.1 t R } } ( ( ................................................+...0 0 0 >.+.^ o.$._ o.o.o.o.o.| B B B n n 0 0 0 n n n n n n n n n n v g g g g g 0 0 ; ; ; ; 0 0 0 v b G.A.N.S.N.N.N.C.B.b.B.`.f B.G.J.G.G.G.D.D.F.J.H.J.D.G.S.p h L G.J.J.J.J.J.J.j.~././.(.^.^.c.a.vXcX8.6.vXvX1X8Xp.t.m.t.t.t.m.t.8.p.i.nXnXu.9.6.t.e.t.t.k.t.t.(.2X3X8Xt.8.w.S G G 0.r.r.r.D.w.Z T.J.G.A.S 0.)._.`.r.f.w.!.~./.e.C S Z f.!.~.x.~.^.^.6X6X0X0X0X0X7Xu.p.0X0X8X1X1X8X<X6Xs.a.0X1X1X8X2X8X8X9X9Xu.u.8X<Xc.u.9.q.q.q.q.h.w.Z y.x.z.aX8Xi.9.y.n.e.j.t.t.t.p.7X7X7Xc.p.BXv.9.6.q.f j.~.^.~.p.x.x.x.~._.).!.H.).).~.^.'.0.f h = v 0 V L.O.Z.Z.V.@.#.#.$.O.o.b $.R.| :.$.>.4.&.&.*.*.*.*.R ~ ....! ..:.+.;.:.;.+.+.....+.+.....",
"e ! q ! ~ M ^ ..^ ^ +.~ 5 q & B ^ N N V ^ ^ ^ ^ ^ n V O.` G d.G w.w.d.d.g.d.N.N.V.N.C.B.K./.uXcXs m b d.D.h.h.J.h.j.J.J.J.J.j.j.x.j.J.!.p.nX7X7.8XBX4XqXa.p.t.q.h.q.e.f.q.9.u.z.2Xc.c.p.t.t.t.t.j.x.x.7X8X7X(.9.r.S Z Z r.r.r.8.h.S.H S.H.j.J.w.0.H.`.H.w.N.d.J.`.H.Z Z k w.H.~.~.~.^.^.7X6X6X0X6X0X0X6X9.^.0X8X8X1X1X1X8X0Xu.^.1X1X4X4X1X8XqX0X0Xa.0X<X<Xc.u.9.9.9.t.t.t.q.8.x.a.<XaXz.x.6.q.f.t.t.l.l.p.^.0X0X0Xs.2XBXz.c.c.^.^.~.^.^.^.~.^.^.^.^.^.^.(.^.^.(.).).Z a n ! R t 0 v z g g v v 0 1 q q # #.:X#.o.| | ....X.X.| | ~ q t ~ R R R t R R R R R R R R R w 6 > 9 > } R w r R t r e ~ } ( ~ ~ R R R Y Y R R  ./ &.&.1 t Y R ~ ~ ( ................................................+...0 5 B >.| _ _ @._ o.o.o.o.o.| V B B B B n n 0 n n n n n n n n n n v v g g g g 0 0 ; ; ; ; 0 0 0 v C N.G N.A.N.N.B.B.b.b.B.`.c B.G.F.H.H.J.J.F.D.D.J.H.H.H.D.d C d.J.J.D.D.J.H.J.j.j././.^.^.^.(.(.vXxXf 8.aXaXqX8Xa.t.t.m.t.t.t.t.x.9.u.pX8Xu.^.8.t.e.t.h.l.t.x.7XqX8XpXp.y.Z S S S S 0.0.r.G.w.H J.J.G.A.S w.`._.!.l d.Z H.!.H.w.C H Z D.~.~.x.c.^.^.6X6X7X6X0X6X9Xp.p.9X7X6X1X1X<X7X0Xp.u.7X8X1X8X2X6X7X9X9Xp.x.0X6X<Xu.9.q.q.g.q.J.G G J.t.<XaXaX<Xp.q.n.n.t.9.t.t.p.7X7X7X~.p.vXu.9.~.t.j.9.p.~.~.].~.^.~.x.~.!.).).)._.~.^._.H.s p * v * * 0 F O.Z.V.@.#.#.$.o.o.o.W.#.#.$.+.$.:.&.&.*.*.*.*.R ~ *...~ ..>.+.+.;.;.+.;.+.+.;.:.+...",
"e ! B ^ | ( ..| ! ^ :.! & q & B V N N V ^ ^ ^ ^ ^ ^ _ F N O.A.N.b.N.N.N.N.S.S.S.C.N.B.w.{.MXMX{.a m b L S.f.h.D.h.D.D.J.J.J.J.J.~.~.!.!.9.nX7X7.8XBX4XqX0Xp.8.h.q.q.B.B.h.8.9.u.u.a.9.8.q.t.j.t.l.9.a.7X8X0X6X6.r.S Z Z w.e.q.8.D.S.H B.J.h.J.w.0.H.`.H.G N.w.J.`.J.c Z k e.J.~.~.p.x.^.6X6X6X6X0X0X0X0Xu.(.0X8X8XqX1X1X8X6X7.^.8X8XaXqX<X<X^.p.~.9.9X6X2Xv.t.9.9.9.t.t.t.e.8.9.c.<X<Xu.x.8.h.D.t.j.9.l.p.6X0X0X0Xs.z.nXz.6Xx.x.~.~.^.~.~.^.^.^.^.^.(.(.^.^.(./.}.W.D n ~ w w R ! M M v M M e q n 0 = g L Q.A G G _ o.o.o.J m n t 9 r ~ ~ R R t ~ ~ R R R R R R R w > > 9 > } R r r R R R R ~ } } ~ ~ } ( Y Y Y Y R  .E &...> r w t ~ ......( ............................................:...0 2 #.>.^ o.o.o.o._ _ o.$.+.o.V n B B B 0 0 0 n n n n n n n n n n n v v v 0 0 0 0 0 0 0 0 0 0 v v D N.G N.B.w.n.B.B.n.e.F.`.l F.H.F.J.J.J.F.H.F.H.J.J.H.F.J.k S B.J.J.D.G.H.H.H.J.D.H.~.~.9XvXcXuXNXH.$ q.aXqX1X8X6Xp.t.D.t.q.t.t.6.9.u.v.x.l.t.6.m.t.h.h.l.t.x.0X8X1X0Xp.8.Z G A C S 0.0.0.G.w.Z H.T.Q.A.G w.!./.`.f.N.G H.!.J.Z C H Z J.~.x.c.c.c.6X6X6X6X6X0X6X(.t.t._.6X0X8X8X8X6X7Xu.p.6X2XaX0X6Xa.p.x.~.9.x.9X6X6Xp.t.q.g.g.r.e.G ` w.8.u.z.i.u.6.8.w.n.t.j.q.q.x.(.(.9X~.t.iXiXnXp.~.(.c.^.~._.^.~.x.~.~.^.~.~.~._._._.^.~.B.$ v n & & B * v F O.N.O.#.#.$.O.V E.:X#.#.:...$.:.*.X.*.*.X.X.R ( &...~ ..>.+.+.+.+.+.;.;.;.;.+.+...",
"! ~ e ! ! ! | B ! ^ $.! & q & ^ V N V ^ ^ ^ ^ ^ ^ ^ ^ _ O.O.` ` N.V.N.N.N.N.N.S.C.N.G.g.h.8.6.8.g B b N.G.B.D.J.D.J.J.J.J.J.J.J.~.].H.!.9.nX7X7.8XBX4XqX0Xp.k.q.t.t.D.Z w.8.t.9.9.p.6.8.q.q.j.t.l.9.c.8X0X0X6X6.r.S C Z w.e.q.r.D.S.D B.H.H.H.w.0.H.`.H.Z N.N.H.`.D.l S Z e.J.~.^.a.c.^.7X6X6X6X0X6X0X7X9.^.0X0X1X8X8X8X0X6Xp.^.8X1XaXBXpXu.9.t.9.9.9X6X(.c.u.9.9.9.t.9.t.q.l 6.9.u.9.6.k.l f.e.t.j.9.l.p.0X0X0X7Xs.pXBXi.c.a.(.^.^.^.^.^.^.^.^.(.^.(.(.c.^.(.(./.`.G b B } t 0 0 v v v v 0 q q 0 V = g p A N.G o.o.| | J B v ; 0 9 q ~ ~ R ~ R ~ ~ R R R R R R R w > > 9 > } R e r r r e t ! ~ ..( ~ } ( R Y E Y R  .E *...> r R R R } } ( ^ ......................................+.....;...0 0 R.+.^ o.$._ $._ o.o.$.$.o.V n B B B n 0 0 n n n n n n n n n n n v v v 0 0 0 0 0 0 0 0 0 0 v v H N.N.S.S.w.e.n.B.B.e.F.`.l D.F.H.!.J.J.H.H.J.J.!.!.J.J.F.r.B.H.J.J.S.A.G.H.H.J.J./.~.~.iXnXuX8.B.p j f vXaX1X8X0Xp.e.D.e.q.e.t.f q.8.8.x.8.d t.m.t.h.h.l.t.c.0X0X8XiXp.8.Z G C S G w.w.0.G.w.Z H.G.A.S.L 0.!.'.H.w.L G H.).F.Z H G Z H.j.x.c.c.c.6X6X6X6X0X0X6X9Xp.p.9X7X6X1X1X<X6X9X7.p.0X<XaXnXvX^.9.7.t.8.~.9X6X6Xp.t.q.0.g.h.w.N.G i J.9.9.9.9.6.e.n.B.r.t.8.t.x.9X(.(.~.9.9XiXiX^.~.~.^.^._._.^.^.^.c.x.x.^.^.~.~.~.^.^./.d.g v & 0 0 2 0 * m O.O.O.O.+.$.#.b W.:X$.$.:.:.:.*.*.*.*.&.X.X.R ( ;...~ ..>.+.;.+.+.+.;.;.+...+.....",
"! ! B ! ! ! ! ! M | +.M 1 0 1 n ^ ^ ^ ^ ^ ^ ^ ^ ^ ^ _ _ _ O.@.@.@.O.O.O.V.S.S.N.B.B.J.h.q.l.9.8.b n V L N.B.D.D.D.D.F.F.F.J.D.J.~.m.).J.x.MX(.7.8XaX5XqXqX0X9.9.9.k.f.B.w.f l h.h.h.f y.D.t.t.x.l.u.<X8X0X0X6X7.r.S A C Z w.g.Z D.B.C C.J.~.J.e.r.H.`.D.w.b.w.G.`.r.r.Z Z e.J.~.p.a.^.7X6X6X0X6X6X7X6X7X9.c.0X0X8X8X1X6X0X6X7.^.6XqX8X8XvXnXuXj.~.9.(.6X<Xc.u.u.9.t.t.9.q.g.g.f 6.j.~.r.f e.t.q.t.t.t.9.x.0X0X0X0X7.aXGX8X8XiX^.7X6X6X6X6X7X6X6X7X6X6X6X6X6X6X^.^.x.t.f i $ j j j $ d p = a ; & & - ; ; B * V ^ ^ ~ ~ r 3 9 9 9 9 e w q ..&. ... . . .X. . . . .R 1 > w < > ~ R r R R r r r e r ! ( ( ( (  ./ ~ Y e  ./ &...> r t R R ~ ............( ..........^ ............| ....+.....:...1 $.>.o.o.+.^ o.o.o.o.o.$.$.o.V n B B B B n 0 n B B B B B n n n n n n n n n n 0 0 n 0 0 n v ; v m G d.d.f.w.B.G.e.e.D.e.h.;Xf D.J.J.J.!.H.F.F.H.H.J.H.H.H.F.H.G.J.H.G.S.A.T.T.J.J.H.h.'.x.9XnX`.i i = = l aXqX4X4X0Xa.t.q.g.g.0.D.r.d f 8.g.f f m.m.m.e.g.l.x.6X0X0X6X9Xp.8.0.Z G S S w.w.0.G.w.r.H.J.G.G.S 0./.'.J.0.d.d.H.!.e.Z C S w.h.x.x.c.c.6X6X6X6X0X0X1X6X7Xp.p.6X0X6X1X1X1X6X7Xp.p.0X0X8X8X0XvXvXx.j.7.c.0X<X0Xa.p.l.8.q.q.f.N.Z c f 8.l.!.f f 0.e.0.r.h.h.9.(.(.(.uXx.9.GXGXx.x._.~._.^._._.^.^.^.^.^.^.~.~.^.^.^.^.^./.N.= ; 0 0 1 0 0 a a O.S.Z.$.o.#.$.^ E.*X>.#.2.:...:.:.*.X.X. .} r ..*.*.....:.:.;.+...+.;.;.+.........",
"! ! B ! ! ! ! ! M ..+.0 1 0 9 B V V V ^ ^ ^ ^ ^ ^ ^ ^ ^ _ _ _ _ o.@.@.Z.V.N.N.B.B.D.e.8.'.GXGXj.h n V N.A.D.B.f.D.F.F.F.J.J.J.J.t.!.H.D.8.nX(.9.8XvX4XqXqX0Xp.9.9.t.e.N.S.D i f d f c n.H.J.t.9.9.v.8X0X0X0X^.6.8.l S S Z Z S S D.B.c F.!.~.F.e.w.!.`.h.b.b.w.H.`.e.Z l l h.~.~.x.c.^.^.6X6X6X6X7X7X6X7X9.c.6X6X1X1X1X0X0X7X7.^.0X8X1X2X8X^.j.h.q.9.9X<X<X<Xi.a.p.~.t.t.q.g.g.k f f l f c e.e.t.t.j.t.9.6X0X0X0X9X7.vXGXBXBXvX^.^.^.^.^.^.^.^.^.(.^.^.^.^.^.^.^.7X(.6.~.{.}.}.d l K.k.k.K.g.g.P o.| n # * n M 4 3 , U T T U w r e r 9 1 R R r r t t R R r r w w 9 > > w > 9 } R r e t r r R R r R ~ ( ( ( ( / R / Y ( ~ &. .> t r t R ( ..X.....( ....:.:.;.;.;.^ ....( ( ............^ ..:...2 >.>._ o.#.$.+.$.o.o.o.$.$.o.V n V B B B n 0 n B n n n n n n B B n n n n n 0 0 0 0 0 v v v n v a C d.w.w.0.Z 0.e.q.l e.;X;Xd e.`.H.J.F.J.F.G.H.F.H.H.H.H.H.H.G.J.D.J.A.S.B.D.j.~.x.l.x.v.9XnX'.f h ; = f aXqX4X4XqX6Xp.t.g.g.g.e.w.G j # $ p r.t.m.m.h.0.l.x.6X0X0X0XiXx.6.8.k S k k S 0.w.H.r.Z H.J.J.G.S 0./.'.J.0.d.d.H.H.e.Z C Z e.~.~.x.v.c.c.6X7X6X6X0X8X6X7Xp.p.6X6X6X8X8X1X0X0Xp.u.6X0X<X<Xz.8XiXv.9.6.(.8X,X<Xs.7.9.9.k.q.0.w.d.d.d i k i i Z f.f.f.e.e.q.9._.9X9X{.x.7.GXnXuX^.~.'.]._._._./.~.~.~.~.~./.~./././././.`.S.* * & 9 & 9 0 v a x z z b M n v = 2 n & 2 B B } X.X.X...&.4.*.t ......! e ..;.:.:.;.+.;.;.;.;.;.;.;.",
"! ! ! ! ! ! ! ! B ..+.0 1 0 9 B B V V ^ V ^ ^ ^ o.o.o.o.o.@.@.@.o._ @.V.V.O.N.C.w.B.D.q.j.bXIXbXh v V L N.d.f.J.h.D.D.F.D.D.h.h.J.H.B.G.J.bX'.6.9XvX4XqXqX8X6X9.x.t.w.H Z.N.s G Z d Z n.e.t.t.9.9.c.8X0X0X9X9X8.q.Z Z 0.Z Z S S D.D.c F.J.~.F.e.r.!.'.h.b.N.e.H.H.r.l k S J.~.x.x.c.^.6X7X7X6X6X7X6X6X6X9.^.0X0X0X0X0X0X7X^.6.~.0X0XqXaXiXc.9.t.8.t.9Xc.1X<Xi.s.t.t.t.t.q.g.g.l s k C s w.B.t.t.t.j.9.u.9X9X0X9X9Xu.7.z.aXiX9XuX9X'.'.'.'.'.'.'.'.'.'.'.'.'.'.{././.f cXmXmXmXi /.MXiXiXMXnXMXDX:XZ.a v n n 2 e / T U U , 3 w w 1 9 9 e ~ ( ~ } R R R R R r r r 1 1 1 1 O 1 } t r e R e R R R r t ! ~ ~ ~ } ( ~ R w Y R ..~ O e r e R ~ } ......+.....&.&.....&...+.;.+...+.;.;.:.:.2.2.R.2.| o >.>.| ^ +.o.o.^ $.o.o.$.$.$.| B B B B B n q M ~ B B M M M M B B V V B n n n 0 0 ; 0 n 0 v n v a C }.;X`.`.`.`./.`.`.;XbXK.i f.T.H.H.H.T.W.Y.Y.G.C.F.F.G.G.G.Q.K.J.J.J.H.{.xXuXiXpXpXiXaXvXnX~.i a * = f vXqX4X4XqX0Xp.t.q.8.h.0.b.D j j j p w.e.m.m.f.0.q.v.0X0X0X7X9Xx.8.q.0.S S S w.r.Z F.w.e.J.J.J.G.0.0./._.j.0.d.d.H.J.w.Z w.Z e.~.x.x.c.x.c.6X6X6X<X<X2X2X6X9.p.9X9X6X1X<X8X6X7Xt.t.9X9X7XiXiXpXu.6.l.l.x.vXaXBXvXpX(.x.9.q.e.f.0.d.s i $ a s G 0.Z 0.q.q.t.^.9X7X(.'.!.6.(.v.(.(./.`.'.'.'._.`.`.`.`././.`.`././.).).).W.N.* 0 & 9 9 0 * = b b b b V M M ^ 0 n B M B ! ~ e q w w w w w w w ..:...R 1 e e ......} ( ~ ~ ~ t t e ",
"! ! ! ! ~ ! ! ! ^ +.+.0 1 0 1 n B B V B ^ ^ ^ ^ ^ ^ ^ _ _ _ _ _ $.o._ ` O.V.V.S.B.Z f.h.8.8.k.f.h v A N.D.h.h.h.h.D.D.D.h.h.h.h.k.h.G.B.h.~.J.t.uXvXqXqXqXiX0Xu.t.t.D.O.O.G i w.J.d w.F.n.D.j.t.v.9XiX0X0XcX(.6.8.f l r.l Z A C J.D.c B.J.~.J.e.r.!.'.h.w.N.e.H.).e.Z f Z J.~.x.x.^.c.^.(.^.<X6X^.7X0X9X9.x.0X6X6X0X6X0X6X^.8.t.9X7X6Xc.v.p.t.t.8.x.iXiXVXBXvXcX~.~.t.t.h.g.g.j i w.B.d Z B.m.t.t.t.t.c.9X9X7X9X{.6.6.7.7.6.7.6.6.6.6.6.6.6.6.6.8.8.8.8.y.8.8.8.q.8.d K.S.j l f bXMXv.9.uX(.x.8.f S d d i i a = 2 4 e ~ e 4 n 2 ! ~ R t e q w t w w w w w > > > O > O > O w  .} R R R R R R R e ! ( } ..X.&.&...&...&.*.:...1 e R R ~ } ........! e 5 o O O O > ;.>.2.2.2.2.3.>.:.:.;.+.....~ 5 >.>.+.o.o.^ | ^ | ^ ^ ^ o.^ n 0 B B B B n 0 M ^ ^ ^ ! B B B B B V B n n n 0 0 0 0 0 n 0 * v n s i 0.f.K.K.f.J.K.K.`.}.K.f i N.N.f.B.B.B.A.S.S.A.G.G.A.A.A.B.N.d.g.g.w.f.`.{.uXiXiXaXpXiXiXcXh.i $ # = d vXaXqXqXqX0X6Xp.8.0.D.e.C.s i f.S.i 0.G.n.m.f.q.j.'.0X0X9X9X9Xx.6.8.l k l c Z Z r.G.w.r.J.J.J.G.0.q._._.j.q.d.0./.J.0.Z k k f./.x.x.^.x.x.c.^.7X7X<X<X2XvXu.9.7X0X6X0X8X6X6X(.t.q.'.uX9X(.9.9.9.q.8.8.v.uXc.7XpXcXcX{.9.t.8.q.g.S.d C P.b s G d.f.f.0.q.9.7X0X9X9X{.).f 6.6.6.8.8.l q.t.t.t.t.h.h.h.h.h.h.h.J.F.H.H.G.Y.F = 0 ; 0 0 0 = n W.*X*X#X#X*X=X=X@X@X=X=X=X+XXX=X=XXX3.X.R w O w  .&...R 1 1 5 1 1 1 9 1 1 > O 1 > 1 ",
"! ! B ! ~ ~ ^ ^ ! +.+.n 1 0 & 0 M M M M B B B B ^ o.$.$.$.@.o._ F _ _ _ ` V.V.` A.d.S.f.g.0.d d A h h S h.j.j.k.j.j.j.j.j.k.k.k.k.l.h.h.j.l.g.8.'.uX0X8X9XcXcX9Xt.r.B.L G C d j.`.f r.F.e.f.q.q.(.uX9X9X9XuX(.q.8.h./.!.e.Z H C D.D.c B.J.~.J.e.r./.'.h.w.b.e.H.H.Z C C d.}.xXxXxXcXxXuXiXxXcXvXcXiXvX9X9.v.0X0X0X0X6X0X9X(.8.f 8.6.6.6.9.9.l.q.l.9.u.7.7XpXiXcXcX9Xp.t.8.q.g.l 8./.`.f f 0.e.t.q.y.x.cXvXxXxXxXcXq.9.u.c.0XcXiXpXpXpXpXpXpXpXpXpXpXpXpXpXpXpXuXxXcXK.$ p h j k K.;X;X{.:XW.L k v.vXpXvXcXcXxX}.S.L G N.s i d.W.#.;.....R w 9 w w w r r r r r r r w 1 w 1 O w w ~ ~ R R ~ ~ } }  .X.*.*.:.:.:.:.;.&.......B & 9 q e ! ~ ^ ..^ ^ ! e 1 1 9 9 9 9 > 1 0 0 e e 2 1 5 5 & & @ & 1 % ^ >.>.>.>.>.>.R.R.R.R.R.L.>.$.| ^ ^ ~ B n 0 0 n ^ ~ B B B M M M n n n n n q q q n 0 n n v v B O.d.S S l i d l d d i $ i $ p = $ i d d d s p p b p d d c s d p p v ; = = a p i i i f f f d d $ * v * a a xX9X8XqX0XxXxX~.0.g.e.n.b.f f K.K.d Z w.n.e.q.h./.uX9X0X9XuXuXx.8.8.h.J.K.e.Z c r.T.w.Z J.J.J.G.0.q._._.j.0.L L H.J.Z Z S 0.`.;X{.{.xXuXxXuXuX9X9XiXiXvXcXx.t.7X9X7X8X8X7X9X'.e.f r.t.8.8.r.q.8.r.0.l f 6.6.9.6.f f 8.y.k.h.J.w.Z i S K.Z f S w.N.B.0.8.(.cXiXuXuX;X%Xy.7.7.9.6.8.q.f f f f f f f f f f f f f f i i i $ b = 0 ; 9 9 0 & v *XW.E.R.R.+X+X2.2.:.:.3.:.:.3...*.*.=.,.,.*. .t } ~ R r w t q 1 1 1 w w r w w 9 9 9 ",
"! B B ! ~ ~ ^ ^ ! ..+.q 1 0 & 9 1 2 2 2 0 0 0 0 2 2 v b b b z z a b N N N D F C s D A p s C b G p h l f f f 6.6.6.6.6.6.6.8.7.7.8.l.8.q.6.k.0.0.f 6.7.s.p.~.~.~.h.Z H C k k f x.v.6.f r.Z w.r.r.t.t.p.p.x.j.9.8.8.t.x.t.r.r.G C G.B.C B.J.J.J.e.r.).'.h.r.b.e.G.G.Z C h k d.h.t.9.9.t.x.t.p.p.u.u.9.s.7.f 7.a.a.i.i.a.c.p.9.8.0.r.8.q.t.9.8.6.6.6.7.7.7.s.7.6.6.7.7.7.9.t.q.q.f 6.x.~.8.8.0.r.e.J.8.j.(.p.7.7.6.S l f pXGXnXvXvXnXnXnXnXnXnXvXvXvXvXvXvXvXiXiXcXxX;XT.C b p A j d i i i s m ; p |.BXnXnXBXnXDXMXDXW.d C l f `.:X#...*.*.~ R R ~ } } } } }  . . . .} ~ } R > > O O O O O O O O + o + O + o + + O o 5 o o % .   @ % + 5 5 1 2 1 5 5 & 1 9 w 9 > > 5 5 5 & & 5 5 5 1 1 0 q 2 2 2 5 % M ^ +.$.| +.+.| | | | o.^ V n ! B M n 0 0 0 0 n n q q n n n n v M v 0 0 0 q q n 0 0 n b n _ Z.-X-X-XS.k K.-XC s s s g B n & v w.D.G.Y.W.O.s b G w.B.G.Y.K.W.*XJ J n n m A f.}.{.v.x.8.l g * 2 = & = # w.q.9.9.~.~._.j.S P Z w.Z f 6.x.x.f l Z w.Z y.q.k.x.x.p.9.t.k.9.6.8.j./.H.B.e.Z Z G.w.w.J.J.H.J.S e.'.'.t.w.L G ).J.Z Z Z Z f.J.h.t.j.j.t.j.~.~.v.v.u.7.7.6.7.p.a.i.i.u.u.p.q.Z Z 0.8.8.8.8.y.6.y.y.q.q.9.9.t.t.j.t.p.9.8.q.q.Z f f 8.(.8.f Z C h G Z 8.~.x.7.9.q.l H c 6.nXGXGXDXMXMXMXnXnXbXbXbXmXbXbXxXxX{.`.).H.G.Q.F * n & & & 0 * b -XP.P.E.R.<.:.&.:.&...&.X.*.:.*.*.*.&.*.*. .} < w w w w 9 r w r w 1 > < < > > > 6 > ",
"! ! B ! ! ! ^ ^ ! ....0 1 0 & 0 9 2 2 0 0 2 0 0 n n b b n V _ _ F b b D ` ` F G O.O.F E.E.z b m S }.bXmXMXMXMXMXMXMXMXMXMXMXMXMXnXMXMXGXMXMX/.f S q.j.9.y.r.l 0.w.H G D k f 9.9.9.9.6.r.e.N.d.0.8.8.7.8.8.6.6.8.8.8.7.7.y.e.w.C G.B.C B.J.J.J.e.r.`.'.h.w.b.e.H.F.H G K F L 0.r.6.6.6.8.6.6.p.9.9.u.c.^.(.uX0X0XiXiX8X9X9.6.f 0.w.Z 6.9.9.c.9XcXiXaXaXaXaXaXvXiXiXiX7Xc.t.8.8.9.6.u.c.p.8.g.0.e.r.l 8.j.t.7.8.l k k |.GXvX7.x.9.9.9.9.9.9.9.9.9.t.t.q.9.8.8.8.r.D.w.C i p A S d 8.f 8.6.f l f f 9.VXGXv.7.9.k.G.W.Z.o.@.a a %X>X>.X.X...e 1 w w r r r r r Y T R r R r ~  .~ } ~ r w w r w 1 > > > 9 9 6 1 1 1 1 o q 2 1 0 n q B 0 0 0 0 e 0 2 1 1 1 1 1 1 > 9 w e e 0 0 e e e 2 0 & 1 1 & 1 q n 2 0 & & 2 & & % & & & & 2 2 0 0 0 0 0 0 n n 0 n 0 q q n n n n 0 n n v n n q q t n 0 n n n V o.O.A C C G C L W.A.i p b = & 1 1 ^ G.).`.`.-XA.k s C.F.G.T.H.H.T.-Xa v b k s 0.uXGXGXHXHX(.i $ a a 0 0 e 5 v G q.6.8.r.t.q.I j C r.l 8.u.u.u.7.l L A C Z 8.q.8.8.8.8.6.6.9.9.8.q.8.f Z w.w.w.G.w.r.!.J.H.D.S g.'.'.e.w.L G W.D.C S G Z l r.0.r.Z f y.f f 6.6.7.7.u.z.c.c.^.6X7X8X8X8X^.r.Z w.Z l 8.7.9.c.6XiXiXvXvXvXvXvXvXnXaXvXvXiX~.8.f.l f 6.(.9.6.r.G ` ` w.q.8.8.f l S k C 0.bXnXv.c.~.~.9X^.(.(.(././././.~./.~.~.~.J.H.K.W.O.* v * 0 9 0 * v :XZ.E.E.R.,.&.....&.&.&.*.*.&.*.*.&.%.*.*.*. .r ..*.4.4.*.:.*.&.&.X.} t w w w 9 6 9 ",
"! ! B ! ! ! ~ ~ ! | ..0 1 0 9 t B ! ! ! B B B B ^ V V F o.#.E.E.*XO.b O.E.E.P.E.Z.O.L mX:X= V F G G.K.K./././.x./././././././.^.(.v.x.x.x.~.l S Z f./.j.h.f.Z S.w.G H A l j.uXpXpXiX~.8.r.r.e.t.x.x.x.^.'.uXuXcXcXcXcXcX'.H.w.c G.B.C B.J.J.J.e.0.`.{.j.r.w.e.H.Y.D C b s Z 0.q.'.t.t.t.6.~.xXxX9XiXiXiXxXuXiXiXiX8X8XcX^.t.q.q.q.p.9XvXvXvXvXvXqXqX8XqX1X8X8X8X8XaXvXvX(.q.q.9.uXiXiX(.9.l.q.e.q.j.x.(.'.(.j.8.l d nXMXv.c.x./.~.~.~.~.~.~.J.J.J.J.F.H.H.H.G.G.F.Y.Z i l f f MXMXMXDXMXnXcX{.x.u.nXMX8.8.h.k G m o.+.^ z O.:X-X>.X.X...R e e r r w r w r w w w w R w w ~ } ..} ..X. . .~ q 1 1 } } }  . .....X.X.@X@XR.@X+XR.2.2.2.2.2.<.:.;...! t q 9 > w  .3...............! 1 1 ~ >.R.R.+XR.@X>.B 0 n n n 0 0 0 n n q 0 n n M 0 0 M B B M n n n M B B n n 0 V V B M B B B B n B n n n F F N G K D G G L W.W.G $ v * v 0 0 @.F.D.e.n.G.B.Z H F.F.F.J.D.D.H.`.N.C f 0.B.g.8.l.BXGXHXv.l.{.;Xk p ; 1 > * S.K.h.0.e.y.t.P k w.w.l /.iX8XpX(.g.l C Z q.t.t.k.x.x.(.(.uXcXxXuXxX{.;X!.e.Z r.T.w.Z !.H.H.D.S e.'.'.e.w.L G W.D.k S C c Z F.`.`.F.e.e.8.t.{.xX9X7XiX8XiXiXvXvXvXaXaXvXiXJ.0.d.l t.9XiXvXvXvXvX0X8X6X<X1X<X,X8X<X1X8XiXxXt.f f xXiXpXvXv.q.G G G e./.{.{./.l.0.S Z g.DXpXu.x.x.^.9.p.p.u.l.k.j.j.j.J.~.~.~.~.!.H.H.G.L $ * * 0 * * # v :XZ.E.L.+.&.*.&.*.*.*.X.*.*.&.&.&.&.&.*.=.*. .3 ~ ~ } R R } ( ~ ..&. .r > > 9 6 6 > ",
"! ! ! ! ! ( ~ ! ! ;.} 9 e w 9 ~ ~ ^ ^ ^ ^ ^ ^ V ^ ^ ^ _ _ _ _ _ S.G F @.>.+._ F D S d bX;Xd h G N.d.w.w.w.w.w.e.w.w.w.0.e.q.q.q.t.y.q.D.6.'.K.f e.~.x.v.~.D.n.H r.w.S Z g.k.uXpXuXnX~.6.t.9.iXBXBXBXBXBXnXvXvX9X7.7XcX'.`.D.0.f H.F.C S.H.D.H.e.r.{.'.t.e.w.e.G.n.w.k B.H.J.J.f r._.9X9X9.7.vX<X^.c.x.p.x.x.^.^.^.c.<X^.9Xx.8.8.^.vXiXaX8X0X6X6X6X6X6X6X<X6X6X6X2X<X6X7X~.9.t.j.vXvXMXvXl.q.8.t.9.(.6X7X_._.9XuXq.x.GXBXz.v.~.~.!.!.~.~.J.J.m.J.J.J.D.J.J.G.G.G.F.W.d l 8.6.c.GXnXnXbXbXbXnXMXMXMXMXmXK.A O.O.$.o.^ X.X.n a A.W.+.......! q q q q w w w w w w w r r r t R R R R R R R R ~ r > R } ~ R ! ! e e e ....................} } ..} ......&.&.:.e ! ;.&...+.+.....+.+.+.0 % >.R.<.>.+.+.| | | | | ~ B q B q e q e q M M M M M M M M M M B M M B M M M n +.n B B B B n B B n n v n o._ _ o.o._ G b.B.A.A.-XG $ a x z F Y.F.m.J.B.G.S.h N.A.F.F.H.F.J.H.H.`.S.Z 0.d.S g.K./.cXcXl.iXGXGXv.d g 9 2 w.H./.~.J.t.r.r.8.h.0.r.q.'.nX7XvXbX8.0.8.6.^.nXnXnXnXnXnXvXvXcX~.~.cXxXxXe.y.e.Z T.Z r.H.F.H.J.r.J.'.'.e.w.G w.`.B.C k d.w.r.r.f D.;X'.'.t.6.cX7Xa.c.c.a.c.c.c.c.c.,X,X<X^.~.8.8.k.vXiXvXiX0X6X<X<Xc.<X6X6X6X6X6X6X6X6X^.9Xj.r.h.{.xXcXnXv.8.q.0.q./.(.^.9X9XuX'.{.0.~.GX8Xu.~.~.~.x.~.x.~.J.J.J.J.H.H.H.H.H.H.H.T.T.T.N.$ ; ; ; = v W.:X*XE.P.>.+.*.*.*.X.X.X.*.*.*.*.*. .&.*.&.*.*. .1 ~ R R ~ R ~ R R ~ R &.X.9 9 9 1 6 9 ",
"! ! ! ! ! ~ ( ! ~ *.~ 9 9 9 9 ! ! ! ^ ^ ^ ^ ^ ^ ^ ^ ^ _ _ _ _ _ G D V _ +.+.^ F C w.f bX;Xd f S S.S.N.N.N.N.N.N.N.N.C.B.B.B.B.C.m.m.B.f.8.bX}.d j.^.^.^.^.~.!.H.J./.H.e.q.8.9.7.9.7.8.q.7.u.BXaX1X1X<X<X<X<Xa.6.^.uX9.f e.l c Z H.D.k N.H.J.G.0.8.{.{.t.0.0.w.F.F.c G `.'.'.cX`.f t._.9X9.9.vX<Xa.c.^.^.^.^.6X6X6X6X6X7X7X(.9.6.8XaX<X1X<X0X6X6X6X6X6X6X0X0X0X8X7X2X6X7X~.9.t.t.6.7.6.9.8.q.j.9.c.6X<X<X_._.(.x.6.(.GXHX2Xp._.~.~.~.~.~.~.~.~.~.~.J.J.D.J.D.G.G.G.N.h k bXnXGXBX9.9.q.0.8.q.t.t.j.D.Q.#.| | | :.+...X.} 0 g Y.-X$.......! e q q q q w w w w w w r r r r t t R R R R ! Y ~ r > R ~ R e e e e e e ..................&.&.................:.0 ! ;.+.+.+.+...+.+.+.+.! 5 :.>.+.( ( ( | | | | | ~ B q B e M M M B B B M M M M B B M M B M M B M M M q +.n B B B B M B B n n v n o.F F _ o.F G b.B.F.B.Q.W.A.s a G C.B.J.m.J.B.A.N.h N.A.F.F.J.F.J.J.H.;XJ.f f 0.f.K.`.h./.k.6.(.GXGXu.i l = p !._.^./.^.~.~.~.J./.g.0.8.8.7.9.7.9.r.f q.8.v.nX8X8X8X0X6Xc.7X7.6.{.J.8.r.f r.e.Z W.G Z H.H.G.B.8.t.'.'.B.N.w.w.T.e.Z G W.`.xX'.H.f ~.(.(.t.6.cX9Xc.^.c.6X6X6X6Xc.2X6X6X<X7X(.8.6.x.vX0X6X6X<X6X6X6X6X6X6X6X6X6X6X6X6X6X7X9Xt.8.8.q.8.9.7.8.q.q.8.k.(.^.c.6X^.p.t.~.8.v.GXpXp.x.).).~.x.~.~.J.J.J.H.H.H.H.H.H.H.T.T.T.T.S g ; . 0 * #.Z.= V L.L.+...-.-.*.*.*.*.*.*.*.*.*.%.*.*.&.*.*. .3 ~ R R ~ R ~ R R ~ R ....r 1 1 1 9 9 ",
"! ! ! M ! ! ! ! ( X.R 1 9 9 9 ~ ! ! B ~ ^ ^ ^ ^ ^ ^ ^ ^ ^ ^ _ _ V V _ ( ..( ( _ V.A.k bX;Xd k A S.N.N.N.N.N.N.N.C.C.C.B.B.B.C.C.M.F.S.h.9.MX;Xi J._.^.^.^.^.'._.~.'.!.q.q.q.l.9.9.9.r.r.9.9.nX8X6X7X7X(.(.'.~.f ).`.d c D D ` b K.B.C d.T.H.H.f.r.;X;Xj.0.d.d.S.w.C C 0.8.8.0.S l t.'.'.q.l.cX6X<X<X6X6X6X6X6X<X<X8X<X7X6X9Xx.6.iXaX<X<X6X8X6X6X6X7X6X7X6X0X0X0X7X6X0X9X^.9.t.t.x.p.9.t.q.t.t.p.7X2X<X<X7X(.x.x.k.9.2XaX<Xi.^.p.x.x.x.~.~.~.^.^.~.~.J.j.J.J.J.D.K.Q.= p K.MXGXiXl.f.S.S.f.g.e.e.e.Z G $.+...^ +.;.....} 0 g W.-X$.......! e e q q q w w w w w w r r r r r t r t R R R t ~ r > R R r e r Y Y Y R ..................&...&.&.&...........:.0 ! ;...+.+.+.+.+.+.+.+.+.4 :.+.( ^ _ ( ^ ......^ ! ! ! M M M ! ! ! B M M M M M B B B B B M M B M M n 0 +.n B B B B B ! B n n v n o.F F _ _ G ` n.C.F.B.B.Y.G.G C N.Y.F.J.m.F.B.G.N.k S.A.C.F.F.J.F.F.J.{./.k.t.j./.).!.!.~.x.v.z.BXBXz.pXMXg.k '._.x.^.(._._./.).`.S.G e.y.6.x.8.8.h.f t.t.v.nX2X<Xc.c.6Xc.9X7.8.'.8.f f 0.G.g.k K.w.Z H.H.G.D.r.t.'.'.r.G H w.).n.Z S d.f 6.t.J.6.t.(.'.t.6.cX9Xc.6Xc.6X6X<X<Xc.<X6X6X6X7X'.j.f (.vX,X6X6X6X6X6X6X^.^.^.^.6X6X6X6X6X6X^.'.t.q.r.r.8.q.9.q.q.q.J./.(.c.^.(.(._._.&XJ.l.pXpXx.h.).).~.~.~.x.x.~.~.~.~.~.!.J.!.H.!.!.!.H.G ; : - :   E.$.. | R.R.:.&.-.{ *.*.*.*.*.*.-.*.-.%.*.*.*.*.*. .w ~ ~ R } R } ~ R ~ ~ ~ X.} 1 1 1 9 9 ",
"! ! M M ! ! ! ! } } t 9 0 0 q ~ ~ ~ B ! ! ^ ^ ^ ^ ^ ^ ^ ^ ^ ^ ^ V o.+.( ( ..^ F W.Q.s bX-Xd b A N.N.O.O.N.N.N.N.N.N.b.B.B.B.B.C.C.n.f.k.p.nX{.d ~._.^.^.^.^._._._.'.!.r.q.r.t.k.q.j.y.f q.6.vXvX^.^.^.(.(.'._.q.6.y.r.G.H N.E.p K.h.Z w.D.D.B.0.e.`.'.D.0.d.d.B.d.w.L Z q.9.r.0.r.~.'.'.8.8.cX6Xc.<X<X6X6X6X6X0X1X<X0X<X7X9X(.6.iXiX<X7X7X7X6X6X6X6X6X6X6X6X0X0X8X8X0X0X^.9.t.q.9.7.t.q.8.q.8.'.6X<X8X6X7X^.u.9.v.9.pXnXpX2Xa.7X^.^.^.^.^.^.^.^.~.~.~.J.D.J.J.D.A.S.g : j K.}.l.h.S.Z.Z.S.S.B.B.B.N.L | | :.+.....} X.} 0 a Y.*X+.} ....! e q q q q w w w w w w r r w r r t r t t t R t ~ r > R R r r r Y Y R ~ } ....................................:.e ~ :...+.+.+.+.+.+.+.+.+.0 >.>.+.( ' ( ^ ......( ! M ! M M ! ! ! ! M M M M M M B B B B B M B B ! M n 0 +.n B B B B B ! B n n v n o.F F _ ` ` b.B.F.J.F.D.B.N.B.C.C.F.T.J.J.F.B.G.N.h S.A.C.C.F.J.F.B.h.~./././.!.!.H.m.J.~.x.v.u.vXHXHXHXHXl.f '._.~.(.^.^.^._./.`.V.` w.8.q.q.q.l.f l f.q.x.nX6X6X6X7Xc.(.(.x.6.f f q.8.f.J.0.f K.f.Z F.H.J.D.q.J.'.'.B.w.G w.).e.k l l 8.9.t.q.f t.9X'.t.6.cX9Xa.^.c.6X6X6X6X6X6X6X6X0X6X'./.6.(.vX<X6X6X6X6X6X6X^._.^.^._._.9X9X6X6X(.'.t.r.q.r.8.k.k.t.r.y.t./.^.(.(.~.~.^.]._.h.8.v.u.k.`.T.F.).~.~.~.~.~.~.~.~.~.~.!.!.!.!.!.!.H.S.= - q @ . *Xo.# ^ R.>.;.*.-.{ -.-.-.-.-.-.-.-.-.-.-.-.-.*.-.[ w ~ ~ ~ } R } R R ~ } t ..&.9 1 1 9 9 ",
"! ! ! ! ! ! ! ~ X.~ e 1 9 9 9 B ! ! ~ } ^ ^ ^ | ^ ^ ^ ^ ^ ^ ^ ^ ^ ....^ ^ ( _ N P.S.s NX[.a b F O.N.N.N.V.V.V.V.N.N.N.N.C.C.C.C.C.B.h.x.z.nXuXf ~.'._.^.^.^.6X6X^.(./.q.e.f f 8.8.r.d 0.q.6.iXvX<X6X6X7X7X7X7X^.x.t.{.'.j.h.J.f !.j.0.Z y.y.r.l Z e.q.8.Z Z Z w.Z f 0.e.9.(.'.h.t._._.'.8.6.vX6X6X6X^.^.6X6X9X0X0X6X0X6X9X9X_.6.cXiX<X6X6X6X6X0X6X6X6X6X0X0X0X0X0X0X0X0X^.9.q.r.t.8.q.q.8.8.6.'.0X0X1X1X1X<X7.9.l.9.vXHXGXGXc.p.^.^.^._._._._._.~.!.J.J.F.F.G.Y.E.>.1 t V Q.f.g.A.Z.#.#.d.d.S.N.G N.o.| X.&.&.( ....&.X.B z P.#X+.......! e e r r r r r r r r r w w r r r r r t t t R R ~ r > R R Y r r Y Y R ~ } } ........ . . . . . ...............:.e ( :...+.+.+.+.+.+.+.;.+.4 >.;.+.( ( ( ^ ....^ ! M M ! M M ! ! ! ! ! ! M B B B B B ! B B B B ! ! B q 0 +.n B B M ! B ~ B n n v n o.F F _ ` b.n.F.H.F.J.J.G.F.B.F.H.H.m.J.J.H.B.G.d.s S.A.C.C.F.G.G.B.B.h.h.H.K.G.F.G.Y.T.T.J.~.x.pXGXHXHXGXf 8.'._.(.(.^.6X6X(./.`.A.O.S k g.8.q.0.i w.n.q.t.nX7X6X6X7X6X0X^.^.x.p.'./.~.x.j.8.y.!.e.y.r.r.l 8.8.8.~.J.e.Z Z Z J.r.r.f.l q.cXxX/.f /.'.(.t.6.xXuXc.^.^.^.6X6X7X7X6X6X6X0X^.'.'.6.(.vX6X6X6X6X6X6X6X6X6X6X6X6X6X6X9X9X6X(.9Xj.8.Z f 8.8.8.8.f d m.&X(.^.(.^.(._.t.t.f.h.IXGXuXt.).`.).J.!.!.!.!.!.!.!.!.).).).).).).).T.V.z * * n E.-XF # V E.E.1.&.*.=.-.-.*.*.-.-.-.-.-.-.-.-.-.-.-.{ w ~ R R ~ R ~ R R ~ } t } :.r 1 1 > > ",
"! ! ! B ! ! ~ } ..B 9 9 9 1 9 q 9 e ~ ~ ! B B ! ^ ^ ^ ^ ^ ^ | | ^ ( ( ~ ^ +._ D G G C NXP.a 2 o.O.O.N.N.V.V.V.V.N.N.N.C.C.C.C.C.C.G.H.v.u.nXuXf ~.'._.^.6X6X6X6X^.^.).q.m.f f q.f.f s d.e.8.9XvX<X6X6X7X6Xc.6X7X9X^.9X~.~.9.6.6./.~.D.e.q.e.e.e.e.q.q.q.f.f.n.D.e.H./.t.9.^.'.(.^.9X_.9Xk.6.vX6X^.^.^.^.^.^.6X6X0X0X7X9X_.'.m.6.cX7X<X<X0X0X6X6X6X6X6X6X0X0X0X0X8X8X0X0X^.9.r.Z f 8.f r.l f r.`.9X0X0X8X4X1Xa.~.7Xu.9.|.pXvXuXv.^.^.^.^._._._.).!.J.J.F.F.F.Y.P.Y.E.4 q n Q.S.W.P.L.>.#.S.d.#.O.S.Z.o.+.*.} &...&.} ..} n v E.#X+.} ..X.! e e r r r r r r r r r w w r r r t r r t t R R ~ r > R R Y r r r r R ~ } }  ....... . . ... .....&...........:.e ~ :.;.+.+.+.+.+.+.;.;.;.4 ;.+.( ( ( ( ....( ^ M M M M M M ! ! ! ! ! M B B B B B B B ! B B B ! ! B q 0 +.n M B M B B ~ B q n 0 n o.F F G G b.C.J.J.F.J.D.H.H.F.D.J.H.m.J.D.H.B.G.d.s N.A.C.C.F.G.G.S.S.G.S.S.S.S.A.G.Y.B.G.D.h.j.l.k.u.HXBXf e.&X_.(.v.^.6X6X6X^.'.S.O.A $ l f.0.i a b B.e.9.vX9X6X6X6X6X6X7X9X(.'.9X^.'.^.p.9.t./.~.e.e.0.r.r.8.q.t.r.r.w.b.w.F.r.e.`.t.6.~.9X'.x.9X(.(.t.6.uXxXx.c.c.^.c.^.(.(.(.(.^.7X^.'.~.f (.vX6X6X6X6X6X6X6X^.^.6X6X6X6X6X6X6X6X^.'.j.r.G d S 0.q.f f c T.xX_.6X^.^.7X(.~.t.g.8.v.nXiXx.!.).J.!.!.!.!.).!.!.!.!.!.!.!.!.!.).).T.b._ 2 v W.*XY.C.N.L.E.$XI.;.&.*.*.*.*.*.*.-.-.-.-.-.-.-.-.-.-.{ 6 ~ R R ~ R ~ R ~ ~ } R ~ &.~ 1 1 9 6 ",
"! ! ! ! ! ~ ( } X.q 1 9 9 1 9 9 e e ! e e e q ~ ^ ^ ^ ^ | | | | ..( ( ^ o.o.` G G S G :XG b M +.O.O.O.O.V.V.V.V.N.N.N.N.N.N.C.C.F.H./.x.u.BXuXf ~._.^.^.6X6X6X6X7X9X/.e.e.c i 0.C i a h n.8.(.nX6X0X6X6X6X6X6X7X7X_.^.^.9X^.x.(.(.(./.!.!.).).).`.)./.).).T.H.H.r.;X'.t.u.p.(.uX7X9X^._.t.f uX9Xc.c.c.c.^.^.(.7X6X6X6X7X(.~.y.6.iX7X6X6X0X0X0X6X6X6X6X6X6X6X6X0X0X8X0X0X^.q.w.Z i e.e.0.p s r.m.H.'.9X0X8X1X0X9X^.c.9.(.u.u.v.(./.^.^./././._./.J.J.D.F.F.G.A.A.C.V.o.& m L Q.N.I.I.I.L.Z.Z.#.#.#.$.B ..../ *.*.&.( ..( q 2 E.#X+.} } ..R w r r r r r r r r r r w w r t R t r r t t R t R r > R R Y Y R R R R } } } } ........ .........&.&...........:.0 ! ;.+.+.+.+.+.+.+.;.;.;.0 :.+.............^ ! M M M M B ! ! ! ! ! ! B B B B B B B B B B B ! ! ! B q 0 +.n B B n B t ! B q n 0 n o.^ F G G b.F.F.J.D.J.F.D.D.J.J.D.F.H.F.J.H.B.D.d.s N.A.C.C.G.G.A.S.D.G.A.A.S.G.G.S.f.S.G.G.D.J.g.k.l.GXnXi w.&X_.'./.^.6X6X6Xc.(.h.d.Q.a s f.k $ G F N.B.9.vXiX6X6X7X7X^.7X'.'.'.~.(.(.x.p.9.x././.`.!.`.H.H./.!./.H.T.W.W.G.T.r.q./.9X^.p.9X^.(.9X7X9Xp.6.9XvX^.a.a.^.~.^.(.(.(.(.(.^.^._.q.f '.vXc.6X^.c.6X7X7X7X7X6X6X^.^.7X7X6X(.(.'.t.r.G $ k S k d D H n.H.].9X7X7X(.^.^./.H.l.z.z.u.c.^.~.`.J.H.H.H.H.H.H.H.H.H.H.H.H.H.H.H.T.C._ N O.-XY.n.W.W.P.U.U.P.I.<.,.,.*.=.=.=.=.*.*.=.-.-.-.-.-.-.{ w } R R ~ R ~ R } R ~ } R } X.w > 1 > ",
"t ! ! ! ! ~ } X.X.9 & 9 9 9 9 q ( ( ! e 5 5 q | ^ ^ ^ ^ | | | | ..( ( ( o.G G S d.S S W.a _ M ^ O.O.O.O.V.V.V.V.N.N.N.N.N.N.C.B.T.!.x.x.p.MXxXf ~._.^.^.6X^.6X7X^.(.`.r.b.C i k h # _ b w.8.(.nX6X0X6X6X9X9X9X^.9X9X^.9X^.(.9X(._.^./.~.)._.!.H.!.!./.!.m.r.y.c f H./.(.x.c.9X^.9X^.6X9Xq.f xXnXuX9X(.c.x.x.c.c.^.c.c.c.(.9.6.8.iX7X7X6X6X0X0X0X6X6X6X6X6X6X0X6X0X0X0X9X/.e.d.S i Z A.h $ S.G w.` F.t.^.8X8X0X^.9Xp.6.MXGXnXpXv.(.(.(.(.(./././.J.J.D.D.D.D.A.A.G.B.= m a -XW.S.I.$XI.I.P.L.>.:.>.>.^ ..&. .*. .&.} ..} M M L.R...} } ..R w r r r r r r r r r r w r r R R R r r t t R t R r > R R R R R R R / ..} } } ........ .................( ....:.4 ! ;.+.+.+.+.+.+.+.;.;...2 ;.;.............~ ! M M M M ! ! ! ~ ~ ! ! ! B B B B B B B B B B ! ! ! B q 0 +.n B B n B t ! B q n 0 n o.^ F G b.B.G.G.F.F.G.F.J.F.F.J.H.H.F.J.F.G.B.D.w.s N.A.C.C.C.C.B.S.G.C.Y.Y.A.S.D.D.f.D.S.f.G.B.D.G.8.nXnXi w.'._.(.(.^.^.6X7X^.(.j.g.F = p S i i b N ` B.9.cXiXc.^.7X^.9X^.^.'.(.(.9X(.(.(.(.9X'./.!.H.K.H././.H.`.H.G.B.w.c w.f f J.'.(.^.^.9X(.9X6X7Xp.f 9XnX9X^.^.p.p.x.x.v.v.v.^.^.^.~.8.6.'.xX^.6X6Xc.c.^.^.6X6X^.6X6X6X6X6X6X^.7X'.q.Z G # A S.A h _ x D F.y.t.x.7X7X^.(.(./.q.nXHXvXp.^.~.J./.H.H.H.H.H.H.H.H.!.H.H.H.H.H.H.T.Y.x B o.*XC.`.D.P.P.E.Y.I.I.<.2.,.,.3.3.3.3.3.3.=.*.-.-.-.-.-. .w } R R } R } R } R R  .t R :.w > > > ",
"~ ~ ~ ~ ~ } } ..t w w 1 > 9 9 ~ } 1 5 5 e ! M | ^ | M ..B ^ +.....( ^ o.G S S k k d s h b n n ^ @.O.O.O.N.V.V.N.b.V.N.N.n.N.C.G.!.t.~.x.u.MXxXd )._.^.6X7X7X9X(.(.(.`.S Q.A $ # a z N D b.r.x.nX6X6X6X6X7X7X6X6X6X7X6X7X6X^.6X^.^.(././.J.J.H.n.e.e.e.r.Z Z Z Z Z 0./.'.(.7X9X'.9X9X9X'.l.l j.uXcXvXnXvXcXcXcXiXiXiXiXvX^.9.8.9.9X0X6X6X0X0X0X6X6X6X0X6X6X6X6X6X0X0X6X9X/.r.S S.s i s p m F D N.#.O.B.9.z.8X9X'.^.x.6.cXMXMXnXv.(.^.^.(.(.^.^.~.j.j.J.J.J.F.F.G.G.S.C = -XmXd.Z.I.$X$XU.U.P.>.:.:.+.........&.%.&.R &...2 M +.$...~ } } t r r r R r R R t t R r R r r ~ ~ R R R R R R } } 9 1 R ..........X.~ e ( ( } ............&...&.&.....( +...<.:.0 ! >.+.+.;...+.+...+.;...1 ..;.^ *.^ | ..| ~ B B M M B B q B ~ ^ ! B ~ ~ q ^ ^ q B B B B B B ! ~ ! q 0 +.V n n B B t B B q 0 2 B o.o.F D S.A.A.Y.G.B.C.C.F.B.F.J.G.G.G.F.T.F.w.}.`.d w.Y.C.C.C.C.G.D.G.Y.Y.C.Y.B.G.S.G.B.B.A.A.A.G.C.0.MXcXi N.&X_.'.(.(.'._.(.(.(.l.g.L g # $ i F b b ` B.t.uXiX^.(.7X6X6X6X6X_._._._.7X^.6X7X7X^._./.G.D.B.e.w.0.0.w.Z Z Z Z Z r.h.~.~.(.7X(.(.'.'.(.'.t.f k.xXnXnXbXvXcXiXiXuX9X7X9X9X_.9.9.6.'.9X^.6Xc.6X6X6X6X6X6X6X6X6X6X6X6X6X6X7X'.q.w.G $ = A = g ^ V _ V.e.q.8.j.^.^.^.^./.k.v.GXGXvXx././.J.!.J.~.!.~.~.~.~.~.!.~.~.!.J.J.T.P.V n J -XS.}.W.E.E.E.E.E.I.>.2.2.2.+X+X2.3.3.2.3.,.*.*.*.3.=. .w R } R R ~ } ~ R R R R } ..~ w > > 9 ",
"1 1 1 w w e q q 9 > 9 1 9 q w t e 1 0 9 ! ( ( ! ^ | ! ..! ^ B ! ~ ^ +.o.s K.}.;X;X:X:XP.m b n V #.O.@.O.V.V.V.V.N.N.n.N.C.B.C.T.~.'.j.j.xXMX;Xf J.^.c.c.c.x._.'.(.`.`.S O.h $ p a m _ D H 8.~.MX6X6X9X9X9X7X7X9X9X9X9X9X9X9X9X9X9X'.j.r.y.r.Z k Z Z y.Z C C C Z S.f.J./.(.(.(.x.^.^.~.x.8.f 6.9.6.p.p.t./.(.(.uXiXiXiXiX(.9.6.6.iX0X6X0X0X0X0X0X6X6X0X0X0X0X0X0X<X7X0X9X/.e.L L h $ p p F F D V.@.O.f.q.p.6X_.'.xX/.8.6.x.vXMX(./.(.9X(._.'.'.~.H.H.H.G.G.F.G.G.Y.d.C O.DX[.d.L.<.<.I.U.U.V.$.:.*.....( ( ( }  .&.} ;...0 M ^ ( } ~ } } R r R R } R R ~ R R R R R t t R R R R ~ ( ~ ! ( ~ q 9 t ( ( ( ( ..( ! e 1 2 e e ! ^ ............&.+.:.;.;.( ;.+.2 z ^ M ..;.+.:.:.:.:.;...e +.:...:.;.>.| | ~ B ! B ! B ~ ~ ..:.:.| ~ B B q ~ ! q B B ! B B M B B M 0 1 $.^ B B ~ B t B B n n b n V V _ D ` N.N.S.A.Y.W.Y.G.G.G.G.G.G.G.Y.B.B.-XmX;Xf c C.C.Y.Y.G.J.J.G.F.Y.C.G.G.D.B.G.G.C.C.C.C.G.G.q.MXbXi l '.~.x.v.~._.'.'.'.'.l.d.O.m p p i C z b ` F.6.cXcX7X^.^.^.6X^.(.(.'.9X9X9X9X7X^.(.9X'.J.l k c c c k C C C Z C c G J.`.`./.'.9X(.'.'.'.(./.k.8.8.8.9.t.j.~.'.9XuXuXuXuXuXvXxXt.6.f '.xX^.^.^.6X6X6X6X6X6X6X6X6X6X6X6X6X6X9X'.e.Z A a $ # h g B n _ G w.0.w.8.~.(.^._.}.0.9.9.iXGXbXJ.J.`.H.H.`.).!.).`.).H.).`.).H.).H.A.#.B B J Q.P S.d.S.Q.L.L.E.@XR.2.R.R.R.R.R.2.2.2.3.3.XX2.3.X.r 1 9 R } } }  . .}  .X.X.X.X. .R w > > 9 ",
"3 1 3 3 w w w w R w r w w w 1 9 1 ! *.X...M ..( ! ! ! ^ ^ +.^ ..;.^ F F k bX}.K.G.W.W.G a V V V @.O.O.O.V.V.V.V.C.C.N.C.Y.Y.T.`.'.~.k.uXMX~.d f '.nXnXnXnXnXcX'./.`.K.G L b p A # z _ ` w.q.~.nX9X(.^.^.(.'._._._.)._.)./._.~./.x.J.0.f Z Z h F b b C C m m F D S r.9.9.7.7.9.9.7.7.7.7.8.q.8.6.6.6.f f 8.l f f f f f 6.6.l 0.8.~.^.7X0X6X6X0X0X6X6X6X6X7X7X7X7X7X9X9X9X!.0.S L k d d i A G G b.b.C.D.t.x.9X;X`.`.f f 8.9.f f 8.8.8.8.q.0.w.B.N.G G ` O.@.L.L.L.V.` p a k k j m | ( ( ^ F m n t } ^ ^ ^ ~ ~ }  .} } ^ ! 4 2 e w w 1 w w > > 3 w w > > > > > 1 w > > 1 > o o O o o o . . @ o . @ o o o % % % @ o 5 5 5 % % % % o 5 o 5 5 5 % % % % % 2 2 % z v 2 & 9 0 0 ! | ^ ^ ! 5 ! ^ ! ..^ | :.+.+.+.+.o.....| o.+.+.+.+.+.| B M ~ M n ! B ! ! ! B B ! B n 0 +.^ ^ ^ ^ ~ ! ~ B n n 2 * b a a a s h b b D ` ` C.C.A.G.G.A.A.A.` S.w.w.f.f i l n.n.n.e.e.e.q.t.q.h.h.e.J.H.G.C.F.C.F.G.D.D.f.8.uX/.d `.nXnXnXcXbXNXxX`.).`.d.k m g p d d h x D N.r.9.9XnX7X9X(.(.(.(.(././.'.'.x.(.(./.~./.h.l C C C Z C C C C C C D C C Z r.q.8.8.6.7.8.8.6.6.f f f f 6.6.f f f d f f f f 6.6.f 8.8.0.S d.H./._._._.6X6X6X9X6X6X6X6X^._._._._.^.uXe.c O.F p = p * 0 0 +._ N.w.G Z /.'._.`.W.S t.9.9.7.t.H.`.G.A.A.P.A.A.A.C.G C.N.A C G b b o.^ q 0 ; j S 0.l i a b b b N n n B B ^ ^ | | | | ..X.( q 1 O O w w R  ...X.X.X. .}  . .} R r 9 > 1 9 9 ",
" . . . .&.......&.~ / r w w 1 r e e e 9 ^ M ..! ^ ^ ^ M ^ ..B ^ M n O.D G :Xl d s p a * v V n n N b N D D D D D c Z c c c c k f f 6.8.f 6.f l k t.(.c.a.c.(.x.8.8.8.k p a a $ s s C x x c 6.6.u.6.7.6.6.6.6.7.9.6.6.9.6.6.6.6.7.q.f d s C C v J n m C A m m V D d D.cXMXMXnXvXvXvXvXnXvXbXbXnXbXbXcXbX;Xq.8.J.j.j.x.t.t.q.q.f.r.f 9.(.9X7X7X7X0X0X9X7X7X9X9X9X9X7X9X9XuX`.0.Z L d l C $ h F b.H b.B.t.t.x.'.`.G.N.l h.h.x./.~.j.h.q.0.q.0.0.w.G H H F F V N b a b s N.G k l P I B R ~ ^ V V J 5.t ~ ^ ^ ^ ^ ( ~ ~ ..M M ! M r r r > > w 3 w Y R r w w w w > > 1 O w r R ~ } ..} ..;.:.+.$.:.+.:...........+.....( ( ( ( +.+.+...M 1 ~ ;.:.>.>.>.>.>.>.@.>.L.L.L.2.>...1 0 0 2 * M = 2 2 2 0 2 2 % @ & @ % # % # & * & # % & & # 2 5 0 1 1 2 5 2 2 2 2 2 0 0 2 2 | | | +.+...+.:...! M * b Z.N p D b C V z z b b s x s k k k s p a C s d k l r.r.r.r.r.e.D././.(./.v./.x.x.8.8.e.r.r.r.8.8.8.8.8.6.8.d 0.p.7.u.u.9.t.e.r.y.r.k F g p s f d f s D n.y.9.7.u.7.7.7.6.f 6.6.6.6.f f 6.6.6.6.l l d k b b C C C b b b D x C D C k J.xXcXcXcXcXcXcXcXcXcXcXcXcXcXcXxX'.;Xh.q.j.q.6.6.8.9.8.8.q.f.k g.`.'.'._._._._._.^.9X9X9X9X'.'._._.(.(.e.C h $ h h $ v B 0 #.Z.G.d.V.P.`./.).F.F b q.x.c.(.uXr.d p b s i i $ i k C s i G W.E.Z.O.o.M e B v k cXcXcXmXW._ L.#X#XE.E.*X=X#XR.>...q & 1 } ( t q 1 9 9 O > > < > > > > w w w 9 > > > > 1 1 1 ",
"R R E R E R R R  .}  .Y w w r } ..( ! 0 0 5 M ~ ^ ^ ..! | +...| :.^ F a W.>Xk C C z n N B n 2 n N D F F ` ` G D H A.A.d.f.J.G.J./.j././.x.x.f l {.cXiX7Xc.u.7.9.8.8.0.Z S S k S l Z s c m.xXiXiXnXnXvXnXnXnXvX7XiXuXvXcXiXvXiXvXcX0.h A D F V V n n b b m n B C n.!._.^._.7X7X7X6X6X9X^.^.^.^.7X7X(.uX(.9.~.cXvXvXvXvXvXnXnXnXcXl d.J.H.'.uX~.x.x.x.x.x.x.x.x.v.v.(.^.x.q.Z S k d r.0.d s C w.w.H Z 8.8.8.q.S Z C i cXGXvXMXMXbXMXMXMXMXMXMXMXcX/.`.`.T.G.G.w.k d.DXDXDXMXmX}.j J } / ( ( (  .[ } | +.o.@._ ! t ~ ..M ( >.+.X. .~ r w r r R } }  . .} }  .Y > w R } &.&.*.:.:.:.:.R.R.>.>.>.>.>.>.>.>.>.>.>.>.>.>.>.L.R.R.R.@X@X^ 2 ^ >.>.R.R.R.L.E.R.L.L.L.L.L.>.$.+.0 $.L.L.E.E.#.L.L.>.>.@.#.#.#.#.#.#.#.$.$._ o.o.o.o.o._ n 2 % 2 0 0 0 2 2 2 2 2 2 2 4 2 2 5 * 2 0 0 0 0 n V B b * N *XZ.C A.V.Z.@.b a V _ O.b.` w.G G C a v = h W.-X`.).H.).`.;X;XcXMXMXMXGXnXGXBXvX9.6.l.x./.xXnXnXnXGXGXGXDXg.l cXvX7XpXuX^.p.t.q.e.C D F s l Z Z k d c f '.9XvXiXvXvXiXnXcXcXuXxXxXxXuXcXuXuXbXbX;Xr.k b b C C b b n n D N D D b C !.cXuX9X9X9X9X9X9X9X9X9X9X9X9XCXiXxXxXt.x.xXcXxXcXcXcXvXnXNXxXf f h./.`.!././.~.~.~.x.j.j.j.h.h.e.q.6.f f Z $ $ A i i b n * _ L d.0.V.G r.f f f v h xXGXBXnXGX'.i L f l h.}.;XcXmXMXe.h.bXUXmXmXmXN.^ ^ V a k bXbXxXNX#XL.-X:X-XE.E.>.>.>.2.R.2.;.| e 2.2.:.&.} t O w w w > > 6 9 w > > > > > 6 9 w > > 1 ",
"E E E E E E E E R R  .R w w r } &.+.3.3.;...0 e M M ! ^ ^ B +.M ! B _ G mXNXh p n n ^ M M M v B @.V.Z.Z.P.A.V.N.W.:X:X;X;XcXbXcXbXbXbXnXGXGXf f '.9X7XpXnXBXvXc.t.t.D.w.S k l q.0.w.c f e.cXiX8XaXBXVXnXpX2X<X6Xc.c.9X7X^.7X6X9XcXl d C s x v n n m b C m m N C n.)._.^.^.^.c.^.6X^.^.^.(.^.6X6X6X^.p.9.t.^.7Xc.<X<X<X6X6X7X7Xx.k k S l j.x.6.9.6.7.7.7.7.7.7.7.6.6.6.7.6.f f k f q.t.0.S d e.H.F.'.cXx.l.`./.`.`.r.xXvX9.t.t.t.t.t.p.x.~.~.J.q.e.D.H.G.H.T.F.S S S.K.g.~././.k V } / ( ^ / E [ } | $.Z.L.L.+.| t ~ v >.@X>.&.*.} r w w w r R R R R R R } r < w  .} ~ Y e w e 2 M +.>.o.o.$.o.+.>.>.>.@.1.1.1.@.@.@.@.@.@.+.@.o.+.& M ^ B ^ ^ _ o.$.@.@.Z.Z.Z.P.>.$.#.2 >.E.L.P.L.L.Z.L.L.L.L.P.P.E.P.P.L.L.L.Z.P.E.E.E.E.E.E.E.^ 2 ^ $.+...| ..^ ^ ^ ^ ^ ^ ^ ~ n n M M n n q M 2 v b % a *XV.F D O.Q.E.V * v N V.V.N.b.N.S.` A m a G W.`.H.H.`.H.H.H.q.6.8.9.v.z.u.u.z.v.v.(.uX{.xXnXMXMXnXnXnXMXbXd.f CX9Xc.2XvXvXiXx.t.`.E.D G k 0.q.h.8.f c r.cX(.iX7XiXVXnXnXcX9X^.^._.(.7X(.^.~._.'.{.y.C m B D C m m n n N D ) N b A e.t.^.^.^.^.^.^.^.^.^.^.^.~.a.a.^.^.p.y.p.^.7X^.^.^.6X6X^._.'.e.r.r.8.h.J.8.6.6.f 6.6.6.6.6.6.8.r.8.q./.0.s D D C k k s = a ` S.q./.A.d H.{.'.`.Q.i bXiX2Xz.c.7.f f l 8.j.{.;X{.'.`.!.H.H.f.0.B.G.O.M ! ! v S bXbX;XG V.E.#X#X` F o.$.+...+.:.:.;...R =X2.} .. .} w 6 6 9 9 6 6 6 6 6 > > 9 w 9 > > > > 1 ",
"Y R R R R R E R E E  .R w w w ~ ( e ! ..+X:X..5 M ! M ! 2 % o.2 M B B a S.L a F N M ~ e e ! n n @.@.V.V.V.V.V.N.Z w.d.0.0.0.8.0.0.0.l 8.pXnXf 8.!.'.(.c.z.aXBXaX(.~.).w.r.f 8.q.q.e.l c y.'.^.c.<X8XiX7Xc.c.c.(.^._._.(.^.^.^.^.'.y.Z H H H N _ n N C D F V D H H H._._.'.(.^.^.6X^.^._.(.^.^.^.^._._.~.~.^._.(.6X6X<X6X6X^.(.~.l 0.0.q.'.9X^.vXnXnXnXnXBXnXvXvXvXcXcXvXcXD.l f y.t.J.D.e.f e.).t.{.nXx.t.xX{.'.;Xr.9.v.x.H.e.J.!.t.q.D.e.q.w.e.n.C.Y.G.Y.W.V.D C S.).!.6.cXbXS V ....( _ ^  . .~ | $.P.E.E.>.4.B B z I.@X+.*.X.*.R w w w R R r w r r R } r > R } ~ R ~ ~ ! ! ( B +.$.$.@.#.$.#.$.$.$.$.@.@.@.$.o.o.$.$.@.@.@.#.o.# v V n ^ _ @.#.#.Z.Z.V.@.V.#.L.#.#.* Z.E.O.O.V.V.V.V.P.A.P.L.Z.S.S.S.S.S.S.S.Z.S.V.V.V.A.W.#X$.% ^ >.+.| +.+.+.+.+.+.+.^ ^ ^ B B M M n n q 0 n n N z x #XN.` D G O.#.#.V z z ` N.C.C.C.A.S.O.n * b C B.`.H.D.J.J.h.q.t.x.(.uX7XuXuX{.{.uX/.g.h.q.q.t.9.9.9.p.9.q.G b._._.(.c.i.aXvX8Xp./.G.C G f q.t.j.8.c c f '.^.c.c.i.vXuXc.c.^.^._._.^.^.x.^.^._./.'.y.c V m C b b v q n N N N v V S.H./.~.^._._.^._._._._.^./.(._.6X^._.J.J.~.~.~.v.x.~.^.6X^.~.J.l k l 6.x.uX^.9XnXvXnXvXvXvXvXvXvXbXbXbXMXK.p G C s B.B.C s C C.`.J.xX:XS /.uX(.'.K.f nXBXBXBXnXnXcX{.J.g.0.0.0.B.D.e.e.F.B.B.Y.O.b o.( E } n L `.`.J.Z.>.>.1.@.>.#.$.;.......&.&.&...w @X3.X.,.*.*.R < > > 9 9 6 > > > > > 9 9 > > > w w w ",
"R E E E E E E E / E / R e Y Y  .&.( ..~ ! =X^ ! ! ( ~ +.^ V :XE.0 n v v m a v n M e ~ ~ M M M V Z.V.V.V.V.V.V.V.N.d.w.w.f.g.g.S.B.d.g.l.vXnX6.f '.).^.7Xc.2XaXvXcX'./.y.r.f y.t.j.t.c Z y.'.^.2Xc.c.c.c.^.7X(.^._._._._._._.9X_.CXq.l c H ` z N N D D D C C C C C r.y.y.~.'.^.^.^._._._._._._.6X_._._.~.t.~.'._.^.6X6X9X9X_._.~.e.r.f 8.9X7Xp.vXvXvXaXaXvXaXqX0X(.^.x.~.J.r.l f 6.x.~.j.q.f e.!.q.x.iXv.t.'.^.'.`.r.c.v.x.j.G.G.D.F.H.D.e.B.C.b.B.Y.Y.P.Y.W.V.D b N.J.t.^.x.UX}.b n V ^ F F ( ..| o.Z.P.P.P.>.>.$.^ M I.$X( &.*.*.R w w w R R r R R R R  .Y > R } ~ } ;.:.;.+.+.+.>.#.+.#.#.@.$.$.@.@.#.@.@.@.#.@.@.@.@.@.@.@.@.>.= B | n ^ V _ L.$.#.Z.Z.Z.L.Z.L.#.#.= Z.E.V.V.V.P.V.V.P.C.V.V.Z.S.S.S.S.S.A.A.A.S.A.A.A.S.A.E.L.& ^ R.+.^ +.$.o.o.+.+.+.+.o.| n n n n M M M n V v b z x #X` ` A.G a v #.$.b a ` N.C.C.N.V.S.O.o.g h $ f H.J.H.H.D.h.J.'.xXuX(.'.'./.`./.K.f.S.G.B.F.H.J.J.J.j.x.h.N.H `._.^.c.<X3XqXvXpX(.e.w.Z f q.t.x.y.f l r.~.(.6X<X<Xc.^.^.^.^.^.^.^.^.^.^.7X^.^._.;Xy.c C b C C m n B B ^ N b N b b Z r.q.~._.^././._.^._./.~.~.^.^.^.'.j.J.x.~.(.(.~.^.^.^.^.'./.0.S 0.6.c.uXp.2XnXaXiXiXiXiX9X(.x.9.8.8.0.s C C s 0.q.J.r.d s H `.q.`.;XS x.v.^.^.h.f nXpXz.z.c.(.{.;XNXbXcX}.B.B.G.G.W.w.A.A.s G P.V ( Y B v L d.d.N.Z.>.>.:.<.<.:.*.*.*.*.&.*.*.&.*.Y =X,...*.%.*.} 6 > > > 6 > > > 9 > > 6 6 > 9 r t t R ",
"R R E E E E E E R  . .Y w U U E %.{  .X.B =X+.e / / ( ..$.a mX-Xa n n v n n n B M ! ! M M n n F V.V.V.V.V.V.V.V.O.N.N.O.O.N.N.N.C.G.e.(.BXnXf 6.`._._.(.6X6X8XvX9X^.~.t.0.f 9.7.p.t.f c y.'.^.<X6X6X6X6X^.^._.^.(._._._._.6X6X_.uX8.8.f s D F N N _ D x C D C b D Z c t.'.^.^.9X_._._._._._.6X6X_._._._.t.t.]._._.6X9X9X9X9X_._.'./.8.9.9X9X9.cXvX<X1X0X0X9X~.p.t.~.t.e.w.Z l f 8.9.p.p.t.f 0.K.D.l.7Xz.7.(._._.Y.f nXBXv.x.m.T.F.F.F.C.C.C.C.C.C.Y.Y.Y.Y.Y.P.b Q.-XD.h./.j.xXUX>XN.Z.P.O.Z.O._ O.#.Z.P.P.L.L.L.L.^ 2 +X@X~ ..&.*.R w 1 w t R Y R R R ~ / w 3 R } R R ..;.:.+.$.$.$.$.$.$.$.$.$.+.+.@.@.@.@.@.@.@.@.@.@.@.@.1.1.+.2 M ^ ^ ^ V V o.$.Z.Z.Z.Z.Z.Z.E.#.>.= _ E.L.@.@.Z.L.V.Z.V.V.V.Z.Z.Z.Z.A.A.A.V.S.S.S.Z.Z.A.A.A.L.& V R.o.^ $.o.o.o.o.o.o.| ^ ^ n M M M M M M n M B V z a #X` ` N.O.F b K Z.O.b V.V.N.V.S.S.N.N.Z.p C -X`.H.J.D.D.D.J.J.~.J.D.D.B.B.B.B.B.B.B.B.C.C.F.F.F.F.F.F.J.m.b.Z `././.c.^.<X0X0X0X_.q.Z C c t.7.p.6.y.l 0.J.(.6X6X6X^._.^.^.^.^.^._._.^._._.^.'.'.'.y.Z f d G b b _ 2 V a F b b A h C f y._._.^.'.~.~././.^.^.^.^.^.^.~.~.t.8.j././.(.^.^.^._./././.`.e.f /.uX9.c.vX2X6X^.^._.!.J.q.q.q.l A F b b s r.8.q.8.k s ` W.e.D.;X0.J./.!.~.h.6.nXuXu.x.j.J.F.m.q.!.{.bXmX/.l g.0.g.l f B.;X;Xw.b g F G A N.Z.@.@.@.>.,.,.=.*.*.*.*.*.*.*.*.*. .e =X&...*.*.-.[ 6 6 6 6 6 6 9 9 > > > > w R R R R R R ",
"R R E E E E E E R  ./ Y U U U E %.{  .X.n =X+.e ( ] / / _ a >X}.a n M n M n 0 M q M n n B n n F V.V.V.V.V.V.V.V.O.O.O.O.O.o.o.O.D C.Y.xXnXcX8.f `.'.(.^.^.^.7X7Xc.^.'.f k d ~.p.^.9Xw.d 6._.^.7X6X6X6X^.^.^.^.^.(.(.(._._._.6X_.uXt.f S W.F b N N D N D G D b A s k T.`.'._.^.^.6X_._._.6X6X^.^._._._.'./.x.~._._._.9X9X9X6X_._.'.).r.9.9X9X9.cXvX<X6X0X7X^.x.j.~.t.e.B.G s l l t.x.u.9.t.f 0.Q.d.0.{.v.9.'._._.P.f aXHXnX^.!.T.H.G.F.F.C.C.C.C.F.G.F.Y.T.Y.A.b mXUX:Xf.J.g.K.bX:XS.P.E.P.E.P.P.V.Z.P.P.P.E.L.E.R.+.2 >.R...:.( &.R w 9 w r Y r R r R R ~ w 3 R } R t } :.:.+.$.$.$.$.$.$.$.$.$.+.+.@.+.@.@.@.@.+.+.@.@.@.1.1.1.+.2 M ! B ^ V ^ ^ $.#.#.#.Z.Z.Z.@.L.L.= 2 #.E.L.@.@.V.P.Z.V.V.P.P.Z.Z.Z.A.A.Z.V.S.S.Z.Z.Z.A.A.A.L.= B L.o.F $.o.O.o.o.$.$.o.V n n M M M ! ! ! M q n 2 * V *X` b.w.N.N.O.N.S.S.N.S.N.B.B.B.S.S.S.N.k G.cX'.!.G.D.D.D.J.J.J.J.B.B.A.C.A.A.A.A.G.G.F.C.C.C.C.C.C.F.F.m.n.Z `./.(.^.(.c.^.^.6X_.t.Z G d ~.~.9X~.f l f J.(.6X^.^._.'._.^.^.^._._._._._._._._.'.;Xy.f 0.K.s x N ^ N n F C s C A a m Y.!._._._.^.~./././._.^.^.^.^./././.x.t.~./.^.^.^._.^._.^._._.'.q.f /.uX9.c.vX6X6X_._.`.T.F.n.e.w.G ` _ V F f 8.9./.8.d s O.W.e.J.;Xr.F.!.H.H.h.f cXuXx./.H.A.T.T.H.D.r.h.;X;Xf.S l f 0.;XNX`.e.D.k h }.NX:XE.o.>.>.>.:.,.=.=.=.,.=.*.*.*.*.*.*.X.q =X:...*.*.-.[ 6 6 6 6 6 6 9 6 > 9 w w Y R R R R R R ",
"R R E E R E E E E  ./ Y U U Y E %.{ } | B *X$.0 ( &.] ( ^ b :X:X* n B M B M n B B V M M V M n V V.V.V.V.V.V.V.V.V.V.O.O._ N b n V n ; A f l A h `.'.(.(.^.^.(.c.(.c.~.l S j {.cXbXxXZ d r.'.^.^.^.^.^.^.(.(.(.(.(.(.(.(.(.(._.(.uXq.f K.-XA b V N N N D N h K W.b d `.'.~.(.7X6X^.^.^.^.^.^.^.^.^.^.(.(.(.(.(.(.(.(.(.(.^.(.(.(.'.).r.9.9X9X9.cXvX<X8X6X^.x.t.t.t.m.e.w.d.S S f /.xXvXxX~.f f S.O.C H.x.r.`._.`.Y.f pXBXvXx.~.!.H.G.G.G.D.A.G.G.F.H.F.G.G.G.A.C H }.`.K.K.J.J.g.K.N.A.P.L.P.V.P.P.P.P.P.P.P.P.E.E.$.z >.R.+.>...&.R 9 9 w t R r r r R R R w , R  .R t ~ ..>.$.+.$.$.$.$.$.$.$.$.+.+.+.+.+.+.@.+.+.+.@.@.#.#.@.1.+.2 M ! B ! B ^ V o.$.@.#.Z.Z.Z.$.L.>.2 # z I.E.@._ ` Z.L.V.V.A.Z.Z.V.Z.Z.A.A.A.A.Z.A.A.A.A.P.Z.E.* B L.O.o.O.o._ _ o.o.^ ^ ^ V t t q M ! ! ! M M ! n 2 D W.G C.w.b.B.A.C.N.B.C.B.m.m.m.D.B.B.B.N.C B.&XH.D.B.B.B.D.D.D.F.D.B.S.A.A.A.A.A.A.A.A.C.A.C.A.C.A.C.C.C.C.N.A `./.(.^.^.(.7X^.^.'.h.l s s ;XcXbX/.d l k J.(.6X6X9X_.~.^.^.^.^._.^._._.^._.(./.`.;X8.f {.-Xp D N N V b D s C d.S.C C W.`.~.~._.^.~.(./././._._._.^././._.^.~./.^.^.^.^._.^._._._._.'.q.f ).xXu.^.vX2X^.^.).T.F.C.b.w.S Z C x = s w.{.bXxX/.k s G Q.e.f `.Z J.H.J.K.f.f mXcXD.H.K.A.G.F.B.G.S.0.w.r.l l e.`.NXNXT.B.T.B.d d.mXmX:XE.X.:.:.:.:.,.=.,.,.,.=.*.*.*.*.*.*.X.q =X;...*.-.-.[ 6 6 6 6 6 6 6 6 > w R R ~ ~ R R / ~ ~ ",
"E R E E R E E E /  .E U U U Y  .%./ ( | n *X$.0 ~ &.] ..o.A W.K.* n B n M M v N M N v n V n n V V.V.V.V.V.V.V.V.V.` O.Z.V._ F _ B t J o.j P K ; W.`.(.(.^.(.(.^.(.9X~.l p j k d i d p p d x.9X^.^.^.^.^.(.^.^.(.(.(.(.(.^.^._.(.uX8.8.:XL h V V m N N N b a K [.Q.h K.`.~.c.c.6X^.^.^.^.^.^.^.(.(.(.(.(.(.(.(.^.(.(.(.(.(.(.(.(.'.).r.t.uX9X9.cXvX6X0X<Xa.p.t.m.r.!.e.r.0.k d f f f f 6.f i f 0.A.` H.H.G %X`.`.T.f 7XpXx.x.J.!.F.J.J.F.G.A.G.F.G.G.F.G.G.G.A.C N.B.B.J.f.h./.D.G.A.E.P.P.E.U.E.P.P.P.P.P.P.P.L.E.@.z L.E.^ +.;.&.R 9 9 w t R R R R R R R w 3 r } ~ R R } :.:.+.+.$.$.+.+.$.$.$.+.+.+.+.+.+.+.+.+.+.@.#.#.#.@.#.;.0 M ^ ~ ^ B B B ^ o.#.#.Z.Z.Z.L.#.#.v % * v R.E.@.V _ V.P.Z.V.Z.Z.Z.A.P.A.Z.Z.A.A.A.A.A.A.A.Z.E.* m #.O.o.o.o.o.o.o.o.^ V n 0 B t t t ! ! ! M 0 M B z N W.b.b.n.b.b.B.B.N.B.B.n.m.m.m.m.n.B.C.A.C r.H.m.J.G.B.C.F.D.F.F.C.C.S.B.B.C.C.C.C.C.C.A.A.A.A.A.A.A.A.A.A.O.A `./.(.^.(.c.^.^.^.^.q.f h h s i p $ p d d j.(.^.^.^.^._.^.^.^.^._._.^.^.^.(._.^._.;X6.8.bXd.h ` z N n n b s C G G.C.D Y.`.!.)._.^.^.(./././._._._._./././._._.^.^.^.^.^._.^._._._._.'.q.f /.xXp.c.vXc.^.~.!.F.C.N.N.G G S G H s f f 0.8.f l i s k w.f.0.W.S J.J.G.K.g.d mX;XJ.G.G.K.D.h.0.0.8.8.f 8.h.`.cXmX;XG.C.A.P.S.i K.mXW.Z.>.X.*.:.:.:.,.,.,.<.:.=.*.*.*.*.*.*.} e =X;...*.-.-.[ 6 6 6 6 6 6 6 6 9 t ~ ~ ~ R R R R ~ / ",
"R R R E E E / /  . .R U U U R  .%./ ( V n -X#.2 ( &./ ( _ b P j v B B M v v v N N N b b M n M ^ V.V.V.V.V.V.V.V.V.V.V.P.V.F D N V n } B a N.V n `._.c.<X6X6X^._.^.x.6.f d j j h h = j Q.q.9.x.(.6X^.^._._.^.^._._._._._.6X6X6X_.uX6.~.;Xi s F m n n b n F V m m $.h Z `.'.^.^.7X7X(.(.(.(.(.(.^.(.(.(.^.^.7X7X^.^.^.(.(.^.7X7X7X_.).r.q.uX9X9.iXvX6X0X^.p.p.t.t.e.B.e.q.f f f f w.f i d f q.x.6.e.r.J.).b.%X)._./.f uXcXq.`.H.H.T.F.F.Y.Y.Y.Y.Y.F.T.Y.Y.P.P.P.D P.W.T.T.`.J.D.G.G.Y.P.P.E.E.P.E.P.P.P.P.P.P.P.L.E.@.z L.#X@.o.( &.R 9 9 r R R R R R R R R w , Y } } ~ ! ~ ..+.+.+.+.+.+.+.+.$.+.+.+.+.+.+.+.@.@.@.@.@.#.@.@.@.#.:.e 0 ( ^ | ~ B B ^ _ $.@.@.#.Z.L.#.>.2 v ^ . +.E.E.o.N _ Z.Z.@.Z.Z.Z.Z.P.Z.S.V.A.A.A.A.A.A.A.P.E.= z $.$.o.o._ _ _ _ o.#.+.^ q 0 y q q t B B M q 5 0 z b W.Y.H b.N.N.N.N.V.V.N.N.B.C.C.C.C.C.N.A.H r.T.F.T.G.B.C.F.J.F.F.C.Z.Z.A.C.C.C.A.A.A.A.A.A.A.A.A.A.A.S.S.Q.O.k `./._.^.(.~.9XuX^.7.f l S p $ j m = j g.f 9.^.^.6X^.^.^.^.^.^.^.^.^.^.^.^.^._._.(.9X6.~.;Xi k b b V v V N C C s G N.D b.T.`._._.^.^.^._._._._._._._._._.~./._././././.^._.^._._._./.'.q.f /.xXu.^.vXc.^.~.!.F.C.N.N.G G L h i i f d f p $ k f 0.f f l k W.S K.J.K.K.g.j G.F.T.T.F.H.j.{.uX|.(.uXcXvXnXnXbX~.e.T.Y.P.E.O.p Q.:XN.O.$.:.:.>.1.:.:.:.:.:.:.=.*.*.*.*.*.*.} e =X;...*.*.-.[ 6 6 6 6 6 6 6 6 w R R R R R ~ / / / } ",
"R R E E E / E /  . .R U U U R  ./ ( ~ V m -X#.2 ( &./ ( ^ V [.-X2 n n n V _ ' @.` ' _ ^ ^ n M ^ >.V.V.V.V.V.V.V.P.V.V.P.N.G D b b n | n C A.n b `._.c.<X6X6X_._._.t.t.`.;Xj # g g = j :XMXuXx.x.^._._._._._._.^._._.6X6X6X6X_._.uX9.xXJ.k k A b n V m b V V b v n V s h./.^.^.6X^.^.^._._._._._.^._._._.6X6X6X6X_.^._.(._.6X6X6X_./.8.q.uX9X9.iXvX6X7X^.~.p.t.t.B.G e.y.6.~.;Xr.s v * $ i {.GXMX_.9.7.j.0.`./.^.~.f uXMXK.K.T.F.T.T.F.F.Y.Y.Y.Y.F.Y.Y.Y.P.P.P.D P.P.G.F.F.H.T.T.F.Y.P.U.P.P.P.P.Y.P.P.P.P.P.E.P.E.Z.a V.-X*XW.o.;.R w 9 w t R r R R R R R w 3 Y } } } ~ ~ ( ..+.+.+.+.+.$.$.$.$.@.@.@.+.$.#.#.#.#.@.@.@.@.#.@.#.:.2 2 M ! | ^ ~ B B ^ _ o.@.$.#.$.#.L.= n @X% 2 #.R.R._ N ` Z.Z.O.O.O.@.Z.P.P.A.A.A.A.A.A.A.A.P.E.* 2 O.#.$.@.$._ o.$.o.^ ^ +.>.} [ } } | X.....:.B n * * P.W.P.G N.N.N.O.N.V.V.N.N.C.C.C.C.V.V.V.H w.T.m.F.C.C.C.C.F.F.F.C.Z.S.A.C.C.C.C.A.A.A.A.A.A.A.A.A.A.S.S.S.d.k /._._._.^.^.(.p.7.t.'.bX}.p = = = . j bXMXcX^.p.^._.(.^.^.^.^.^.^.^.^.^._.^._._.(.'.6.{.K.f C p F n b n D D C h k H c H w.H._.~.^.6X^._._._.).)._._._._././././././.^.^.^.^._._._./.`.q.f /.xXt.^.vXc.~.~.!.J.C.N.O.G A A A h./.).f i = ; # k bXbX!.l S A.Z J.h.k.K.g.k l n.T.T.F.H.j.(.cXvXvXvXuX'.^.x.t.~.D.B.Y.P.L.Z.$ Q.*X` Z.>.:.>.>.>.1.:.:.4.:.:.=.*.*.*.*.*.*.} t =X;...*.*.-.[ 6 6 6 6 6 6 6 6 w r R R R }  .}  ./ R ",
"R E E E E E E E  ./ Y U U U Y  ./ / ~ V n :X#.2 ~ ../ ..^ V :X>X& q n V @.L.L.P.L.P.L.@.o.B M ! >.L.V.V.V.V.V.V.V.C.C.P.Y.Y.W.W.E.O.B g k S.V N `.`.^.^._._.'._.r.t.t.j.J.s $ = . h $ l (.(.~.t.~._.'.(._._._.^._._._._.(.(.(.(.9Xp.cX8.0.l C b b V V b b N D _ E.Z.Z y.9.7X6X6X6X6X^.^._._._._._._._._.6X6X_._._._.(.(._.9X9X9X9X~.r.0.uX9X9.iXvX6X6X^.~.J.t.m.B.w.r.6.6.uXcXZ * 0 & = i ~.uX9XcXx.9.x.8.'.~.c.x.6.vXnXj.J.H.F.H.H.G.J.G.G.G.G.G.G.F.G.P.P.Z.N W.P.W.`.G.T.`.B.Y.Y.P.P.W.P.W.Y.G.G.G.G.G.Q.G.A.A.B.d B.:X:X`.O.$.~ w 9 w w r w r r w w w 1 3 Y  .~ / } ( ( ( +.+.;.;.+.#.#.@.@.$.$.$.$.#.#.#.#.#.@.@.@.#.#.#.#.:.9 1 e e e ~ ^ ~ B B ^ _ o.$.#.@.>.>.% 2 =X^ 2 M >.E.>.F F @.Z.` _ G _ O.Z.P.Q.Z.Z.A.A.A.A.P.Q.E.2 2 $.>.#.@.@.L.>.@.B & % M ..*.X.X.X.*.:.:.+...:.| * = b N.W.C.b.G ` N.N.N.N.C.C.C.C.C.C.C.S.V.` b.Y.C.B.C.Y.B.B.F.F.F.C.C.C.C.B.B.B.B.B.B.B.B.B.S.S.S.S.B.S.S.S.S.l )._._._._.'.'.t.p.(.~.8.l i p # # n i 8.j.x.p.p.~._.^.^.^._._._.(.(.(.(.(.^.^.^.(.'.7.xXJ.0.Z s D b b b m N D D D ` N.k f 0.'.9X6X9X_._./.).).)._._._.)._._./././.^.^.^.^.^._._._././.r.f /.;X9.^.cXc.~.~.!.J.C.N.` H A b L /.'.!.i # + @ # $ 8.k.`.S.i H.y.~.x.j.k.g.r.;X;XJ.F.G.G.h.J.q.f.h.f.f.D.D.D.G.F.F.G.B.C.T.N.# E.W.F V.>.>.1.L.L.@.:.:.4.:.:.=.*.*.*.*.*.X.} t =X;...*.*.*.[ 6 6 6 6 6 6 9 6 > r R R / } ~ R w w 3 ",
"R E E E E E E E  ./ U w U U Y  ./ / ( ~ n :X>.2 ( / E %...0 W.#.2 e B ^ >.L.P.P.V.P.L.L.+.^ B ^ >.>.@.V.V.V.V.V.U.A.C.C.C.Y.W.W.:XW.h s f h.O.a W.`.'.^._.'.`.H.r.J.y.q.l s # 2 2 = i l./.j.!.~.j./.'.(.^.(.(.^.(.(.(.(.(.(.(.(.9Xp.cXt.8.k k C b m b N F F b N *XN.Z 8.p.vXvXvXiX0X6X^.^._._._.'._._._._._._.6X_.(.(.(.(.6X9X9X9X/.Z 0.{.uX9.xXvX6X9X~.~.J.m.m.b.B.f 6.t.t.8.s * 0 o * d f 6.7.p.6.6.x.8./.v.(.x.9.GXpX9./.j.!.J.H.H.J.D.G.G.G.F.G.G.G.G.Q.Z.b E.E.Y.Y.`.).J.T.Y.Y.P.E.P.P.Y.A.Q.G.G.G.Q.Q.A.A.A.S.p S.-XW.A.O.$.} w 9 9 w w 1 1 w > > 1 > , Y %./ R } ..( ( ..;.;.;.;.#.#.#.@.$.$.$.$.@.#.#.#.@.@.@.@.#.#.#.#.>.q 9 1 o 1 q } | ~ B ^ ^ o.$.>.>.>.>.0 % #X>.2 % ( E.R.@._ o.#.Z.#.o.F F _ O.@.Z.Z.Z.Z.A.P.P.E.#.& * | #.#.+.$.+.V 2 2 2 0 0 1 q 0 0 0 2 1 5 & + t 0 & n * = V.#Xb.h D O.N.N.V.C.C.C.C.C.C.C.S.O.N D Y.G.C.N.S.S.B.F.J.J.F.A.C.C.B.B.B.B.B.B.B.B.S.S.B.B.B.B.B.S.D.S.Z )._.'.'.).`.`.J.t.9.6.8.l d $ = # . d h.j.x.m.t.]._.^.^._.(.(._._./.(.(.(.^.(.^.(.'.7.cX/.f Z Z s C b V N F x x D P.#XC S 8.uXvXiX0X0X^.^./.).).)./././._._._._._.~.^.^.^.^.^.^._././.r.f K.;Xq.~.cXx.~.~.~.H.F.B.b.G H F L q.8.f i 2 1 w & p 0.q.J.S.d.!.t.~.~.j.h.0.8.UXMX~.J.T.G.T.F.G.G.G.G.Y.G.A.Y.A.Y.C.Y.T.Y.Y.N.* [.Q.V.L.o.+.>.L.@.1.:.:.:.:.:.=.*.*.*.*.-.*.} R =X:...*.*.-.[ 6 6 6 6 6 9 6 6 > w R ~ } ~ Y w > , w ",
"R R R R R R R R R R U 7 U U R E %./ } ( ^ :XR.e / / E { / ( M n B q q o.L.L.P.C.V.A.P.>.R.^ ! ! 1.>.L.L.L.V.V.U.N.A.Y.Y.Y.Y.Y.F.n.D.H.q.uXMXd.a U.` B.w.n.n.w.w.H C.e.e.B.k # 5 % $ d l q.8.r.r.9.(.^.^.(.^.7X^.^.6X7X7X7X(.(.9X9Xp.cX9./.r.Z N.G b b N F N N ` G Z l 6.cXnXaXaXvXvXvX9X^.^.(.^.^.^._.^._.^.^.^.7X(.(.(.7X7X7X6X9X~.0.l '.uX8.uXiX9X9X~.~.J.!.J.F.w.l l l l k C % 5 z a i l 9.q.q.D.j.l./.cX(.cX~.(.BXvXpXuXp.x.j.H.D.J.B.B.W.B.G.G.A.A.A.Q.N.F E.W.W.T.K.H.K.G.K.G.P.E.E.P.P.E.E.E.E.E.R.R.R.L.E.@.2 E.*XV _ v t w 1 > > w r 1 1 w > < w > > Y } &.%. .} ....! ....+.:.>.>.>.+.$.$.:.+.+.#.#.@.@.#.#.#.#.@.@.$.:.! 5 5 9 e 9 1 B | ..^ ^ +.>.>.>.+.>.2 2 @X2.5 2 2 $.#XE._ F _ #.Z.E.L.#.O.@.P.L.P.P.P.P.Q.Q.E.>.2 % 0 & % 2 2 0 . & q 1 1 0 5 1 2 2 2 2 2 2 0 & 1 - & & * * a P.E.F a b F _ V.V.N.N.N.V.V.N.G g . G W.S.S.Q.S.A.N.B.J.H.D.F.B.C.C.C.C.C.C.C.A.A.A.A.A.C.C.C.F.F.B.G.c F.H.m.n.N.S.A.B.D.J.J.D.K.A 5 % & = s 0.t.h.w.r.n.!._.(.^._._._._._._.'.9X^.^.^._._.9.cX~.r.f Z B.C D b m n v n N #X` k f /.iXiXaXaXaXiX7X(.~.~.~.^.x.~.~._.).~._._.^.^.^.^.^._._._._.y.f D.;X8.(.xX~.~./.~.H.T.G.b.w.G G Z k Z G a % 3 < @ * L Q.d.G F.T.J.&X`.-X;XK.6.nXMX^.t.H.G.C.T.H.H.H.B.B.Y.A.P.P.P.E.E.E.E.I.L.x :XW.N.#.+.3.*.;.>.>.:.;.:.@.>.*.*.*.-.-.*.%. .R @XXX .&.-.T 7 > 6 6 6 9 9 w w w w 3 1 3 4 4 w / / / ",
"w w w w w w w w U U w w R U R  .E  ./ e ^ >X=X4 / %.{ { / ~ ! 0 ~ t ! $.L.P.V.V.P.P.L.#.L.^ ! ..^ ^ _ @.L.L.V.A.P.Y.Y.C.C.Y.Y.G.).!.j.t.vXGXJ.h N N F D D H S C N D C C w.C % % @ = s l 0.0.G d.~.(.'.'.9X(.(.7X7X7X^.^.(.(.(.(.^.p.xX9.'.q.f T.N.C F b b D x ` S d 8.7.uXaXaX8X2X8X7X(.c.~.^.~.^.^.9X9XCX9X9X9X^.(.7X(.6X6X7X6X_.J.l k j.'.8.uXcX^.^.~./.J.!.).&XT.e.0.d.P P K n z z i i l 0.0.w.H J.h.J././.j.J.6.z.BXGXGXMXuX`.h.H.G.G.W.d.B.n.C.A.A.E.E.@.F E.E.A.K.`.K.`.K.K.W.W.W.W.W.W.W.L.>.>.>.;.....} } } 1 ( ..e ! 1 t w w w 1 9 w > > w 3 > w > , Y  . ./  .} } ......;.>.>.>.;.>.>.+.$.>.>.>.#.>.#.>.>.>.>.>.#.>.>.2.} 1 1 9 9 1 1 ~ ..>.>.>.>.R.>.>.R.R.* & R.R.2 2 2 M >.E.L.#.#.L.#.>.E.E.E.E.L.E.E.E.E.E.E.E.E.o.0 0 B B B B q 0 B q & 1 q q 0 * 2 z z 2 2 0 0 0 9 + - - 0 ; * F E.Z.B v = v O.O.O.O.N.Z.Z.b = & = g G G S.O.L N.A.G.H.J.D.F.B.C.C.C.C.B.B.B.B.B.B.B.C.C.C.C.F.D.G.w.c Z c s ` m B V C Z r.r.S A a % % % = k 0.Z S G Z.W.&X'._._._._./._./._.~._.^._._.'.^.9.cX~.y.y.l `.C b D N v V N F Z.h S l /.iXiX8X1X8XpX^.x.x.x.~.^.^.^.).'.'./.~.~.~.9X^.^.^._._._./.r.l S.;Xq./.uX/././.).).).H.T.T.C.B.N.S A K 0 % 3 4 o @ ; n h c r.T.C.%XW.K.S.l d (.MXnXxX`.T.T.Y.N.G B.Y.Y.A.b.A.P.P.V.L.P.E.L.O.s :X:XS.O.#.4.X.>.>.:.+.| | @.@.&.=.=.*.*.*. .} w ,.3. .E T 7 r 6 6 > > > > > > > > 1 w Y Y ~ / / / / ",
"w w U U U U U U T U w U R U R %.[  .} ! ;.>X=XY / E E E E R ! ! e e B $.L.P.L.V.V.Z.V.L.R.+.e ~ | N V @.Z.V.V.C.C.C.C.A.Y.Y.G.J.J.~.~.7XBXBXk.s ' ' F F N D G A o.V v b C N 0 w 9 0 C C A h m A )./.'./._.xX'.'.'.'._.'.&XCX&XxX'.t.cX'.;X'.!.;XK.h D x b ` N A.w.f 6.9.vXvX8X<X8X6X6X^.^.^.9X9XxX9X9X'.xX&XxXxXuXuXuX9X7X9X9X9XxX!.Z 0.j.uXq.'.iX7X9XuX{.;X;X`.`.H.B.d.d.P L O.V 5 % $ a k S k N.G f f 8.f y.c r.c f nXGXpX(.cXbXcXJ.B.G.C.W.W.T.W.W.E.E.I.1._ W.W.W.Q.G.G.K.D.A.A.A.S.S.N.G b o.( ! ! r R / E R  .U r r R ~ w w 1 w w 9 9 w 1 > w w 3 w > > w  ./ ~  . ./ } &.^ ^ ..+.+.+.o.$.+.:.;.:.+.+.+.@.+.+.+.+.+.........0 5 5 1 1 1 9 5 q ! ! ! ! M 2 2 v 0 & 2 ^ ( e n 2 2 ^ L.R.E.E.#.^ 0 2 n V V V V V V V V V V V V ; 0 | | o.| B & 0 & 2 | | B | o.o.o.o.o.o.+.+.B 9 + - 0 0 * * = V ^ n n n V $.#.#.O.F b g ; = : n = $ $ h j m $ S.MXh.e.F.H.G.C.C.C.C.C.C.C.C.A.C.C.C.F.F.C.F.n.B.>XG D D _ n B J J B b b h a v 0 1 1 5 2 b C A b V >.W.-X`.'.'.'.'.'.'.'.;X'.'.'.'.'.'./.t.cX;X'.`.H.;Xw.C F ^ 2 ^ M o.Z.s G 8.'.cXvX6Xa.a.c.~.~./._._._.'.{.;X;X-X}.;X{.'._.'.(._.'.'.`.).l k S }.q.H.'./././.).`.`.).`.W.C.w.G A m n 0 5 3 3 o 9 - = g s c a $ s i = = p i (.nXbXcX;XW.V.N z * b ` P.%X`.`.W.W.T.H.K.K.G.S.i -XNXW.Z.L.$.$.L.>.+.^ B n v ) ( -.-.%.[ [ E R R E / / R r 7 6 > > > > > > > > 1 w r R ~ / ( ( / / / ",
"R R R E E E E E [ [ R U U U U [ [ R ~ ( ^ @X;.! ~ E E R R Y ! ! e e ! $.L.L.L.L.P.W.P.E.R.>.M ^ $.@.@.#.#.V.Z.P.V.A.P.G.Y.G.G.G.).xXbXMXGXnXK.g N ^ V O._ _ F b V n V _ D N B w + 0 b C m m m A Z f r.y.r.D.e.e.n.J.J.m.m.n.r.r.q.f /.'.&XxXxX;X-XS C b D _ x V.:XK.f 6.vXnXvXiXiXuXuXxXcXxX9X9X/.j.t.r.w.c r.r.t.x.^.(.'._._.'._.t.l l t./.8.t.p.u.p.7.8.h.t.r.e.w.w.w.G S F K _ 2 % b F G w.S Z w.0.{.cX;X;XcX%Xd f {.}.8.f f d Z r.Z w.C k H s c D ' @.@.( v b b C S.K.K.K.K.K.A.L b s C C b v * 2 n B ( ! w Y w r q w 1 1 0 t 9 9 w 9 9 w w w r r w > > > w < X < > > O X O 1 % % 5 2 2 5 & 5 5 > 5 % 5 5 2 2 5 % % % % % o 1 5 5 1 0 1 1 1 5 2 e 2 2 1 2 5 2 2 % 0 M & % % & 2 % % v V n V 0 2 5 & & % = = = = = = = = = = & . @ & * 0 0 & 0 0 & 2 | :...+.o.o.o.o.o.o.| | t 9 - 9 0 ; * * = = # . & * = = = $ $ # # # a g . ; # p $ = = = g $ mXMXJ.J.w.N.B.S.N.C.V.V.V.S.V.V.C.C.C.C.C.F.n.mXW.a F b F n n B n B m F V V n B t 9 1 0 n m n v 0 g h h l r.q.l 0.0.0.g.f.f.D.t.t.r.q.r.f J.;XNXNXcXNX;XG a V n ^ 2 @.W.G k l ;XbXcXuXuXxXuX;X;X&XxXxX&X).n.k C C C 0.f./././././.'.}.`.G.s k l K.h.J.!.J.j.~.t.J.J.n.b.G C C C D n n M 2 1 5 1 } t B F k w.A.A.W.Y.W.W.Q.p f 6.f l h z N x n 0 z z F W.%X%X%X`.`.`.K.G.S.S.s A B.s s V V _ ) ' o.1.>.2.E.@X( E E [ E W T T  .Y Y R w w w > > > > w w w w w R R R / / / / / / / / ",
"E E E E E E E E E %. .R U U U R E R ~ ( ! ^ M ! ( } / R Y r M ! M e M ^ _ _ _ G b _ N n M ^ M +.+.#.>.@.@.L.Z.V.A.A.A.A.B.B.A.G.;X}.`./.9.l.I n o.n j A C b A A h a V o.F V t + + 0 N D V F A C d.Z Z d.G C C C x C b x c D c s c l f f r.y.t.e.W.S C F N N N _ -XW.k 0.xX{.j.k.t.q.8.f f l 8.8.f f C x m z b C 0.f d f f f f c 6.6.r.8.7.t.9.t.p.7.u.p.t.t.8.q.S G w.w.w.G H F K 0 & V O.G N.w.q.q.{.bXxXCX'.`.;Xb.s = k f 6./.{./.l g.K.G.W.K.W.Y.N.F F o.^ n o.A S.bXDXMXMXDXDXmX-XN.V.-XmXmXDXDXmX:XS.A Q.-X-XW.*X*X*X[.W.[.4.R w w 9 1 w 3 R R R r w w Y R R R } R R  .R ~ ! M n M M n M M e 1 1 r ! ! ! ) ^ ^ ! M ! ! e e e e M ! R e r r ! ! ! ! ! ^ ^ ^ 2 0 5 5 e 2 1 5 2 M 2 & 0 0 = = & 1 2 0 0 0 M n 0 v v M V ^ _ o.o.$.$.o.o.$.#.$.#.#.+.2 % | >.| o.o.$.$.$.o.+.| 0 9 9 9 * * n _ ` N.` G F D D G G N.G.W.`.W.G a n 0 * G h h m = b i k MXMXT.B.B.A.A.A.Z.Z.Z.Z.Z.Z.A.P.A.C.C.C.C.`.mXa g O.b b A K V b b C C m n B ~ t - - B ^ N F F F m A S 0.r.Z h k A j m p k h h C d h C h A w.y.r.e.F.`.S.b z n ) v P.:XK.B.Z `.;X`.!.J.q.Z 0.H r.c c c s s b A b h s d f i d f f f d d G G l f f.q.q.q.y.6.y.f 8.f d C D ` A D G F V V n 1 1 B | n _ D Z -XcXcXxX;X;X:XW.a h j a ; ; = a a a # $ = $ $ $ x x x x z z * = = = # s A.-X-X:X:X:X:X:X:X:X=X=X=X} R R %.-.[ E E E R R R , w R r > > w w r Y R R R E / / / / ( ( / / / ",
"R R R R R R R E T  .%.E E R U R w r e 0 2 z z M 0 e e w w e M M e 0 0 n n n N N V O._ ^ ^ N M ^ M n M b n N x p p s s k k f f k d i d d f f j J F s 0.8.e.w.B.G.K.w.F F D _ B u 9 B _ D D D 0.r.l Z l f k k S A G G C C C.W.W.W.B.W.K.`.J.r.e.f c k C F b N ' F h j d f 6.f 6.6.8.8.f.f.f.h.8.f 8.f d b V V b s d 8./.cXcXxX;X;XxXcXbXcXvXcXbXbXnXnXMXnXnXcXk.f.d.L G r.w.b.w.D V ; @ n o.N b.r.8.x.uX/.~.~.^./.J.B.S.P P l uXGXIXMXk.:XDXmXDXbXNX:XW.Z.$.#.$.V n F G S.S.f.f.d.A.A.Z.Z.Z.E.E.A.`.;XbX:XG.S Q.-XW.Q.Q.Q.Q.W.K.Q.R.~ 9 9 9 9 w w R R R R r R / / ( ( *.~ ~ *.*.3.;.:.>.>.>.>.L.>.q w r } :.>.;.+.+...( ^ ^ ( } ~ ( ( ( ! ! ! ~ ~ ! ~ ^ ( ( ( ( ^ 2 0 ^ +.>.>.>.2.+.:.$.:.>.>.V 2 0 1 5 9 e ! | | ^ ^ +.+.$.#.>.#.$.Z.L.#.#.Z.L.L.L.E.E.$.* n #.o.| | | | o.o.| | 0 9 9 & * n @.P.b.C.F.P.A.A.A.G.W.H.J.F.T.`.-X-Xn = F -X-X-X-XK = F i G mXB.A.S.Z.Z.Z.@.$.O.O.O.o.O.O.` D D c c H $ b m g h C Z C Z r.n.D.N.F B ^ ^ n & - B ^ ) _ H C k l l f f l j k h m A p A k G K.A.A.Q.Y.P.Y.c w.f d f C b N ^ v z s Z c f f f d d f f l 0.l 0.e.r.c f f h $ h s k s f f.q./.'.'.;X;X}.-X-X;X;XxXxXxXxXxXxX;XxXxXH.w.N.D D A C D _ _ _ B ; & } ~ M _ D w.;X`.~.p.t.m.n.V.z v & 9 q q : Z G.-X}.-X-X-XW._ z v z M ^ >.R.R.>.m j ;XmXNXW.E.E.P.P.U.#.$.:.$.+...R R -.=.-.[ E E Y Y Y w E  .T > > w w r R R R R R R ~ ~ / / / / / / ",
"R R R R R R R R U R E  . .U U  .*.4.>.$.L.L.L.>.>.>.>.>.>.L.R.R.+X+X+XE.@XW.#X#X*X*X*X*X*Xo.M ! >.$.$.#.#.O.Z.P.-X-X-X-X-X}.[.`.`.`.K.}.uX{.j P Z q.cXiXvXcXxXxX;X/.w.D ` O.J : @ n ` ` ` C.`.'.cXcXcX{./.j.8.q././.J.k.J././.!.}.Q.G.B.Z q.&X;XF.C F F v V N h q.{.cXvXvXvXvXvXvXvXvXcXvXvXnXnXiX9X/.`.S f f t.9XvXVXnX0Xa.p._.~.~.j.x.^.^.~.~.^.9X0X6X9XcX8.8.w.d.w.` ` b.O.G O.m = J o.F V.H q.{.{.~.'.^.^.^._./.S.p p {.GXGXuXg.0.0.S Z k d.G ` ` O.L.<...e R.W.Q.d.d.S.K.K.A.A.Q.E.E.P.L.Z.S.w.G N.S.E.E.$.#.>.#.#.#.#.Z.#.3.t > 9 9 9 w r R r R R w R / R w w } w > r t *.} X...^ o.>.R.R.t w r ..:.<.:.:.;.( ( ~ ~ ( ~ ~ ! ! ! ! ! ! ( ( ( ( ^ ^ ^ ^ ^ ! 0 5 +.2.:.:...;.:.;.:.>.>.>.#.^ 1 w e } *...~ M ^ ^ ^ ^ ^ ^ ^ _ o.O.O.@.V.Z.V.Z.@.O.P.E.#.m m $.$.| $.$.$.$.$.+.2 0 2 2 n @.P.P.Y.C.C.A.A.A.A.B.n.F.G.F.B.B.B.A.P.v z x x b E.m B = s s p s x v b m b b v v 0 0 a a a x b D D c c B.F P j S /.'.xXxXxXcXxX`.N.V ` @.V ; : n ^ ) H n.J./.'.{.xXcX!.D.D.f J.H.D.H.e.m.).).).H.H.n.c s Y.G.S.w.C F n N N ) c c `.'.uXuXiXvXnXcXuXcXbXcXcXcXvXcX'.l.B.B.c f f e.cXbXnXcX_.~.~.J.!.H.J.J.m.J.J.J.~.!./.;XxXD.G ` n O.L C N _ ^ V m a = V n ^ _ D H.`.J.h.~.~.!.F.P.M / r r & * d x.vXxX;X;X}.-X-XO.= n v m O.E.W.W.W.S g.mXcXY.F o.$.@.O.@.$.$.$.#.L.;.%.[ [ -.-.%.[ E U w R  .*. .r > > w w w r r Y R R R ~ ~ ~ ~ ~ / / / ",
"R R R R R R R R E T R %. .U R 3.4.2.3.2.R.>.L.R.R.2.>.>.>.>.>.>.1.>.>.+.+.$.$.$.O.F @.L.#X^ M ..>.+.#.L.O.G W.:XmX:X`.Y.Q.Y.W.K.K.H.D.:XIXDXS S r.t.nX7X6X^.~.~.^.~.m.n.n.b.m ; = V N.b.w.H.9XcX9X(.vXnXnXuX9.uX{.xXuX(.~.(.(./.A.F D s w.H.`.cX;Xf c Z A O.z H ~.nXvX9X0X0X^.6Xc.^.x.x.p.c.^.6X0XvXnXMXh.f t.nXMXvX0Xi.a.6X^.p.~.'.~./.^.^.~.~.x.^.^.^.cXcX8.t.0.B.G.F.w.H G L L m = m o.F V.Z /.uXJ.)._._.6Xx./.q.k j k.DXGXaXl.0.D.S.d.A.A.V.V.U.V.@.>.>...M >X*XN.A.K.G.S.A.A.Z.P.E.L.L.L.P.P.A.Q.Q.Z.>.R.R.>.<.>.R.R.>.>.>.:.R 9 r w 3 w r R r R R w R R w r q *.~ 1 1 > *.:.&.| ^ >.*X*X#Xt w w R ( ....+.;...( ~ ( ( ~ ! ! ( ^ ( ( ( ! ! ( ! ! ! ^ ^ ( ^ 0 n R.+.e :...^ ;...+.+.| $.>.>.e e ! ( ( ~ ^ ..( ^ ^ ^ | +.+.o.O.O.O.O.Z.Z.V.Z.Z.Z.V.P.E.V * n 0 0 0 0 n n n q & 2 0 v ` P.P.b.C.C.C.C.N.N.A.C.C.F.F.F.F.G.B.S.b z D x x a W.F = a s d Z H b a a a * * * ; ; ; * * v _ E.#X%X%X;X-X-Xk Z l xXxX_.~.].~.~.D.N.` _ ` K g ; m _ ` H m.'.cXxX'.xXNXnXcXxX6.'.&X&X&X_.m.).).).m.n.c H V.W.`.`.-XZ s D D D C C c bXbXcXiX7X^.c.v.x.x.x.x.x.x.^.9XcXbXmX&Xf y.!.cXnX9X~.~.p.].~.!.J.m.J.!.F.H.H.J.J.!.`.;X;Xf.Z D F *XK.d.G ` _ F m p g V n o.D ` -X/.f.J.J.m.J.F.E.2 w U U 2 #XNXvXvXp.q.e.f.f.N.O.E.$.#.Z.A.A.N.B.B.0.0.mXW.D Z.#...#.#.#.#.>.>.L.>.2.3.%.T T -.=.-.T T R %.*.-.[ E > > w 3 3 w w w w w Y ~ / ( ( ( / / / ",
"R R R R R R E E R R E [  .R R  . . . .X.X...............&.+.;.;.@.@.;.;.;.*.:.:.@.@.V.` *X;.2 ( 2.>.#.O.L K.;XbX;XB.S N.N.O.O.O.L S.P l uXGXl Z l D.cX~.]._._._.^._.~.m.w.N.o.v = O.G w.r.J.~.~.^.p.9XvXnX^.7.uX(._.(.(.(.(././.b ^ _ F O.K.D.;XcX(.t.6.8.f C d ^.9Xp.p.].^.~.~.~.~._._.).~.~.~.p.x.^.cX~.q.bXnX_.^.a.a.^.^.~.~.~.~.~.~.~.~.~.~._._.~.cXcX9.6.7.y.t.cX;X'.J.r.w.N.b h F L D w.J.;X_.!.).).).~.~.`.q.f 8.MXGXpX9.f.S.N.S.N.V.Z.Z.@.Z.V.@.#.>.| 0 :X-XA.K.A.G.C.Y.A.L.Z.#.L.$X$XI.P.#.#.Z.E.L.>.>.>.>.>.L.L.L.L.>.3.~ 9 w w 3 r U R R Y R , R R Y e t } *. .< O ~ :...^ +.E.*X#X*X2.9 1 ~ ....^ ..^ ^ ^ ~ ( ( ( ( ! ! ! ! ~ ~ ~ ~ ~ ~ ~ ~ ^ ^ ^ ~ 5 ........^ +.+.+.+.+.+.>.>.>.@.2 B ^ ~ ^ ^ ^ ^ ^ ^ ^ ^ ^ ^ o._ o.o.$.O.$.#.#.#.@.#.Z.#.E.o.* B 0 V n 0 n 0 & 1 2 2 * @.P.N.C.C.C.C.C.C.C.C.C.C.C.F.F.F.F.F.C.b.` O.b z s s A.C k `.F.H.T.T.Y.D a a z v ; - 9 - - 0 0 a C N.Y.T.`.T.`.S f r.xX_.].~.!.).).T.F.C._ o.$.v z F ` ` b.w.e.`.J.~././.vXvX7X7._.'.'._.'._.).`.T.` b F V O.Y.).).'.`.e.f l d s k S ;X~.t.p.p.p.].~.~.~.J.~.~.m.t.t.J.~.xX'.f NXNX&X_.].].~.!.!.H.H.H.H.H.J.F.G.G.S.D.H.H.'.!.r.Z Z s `.;X'.H.w.H G F a v o.V v ` W.`.D.D.F.F.F.F.T.V.v 0 q 4 D NXxXxX~.J.F.F.A.A.A.A.Z.Z.L.Z.L.L.V.U.Y.0.K.:XS.$.+.<.;.:.;.1.1.:.:.:.<.,.2.3.&.E  .%.-.%.%.%.*.-.-.-.E > > > w U U w w w 3 w R / / / / / / / ",
"R R R R R R E E E R E  . .R R %.&.........*.&.&.&.&.&.&.&.*.;.;.@.@.;.:.*.*.*.;.:.@.@.@.R.;.Y ....+.$.O.K.bXbX/.q.0.B.A.A.Z.L.E.E.O.K.g.l.MXh.S S h.cXx._._.]._.^._.).J.n.N.O.F b N.G w.e.!._._.^.c.7XvXnXx.9.'./.~.~.^.^.^././.` ) N b N.K.J.'.uXiXvXiXuX/.K.f ~.xX^.~.~.!.).).).).).).).).!.~.~.^.~.9X~.~.cX^._.~.~.~.~.~.~.!.!.!.!.!.!.~.~.~.~.~.~._.^.x.9X9Xt.t.xXxXxX'.~.h.w.Z C S Z Z J.'.(._.).).).).~.).H.H./.bXGXiX8.J.N.Z.Z.#.#.#.#.#.@.Z.#.$.#.#.| v :X-Xw.A.W.W.W.V.P.Z.E.E.Q.V.U.P.E.Z.Z.Z.L.>.>.L.L.>.L.L.L.Z.Z.L.3.! 9 w w w U U R E Y R , R R r ! R R X.:.} r Y &.( ( #.#.G N.*X=XR q } ..^ ! ^ | ^ ( ~ ( ( ( ( ! ! ! ! ~ ~ ~ ~ ~ ~ ~ ^ ^ ~ ( ^ 4 ..........+.+.+.+.+.+.1.>.>.>.0 B ^ ^ ^ ^ ^ ^ ^ ^ ^ ^ ^ ^ o._ o.o.o.$.O.$.$.#.#.#.#.#.L.o.v #.>.#.#.>.>.| 0 2 2 2 * o.A.n.F.F.C.F.F.C.C.C.C.C.C.C.F.C.F.F.F.n.Y.:X-X` s k T.c H.;XH.H.D.J.T.B.C a = = & 0 0 - - 0 0 a b b.F.J.H.F.W.w.Z w.cX!.~.).!.J.H.).!.B.F o.o.n b ` G b.G.D.J.`.!.)./.^.iXvXc.7.~.).!.~.!.!.).`.Y.G n o.B Z.`.`.!._.9XxX_./.h.g.d l ;X!.H.H.H.H.H.H.H.H.H.H.H.J.J.J.H.!.~._.y.xX'.J.~.~.J.J.F.H.H.F.F.G.F.F.C.G.G.A.G.G.m.!.!.J.).).r.H.'.'.'.`.B.b.F a n b N O.Y.T.T.J.F.F.A.A.Y.T.V.v + t z D %Xm.h.f.C.C.A.A.P.C.U.U.U.U.U.L.U.U.L.P.k f.:X$.+.:.,.:.:.:.1.;.>.:.,.,.,.<.2.,.&. . .*.%.%.-.-.-.-.-.E , > > w U R U w w 3 w R / / / / / / / ",
"T R R R R R R E E R R  . .U U *.*.*.*.*.*.*.&.&.&.&.&.&.&.&.;.;.;.:.,.:.,.,.,.:.;.;.:.:.:.;.! / R.>.o.W.:X}.g.f.f.D.B.b.V.V.V.$.L.V.V.G.k.MXK.C C h.bXv.~.(.^.x.~.).).H.D.N.L G b L S w.e.H./././.(.^.cXnXt.j.~.~.~.~._._.^././.b.D ` G G.H.j.'.6X0XiXvXvXcXxXf ~.'.~.~.!.!.!.).).).!.!.).).!.!.~._.~._.~.~.'.t.~.~.~.~.~.~.!.!.H.!.!.~.!.~.~.~._.~.^.^._.9XvXvX].t.CX_.9X_._./.J.w.Z Z e.D.!.'.c.c.~._._.~.^././.l K.mXbXl.P P O.@.#.#.#.#.#.#.$.>.>.#.>.>.X.n -X:XN.A.E.V.E.E.E.L.Q.W.`.`.J.D.A.Z.Z.Z.L.#.L.L.L.L.L.L.L.L.Z.#.>.! 9 w w 3 w w Y R Y Y 3 R R r t ! ! } :.3.&./ ......$.$._ F _ =X! e ! ^ ^ ! ^ ^ ^ ! ! ! ~ ( ( ! ( ! ! ~ ~ ! ! ^ ! ^ ^ ^ ! ~ ..0 ....^ ..| +.+.+.+.+.+.;.>.>.>.0 ! ^ ^ ^ ^ ^ ^ ^ ^ ^ ^ ^ ^ ( _ o.o.o.o.o.O.O.O.$.#.Z.#.L.o.v #.L.#.#.#.#.o.n % 0 2 2 _ Z.N.C.F.F.C.C.C.C.C.C.C.C.C.C.C.C.C.C.C.b.T.W.T.G.C.W.Z H.;X).!.J.J.!.J.A._ n v 0 0 0 9 & * z z C b.C.F.F.H.T.G f r.NX).~.!.!.!.F.J.!.).C.N.O.C c w.n.F.W.J.J.'.!./.~.x.9XvXp.9.~.!.~.!.~.!.).).T.b.V o.b N.)._._.^._.9XcXxXxX{.r.y.xXm.H.J.G.G.T.T.F.F.F.F.J.J.F.F.F.J.D./.y.).J.D.D.F.F.J.F.F.G.G.A.F.T.F.F.F.G.J.J.J.!.)._.'.&X&Xe.D.!.~.`.`.T.A.` a N N ` P.W.Y.F.F.J.F.F.F.Y.Y.@.0 t 8 O M P.C.d.L S.C.C.C.C.C.V.V.L.V.U.L.U.U.L.P.d.g.:X$.+.,.&.;.:.:.1.;.>.:.,.,.<.,.,.XX,. . .%.-.%.-.-.-.-.-.E , > w r R R Y U w 3 w R / / / / / / / ",
"T T R R R R R R R R R %.%.U U *.&.X.X.X...*.&.&.&...&.&.&.&.;.&.:.:.,.:.,.,.;.;.:.$.+.+.2.:.Y ! >._ O.Q.S.S S 0.S B.G.Y.#XW.P.V.@.E.C.B.j.DXT.H C h.bXv.x.~.(.~.~./././.H.J.B.B.f.B.D.H.J.`././.~.(.^.uXvX9.~./.~.!.)._._._._.'.n.H b.w.H.J.~.7X7X6X6X6X9XvXcX6.t.'.j.!.).!.!.!.!.).).).).!.!.~.~.)./._.j.t./.~.~.~.~.~.!.J.H.!.!.!.~.~.!.~.~.~.~.~._._.9X9X9XxX~.t.'.~.~.~.^._.!.J.n.D.H././.~.v.v.~._.^.^.^./.`.k # p g.I L #.#.@.@.@.$.$.>.>.@.>.>.1.>.>.X.n O.}.d.d.Y.P.E.L.L.R.E.Y.`.}.'.!.C.Z.Z.L.P.L.L.L.L.L.L.>.>.>.#.#.>.! w e w 3 w w T R Y Y 1 R R r t ( ( ~ ..&.*.*.( ....@.E.*XW.E.@Xe 2 ! ^ ^ ! ^ ^ ^ ^ ! ! ! ~ ~ ~ ~ ~ ! ~ ~ ~ ~ ^ ! ^ ( ^ ! ~ ..e ....^ ....+...+.+.+.+.;.>.>.>.0 ! ^ ^ ^ ^ ^ ^ ^ ^ ^ ^ ^ ^ ( _ ^ o._ o.o.o.o.O.o.$.Z.Z.E.F * o.$.o.o.o.o.L.#.0 2 * 0 _ Z.C.C.C.C.C.C.C.C.C.C.C.C.C.A.C.C.C.C.F.Y.b.r.F.T.B.Y.Z n.`.J.!.!.J.H.F.T.L.V._ z % 2 v v n F G b.C.F.F.H.T.G.G s Z cX~.~.~.~.!.!.!.!.!.).F.B.w.w.B.F.`.T.m.J.).~._.~.~.9XcXt.j.!.H.F.!.!.!.).).).B.D F G G.!._._._.~.^.9X9XxXxXe.6.9X~.H.G.C.C.G.Y.G.F.F.F.F.J.F.F.F.J.H.H.Z F.F.T.J.F.F.C.C.C.C.A.A.F.T.F.F.F.J.D.D.J.!.!.).).).).r.m.H.m.D.J.G.Y.A.F ` V.P.Y.Y.F.F.F.J.J.F.C.Y.Y.@.0 6 8 t ^ Z.N.S.Q.S.C.C.C.C.C.Z.V.L.L.U.L.L.U.L.P.C N.>X*X>.;.&.<.:.:.;.;.:.:.,.,.<.,.<.XX3.*.&.%.-.%.-.-.-.-.-.E 7 6 w r R R R Y w 3 w R / / / / / / / ",
"T T T R R R R R R R E %.%.U U %.%. . . .............&.&.&.&.;.;.:.$.:.:.:.:.+.$.Z.N.` G -XL.q ^ N L.F a G L d.W.:X>X:X:X-XW.V.V.Y.C.H.q.q.MXr.H D `.cXp.'.'.^.^._././._._./.~.~.!.)._._.~._._._.^.^.^.(.uX9.~.(.~.~._._._._._._.`.b.C k G./.'.9X7X6X7X6X9XxXxX6.9.{.`.!.F.!.).!.).).).).).).!.!._.~.~.!.J.q.!.).!.~.~.!.!.H.H.H.~.~.~.~.~.~.~.~.J.~.).~._.~.p.xX`.r.`./._._.~.~.!.).).H.!.!.~.~.v.x.!.).)._._.).T.` z x Z.E.2.:.>.@.>.1.1.1.@.@.1.L.L.>.>.>...n k bXbXK.f.D.Y.P.L.$XE.L.V.G.`.}.W.P.P.P.L.I.L.>.L.L.>.>.>.>.#.#.>.~ 9 e w 1 w r U R r r > R R r ~ ....( ~ ~ / &.&...^ >.R.E.E.-X@X! e ~ ^ ( ^ ^ ^ ^ ^ ^ ~ ~ ^ ~ ^ ^ ~ ~ ~ ~ ~ ^ ^ ~ ^ ( ^ ~ ( ;.M +.| ^ | | +...+.+.+.+.@.>.>.$.M ^ ^ ^ | ^ ^ ^ ^ ^ ^ ^ ^ ^ _ _ _ o._ o.o.o.O.@.O.O.#.L.E.F = V v m m m m $.#.n * & v o.L.P.C.C.C.C.C.C.C.N.N.N.N.C.C.C.C.C.C.F.G.G.C.N.S.V.P.C B.W.B.F.F.G.F.T.Y.P.Y.P.` D ' V.U.U.A.Y.F.T.F.F.H.G.C.H A d.cX!.J.~.!.J.J.!.~.!.!.H.).H.T.T.H.).H.e.!._.~._.^.^.^.uXq.J.H.H.F.H.!.~.~.).).G.G C L Q./.~.~.~.~.(.^.(.'.'.e.f xXxXW.Y.A.A.A.G.G.F.F.F.J.F.H.F.F.J.G.G.Z C.B.G.B.G.C.C.C.C.A.A.A.A.F.F.G.F.C.B.F.G.H.F.F.J.D.T.b.C.H.H.H.G.B.C.P.P.C.Y.Y.Y.F.F.H.F.G.A.A.A.A.P.$.0 R r 0 * S.A.S.L S.C.Z.S.A.A.A.Z.A.Z.L.L.Z.Z.Z.Z.G C Z.>...;.:.,.:.:.;.;.:.:.,.<.<.<.<.,.3.3.,.*.-.%.-.-.-.-.-.E 7 > 7 r U R R Y w 3 w R / / / / / / / ",
"T T T R R R R R R E  .%.%.R R %.&.X.........&.*.&.&.&.&.;.:.:.:.@.$.$.$.$.$.$.N.w.n.G.H.mXW.v n F a s G A L W.:X-XW.Y.C.V.N.N.A.A.C -XMXk.8.B.G x w.bXcX_.]._.^.(.~.~.^._.(._._._._._.~.t.~.)._._.^.(./.(.9.~._.).).).).)._._._.;XT.F.D././.'.'.7X6X7X7X_._.'.6.t.cXxX).m.)._.!.).).).).~.!.).)._.).).`.m.e.!.!.!.!.~.~.!.!.!.~.~.~.~.~.~.~.~.~.!.`.!.J././.~.xX`.r.'././.~._.~.).).!.!.!././.~./.~.H.!.!./._.).%Xx z x D _ >.:.@.@.@.1.1.1.@.@.@.L.L.L.>.1.( n l bXIXDXuXj.h.K.W.E.E.I.L.N.S.Y.-X#XE.P.L.L.L.>.>.L.>.>.>.>.#.#.>.! 9 e w 1 w w w Y r r > R R e ! ( ( ....( / ..&.;.+.| _ V _ >.+XM 0 ^ ( ( ~ ^ ^ ^ ^ ~ ~ ~ ^ ~ ^ ^ ~ ~ ( ( ^ ^ ~ ^ ^ ^ ^ ( ..;.0 ..| ^ ^ ^ ....+.+.+.+.>.>.>.$.0 ^ ^ ^ | ^ ^ ^ ^ ^ ^ ^ ^ | _ _ o.o.o.o.o.o.@.@.$.O.O.#.E._ * o.Z.O.Z.Z.Z.Z.L.>.0 & 0 ^ #.P.V.C.C.C.C.C.N.N.b.b.b.b.N.C.C.C.C.C.b.C.Y.A.A.Q.W.C S.W.B.G.G.T.F.F.Y.C.C.Y.C.C.Y.W.Y.Y.T.T.T.T.H.F.F.T.Y.H b L :X;X).~.J.!.!.J.~._.~.!.!.!.).).H.).F.r.).).)._.~.).~./.y.H.G.G.J.H.!.~.!.!.`.T.B.d.d.K./.~.~.~././.^.(././.f.f ;XxXT.G.A.C.A.G.G.F.F.F.F.F.F.H.H.F.Y.A.C C.G.G.B.G.F.F.F.F.F.F.G.F.C.F.Y.A.A.G.G.G.T.J.G.G.Y.W.N.C.G.J.H.T.F.Y.Y.P.A.A.Y.Y.F.F.F.F.A.A.A.B.A.P.@.2 q 9 g $ 0.w.S.A.C.C.Z.S.A.A.A.A.P.Z.L.L.L.V.L.P.S.a v ^ ( :.,.&.:.:.:.;.:.:.,.<.,.<.<.,.,.3..X=.*.%.-.-.-.-.-.[ 7 6 7 w U Y Y r w 3 w R / / / / / / / ",
"U R T T R R R R E [  .[ E U R %.&.%.%.&.&.&.&.&.&.&.&.;.:.:.;.:.$.$.#.$.$.$.O.N.e.H.{.;X:XQ.; 0 E.#XW.S.O.G H G A.b.N.C.P.Y.A.A.Z.E.b :XMXf.b _ @.H q.'.nX9Xp.(.^./.~.~./.^._._._._.'.~.r.!.`.'._._./.`.H.q.`.!.).).T.T.T.).!.!.`.'.'.'.'._.'._.9X6X7X6X9X'.'.y.t.xX'.!.~.!.).).).].].].).)._.).).`.`.&Xm.y.).!.!.~.!.~.~.!.~.!.~.~.~.~.!.~.!.H.!.h.e.J././.~._.).y.'._.~.].^._._.~.~.~._._.^.^./.!.T.!.)././.).T.D $ $ }.[.b Z.O.@.@.#.#.#.#.O.O.O.V.#.#.$.J m p h.uXDXGXpX(.k./.G.P.E.E.Z.O.O.W.#X#XE.L.L.I.L.L.>.L.>.>.>.#.>.>.~ w e w 1 w w w r w r > R R e e ! ~ ( &.&...&.} :.:.+.$.>.$.| :.w e ^ ........( ^ ^ ~ ~ ~ ~ ( ( ( ^ ^ ( ( ^ ^ ~ ( ^ ~ ( +.:.;.2 ..| | ^ ^ ....+.$.>.>.>.R.>.+.M ^ ^ ^ | ^ ^ | ^ ^ ^ ^ | ^ | | o.o.o.o.o.o.@.@.$.@.$.#.E._ v #.Z.S.S.A.P.Z.#.L.^ 2 0 n o.L.V.C.C.C.C.C.N.N.` ` ` ` ` V.C.C.C.C.T.F.C.b.C.A.P.C G Y.F.T.T.).F.H.B.Z Z w.w.e.B.F.F.J.J.J.J.J.J.H.H.).W.D s C G.;XxX!.q.J.'._.~.]._.~.!.J.F.).T.`.F.r.T.!.).).!.!.).F.r.T.G.Y.H.H.H.~.~.~.`.).T.T.K././._._._._.~._.^.).`.q.f '.!.D.B.F.F.F.J.F.F.M.F.T.T.T.T.T.T.W.Y.k B.Y.G.F.B.J.J.J.J.J.J.J.F.F.F.F.F.F.G.F.n.F.J.F.F.Y.T.H w.G.B.B.F.Y.T.Y.C.Y.C.C.Y.Y.F.J.F.P.P.A.B.C.P.@.z v a d q.{.{.h.B.B.V.V.S.A.A.Z.V.A.Z.Z.Z.Z.V.Z.P.V V :X*X+X;.:.:.:.:.:.:.:.:.,.<.<.<.,.,.,.3.3.3.*.-.-.-.%.-.-.E 7 6 > 7 r r r w w 3 3 R / / E / / / / ",
"U R Y T R R R R R  .[ R U U R %.%.%.%.%.&.&.....&.&.&.&.&.;.;.+.+.$.:.:.:.$.@.V.`.;X:X;XW.K ; B *X-X:X:X-X:X-XV.V.V.P.P.N.N.A.A._ n ^ b g.A B ~ ^ b l 6.t.cXxXx.~._._.^.^._._._.).!.`.H.r.).`.`._._.!.`.J.0.}.H.).H.G.Y.K.H.~.~.~._./.'._.9X9X_.6X7X9X_.9X'.'.y.~._.t.~.).~.]._._.~.]._.'.&X`.`.`.).T.;XF.y.).!.!.~.).~.~.~.!.~.!.!.!.!.~.!.!.!.J.f r.`./.~._._.).f _._._._._.~.^._._._._.~.^.^.).).).).).~.).!.W.x a i -XbXS.L S.N.O.O.O.O.O.#.O.O.N.#.O.$.J n m k d /.nXMXMX{.j.H.W.P.L.L.>.#.@.L.E.R.L.L.L.I.L.>.>.>.L.L.L.>.>.~ w q w 1 w w 1 w w r > R R e R .. .~ /  . .&.&.&...;.:.+.o.$.:.w t ....;.....( ( ^ ( ~ ( ( ( ^ ^ ^ ^ ( ( ^ ^ ~ ( ( ! ^ ;.>.;.0 +.:.+.+...+.+.:.>.>.>.>.R.$.^ M ^ | ^ | ^ ^ | ^ ^ ^ ^ | | | | o.o.o.o.o.o.O.O.o.o.@.L.E._ v #.Z.Q.A.N.Z.P.Z.L.$.0 2 * ^ L.V.P.C.A.C.C.V.N.` G ` ` ` V.A.A.C.C.m.F.T.F.Y.Y.A.i b.T.F.F.F.T.F.T.B.S S w.w.e.J.H.H.J.J.J.J.J.J.H.T.F.U.N F C d c ).;X;XH.t.!._.~.!.~.!.H.H.W.T.T.C.Z T.Y.T.T.T.T.W.w.G W.C.Y.T.F.J.!.~.~.~.).`.`.`.!.)._._.~._./._._./.'.r.Z ;Xm.m.D.J.J.J.F.F.F.F.T.).`.`.W.W.W.W.W.c N.G.B.Y.F.J.J.J.J.F.J.F.F.F.F.F.F.F.F.n.c n.G.T.G.G.T.H C.Y.G.Y.Y.C.C.Y.Y.Y.Y.F.C.F.Y.G.C.P.P.C.C.C.P.@.x a S.;XMXGXnXt.D.B.S.S.V.V.A.Z.Z.A.A.Z.Z.Z.V.Z.P.o.B >X*X@X+.:.;.;.:.:.:.:.:.,.<.<.,.,.2.2.,.,.3.=.-.-.-.%.-.-.E 7 > > 7 w w w w w , 3 R / / E E / / / ",
"U U R R R R R R E  . .R R U R %.%.%. . .&.*.*.*.&.&.;.&.;.;.;.&.=.-.,.*.&.:.>.#X:X:X*X_ v B q e _ D F ` O.O.Z.V.L.U.U.U.P.C.w.C b g V m p A n } q o.k l k l }.cX'.^._.~._._._._.'.~.'.).f `.%X%X&X).).`.n.B.&X!.).).H.H.J.J.x.^.~.~.].~.~.^._._.^.7X(.(.uXxXH.f /.xX'.t.~.!.t.!.m.!.`.&X`.n.c c s c C k k w.G.`.!.!.~.~.~.~.!.).~.~.~.!.~.~.~.~.t.t.m.~._.~.^.'.!.f `.`._.~._._._.~.)._._._.~.~.^.^.~.~._.^.~.`.W.x p a f cXNXH C.O.V.V.#.@._ #.@.@.@.@.>.+.^ ~ E } J p K.IXIX{.J.W.E.$X<.:.>.o.>.>.1.1.>.<.I.I.>.L.L.L.L.L.L.#.>.} q w w w w r w w 1 1 w r R ~ R ( } ( / / ..&.( ......+...^ ..X.R 9 w ~ } ..;.......( ~ R e q t ! :.( ................:.2.>.^ M +.>.>.>.R.R.>.2.>.R.R.R.>.^ 0 | ^ ^ ^ ^ ^ ....^ ^ ^ | ......+.+.+.o.o.$.$.$.$.@.$.L.#.E.$.* #.Z.A.A.A.Z.Z.L.L.$.0 0 0 2 _ L.Z.A.C.C.V.V.V.O.` N.F ` V.A.A.N.Y.F.T.Y.Y.W.A.x s H T.T.`.F.T.T.T.b.Z Z w.b.w.n.T.H.H.H.F.H.H.H.G.Y.E.@.* n V F C s C W.:X`.J.!.!.!.).H.G.G.Q.Y.W.S.D P.W.#XW.#XT.W.N.G V.P.Y.Y.H.H.J.m.~.!.H.H.H.).!._._._.).!.!.)._.&X`.k N.:X`.D.m.m.m.F.F.F.F.%XY.M.H c x a F D x x ` C.Y.C.n.F.F.F.D.F.H.F.H.C.F.B.F.T.C.H c F.C.Y.C.W.W.Z N.W.V.C.Y.C.P.Y.Y.A.A.C.C.Y.Y.A.C.U.U.Y.F.F.C.` N x -XMXbXDXMX`.H.`.W.E.Y.W.W.P.V.A.V.@.V.Z.Z.L.Z.$.* :X$.o.>.+.>.:.:.:.:.:.,.,.,.,.<.,.,.2.3.3.3.*.*.-.-.%.-.-.[ > r w > 7 r w w w 3 w R E R E / / / / ",
"U U U R R R R R U E  .E R U R %.%.%.%.%.&.&.....&.&.&.;.&.*.:.*.{ =.OX-. X,.( #X*X>.N 0 ^ ..Y Y V P.V.F Z.V._ Z.V.V.V.U.A.Z.S.w.L G G d.0.g.g J :.n h S A a j d.;X'.!._.).~.'.J.J.).H.B.w.C.b.n.M.M.C.b.C f r.).m.J.H.!.{.xX9Xx.^.^.(.'.'.9XxXxXxXxXuXuXxX`.f.Z t.xXcXxX'.!.~.'.'.&X`.B.H C s b b b b b b D N.G.`.`.`.'.`.).!.~.~.!.!._._./._._./././.`._.)._.'.J.w.).).)._.~._.).!.`.).H.).)._.~._.'._./._./.K.*XN % b s ;XNXC.N.Q.Z.@.$.#.L.@.I.R.R.<.:.&.E E { { &.V L }.`.d.N.L.<. X,.:.3.R.$.>.>.>.<.>.>.+.<.I.L.>.>.L.L.L.>.} 9 9 r r R R U r w w r R ~ } ~ ( ..} ....&...:.,.:.,.2.3.>.3.} r 1 9 w w e ! X...*...} R r w e 2 e 1 e e 2 1 4 e M 0 4 e e 4 5 2 0 2 2 2 2 5 2 2 2 2 2 2 M M +.+.+.....^ ^ ^ ..^ ! ! ^ | +.+.+.+.+.+.$.$.$.$.@.o.#.#.L.o.* L.Z.A.A.A.P.P.P.L.#.0 2 2 * N O.P.P.C.A.A.A.V.V.N.O.V.V.` N.E.W.W.C.Y.A.` b g * b i G T.-X%X`.`.W.W.P.V.V.N.b.C.T.Y.Y.Y.Y.T.Y.Y.Y.W.` n 4.q n * V O.b s O.*X:X%XF.T.D.H.`.K.W.W.Q.o.N @.$.L.L.L.V.` D N.P.Y.C.F.F.e.!./.J.t.J.!.F.D.J.!.~.!.).`.&X;X&XT.N.s K -X:X%X`.T.H.T.T.`.%XB.C x a v n 2 v z z N O.P.E.Y.Y.A.G.G.F.F.F.B.G.Y.Y.A.C.G.C.C.T.P.A.E.A.W.E.C N.A.A.Y.E.P.P.A.C.C.P.P.V.S.A.P.P.I.Y.T.T.T.W.@.a s f 8.f 8.l.f 0.Z N.A.Y.P.P.W.*XE.P.L.L.P.P.P.L.#.= L.E.o.@.o.:.1.:.:.:.,.,.,.,.<.<.<.<.<.2.3.3.*.*.-.-.%.-.-.[ > w 7 > r T U w w , w R / E E / / / / ",
"R R R R R R R E R %.%. .R U R %. .%.&.*.&.&.&.&.&.&.&.&.;.:.:.3..X=..X=.R e e M v N _ n M ! w ~ *XE.E.W.W.E.E.W.#X#X#X#X#X#X#X`.;X;X;XcXbXbXS.a N x Z l s F _ C f Z Z f S 0.f d.l k h h a a F v z N N = m O.s k r.r.y.8./.cXnXvXcXcXcXcXxXxXxXxX;X'.J.q.0.l k Z y.e.J.`.;X;X}.`.h.D.0.f h g v n n n n n v b A D B.G.).`.&X;X;X;X;X;X;X}.`.`.`.`.`.`.`.K.K.K.K.K.k h k 0.H.`.H.`.W.W.W.W.W.W.T.T.`.G.P.A.S.f.f.S.X.R O e a i C h b m V J V | | ( ( ~ R  .-.{ { T [ R ! V V V m n ../ Q Q { %./ ~ $.$.#.:.:.>.2.R.<.I.I.>.@.L.L.L.2.} 9 9 R R R R U w 3 3 w r Y R  .&.&.*.:.:.&.} :.,.:.;.<.>.:.:.~ r w w w w w w Y ~ / / R r w w q 1 e e ! e M ! M ! ! M 0 0 M M M M 0 0 0 0 0 0 2 4 0 M 0 0 M ! +.+.+.;.;.+.+.+.^ ! M M ! ..+.+.+.+.+.+.+.+.@.@.L.@.L.L.R.^ 2 E.Z.Z.Z.Z.Z.P.L.L.#.1 2 n 2 z _ E.W.W.W.W.W.E.W.E.W.#XP.D C D D s x x b m V o.K v b a s c C Z w.G F V V F _ _ O.V.L.V.V.V.Z.Z.N.O.` _ V & q | B b $ A V a v F D C r.B.Z f C A h b V v n 2 2 2 z z b $ a ` C.w.n.D.r.`.cXcX;XxX;X;X;X;X;X;X&X`.W.W.B.n.k a n v o.Q.`.`.W.W.T.G.B.N.b a m v 0 t q 0 n v z v N ` Z.E.W.W.#XW.W.W.W.W.Q.Q.W.W.W.W.W.W.E.P.E.Z.Z.N.s C A.A.Y.A.A.Y.Y.P.E.E.P.P.E.E.P.Z.>.L.C.n.` ` _ z s f f f f l l Z G D b h b F V.A.Z.V.` ` _ _ _ _ V v = Z.[.*X@.@.1.:.:.;.,.,.,.,.<.<.<.<.<.3.3.3.*.*.-.-.%.-.-.E 7 7 > > T E T w r w w R / / / / / / / ",
"R R R R R R E E R E E E R w U  . .%.%.&.&.&.&.&.....&.:.:.:.>.:.;.3 > 3 w ! ^ z b C h a v ! r r >.o.#.#._ Z.Q.O.V.L.U.U.U.L.Z.A.w.D.h.K.uXMX;Xs c ).t.^.mX:Xc k C a s k K.}.i i d i p A p a F n B 0 V B = a s k d f f f f 6.6.6.7.6.6.f f f f f f 6.f f f f l Z r.f f f f f f f f d d k b m B 0 B n n n n v h h s c l r.r.r.e.w.0.w.0.f 8.f f f f f d i i d d i d d f f f f f l k s a b C s d s a z b b k d $ = @ q 9 ; s k l l k i d p $ = # = = & e ~ R T T T ~ V b a s s a v 0 1  .&.E / Y M 2 2 M n ! ^ +.+.:.<.R.I.I.I.I.<.:.( w w R R R E U w 3 , > 3 w w w w w w w w 4 1 1 4 1 1 1 2 5 1 r w w w w 3 4 w 4 e e r w w w r 1 e :...;.+.;.>.<.:.;.>.2.2.<.<.R.<.<.2.2.2.R.R.+XR.2.>.>...M 2 2 2 4 0 0 M M M M M 0 0 M ! ^ ! +.+.+.+.+.@.>.>.>.+.>.#.>.^ 0 #.Z.Z.Z.P.P.L.L.R.$.0 2 0 2 * z _ x c c C C C b x b b a h ` N.N.C.W.P.E.E.E.W.E.$ b d G c Z Z c i s h s s s s s s s s d d d d d d Z G b g *X#.p A.A.H s b ` ` ` C.T.;XG.d s k i h a * b B ^ ^ 4 v b b s i i f c d i f f f 8.r.r.r.Z Z y.y.c d i i d d d s V g = s s f f f c s s s b a V n q y t t n n n n b m N F D F G O.G G O.F F C h s d c c d h s b a b b p C d d d s C C C C D b x b h a $ * n z x s $ % * a }.bXbXMXMXMXmXmXmX:XW.A.A.P.Z.V.V.O.` ` O.O.O.@.n n n E.:X-XW.P.>.:.;.:.,.,.,.:.<.<.<.<.<.3.3.3.*.*.-.-.%.-.-.E 7 7 > 6 T E T r r w w R  .%.%.%. . . .",
"w w w w w w U U w w w w U w R %.&.&.&.&.%.%.&.&.:.:.&...} ! e 2 % _ B B 4.$.o.W.-X`.-X:X>X*Xq 1 +.>.@.$.Z.O.G O.V.V.L.U.L.V.V.Z.L.E.P.d.q.cXxXd ).MXnXvXvXvXcX'.G.b C S.Z H.`.j.j.J.r.0.0.d.d C N _ N s d f.`.H.q.`.'.9X'.^.^.x.t.t.t.t.t.t.t.t.t.t.J.J.~.~.m.m.t.e.h.D.t.t.h.j.J.t.D.f.s g V * v g g g v b b h k k f f f d d i d f f 6.'.'.9X9XxXxXxXxXxXcXcXxXcXxXcXuXuXuXuXj.f l f c Z Z r.r.c U.' s q.x.x.x.K.$ W.MXMXMXMXnXnXnXnXnXMXMXbXcXbX-XB.D v n B g `.cXMXMXMXMXMXMXbXL m B v _ @.$.o.F V v 2 0 M ! ~ ..:.<.<.2.<.:.^ Y w w Y R R R R T U 3 , , 3 3 w U w w w w e e 1 e 4 1 4 e 4 e 1 1 w w e e e e 4 e e e e r r r e ( 2.&.;.+.+...! ! ! ( +.;.+.+.+.( ( +.+.........( ( ..:.<.2.2.+.+.^ ^ ^ ! ^ ^ ! M e e 0 0 0 2 1 1 2 2 2 2 2 2 2 2 2 2 v 0 & n n n N N N ^ ^ ^ +.0 2 0 n _ _ ` V.C.V.V.Z.Z.V.V.V.` x ` P.N.b.C.b.` V.N.V.P.#XH d J.NXcXNXcXNXcXxXuX{.'.'.'.'.'.'.'.(.(.(.(.'.'.xX'.f f H.`.e.NXxXxX`.r.c %XNX%X;X;X}.J.0.0.S k C C b a v n 2 v b d Z Y.C.Z e.`.}./.J.D.h.r.Z y.Z c y.y.y.r.w.B.m.e.e.r.Z G w.r.Z Z Z 0.w.Z Z H D a z * B 0 0 0 0 n n b v v z a z z a x a a v $ p Z w.r.e.m.n.w.w.w.w.G w.w.w.D.B.B.n.F.w.d d p p p a a a z D o.g m C H ` #.K $ ;XMXcXxX{.`.T.G.A.V.N.N.V.V.Z.Z.L.V.L.L.L.L.L.L.#.# E.>X-XA.W.W.L.1.;.:.,.,.,.,.<.<.<.<.<.,.,.,.*.-.-.-.%.-.-.E 7 7 6 7 T T U r w 3 3 Y  .%.&.%.=.=.=.",
"R R R R E E E E R U , , U U R %.*.*.*.*.*.=.:.*.&.} e 9 9 t ^ +.E.-XE.| t 0 $.:X-X-X-X-XW.$.e ! >.+.$.#.#.Z.N.F O.V.V.U.L.L.L.>.<.<.R.P.g.cXcXf _.nX8XaXaX6X^.'.-Xm s k f ;XcXvXcXcXxXbXxX;Xq.f h F d r.;XcX;X!.;XNXNXxXxXcXcXxXxXxXxXcXcXxXxXxXcXxXxXxXcXxXxXxXcXxXxXcXcXxXxXxXuXxXxX'.Z k D b C C C C F G L d.B.B.J.G.H.G.J.G.H.H.f t.MXnXnXvXcXcXcXcXcXcXxXiX7X7XiX0XiXvXnX7.t.;X;X&X&X&XxX&X:X-X` c '.vXvXvXbXi h.cXcXpXvXDXnXnXiXvXnXbXMXMXMXcXT.b.D V ^ g K.{.'.'.uXcXMXDXIX:Xp a O.*X-X-X-X*X#XE.#.| ! 0 1 4 Y ~ ( } ( R e 4 w e Y R E E R R Y T U w 3 3 < , , > > 3 w e e ~ ~ ! ~ ( ~ ( ........&.;.;.;.<.<.<.<.3.<.:.:.! ~ &.~ ....^ M ~ ( +.;.;.+.+.+.^ ^ ( +.......( ..+.+.( ^ ^ ..;.>.>.+.( ^ ^ ( ( ..! 0 M ! B B ! ! ! ! ^ ^ ^ ^ ^ ^ +.^ ^ | +...+.o.o.o._ o.o.+.+.^ M 0 2 _ E.E.W.V.V.V.V.V.V.V.V.P.W.D ` P.C.N.b.N.N.V.` b.b.`.n.c `.&X!.J.J.!.J././././././.(._.(.(.(.(.(.(.9XuXxXxX'.6.t.cXcXxXCXCXxX`.c d m.`.).`.{.;X;X`.`.`.`.W.A.C p n v n C G.`.T.T.;XcX;X}.}.{.;X:X:X;X;X;X;X;X;X;X;X;X;X;X&X;X&X`.-X;X`.-X-X-X;X}.`.`.W.B.G F = N v 0 n n m m b N F _ _ ` _ D _ F F @.h d `.xX;XxXxX;X&X;X:X;X;X;X-X&X;X;X;X;X;XG.Z A.Y.A.W.E.A.W.-X*XA.j K.;X;X:X:XW.$ {.cX9.8.e.w.w.C.N.V.A.P.Z.V.V.V.V.V.L.L.L.L.V.>.#.* *X>XW.K.Y.W.E.>.;.:.,.:.,.,.<.<.<.<.<.,.3.,.*.-.-.-.%.-.%.T , 7 7 7 U U r r w w 3 w R R R Y U U U ",
"*.*.*.*.*.*.*.*.%.E U U U w U %.*.*.*.*.,.=.&...w 4 e e ..3.=X=XR.+.:.2.~ ^ >.B F L O._ $.+.~ Y <.<.R.o.B *X:XN.` ` O.@.L.>.>.>.+X<.+.S.l.uXxXf ~.nXvXiXp.t.~.J.O.& O.k q.'.^.9XvXvX9XiXp./.'.q.Z c e.;XcX~.t.j.J./.~.t.t.h.f.g.g.g.h.J.H.!.!.!.~.J.J./.'.'._.'._._.'.'._.(._.9X9XxXxXCX'.m.c F.H.H.G.G.T.T.W.).T.).).`.`.`.).).;X;Xf r.NX_.^.p.a.p.x.x.x.x.j.p.c.8XvXaX8XiXvXu.p.xX;X'.'.'.'.!.`.Z d ~.cXiX8X0X'.y.n.e.q.k.h.l.cXvX(.f d f f k Z ` E.@X..Y E E +.P.A.G.H.h.j.k.bX}.I p O.E.@X#X#X#X*X*X*XR.^ 4 ~ Y w 3 w r r w w e e Y Y E E E T Y R E R T U U w U r U U Y e 4 ( :.,.:.,.<.,.<.<.,.:.:.:.<.<.<.:.:.:.;.;.........t ( ! ..( ~ ^ ..+.:.;.+.+.( ^ M ^ ( ( +.;.;.+.( ..;.;...( ..+.+.+.+.( ......+.+.! M ..;.....;.....+.+.+.+.+.+.+.+.....+.| +.| +.+.+.o.o.+.+.+.+.^ M 2 ^ L.O.` V.N.V.V.V.V.V.V.V.W.D D P.V.V.V.V.O.V.` P.N.`.w.r.'.J.t.J.h.J.h.D.D.J.H.F.D.m.n.D.D.D.J.m.J.!.~.9X'.uXf q.xXcX'.~.J.H.G.b.C s d r.j.~./.xX{.'.xXJ.h.G.G.D D m ` [.}.`.F.D.`.).q.e.f.g.0.0.n.C.B.D.D.H.H.G.G.S.B.H.!.'.'.`.`.!.!.).).!.H.!.!.`.;X).`.W.x ` D ' O._ O.Z.P.P.P.P.C.Y.E.P.W.P.W.-XP.d }.;XH.J.J.m.H.n.n.B.C.B.B.H.T.!.H.).`.e.Z W.[.W.W.W.P.E.E.` i 8.'.cXCX&X:XK.$ cXcXt.J.F.C.V.P.Z.V.V.V.V.Z.V.V.L.L.L.L.L.L.L.L.V V Q.-XK.}.Q.E.E.<.;.:.,.:.,.<.<.<.<.<.<.,.,.,.*.%.-.%.%.-.%.T 7 7 7 7 T U r r w w w w w U w w U U U ",
"U U T T T R R R  .E U U U w U -.=.*.&.*.*. .Y 1 R ..2.=X=X2.;...+.....+.M ^ *X@X#.$.$.:.:...! &.,...+.>.o.O.*XmXO.O.O.@.>.>.>.>.1.R.L.S.h.uX;Xf j.MX9Xa.x./.h.W.F = A 0.J._.^.a.6XvXvXxX7Xc.9Xj.f e.cX;Xt.j.!.D.h.h.e.D.F.F.S.S.S.f.B.B.m.D.D.D.D.H.J.t.~.`.).~.~.~.~.~./.~.p.p.^.9X^.xXNX).f `.).).).).).).).).).).).).).).).`.H.;Xf t.NX~.^.^.^.~.^.~.~.~./.^.vXaX8XaXiXvXiX6.^.'.t.m.!.t.].].8.f ~.cXvXiXvXvXCXf n.W.T.D.Y.S l xXMXl 0.mXK.N.L.@.+X@X-.W { W ,.@X$XW.W.Y.`.K.}.mX[.a o.R.I.<.L.V.V.L.E.$XR.2.@X3.} Y r R R r Y Y Y Y R E E R U R E / / E E R E  . . . . .R 4 / :.,.;.;.;.&.;.&...~ ~ ~ ( ( ( ;.;.;.( ^ ^ ( ;...e ....+.! ! ;.;.;...( ..;.^ 2 M ( +.( ( ;.;...;...( ( ..;.;.+.+.+.+.( ........+.! ! :.>...( ....................+...+.+.| +.$.+.+.+.+.o.+.+.+.+.~ M n $.P.O.O.V.V.V.V.V.V.V.V.V.W.` b.W.V.b.V.O.V.V.O.P.` W.b.Z &Xm.H.!.D.J.G.H.F.F.G.Y.F.Y.T.Y.Y.T.T.H.H.H.H.~.{.{.8.8.xX/.j.J.J.B.B.N.H D b.D.h.j.t.t.'.;X'.;Xj.J.`.b.C O.-XY.B.w.B.n.n.n.e.e.d.d.S.S.N.b.b.d.d.B.B.N.S.S.S.D.J.H.D.J.J.e.H.m.n.D.F.H.J.J.H.`.;X`.s A.T.Y.P.P.P.P.V.V.C.P.P.C.P.N.P.V.V.#XV.i }.-Xe.n.J.n.C.C.C.N.A.B.F.`.`.).!.`.;XF.Z W.` N.` N.V.O.D D w.{.{.'._.%X&XG.i cXxXt.H.b.U.L.@.L.Z.Z.Z.V.V.V.V.L.L.L.L.L.L.L.E.o.; #.:XQ.W.W.E.@X<.:.*.,.:.,.<.<.<.<.<.<.,.,.,.*.%.%.%.%.-.%.U 7 7 > 7 T T r U w w w U R E  . .E E E ",
"T T T T T T T E E E [ E 7 U T w R w r q O q r :.@XXX4.X.X.X.&.;.+...:.@X^ ! ~ =X2...:...<...e &.,.,.....#.o.L W.mXA.s Z.O.#.>.$.>.>.#.Z.0.cX:Xd k.cX^.^.!.).T.T.B.G./.`./.~.~.~.^.^.iXvXiXiXiXp.f ;X'.J.J.D.G.F.F.F.F.C.C.C.C.B.B.B.F.F.F.F.F.F.F.F.D.D.H.T.).).J.!.T.H.K.J.J.x.^.x.9XxXcXt.8.`.).).).).`.).)._.).)._._._._._././.{.t.t.bX/.~.~._.~.~._._._.9XxX9X9.9XvXcX9X^.6.'.!.F.D.D.J.)._.].xXcX_.~.9XvXcXH.c N.P.V.E.L.#.V p C k g.MX;Xd.N.L.R.oXoX-.Q Y :.R.E.E.W.E.Z.A L -Xb v #.E.>.>.L.P.P.L.>.>.R.$X@X@X=X3.O r } r R  .R E E R / Y R Y Y R E E E E E / &.&.&.&./ 3 / <.&.,.;.:.&.;.~ ~ / ( &.;.;.;.;.;.( ( ( ( ( ( ( 4 ..( ( ..:...( ;.;.&.( Y e e ( ( ( ..+.;.&.&.&...........;.;.+.+.+.........+.+.^ 2 2.:.| | ....+.+.+.....| ^ +.+.+.+.+.+.+.+.+.+.+.+.o.o.+.+.+.| M M $.Z.O.V.@.@.@.V.V.V.V.V.C.W.b.b.Y.b.P.` V.V.V.O.O.O.Y.b.r.T.J.F.F.H.F.F.F.F.F.G.G.G.Y.G.F.F.F.F.H.T.F.J.J.!.}.H.f ;X!.J.D.D.F.C.C.C.U.C.C.B.F.F.C.F.W.&X'.9X'.{.e.C #XE.V.N.N.N.N.N.V.N.N.N.N.O.N.N.V.V.N.N.N.N.N.N.C.C.C.C.C.F.A.C.C.C.A.A.F.G.F.J.J.J.`.`.G.c Y.G.C.C.P.V.C.A.P.A.C.A.A.A.P.P.A.V.Z.C.c -X-Xb.C.C.C.V.V.V.V.A.W.`.W.B.).;X;X-Xc b.W.b.V.b.V.Y.A.` C.`.`.G.D.C.U.V.V $ xXbXr.U.I.1.@.@.#.V.Z.Z.V.V.V.V.V.V.L.L.L.L.L.L.+.q ^ >.=XR.R.2.;.*.*.*.=.=.=.=.,.,.,.3..X,.=.=.-.%.-.%.%.%.{ U 7 7 , w U R U r U U U R R E E E E E E ",
"T T T T T T W W E E [ E 7 7 T w } :.R w R 2.2.&.*.*.*.&.&.*.*.&.+.>.R.R.! +.( ( :...:...>.~ M :. .*.:.:.>.o.b A Q.DX-Xb o.o.>.>.@X^ R.N.l ;XbXd h.cX~.].~.!.H.H.J.J.!.!.!.H.~.~._.~.9XiXiXiXiXu.f `./.m.H.J.G.C.F.F.F.A.A.C.F.F.F.F.F.F.F.C.F.F.Y.G.F.C.F.Y.T.T.T.T.G.C.A.G.J.!.t._.vXcX9Xq.q.!.).!.!.).`.'.`._.)._._._.~.~._._./.(.9.t.bX~./._.~.~.~.~._._.'.CX~./.9X9X_.p.p.6.'.!.F.F.H.H.)._.cXxX_.t.~.CXCX_.H.s N.P.P.P.>.>.n V L $ H.mX}.r.w.O._ ^ ( ( ~ ! o.E.W.E.O.m n b $.#XP.b O.L.E.>.L.>.L.L.>.>.>.>.I.@X>.@X+X% 1  .E  .R E  .R E E Y Y Y Y E E E R / / &.&.&.&...3 /  X;.:.;.:.;.;.&.&.&.;.;.;.;.;.&.( ( ( ..&.&.&.+.4 ......;.:.;.;.;...( ! Y ~ ( ( ( ........&.&...........;.;.;.+.+.+...........+.^ 2 2.+...| ..| +.+.+.....| | +.+.+.+.+.+.+.+.+.+.+.+.+.o.+.+...| n M $.Z.N.O.$.$.$.@.V.V.V.V.n.W.` ` Y.` P.O.` ` V.O.O.V.E.S.H T.F.F.J.H.F.F.G.G.F.G.G.G.G.G.Y.G.G.F.G.G.F.J.H.D.`.H.f ;XG.J.B.B.C.C.C.C.C.C.C.C.F.F.A.C.Y.`.9X9X(.'.0.C Y.V.V.V.V.V.V.V.@.@.O.O.O.O.O.O.V.V.V.V.V.N.N.N.V.V.N.N.N.V.C.C.C.C.P.A.C.N.e.n.H.`.`.`.G.s G.G.Y.T.A.A.A.A.A.C.C.A.A.C.C.A.P.P.P.A.c %X-Xb.A.V.V.U.L.V.V.P.W.W.Y.G.`.J.`.e.f b.E.N.V.V.b.V.W.-X-X`.S.B.C.U.U.E.+.= xXbXw.` ` V.L.O.Z.Z.V.V.V.V.V.V.U.U.U.U.U.L.L.L.;.! ~ / &.(  .R / E E E / / { / E E E E E E E E E E E E E E W 7 7 7 , w r U U r U U U R E E E E E E E ",
"T T T T T T T T R E  .E U U U w &.&.O r &.*.&.}  . .&.*.*.*.*.&.+.$.@XR.e ( ;.;.;...:.;.:.! ! <.:.,.;.o.o.@.N.` G V.UX*XO.@.o.1.( +XV E.d.bXbXd h.bX^.^.~.!.!.!.~.!.!.!.).!.!.).^.p.^.9XvXvXvXc.8./.~.].!.J.H.F.m.m.F.F.C.F.J.J.D.B.C.C.C.C.C.C.C.C.C.C.F.F.F.F.T.T.F.C.C.C.D.J.~.cXxX_.CXr.e.`.).!._._.!.).`.).).).).`.`././.H.`.'.t.~.NX~.).!.!.!.!.~.).`.'.)././.x.^._.~.xXt.`.H.J.F.H.H.!.!.~.~././.!.~.~.!.H.f n.Y.T.Y.A.Z.O.k d f xXMXcXuXxX;X:X:X>X>XR.@ $.E.Z._ F ` P.E.W._ P._ O.Z.Z.L.I.<.>.>.<.<.>.>.>.2.:.2.=X&.< R E  .R E %.E R E Y Y U Y R R R R  . .&.&.&.*.&.e (  X;.:.;.:.;.;.;.;.;.;.;.;.;.&...( ( ..&.;.;.;.;.Y ..;.;.;.1.;.;.+.( ! Y ! ( ........;.+.+.+...+.+.+.;.;.;.;.;.+.+.........+.+.;...2 2.+.......| | ..+.| ..o.| +.+.+.+.+.+.+.+.+.+.+.+.+.+.+.+.+...n n $.Z.O.@.O.O.O.O.O.N.N.N.V.W.N.G W.N.V.` V.O.@.o.o.O.E.O.D W.Y.G.F.Y.F.G.G.G.G.G.G.G.G.G.G.G.F.F.G.G.G.G.F.J.`.H.i -XK.N.B.B.C.C.C.F.F.F.B.B.F.F.C.C.C.H.'.9X9X{.r.Z V.V.V.V.V.V.V.V.V.V.V.N.O.O.N.V.V.V.V.V.V.V.V.N.N.V.V.V.N.N.C.C.A.C.V.N.b.b.n.F.).`.).W.B.c Y.Y.Y.Y.C.A.Y.Y.Y.C.C.Y.Y.Y.Y.P.A.A.P.Y.H %X`.b.P.V.V.V.V.O.V.A.A.S.B.G.f.K.B.T.G.G W.V.V.P.V.` N.W.Y.b.n.C.F.U.U.P._ $ xXcXq.D.G.G L A.V.U.U.U.U.U.U.U.U.U.U.U.U.P.P.I.+.~ / Y ~ R / U R R R E E E E E  .E E E E E E E E E E E W E W , 7 , , w r U r w U U U R E E E E [ [ E ",
"T T T T T T T R R E [ E U 7 U U *.U , *.,.R / *.*.*.*.*.*.*.*.&.:.^ R.R.! ^ :...;.;.:.:.>.! ! 2.;.;.;.+.o.$.@._ _ _ #.>Xo.N >.>.R.<.>.o.N.`.K.l g.cX^.].~.~.~.~.!.!.!.!.!.!.!.~._.].^.9XxXiXvX9X!.`.J.~.J.J.H.F.F.m.F.F.F.F.J.J.F.F.F.C.C.A.A.A.C.C.Y.Y.G.F.F.G.H.T.F.C.C.C.D.H.xXCX]._.cXy.n.%X).!._.`.!.).).).).`.`./.J.J.H.`.J.`.q.J.NX~.~.~.).).!.!.H.H.F.D.~.~./._.p.'.NXt.'.!.J.J.H.H.J.J.~.J.J./.!.J.J.!.H.f n.F.T.Y.P.S.Z w.}.bXvX9Xv.(./.H.K.P.O.$.o.v #.E.Z.L.E.W.W.E.P.P.P.b ` UX:X@.<.<.<.<.<.<.<.<.2.,.XX..*.=X&.< Y  ./ E  .E U R Y Y U U Y Y R R /  .&.&.&.*.&.Y (  X;.;.;.,.;.,.;.;.;.;.;.;.&...&.....&.;.;.;.;.;.! +.;.>.;.;.;.;...( ( ( ( ........;.;.+.+.+.....+.;.;.;.;.;.;...............+.:...2 >.:.......^ ^ ........o.o.+.+.+.+.+.+.+.+.+.+.+.+.+.+.+.+.+...M n @.L.O.@.O.O.O.O.O.O.N.N.G W.G H W.A.V.N.V.V.V.O.$.$.E.O.G W.Y.Y.F.Y.C.Y.G.G.G.G.G.G.G.G.F.F.F.F.G.G.G.H.J.J.`.).d }.K.N.S.S.B.C.F.J.F.F.C.B.J.G.Y.C.B.D.'.(.'.{.f.A.P.V.C.V.V.V.V.V.V.V.V.V.V.V.V.V.N.V.V.V.V.V.V.N.V.V.V.V.N.N.N.C.A.P.V._ ` b.Y.W.T.T.G.Y.b.D W.P.U.C.A.A.P.P.A.C.C.Y.Y.C.C.C.C.C.P.W.w.-XT.N.P.V.V.V.@.O.V.V.N.N.N.S.D.J.Z -XA.C.E.` ` V.L.V.V.N.N.C.C.A.A.C.V.U.' $ xXbX/.f.N.A.A.N.V.U.U.U.U.U.U.U.U.U.U.U.U.U.P.L...R / R } E  .E E E E E  .%.%.%.%.%. .E E E E E E E E E W E E 7 7 7 w w w r r r U U U R E E E E [ [ E ",
"T T T T T T R R E [ E T U 7 7 U R , *.,. . .*.*.%.%.%.%.*.*.=.*.| >.:X*X^ | ;.^ ;.;.;.;.3.! ( >.:.;.;.:.........;.( ..^ ....:.;.( >.>.@.B.G.:Xd e.cX^.].~.~.~.~.~.!.!.!.!.!.!.!._.~._.9XcXiXcXuX`.K.F.F.J.F.G.G.F.F.F.F.A.C.J.F.J.F.F.F.G.G.P.P.C.C.P.C.C.C.C.F.H.H.m.n.n.F.T.&X&Xm.~.xX&Xf T.T.).!.!.).`.'.`.).`.).).'.'.'./.~./.;Xt.q.cX~.!.).`.!.!.H.G.n.w.B.J.~.'.~.~.bXMXf '.).H.H.H.!.H.!.'.~.J.J.!.!.!.).G.s N.A.C.A.P.O.;XmXMXcXD.8.f i p * n ! 2 2 M v V.W.W.W.E.E.P.V.P.E.A.D V.UX-X@.>.<.<.<.<.,.<.<.,.,.%.*./ *.oXY 3 E  .E / E Y R Y U U U U Y Y R E / *.*.&.&.&.Y /  X&.;.;.,.;.,.;.;.;.;.;.;.&.&.&.&.&.&.;.;.;.;.&.~ ;.;.<.;.;.;.;.;.;.;.;.;.....+.+.+.+.+.+.+.+.+.+.;.;.;.;.+.+.................:...2 2.$.+...+.| | | | | | +.+.+.+.+.+.+.+.+.+.+.+.+.+.+.+.+.+.+...n n @.L.@.V.V.N.V.V.N.N.N.N.N.W.b.H W.C.b.b.n.b.b.` ` V.Y.b.b.T.F.T.F.F.F.G.G.G.G.G.G.G.G.G.F.F.F.G.G.F.F.F.J.m.'.).f `.H.G.B.B.B.F.F.F.F.F.G.B.F.F.G.C.B.D.'.(.(.'.K.W.E.b.C.C.V.V.V.V.N.N.V.V.N.V.V.V.N.N.V.V.V.V.V.V.V.V.` N.V.V.N.N.V.P.@.o._ V.E.E.A.N.E.E.F N E.L.L.E.P.A.C.C.C.Y.Y.Y.Y.C.C.C.P.A.P.W.w.-XG.N.P.V.V.Z.@.V.O.` O.V.V.S.G.0.-X:Xd E.A.V.U.V.O.U.P.A.V.C.L.@.@.Z.#.>.] 4 c J.b.` @.I.I.1.U.V.V.V.V.V.V.V.P.L.L.Z.V.Z.Z.>.:.R E E  .Y E R E E E E [ %.-.-.-.%.%.[ [ [ E E E E E E W W W 7 , , 3 w w w U U U U U R E E E E E E E ",
"T T T T T T E E E [ E U U U 7 U 3 , =.-.R  .%.E %.%.%.*.*.*.*.&.^ $.*X*X^ ^ ;.;.;.;.*.&.3.e ( :.+.+...+.......:.}  .} *.X.&.3.( R.1.@.Z.:XUX:Xp f.NX_.~.~.~.x.~.~.~.!.!.!.!.!.~.~.~.^.(.cXiXiX{.S.A.F.J.G.G.A.G.F.F.F.C.A.A.F.F.J.F.F.F.F.F.F.F.Y.Y.W.W.W.T.F.n.D.D.n.n.B.n.F.).J.J.'.xX).d W.H.H.`.).!.).!.!.`.`.!.~.'.xXxX'.~.J.}.q.r.cX!.!.!.!.!.H.H.F.w.d.G./.J.J.j.xXNX&Xf './.F.F.H.H.!.!.t.J.H.H.H.H.H.H.G.d A.W.B.A.Q.O.%XF.n.F.:XW.D K o.n e R ~ ~ ! M @.E.E.P.P.P.W.E.P.P.N.s W.UX-X@.:.,. X X,.:.&.&./ &.%.*.%.E =.oXw U  ./ E  .R R Y U U U U Y R R R E %.&.&.&.&.Y / <.&.,.;.,.;.,.;.;.;.&.&.&...( ....&.;.;.:.:.;.( ~ ;...:.;.+.;.;.;.+.+.;.;.....+.+.+.+.+.+.+.+.+.+.;.;.;.;.+.+.............+.+.:...2 2.$.+.+.+.......| | | +.+.+.+.+.+.+.+.+.+.+.+.+.+.+.+.+.+.....n M +.>.O.V.V.V.V.N.V.V.V.V.P.W.V.H W.Y.C.F.Y.C.P.C.A.A.W.b.b.W.F.F.F.F.F.G.F.F.G.G.G.G.G.G.G.G.T.T.F.F.J.J.H.`.&XD.f &X).n.D.D.D.F.B.B.F.F.D.F.D.F.F.A.D.D._.'.{.{.K.d.A.N.C.V.V.V.V.V.N.N.N.V.C.C.C.C.C.C.V.V.V.V.V.V.V.V.Z.A.P.A.V.` N.V.o.o.o.@.V.V.A.P.P.E.N V E.L.L.P.P.A.A.C.C.P.P.A.P.Y.W.W.C.` N.Y.Z -XA.S.A.V.Z.V.O.@.O._ ` Z.V.N.Z K.:XW.h P.V.P.V.V.O.O.V.V.V.` L.@.#.Z.L.>.] 4 d Z w.P.E.1.1.$XL.Z.Z.Z.Z.Z.V.Z.L.Z.P.P.P.P.L.L.,.R R R / U E E E T E E [ %.-.-.*.*.-.-.-.%.[ [ E E E E W W W 7 , , , w w w U U U U U R E  .E E E E E ",
"R R T T T E E E [ %.T 7 U U 7 U T E =. .%.E E E  .%.%.%.-.%.%...#.B B $.B +.| ..*.:...;.3.e ^ :._ @.@.o.1.+.( ( ..&...( R.M +.>.o.L.Z.O.G.C = b ` NX).~.~.~.x.x.x.~.~.~.~.~.~.~.^.^.^.6XiXiXiXuXk ` F.F.T.Y.C.Y.F.F.H.G.G.G.H.).!.!.!.!.).H.H.H.`.).).).`.%X`.).D.D.D.G.G.B.B.J.J.`.{.`.H.f G.W.H.`.!.!.'.`.~.'.!._._.~.t.t./.{.f Z f q.cXH.).!.!.!.!.H.G.B.A.G.H.~.!.!.'.J.r.f `.).J.J.F.F.H.!.).H.G.G.H.T.H.F.Y.s Y.NXG.G.Y.Z.D ` D i P.-XV.= b ^ :.:.&.( Y ! @.E.W.W.W.E.E.Z.P.Z.Q.O.A b C P.2.<.,.,.&.&.&./ / / =.E { *.E oX%.w / %.E / R Y U U Y T Y Y E E E E / / &.,.&.Y ( <.;.:.;.:.&.;...( ( ( ( ( ( ( &.&.&.;.;.;.;.;.! ( :...:.;.+.;.+.+.+.+.( +.+.;.+.+.+.+.+.+.+.+.+.+.+.+.+.+.+.+...........+.+.+.:...2 2.:.+.+.+.+.+.+.......+.+.+.+.+.+.+.+.+.+.+.+.+.+.+.+.+.+.....q n +.>.@.@.M.V.V.V.V.@.@.@.) ' D N E.W.W.W.W.W.W.E.E.P.E.` V.W.C.F.A.Y.C.G.F.F.F.G.G.G.G.G.G.Y.G.G.F.F.H.Y.W.[.Q.b d -XW.b.F.C.C.B.S.S.S.S.B.F.F.F.F.F.G.J.~.'.xX{.G.p V.P.V.V.V.V.V.V.V.V.V.V.V.C.C.C.C.C.V.V.V.V.V.V.Z.Z.P.P.P.P.A.V.V.` ` O.V.N.C.C.Y.W.N.Y.C ` W.U.C.C.A.P.P.P.P.P.P.C.C.P.W.W.C.D D ` k -XA.S.S.V.Z.V.@.@.` ` O.V.V.O.S.W.G C C P.L.@.' @.Z.V.@.V.L.L.L.1.V.Z.Z.#.] 5 ;XbXbXK.w.C.U.U.L.#.>.L.#.L.Z.Z.>.>.L.>.#.$.$.:.&.R E R E E %.E E E E [  .%.-.-.*.*.%.%.%.%.[ [ [ [ [ E W [ W 7 , w w w w w U U U U Y E E / E E E E E ",
"E R T T T E E E %.%.T , U U 7 U < =.-.U %.T  . .E E E  . .%.%.&.#.*X*XE.0 ....>.*.:.&.:.3.e ..>.:X:XE._ _ +.( ;...( :.+.M R.o.o.Z.Z.O.N.w.NXN.m Z.NX`._.).`./._._._.(.(._.'.'.'.9X9X9X7XiX9XiXcXd N.Y.F.Y.T.F.T.T.T.).T.W.`.`.`._.`.`.`.).).).`.%XF.y.c c n.T.`.`.K.G.K.W.W.W.`.}.`.{.;XK.d A.W.`.`.e.D.cXcX'.`.'.'.`.`.).)././.f.l f J.cXJ.'.!.!.).).H.G.G.K.H.F.H.).J.D.H.).f `.).H.H.H.F.F.H.J.G.A.A.G.G.H.T.Y.p W.mXH.F.A.A.O._ _ _ z #XL.b ^ >.R.3.+X<./ 0 @.W.W.P.P.P.E.E.P.E.Z.b O.:X>X*X+X2.;.....&.&.&.&.&.R &.%./ *.%.oX3 R &./ / Y U Y Y Y U Y R E E / R Y E &.,.&.Y / XX;.,.;.;.] ] ( / / / ( ....&.;.;.;.;.;.;.&...e ( <...;.;...;.+.;.;.;.;.;.;.;.+.+.+.+.+.+.+.+.+.+.+.+.+.+.+.+...........+.+.+.:...2 2.:.:.+.+.+.+.+.+.....+.+.+.+.+.+.+.+.+.+.+.+.+.+.+.+.+.......q n $.>.@.@.' ' ' ' +.o.o.o.2 z z * ' O.` ` G H w.H G A O.s A.W.C.F.F.G.C.G.F.F.F.G.G.G.G.G.G.G.F.F.F.H.T.W.[.| ; * N #XT.Y.F.F.F.C.A.A.A.A.C.J.F.F.F.G.G.H.~./.'.`.W.a P.U.V.V.V.V.V.V.V.V.V.Z.Z.A.C.C.C.C.Z.V.V.V.V.Z.L.P.O.O.N.V.P.P.P.V.Z.V.A.Y.W.T.Y.G.P.W.k G Y.C.Y.T.V.P.E.E.P.P.A.V.V.` F Z.W.Z.D a s -XA.S.S.V.Z.V.Z.@.` @.V.V.V.V.S.C G *Xa E.L.O.L.@.O.V.V.O.@.@.1.1.V.O.O.Z.] 5 /.uXcXh.8.f.B.N.L.>.>.>.>.L.L.>.>.>.>.+.^ 0 2 1 U T / E E Y E U E E T E [  .-.-.-.-.-.-.-.-.-.-.%.[ { [ E [ E 7 , w w w w w U U U U Y E E / E E { E E ",
"E E T T T E E [ [ E U 7 U U U U R E [ [ [ [ }  . . . . . . . ...>.E.*X*XB | +.:.:...3.+.2.~ % >XmXY.k ` L.#.+.+.+.+...+.$.@.O.V.G C L A f G.[.0 #.#X-X;X;X:X:XxXxXxX;XxXxXxXxXxXxXcXcXxXcXcX'.h.d F W.%X%X%X`.%X%X%X%X%X`.%X`.`.`.W.W.W.W.W.W.W.N.D C F D h b G Q.W.-XW.W.W.P.P.S.d.w.G C b m v A m j P A S Q.K.`.`.'.;XxXcXNXbXbXd.f w.;X`.!._.).).).).!.H.H.H.H.F.).).`.'.).y.`.).J.F.H.H.F.H.H.G.G.G.G.G.H.G.A.s A.MX-Xw.d.S.F o.v n V v v 2 +.>.R.2.<.:...M L.E.P.E.E.#XP.P.E.Z.P.m _ UXmX#.^ ( ( ( ( ( ( ( ( ( ( / / ( / / / Y / / / Y E Y Y Y Y U Y Y Y R  . ./ E %.=.&.Y ( ;.,.;.;.&.( ( ( ( ( ( ..;.;.;.;.:...:.;...;.Y ! &.,.;.;.;.:.;.:.;.;.;.;.;.;.;.....+.+.+.;.:.:.;.;.;.+.+.+...........:...:.;.+.>.( 5 >.<.+.:.;.+.| ..+.+.+.| +.+.+.+.+.+.+.+.+.+...+.+.+.;.;.;.X...~ 0 +.R.$.L.I.L.>.>.>.>.>.R.J n * ; z z z x c r.y.f Z l f l F.`.).).!.!.`.F.G.C.C.F.Y.Y.Y.T.Y.T.T.Y.T.`.`.E.0 y B n z -X-X%X%X%X%X%X%X%X%X%X%X%X&X&X&X%X%X&X&X'.;X`.G H U.Y.E.P.E.E.E.E.E.E.W.L.E.#XW.Y.W.Y.E.E.E.E.E.P.` b b D C b D V.E.W.E.E.Q.A.A.A.A.A.A.O.b b F O.V.V.a o.#XZ.E.#XW.W.W.#X#XW.*X-XE.a b [.P.N.A.N.Z.L.V.V.V.V.V.V.V.V.V.N.A.W.x W.P._ @.@.@.@.@.@.@.@.L.@.` S.O.$.( z 8.9.8.l.q.g.0.b.V.@.L.L.L.>.L.I.I.I.I.>.;.( ( ..%.Y / U E E E E [ E E R E [ %.%.-.-.-.-.-.-.-.%.%.%.%.E E [ W U , , , w w w U R U U E E E E E %.E E / ",
"%.%.%.%.%.%.%. .E T U 7 7 U 7 7 R E [ [ [ [ }  .*.*.*.*.*.*.*.&.n 0 n o.0 | :.:.>.:.;.;.>.^ e #XC k A.>XmX:XR.+.:.:.>.>.L.Z.Z.Z.:XmXmXbXMXUX:X; 0 ^ ` H H G w.w.B.B.N.N.B.B.B.B.B.D.D.D.D.J.q.f b D ` H H b.G Z w.w.Z c H Z c Z c C C b b h x x a a a a a i $ i d f Z f d d d i f d i d d d s k p p j k h p p s d d f f Z r.q.D.K.Z k l ).!.).).).).)._.).).!.!.H.H.D.r.r.r.f d `.H.D.J.F.J.J.F.J.J.F.F.F.F.F.F.A.p N.MXMX:X}.Q.Z.o.o.^ 0 0 M B 2.2.>.>.R.R.+.M @.W.W.E.L.E.E.E.E.#.#.F b #.V E.=X=X=X@X+X2.<.:.;.;.:.:.,.:.,.,.:./  ./ %.Y R U E E R R R R E E  .%.&.&.=.,.&.Y &.,.,.,.:.&.( ( ;.;.;.:.:.:.;.;.:.<.:.<.<.:.:.e ( *.,.,.:.<.<.<.:.:.1.,.,.,.:.:.:.:.:.:.:.:.:.:.>.>.>.:.>.:.:.:.:.:...;...:.:.>.>...2 >.>.;.>.>.>.:.$.+.+.+.+.+.+.+.+.>.>.>.>.>.+.+.+.+.+.+.....X.} e B >.E.L.E.E.R.E.E.E.E.E.E.K : = m g = #.>XxXcXxX;X;X;X;X`.D.e.).;X'.`.`.`.C.C.P.W.%X%X%X%X%X%X%X%X-X%XY.D n B n v N L.P.Y.T.T.T.T.T.T.T.W.W.W.`.T.W.#XW.W.T.F.F.b.z z ' O.' O.O.@.@.@.@.$.O.O.O.` ` ` ` ` ` F F F F D x a s h s p a x D b b h a a p p i i i $ $ $ i p i $ b * m = z n b N ` @.Z.Z.Z.P.@.b p P.S.S.P.V.Z.V.V.V.L.L.V.V.` ` _ _ D F $ Z.@.@.@.@.@.@.O.O.O.@.+.@._ O.K $.~ 2 MXDXDXDXMXmXmXmX-XW.U.P.E.P.L.U.L.L.I.I.I.I.R.R.,.E / U /  .R R E E E E E [ [ [ -.*.%.*.%.%.-.-.%.%.%.E / %.E U U U U U w w , w U U E E E / E E E E E ",
"T T T T T T U U U U U 7 7 U U U , 7 w r w w r r w r w w w w r q B 0 * 2 & 0 e e e e M ^ ( 0 2 # a L Z.$.o.| ....:.:.:.$.#.#.#.O.:X:X-X:XcX-XO.n B ^ N x N N x b m v n v 0 v n v a a s s s a a * ; * s i d C s s i d s s m b k Z r.r.r.w.w.H Z Z B.G.T.W.`.-X-X}./.(.7X9X9XxXxXxXcXcXiXcXvXcXcXcXbXbXNXH.l k f f k k k s d d d k s k Z f J.!.'._.).)._._._._.).).!.T.m.r.D.B.e.H.`.`.).).`.).T.`.).).).).).).).W.W.s p d.Q.Q.[.[.-XQ.*XE.2.=X2.2.@XR.L.L.E.E.1.N L.#XW.E.E.E.L.#.$.o.V n n * = $.N ! M M ! ! ! ! ! ! ! ~ ~ ~ ( ( ( Y Y / &.&.=.&./  . ./  . . .%.%.*.=.=.,.,.&.Y / ;.,.<.XXXXXXXX,.<.<.<.<.<.<.<.;.:.:.:.:.:.:.! ( &.&.&.&.;.;.;.<.<.<.<.<.<.<.<.3.3.<.3.<.<.<.<.2.2.2.2.2.2.2.3.;.:.:.,.;.:.;.;.;...4 ..^ M ^ ! n M M 0 n B ^ B M B ^ ^ ^ ^ ^ ^ ^ ^ ^ ^ ( ..( ( ..~ 9 q M M n N a a i $ $ $ $ $ i i p d i $ d 0.r.8.r.g.d.0.d.f.Z i f r.c Z Z G x s c H b.` H H H H c c c s d $ x N z * n 2 2 2 M M z z v v z b 0 0 2 * = 9 9 & n v 0 9 6 6 9 2 = p a a a a * * = z * a z x a x a a a a x x b D F ` ` G G ` ` G N.N.B.B.F.G.G.G.G.G.Y.Y.T.W.`.W.E.2 2 = * * * * # # * z a * z a a V.N.Z.P.V.P.V.Z.Z.L.L.U.V.` ` D _ F V N #.@.L.@.@.@.@.@.@.@.@.+.>.$.$.o.$./ 0 f.k.g.d.S.d.` ` B.w.0.f.B.B.B.B.B.S.N.N.V.O.O.o.( E / Y / Y Y E R R E E E E E E U R E E E E E [ E E E R Y E U 3 , < < , w w U T U U E E / / E E  . . .",
"U 7 , , 7 7 w 7 7 U U U U U E [ *.*.=.=.=.=.3.3.3.3.3.3.3.3.3.3.>.>.2.>.>.;.:.:...:...M 4 ^ >.$.m a v B n = & B n 0 2 * 2 * * * $ $ i i i i b B B ! N ) _ N x N n 0 M q 0 0 V M ^ ) F F F V ^ V V F W.%X`.B.C S T.Y.Y.G a b Y.W.).).).).).T.T.H.`.`.&X;X;X;X;X;XxXiXuX9X9X9X_.(.(.9X(.(.9X9X^.(.'.xXNXJ.q.).H.K.G.K.Y.Q.Q.Q.W.K.K.G.H.J.`.!.).)._._._._._._._._.`.).F.J.).).T.`.).).!.).).T.T.).).).).).).).).).A.A k d i i $ # $ $ $ $ * * # = = = i p a x x z b N b n _ _ n n v 2 v 2 M | +.2 M M ! M ! ^ ^ ( ^ ^ ~ ^ ^ ^ ^ ~ / Y Y Y Y 3 Y w Y Y U U U U U U Y R R R R / R w 4 Y ! Y / ! Y ! ! e e e e ! ! ! ~ ! ! ! ! ! ! e 4 e Y e Y ! ! Y 4 4 e e 4 e Y Y e Y Y Y Y ! Y Y e e e Y Y Y Y Y Y ~ ~ ( ( ! e ! e 4 5 ! M M ..^ +...| ! M 2 M M M M M M M M v M M n M M ! ! ! e R } r e 0 2 _ V C N.W.W.K.K./.}./.`./.K./.}.`.J.`.`.`.K.S.S.0.i 0.w.G.G.A.G.S.V.P.A.U.U.U.N.V.V.U.V.V.N.b.b.Y.%XF.C.b.D x n M ! r r r r r q M q t 9 2 ^ 0 0 y 9 2 0 9 9 r r 9 0 n D F D N b z z b b N @.Z.L.@.Z.V.V.Z.Z.P.P.E.#X#X-X-X-X-X-X-X-X%X`.`.`.`.`.`.`.`.`.%X`.`.%X;X:X*X^ $.o.$.o._ _ @._ _ @.@.$.@.@.O.V.V.P.Z.V.P.Z.Z.Z.L.P.P.L.V.V.` O.$.#.L.L.>.L.L.>.@.>.L.L.>.>.>.>.#.#.#.>./ 0 i f d i k p h Z d f f 8.8.8.0.0.g.d.w.d.N.d.L G M Y ~ Y &. ...*.%.%.&.%.%. . . .%.*.3.XX.X.X3..X.X.X.X,.,.,.,.*. .R , , , , , 3 3 U U U E T E T T T Y ",
"w w w U U U U T 7 U U U U T E %.-.-.*.=.=.=.=.,.,.,.3.,.3.3.3.,.:.3.R.3.@X3.2.+X@X@X=X+.$.*X#X*X>X#Xo.Z.*X:X-X#X*X*X*X#X#X*X*X*XW.W.[.-X`.H.L v 0 B _ ` ' _ D _ ' ) ' ' @._ V.U.P.Y.Y.Y.P.Y.P.P.P.G.`.;X;X`.F.H.&X&X;XT.i s ;X%X).).).).).!.H.H.).H.F.H.H.J.J.~.J.J.J.!.).).).).J.).m.r.J.).~.~.~._.xXt.J.'.).T.T.T.).).`.`.`.`.`.`.`./.'.).!._./._._._._._./._.'.).).H.F.J.H.m.F.F.H.H.H.H.G.G.Y.Y.Y.Y.Y.T.H.H.G.f f h.~.'.{.{.}.{.K.K.K.B.B.J.e.h.D.h.f.N.S.Z.#.@.@._ N 5 N E.#X#X=X*X=X+X=X#X=X*X=X=X@X@X@X@X@X@X@X@X@X@X@X@X+XXXXX,.~ w w w 3 3 3 3 3 3 , , , w U w w Y Y w U Y U 3 4 4 4 e e 4 1 1 4 e 4 1 e 1 4 ! e 4 4 4 e e e 3 e Y Y e Y Y Y Y Y Y Y Y Y Y Y Y Y Y Y Y Y Y Y Y Y Y Y Y r Y e 1 e e ! ( ....+.:.>.>.R.2.2.>.>.>.>.0 +.>.R.R.R.R.E.R.R.R.2.3.>.>.:.:.+...~ ..~ t M | R.@.G N.G.H.`.;XbXDXMXMXMXMXMXMXMXMXMXMXmXmXMXUXNXi ;XmXmXNXNX-X%X-X#X#X#X#X#XW.#XW.E.P.W.W.E.P.#X:XNXNXNX%Xd C z M e r r R t t M M M b D W.V.F o.O.` @._ ^ ..+.o.L.*X#XW.W.E.E.E.E.F $ z E.L.L.L.V.Z.Z.Z.Z.Z.Z.A.A.V.V.V.V.V.Z.A.V.Z.A.A.C.C.C.C.A.D G V.S.V.B.C.P.@.M L.L.L.L.L.L.E.L.L.L.L.L.L.V.P.Z.V.P.V.V.P.A.P.A.A.A.P.P.P.P.L._ o.@.@.o.L.@.@.@.@.@.@.@.@.@.@.@.@.@.@.I.M a l.pXMXmXDXDXDXDXDXDXDXDXDXDXDXMXMXmXmXmXbX:X-X*XR.:.( ..=X=X@XXXXX2.3.3.,.*.*.*.&.*.3.3.3.,.,.3.,.3.,.,.,.,.,.*.*.E U 7 , , , , < , , , , X , , , , , ",
", 7 U T T U U U T T T U 7 U E %.{ %.%.%.%.%.-.*.%.%.&.&.&.&.&.&.*.X...! &.....( ~ ^ 2.! +.#Xv ^ _ E.@X^ z _ $._ _ ` V.L.L.L.L.Z.E.Q.A.`.NX`.C v J #.P.P.P.P.Z.P.P.U.P.V.W.b.C.W.T.T.T.T.T.T.T.C.Y.D.J.m.J.!.!.).!.).;X`.d k ;X).!.!.!.!.!.!.T.H.H.H.H.).`.!.!.`.).T.).).).).).T.).%X`.J.).'.'.'.'.~.!.6.J.`.H.).).).).H.!.).).H.H.!.!.!.).)./.'././._./././././.).!.`.`.n.D.T.H.H.H.!.!.T.T.T.T.T.T.E.E.T.T.T.T.T.d J.MXGXGXGXGXDXDXcX;XNX:XxXcXcXxXxX;X;X-X-X*X*X*X*X#XL.v >.:X$X$XR.>.+X+.;.R.+.;.;.;.:.:.,.,.:.:.:.:.,.>.,.:.;.,.,.,.Y Y Y / R R R R R R R R 3 Y E E E E / / Y / / / ;.<.XX+X@X@X@X@X@X@X2.:.! e ..:.:.:.;.:.,.:.&.&.( ( / ~ ~ R R R R R Y Y r Y Y Y Y Y r w Y Y Y Y Y Y Y Y R ~ ~ Y &.....:...( +.....^ ..^ | ^ +.>.>.0 >.@X$.$.$.>.>.>.L.R.:.;.+.+...........&.R 1 B :.>.V O.O.S.C.B.e.q.q.t.q.t.J.e.r.r.e.e.e.D.w.Z B.G.c :XNXW.C.Y.b.` N.@.@.@.V.V.V.V.V.L.L.V.U.U.V.U.F.'.9XNXcXc ` ` $.+.........+.+.o.o.D b.:XW.` O.V.n.U.U.@.@.@.V.Y.P.V.N.` N.Z.E.E.Z.= x *XL.L.P.L.A.V.Z.Z.L.Z.V.V.P.P.P.P.P.P.A.A.O.O.N.V.A.P.P.P.` O.Z.P.A.A.A.P.n N E.L.@.V.L.L.U.L.P.P.U.L.L.V.L.V.V.P.Z.Z.P.V.P.P.Z.Z.P.P.P.P.L._ _ @.o._ L._ @.@.@.@.@.@.@.@.@.@.1.1.1.I.4 g bXDXbX/.}.{.{.}./.}.}.}././.K.G.f.d.N.N.N.Z.O.$.R.:.e M +X2.,.&.2.,.:.,.,.,.,.,.,.,.,.,.,.,.,.2.,.,.,.,.,.,.,.,.3.*.%.-.=.=.=.=.-.=.=.*.-., -.-.=.=.=.",
"7 T [ [ E T T T T T R T U T E %.%.%.%.%.%.%.*.*.*.*.&.&.*.*.;.;.:.&.&...,.:.,.&.3.;.+X^ >.=X_ ^ ( } } ..| ^ n v z ^ @.1.@.1.1.+._ E.O.G `.;XW.O.B #.P.U.Z.A.A.A.Y.A.G.C.W.Z r.T.).H.J.J.H.H.J.F.G.G.).!.!.!.F.D.;X).T.Z p s ;X`.).).!.!.).!.).).!.!.!.!.!.!.!.!./././.).).!.).).!.).`.'.'.'._.).`.H.!.f H.`.T.T.T.W.T.H.H.).`.`.`.'./.)././.)./././.).).).).).)._./.`.`.J.e.D.T.H.H.H.H.H.T.Y.Y.T.T.Y.Y.Y.T.H.H.H.i ;XUXMX(.x.k./.j.e.B.C.A.P.C.C.B.B.B.A.P.L.>.L.@.L.E.L.n @.*XR.R.I.;.<.<.>.:.<.<.<.,.<.,.,.3.,.,.,.<.<.<.<.<.,.<.,.,./ / / / E E E E R R R R , U E / E R / / / / / / ( ;.;.,.;.:.:.:.:.;...( ! ( 2.+X2.+X2.2.XX3.,.,.&.&.....&. . . . .} R U Y Y Y R R R Y Y Y Y Y Y Y Y Y Y r ~ ( ~ 2.&.......! +...;...:.;.+...+.+.>.2 :.>.+.+.+.+.+.>.>.>.....( ..............R 1 ^ 2.$.| +...+.@.P.P.F.F.J.F.n.w.N.A.A.C.G.e.w.G.G.A.` s #XW.N.V.P.E.P.L.L.I.E.E.E.E.U.I.E.L.L.L.L.L.L.A.d.K.;XbXQ.F @.O.@.@.@.@.@.@.@.O.Z.` b.:XY.G L ` ` n.V.V.>.@.b.b.C.b.N.C.P.W.W.E.` $ x #XP.L.V.P.Z.V.V.P.P.P.P.P.V.V.V.A.P.A.A.P.E.P.P.P.P.P.P.P.Z.P.P.Z.V.C.Y.Y.D _ E.V.V.L.V.U.V.V.P.P.U.U.P.U.U.V.L.V.P.P.C.C.P.C.C.C.A.P.Z.L.L.>.( >.L.@.>.@.@.@.@.@.@.@.1.@.1.;.1.1.<.XXY o.mXbX/.f.G.S.S S S.d.d.d.N.N.L O.L.L.>.>.<.<.<.<.2.R...^ +X:.>.3.<.;...&.,.,.,.3.,.,.,.:.,.,.,.,.,.,.,.,.,.:.:.:.,.%.E E E E E  .-.*.=.=.=., -.=. . .%.",
"U E [ E T U U T T E E T T E [ %.%.%.%.%.%.%.-.*.*.*.*.&.&.;.&.&.&...*.:.&.&.&.&.;...+X^ +.*Xo.M R R E ~ ( ....! M +.>.>.:.:.>.>.>.$.#.A.T.;X-X#.v @.P.P.P.P.A.C.G.C.G.B.[.G r.`.`.!.m.!.!.J.F.T.G.J.!.!.H.H.).;X`.B.c $ s C ;X`.T.!.!.).).).!.!.H.!.!.!.!.).`.!.K.H.!.!.!.!.).).!.!./.'./.)./._.H.).).d e.T.W.T.T.).T.m.e.m.H.).).J.t.!.`.).!.`././.).).).`.`././.`.).`.`.D.e.).H.H.H.H.T.T.T.Y.T.T.Y.Y.T.T.T.H.T.d bXDXcXl./.x.j.~.NXNXW.P.U.I.I.E.W.E.E.I.R.R.E.P.E.R.R.^ @.*X>.>.:X=X;.:.+X<.<.<.,.,.,.,.3.3..X.X2.,.<.<.,.,.,.<.,.,.Y / Y Y E E E E E R R Y 3 Y / / E R / / / / / ! / ( / ( / ( ( ( ( ( ..;.e ( 2...! ..( ! / / /  ./ / ..&.&... . .%. .R w U U Y R R E E R E E E R R R R R  ...} R 3.&.( ( +.! ..( +.^ +.+.+.+.+.+.>.0 >.>.+.+.| | +.+.>.>.+.+.......+.......*.X.q | >.^ +.....+.;.@.V.V.C.C.C.C.A.A.Z.Z.Z.b.G.A.N.O.Q.P.N Z.O.W.P.O.L.L.>.L.L.L.L.L.L.L.L.L.L.I.L.L.L.L.L.A.Q.d.:X-Xh Z.o.@.@.@.@.@.@.@.O.V.` H -XG.N.S.O.V.V.` O.@.V.C.M.C.N.C.Y.W.E.Z.O.= # a #XP.P.` P.A.Z.Z.V.V.V.A.A.V.V.V.A.A.A.S.A.Z.Z.Z.C.P.P.P.P.P.P.P.P.P.C.C.C.N N L.@.L.L.V.U.U.` ` U.P.P.U.V.L.L.P.V.L.P.Z.P.V.V.Z.A.P.P.P.L.L.E.^ _ @.@.@.@.@.1.@.@.@.@.@.@.1.;.1.;.1.<.e Z.MXbXf.C.G.N.S.bXmX-XZ.V.P.E.L.I.I.<.<.<.<.<.<.<.>.<.! ! +X<.<.2.=X2.,.,.,.,.,.,.,.,.,.,.XX,.,.,.,.,.,.,.,.,.,.,.3.*.R w w U E %.E E %.=.=., -.=.E E / ",
"{ E E T T T T T W E W E T T %.{ { { { %.%.%.%.%.-.*.*.=.=.*.;.&.*.X.X.*.*.&.&.&.;.;.2.^ +.=X^ ! ~ / / / ( ( ~ ! +.+.;.:.>.>.>.>.>.#.#.#.Z.E.#X-Xb V.P.A.A.A.A.A.G.F.C.A.P.N.Z `.).!.].!.!.H.F.H.T.m.H.!.J.`.;XW.x 2 2 z a s ;X`.F.).`.!.H.H.!.!.!.!.!.!.).).T.T.H.H.H.H./.).).).).!.).!.!.).).).T.`.T.s C W.Y.W.).T.).).F.G ` G.).!.J.e.J.).).).J.!.).).).).`.'./._./.`.).H.y.`.H.H.T.T.T.T.T.T.H.T.F.T.P.W.T.H.T.f bXDXJ.H./.j.l.cXMXmX`.Y.U.$X$X$XI.I.I.I.I.I.R.I.R.E.E.v L.#X>.@X:X+X<.:.,.<.,.,.,.,.,.,.,.,. X X,.,.,.,.,.,.,.,.<.2./ Y / Y E E R E R R R Y , U &.R / / / / / / ( / / ..&.&.&.&.&...&.&.&.&.! / <...( ( &...&.%.%.%.&.%.&.&.%.&.%. . . .E 3 w R  .%. . . . .%. . . .%.%.%.%.....( ! 3.( ..( ( ( ........;.;...+...:.>.0 +.2.+.+.+.+.+.+.>.>.;.+...............*.^ 0 :.:.+.^ ..+.+.$.@.L.P.V.A.C.V.V.Z.Z.Z.Z.C.N.N.Z.L.L.@.) L.L.U.L.L.L.>.>.>.L.L.L.L.L.L.>.I.>.L.L.I.L.L.L.P.Z.L.-X[.m O.$.+.+.;.;.@.@.O.O.L.` H :XT.b.N.O.O.O.@.@.V.N.C.M.n.Y.E.P.#Xo.2 % 2 & 2 @XL.P.L.V.V.A.A.S.V.S.A.A.A.A.A.S.S.S.S.Z.Z.Z.P.Z.Z.Z.P.Z.V.P.P.Z.Z.Z.A.P._ z @.L.L.L.L.L.L.@._ ` V.L.L.O.@.@.Z.Z.Z.L.L.P.L.L.V.V.V.Z.L.L.L.L.>.N @.>.@.1.@.1.1.1.1.@.@.@.1.@.@.@.@.$.m P.MXK.G.H.D.h.;XmX:X#XL.L.L.>.@.L.I.I.<.<.>.<.<.<.2.2.( ^ +X3.2.+X@X2.*.,.<.,.,.,.,.,.,.,.,.,.,.,.,.,.,.=.,.,.,.:.,.*.E U U U { { %.{ %.%.-.U  .-.{ { %.",
"[ E R T T T T T W E W E T T %.{ %.{ { { %.%.%.%.*.*.*.*.*.*.;.&.*.*.X.*.*.&.&.&.:.;.2.^ ;.=X( ! / / }  . .( ( / ;.;.;.;.;.:.>.>.>.>.>.#.>.L.W.#Xb V.A.C.C.A.A.G.F.F.G.A.P.N.G %XT.!.].!.!.F.F.Y.J.H.H.e.H.:XA.a * 5 5 % a s ;X`.).).).).).).H.J.!.!.!.).!.).T.T.H.H.H.H.H.T.T.H.T.T.).!.H.!.).T.T.T.T.S C S.A.`.).).).).T.C.O.Z.T.T.F.m.m.H.`.`.H.F.H.).).).).!././.).`.`.).y.H.T.T.T.T.T.T.H.H.H.T.T.T.P.E.Y.T.T.f MXbXD.`.S.h.cXMXbX`.f.W.#XI.$X$X$X$XI.I.P.L.R.I.R.R.R.v L.#X>.>.@X:.<.<.,.,.,.,.,.,.,.,.,.,.,.,.,.,.,. X,.,.<.<.,.,./ Y / E / E E E R R Y r 3 Y &./ / / / / / / / ( &.&.&.&./ / ..( ( ..&.&.~ / <...( ( &.( &.%.%.%.%.%.&.&. .&.&.&.&.&./ Y U R  .%.....&. .&.&. . .&.&.&.&.&...( ! 3.( ..( ( ( ........&...+.+.( +.>.M :.>.( ( +.+.+.+.1.>.;.+...+...........+.^ M >.;.( ^ +.+.o.o.@.L.L.V.V.V.V.V.V.Z.Z.Z.V.V.V.L.L.L.1.) I.I.L.I.L.L.L.L.I.L.I.I.I.I.L.L.>.>.>.L.I.L.L.I.R.L.Z.*XW.C O.O.@.1.1.1.1.@.@.@.V.` H :XT.b.C.N.O.O.@.@.V.N.C.M.Y.N.W.E.^ % 2 0 1 & 1 *XE.V.V.P.P.A.Z.V.Z.P.P.Z.Z.Z.Z.Z.Z.Z.Z.Z.Z.Z.L.L.Z.Z.Z.Z.Z.Z.Z.V.Z.Z.Z.L._ v @.@.L.L.L.1.L.@.` ` @.V.V.@._ @.@.Z.L.L.@.O.Z.Z.Z.Z.Z.Z.Z.L.L.L.@.N @.>.@.@.;.;.1.1.@.@.@.@.@.@.@.@.#.#.m Q.mXS.G.e.e.;XmX;XE.>.@.>.I.I.<.I.I.I.<.<.>.>.>.<.<.<.( ~ 2.,.,.2.2.:.*.,.,.,.,.,.,.,.,.,.,.,.=.,.=.=.=.=.,.,.,.,.,.,.E U U T { %.%.{ %.%.-.U [ -.{ { { ",
"E E T T T T T T W E W E T T %.{ { { { { %.%.%.%.*.*.&.*.*.&.&.&.*.*.*.*.&.&.&.&.;.;.2.( +.=X^ ! / / ( / ~ R ~ ~ :.:.;.;.;.;.>.>.>.<.>.>.>.L.E.E._ C.P.C.F.J.J.G.F.F.G.A.Y.n.n.;XH.J.J.H.H.H.F.F.D.D.H.!.;X`.i i z V 2 = i c cX!.!.).).).).!.).).).).).).).).!.T.H.H.).H.H.H.T.T.T.T.).).!.).).!.).H.W.w.s O.C.Y.T.!.!.).T.Y.S.` G.H.H.D.n.D.H.T.).H.D.D.F.T.T.H.).).!.`.`.H.c J.F.G.G.Y.T.T.).).H.J.T.Y.E.V.F.T.T.f MXuXD.T.T.cXMXxX/.K.T.V.L.$X+X$X$XI.I.R.R.I.R.I.R.R.R.M I.@X>.;.<.;.<.2.<.<.,.,.,.,.<.<.,.,.<.<.<.<. X<.,.,.<.<.<.2./ Y / E E Y Y U w w w 1 3 Y &.E / / / / / / ( / / / / / &.&.&.&.&.&.&.&./ ! :.......&.( (  . . . .&.&.&./ &.&.&.&.&./ 3 Y E  . . ...&.&.&.&.&.&.&.&.&.&.&. .( ! 3.( ..( ( ( ( ......&...( ;.+.;.>.5 >.<.( +.+.+.+.+.1.>.;.+.................^ M >.+.^ ..+.+.o.o.@.L.V.V.P.P.P.Z.Z.Z.Z.Z.V.V.L.L.>.L.1.^ I.I.I.I.I.I.L.L.L.L.L.L.I.I.L.L.>.1.@.>.L.L.L.I.L.L.A.%XW.C N.N.M.V.1.@.@.@.@.O.V.O.` -XY.b.C.N.V.V.V.V.V.N.C.C.b.Y.P.x = * 2 % # 2 = #XW.V.C.P.P.L.L.L.L.L.L.L.L.L.L.L.L.L.L.L.P.V.V.P.P.V.Z.P.Z.Z.V.V.A.Z.V.L._ M +.( @.L.I.@.@.1.O.' ' @.@.>._ _ o.$.L.L.@._ $.@.@.V.Z.Z.L.L.L.L.#.v o.>.@.+.;.;.;.;.@.@.@.@.+.+.+.>.>.#.B E.-XN.A.Y.:XmX:XS.Z.>.>.L.I.I.<.I.I.I.<.<.>.>.<.<.<.<.( ~ 2.:.,.,.:.&.,.,.,.:.,.<.,.,.,.,.,.,.,.,.,.=.,.,.,.&.:.<.3.,.R U T W { %.%.%.%.-.-.U [ -.{ { { ",
"T T T U U T T T W E W E T T %.{ { { { { { %.%.%.*.*.*.*.*.&.&.&.*.*.&.*.&.&.&.&.+.;.3.( ~ 2.! ! R R ~ R Y Y / ( :.:.;.;.;.:.>.>.<.<.<.<.>.>.L.L.' U.Y.C.F.F.F.F.Y.A.F.C.T.n.D.&XD.D.J.F.H.H.F.J.F.D.J.r.`.;XJ.f i a $ O.s d ;X!.'.).).!.H.H.T.).).).).).).).).).T.T.T.H.J.F.H.).T.).!.!.).).!.!.!.H.W.w.a S.A.w.H.).).H.F.G.C.G n.F.G.G.B.n.B.D.W.T.G.D.n.B.J.H.H.!.`.`.`.J.c F.Y.Y.G.G.G.F.F.J.H.F.).Y.E.V.Y.T.W.r.MXuXH.F.NXMX;XK.G.S.W.A.P.I.+X$XI.I.I.R.R.I.R.I.R.R.R.M I.@X>.>.<.<.<.,.,.XX,.<.<.<.<.<.<.,.<.<.<.<.<.<.,.:.;.:.2.XX( Y / R E R Y U w w w w 3 Y &./ / / / / / / / / / &.&.&./ ..( ........( / ! :...&.....( &.&.&.&.&.&.&.&.&.&.&.%.&.&./ 3 R /  . . ...&.&.&.&.&.&.&.&.&.&.&. .( ! 3.( ..( ( ( ( ......&.....+...:.2.5 2.>.+.+.+.+.+.+.;.>.+.+...+.............^ ! <.+.( +.+.$.o.o.@.@.V.V.V.V.L.V.@.@.V.@.V.V.L.L.>.>.1.^ I.I.I.I.I.I.L.L.L.L.L.L.I.I.L.L.>.@.1.>.L.>.L.L.L.U.C.#XW.Z C.V.M.V.U.1.1.@.@.@.O.O.D %XY.M.Y.C.V.V.V.V.V.C.N.C.b.W.W.h $ a b * = B # W.#XA.G.B.V.L.L.E.I.L.U.U.U.L.L.L.L.L.L.L.P.V.V.V.P.L.V.A.Z.Z.V.Z.P.V.V.L.o.M +._ +.@.>.@.@.@.O.' _ ' @.#.o._ _ _ $.#.@.@.@.O.O.O.@.Z.L.L.L.L.#.v _ +.+.$.;.;.;.;.@.@.@.@.;.;...+.>.>.^ #X:XV.N.W.:X-XN.P.L.R.I.L.>.>.<.<.I.I.<.<.>.>.>.>.<.2...^ XX:.:.,.:.:.,.,.,.,.,.<.,.,.,.,.,.,.,.,.,.,.,.,.,.&.&.,.,.,.R U [ [ { %.%.%.%.-.-.7 E %.{ { { ",
"T U U U U T T T W E W E T T %.{ { { { { %.%.%.%.*.*.&.*.*.*.&.&.&.&.&.&.&.&.&.&.&.&.3...e ..M ~ e R (  ...&.;.,.;.;.;.:.1.1.>.>.>.>.<.<.<.<.<.I._ V.U.U.P.Y.C.C.P.A.G.C.T.e.J.`.D.F.G.G.G.G.H.J.H.J.J.~.q.`.cX`.Z $ C :XT.f ;X'.~.~.!.).).T.T.T.T.T.).).).).).).`.H.H.T.F.n.C.T.T.).H.H.).).!.).!.H.T.B.p S.A.H b.H.).F.m.C.C.N.w.B.C.A.B.B.N.b.C.G.Y.Y.C.n.b.B.B.H.).`.`.G.d N.Y.Y.Y.T.T.T.T.T.H.J.T.U.L._ ` N.V.H MX{.F.W.:X`.A.Q.W.S.P.E.W.@.R.I.I.I.I.R.I.I.R.I.R.R.R.M <.+X>.>.<.2.,.;.,.<.<.<.<.<.<.<.<.<.,.,.,.<.XXXX<.<.;.:.<.XX/ Y / R E Y U U w w w w 3 w  .E / / / / / / / / / ( &.&./ ....&.&.:.:.:.! ! ,.&...( ( ( ......&.&.&.&.&.&.&.....&.&.~ 4 R ( &... . .....&.&.%.%.%.&.&.&.&...( ~ 3.( ..( ^ ( ( ......&...:...~ :.2.0 2.:...+.+.+.+.+.>.>.+.......+...........( ! >...( :.+.+.o.o.@.@.@.V.@.V.Z.V.V.L.L.P.V.L.L.>.>.>.;.) I.I.I.I.I.I.I.I.L.L.L.L.I.I.I.I.L.>.>.L.I.L.L.L.U.P.C.#XW.C V.` V.1.1.1.1.1.@.O.@.@.D #XT.F.Y.C.C.C.V.P.P.V.V.C.b.G W.-XG $ = = F O.$ W.W.B.F.C.Y.P.P.P.U.U.U.P.U.U.U.U.U.P.P.L.P.O.` @.L.L.L.L.V.L.V.V.L.V.V.L.@.0 ^ +.+.^ @.>.@.@.' ' _ ' @.$.o.o._ _ o.@.@.#.o.o.o.' @.@.@.L.L.L.#.2 ^ +.+.+.+.+.+.+.;.;.1.;.&...( } ..;.^ =X:Xo.L.L.L.V.L.L.L.L.>.1.>.I.I.<.<.<.<.<.<.<.<.<.<.2...( 2.:.,.,.,.,.,.,.,.,.,.,.<.,.,.,.,.,.,.,.,.,.,.XX,.&.&.,.,.,.R U %.%.{ %.-.%.%.%.-.7 E %.%.%.%.",
"T U U U T T T T W E W E T T %.{ { { { { %.%.%.%.-.*.*.*.*.*.&.&.&.&.&.&.&.&.&.&.&.;.3...2 ! e ( ~  .&.,.,.:.;.;.;.;.;.:.>.>.>.>.>.>.>.>.>.<.<.<.( >.I.I.E.E.U.E.P.Z.P.F.T.e.H.).J.G.G.G.G.G.J.J.F.r.F.MXJ.6.!.:X;XG.;X:X`.f ;X!.q.~.`.`.H.G.G.T.T.T.T.T.T.H.H.H.).T.T.T.Y.n.b.b.Y.T.T.H.).).!.).).H.G.G.s H V.A.Z n.F.F.m.n.b.B.N.N.N.N.N.N.N.N.N.N.C.C.C.B.N.w.w.f.B.G.`.W.s H C D G b.C.A.G.G.F.G.Y.` ^ M N D _ p mX{.C.Y.T.b.E.P.P.E.E.L.L.I.R.R.I.I.I.+XI.I.R.R.R.R.R.M <.R.>.<.;.2.<.<.,.,.<.<. XXXXX<.<.<.<.<.<.XXXXXXXX2.<.<.2.2./ Y  ./ E E R R R R Y Y w w %./ / / / / / / / ( &.&.&.&.:.,.,.,.,.,.:.:.Y Y :.&.&.( &.&.............&.&...&.....&.&./ 4 Y ( .......... .&.&.&.&.&.&.&.&.&...( ~ 3.( ..^ ( ( ........&.......:.>...e >.2.....+.+.;.;.>.>.+...................( e ;.( ~ +.^ ^ o.$.@.@.@.@.V.L.L.@.@.$.#.@.Z.L.L.>.>.<.>.! I.I.I.I.I.I.I.I.I.I.I.I.I.I.I.I.I.I.I.I.I.I.I.I.U.U.U.#XW.N #.#.1.1.1.1.@.1.1.@.@.@.N #XW.C.C.n.Y.C.C.P.P.V.V.V.%XG G -X*XZ.m v E.Z.x W.Y.Z B.W.#XL.` O.U.P.U.C.U.U.U.U.U.U.U.L.L.O._ _ @.L.L.L.V.L.V.@.V.V.V.Z.>.2 ^ +.+.^ _ @.@.@.' ' _ ( ' o.o.o.o._ _ _ o.o.@.o._ _ _ _ @.@.>.L.#.2 M ^ ( ( +.+.+.+.;.;.;.;.../ R R ~  .! @X#X@.R.>.L.I.>.1.>.>.>.>.I.I.I.<.<.<.<.<.<.<.I.<.<.<.( ^ 2.:.:.,.,.:.,.,.,.,.<.<.<.<.,.,.,.,.,.=.,.,.,.XX X,.<.<.,.3.R U -.-.{ %.-.%.%.%.-.7 E %.%.%.%.",
"T U T T T R R R W E W E T T %.{ { { { { { { %.%.%.%.*.*.*.*.*.&.&.&.&.&.&.&.&.&.;.&.3.:.e ~ t ( &.&.:.,.,.;.&.&.;.;.;.;.:.>.>.>.#.#.#.#.>.>.>.<.( ;.:.:.1.1.;.>.o.o.O.` C.c T.%XT.T.T.H.J.J.F.B.n.w.D.mX).t.r.q.;X;X:XG.B.d F.r.~.'.{./.g.w.B.G.T.H.H.H.H.H.H.H.H.F.F.Y.Y.C.b.H M.Y.T.T.).H.H.'.&X`.G.A.p D S.A.G H b.F.F.M.b.b.N.N.b.b.N.N.N.N.V.N.` ` b.N.N.N.w.w.w.B.W.W.h ` Z.Z.A.P.E.W.W.G.G.W.W.>.( } V V ..* :X-XE.$XE.W.I.R.R.E.I.E.I.L.R.I.I.I.I.I.I.I.R.I.R.R.R.! <.R.:.2.;.2.<.<.XX<.XXXXXXXXXX X<.<.XX<.XXXXXXXXXX<.+X2.2.2./ Y / E  . ./ /  ./ ~ R Y Y &./ &./ / &.&.&.&.&.&.&.&.&. . . .( ( ~ ! Y Y e &.&.;.&.;.;.;.;.;.&.;.;.;.;.;.;.;.:.,.:./ 3 e ~ ........&.&.&.%.&.&.&.&.&.&.&...( ~ 3.( ..^ ............;.&.( :.2.;.4 ( 2.2.;.;.;.:.>.>.>.;.+.......;.........*.( 1 ^ M 0 ! M M ^ +.@.@.@.@.@.@.@.V v v n v _ _ o.+.;.2.>.! I.I.I.I.I.I.I.I.I.I.I.I.I.I.I.I.I.I.I.I.I.I.I.I.U.U.L.#XE.B >.*.*.:.:.:.1.1.@.1.+.+.N #XW.n.M.C.Y.C.C.P.V.O.' O.:XW.s b W.-XE.E.W.Z.b Y.N.b.T.`.E.#.o.O.Z.S.V.N.Z.S.V.Z.Z.V.V.@.@.@.+._ _ @.L.>.@.L.V.@.L.E.P.Z.>.2 B +.$.^ ^ _ +.+.o.' _ _ ( ( _ ( _ _ ( ^ ^ ^ o.( _ _ _ _ _ _ +.>.>.2 ^ +.+...+.+.;.+.;.+.;.&.../ R r R ~ e 2.*XL.I.;.R.>.;.R.>.>.L.I.I.I.<.<.<.<.<.<.<.<.<.<.<.2.( ~ 2.:.:.:.:.:.,.,.,.,. X X<.<.<.,.,.,.,.,.,.,.<.XXXXXX X<.,.2.R U -.%.{ -.-.%.%.%.-.7 E %.%.%.%.",
"T T U T T R E R W E W E T T %.%.[ { { { { { %.%.%.%.%.*.*.*.*.*.&.&.&.&.&.&.&.&.;...,.:.r ~ R ~ :.:.&.&.&.;.,.,.:.;.;.;.;.;.1.>.#.#.#.#.>.>.>.:.Y ~ ~ ! ! M z M M v v z N $ Y.-XT.W.).H.J.D.D.B.N.V.b.Z w.e.w.w.Z B.d.b.b.Z c n.{.'.J.r.0.G.T.Y.Y.T.H.H.H.J.J.J.F.Y.C.b.V.P.V.D D C.Y.Y.T.F.m.`.;X;XG.N.i O.S.O.A.H C b.Y.C.b.b.b.N.N.N.V.N.N.N.` N.N.V.V.N.N.N.N.N.G O.A.P.D P.O.@.Z.P.W.W.E.Y.B.Y.P.>.R  .B B ~ | Q.Q.E.$X#XL.+X+X<.$XI.E.L.E.E.E.I.I.I.I.$XI.I.I.R.I.R.! <.R.+.R.:.2.;.,.XX<.XXXXXXXXXXXX<.<.,.,.,.<.<.XXXX2.2.<.<.2./ U E w U U w w w 3 1 > > < Y 3 Y U w Y Y Y Y Y Y Y 4 e 4 w e e Y Y e e Y 3 ..&.,.,.,.,.<.<.<.3.<.3.3.3.3.2.XXXXXX,.( 1 4 ! ( ..&.&.&.&.&.&.&.&.&.&.&.&.&...( ~ 3.( ..^ ..........;.&.&.>.:.+.! 1 +X+X..<.>.>.>.<.>.;.+.+.......+.........;.( 5 M 4 1 2 2 M ^ +.1.@.+.@.1.>.@.) z v v v 2 z M M ^ >.:.! I.I.I.I.I.I.I.I.I.I.I.I.I.I.I.I.I.I.L.I.I.I.I.I.U.I.L.@X2.9 } t t R ! ! M ) ) M M ! z #XW.V.A.T.Y.C.C.V.V._ _ _ G S.O.G b Z.L.Z.#._ z O.H W.%XW.o.K $.L.L.Z.N.S.S.Z.V.Z.V.@.@.$.o.>.>.^ N ( >.>.>.L.@.o.L.#XE.>.>.0 B | #.+.^ M o.+.@.o._ _ _ +.( ^ ^ ^ ^ ..( ^ ^ ^ _ _ _ _ _ ^ ^ :.>.q +.>.>.:.>.:.:.;.;.;.+.;...} R R t R 1 >.*X^ I.I.1.1.<.<.>.>.>.>.<.>.<.I.<.<.<.<.<.<.<.<.2.2...( 2.;.:.:.:.,.,.,.,.,.<.<. XXX<.<.<.<.,.,.,.,.<.<. XXX<.,.<.XXR w %.%.{ -.-.%.%.%.-.7 E %.%.%.%.",
"T T T T T T E E E T E E T E { %.[ { { { { { { %.%.%.%.%.%.%.%.&...&.&.&.&.&.&.&.&.&.,.,.w r  ...&.:.:.;.;.;.:.:.:.;.;.;.;.;.:.>.#.#.#.#.>.>.>.:.~ 2 M n z x a a z 2 M B 2 n @.` M.%Xm.m.m.F.D.B.V.V.` ` ` w.w.G w.d.L G V.D s %X;X~.r.e.e.B.B.T.T.T.).).H.J.D.D.Y.A.V.V.P.U.V.O.D ` C.Y.Y.C.B.n.B.B.G.N.p C Q.Z.Z.V.` G C.P.N.` V.` V.V.O.O.V.` V.N.N.V.V.V.N.N.G S.N.G N.Z.N # = . $ p a ` P.W.Y.E.P.' R R ~ ~ ( 0 K.K.E.I.L.E.+X+X$X$XE.E.E.E.P.P.I.I.E.$X$X$X$XI.I.R.>.^ :.2.:.>.<.<.,.<.<.<.+XXX+X+X2.,.;.;.( ( ( ( ( <.+X<.2.2.,.oX..> E Y E E / / }  . . .&.&.&.&. .&. ./ &.&.&.&./ Y Y Y Y Y Y Y Y Y Y Y Y Y Y Y 3 Y Y 3 4 0 % 1 e 4 0 4 1 4 e 5 e ~ 1 e ! e 4 4 Y ~ R R } / / } &.*.,.,.oX*.( ..:.3.;.:.>.>.>.>.<.<.,.,.<.( 2 ! 2.2.+.<.<.2.<.:.<.<.+.>.:.:.;...........&...( 1 M ! ^ ! ( . ! +.^ >.>.+.1.+.+.+.+.>.>.>.+.v M 0 ;...~ ~ <.I.I.I.I.I.I.I.I.I.I.I.I.I.I.I.<.I.I.I.I.I.I.I.I.E.>.+X2.q 0 & & 2 % 2 5 % 4 5 o t 5 ^ @.V.W.Y.M.C.C.N._ _ o.o.F F F F _ _ _ _ ^ F b z P.#XW.V.V O._ _ Z.Z.N.A.S.V.V.N.O.@.' o.+.+.^ +.M M ^ >.@.>.@._ o.>.R.R.$.2 n >.+.+.+.M ) _ o.+.( ( ^ ^ ( ( ( ..( ( ( ( ( ^ ^ ( +.( ( ( ^ +...! e 1 1 5 5 2 +.>.<.;.>.>...( Y R e ~ q +.#Xo.o.I.>.<.I.>.>.>.>.>.<.<.<.<.<.<.<.<.<.<.<.<.<.R.( ( 2.:.&.:.*.*.,.,.,.,. X X<.<.<.<.,.&...../ &.;.,.XXXX<.,.,.2.E w [ %.%.-.%.%.%.*.E U W -.%.%.%.",
"T T T T T T T R E W E E T W { { { { { { { { { { %.%.%.%.%.%.*.*.:.:.:.:.:.&.&.&.&.&.:.,.r R *.:.&.;.;.;.;.;.:.;.;.;.;.;.;.;.1.1.>.>.>.:.>.>.>.:.) n @.G Z e.e.Z D ^ 0 1 0 2 2 N #XT.m.m.m.).B.b.D O.V.` ` b.N.G O.G O.G O.x z %X`.H.n.B.H b.n.W.Y.T.T.T.T.H.J.F.N.P.P.V.@.O.V.Z.@.F ` V.P.P.C.B.w.B.Y.S.s C Z.O.Z.Z.` G V.V.N.N.V.O.V.V.` O.V.V.V.O.V.V.V.N.O.O.O.O.` O.@._ b m b m F D x h C H C.G.V.' ! ! M n ~ n S.K.E.#XY.$X$X$X$XI.I.E.P.E.P.P.P.P.I.E.$X$XI.I.R.+XR.! :.R.:.:.:.:.,.,.XX+XXXXX+X+X+XXX<.<.<.<.<.:.&.<.+X+X2.2.<.XX/ > %.%. .%.%.%.&.%. . ./ / / &.&.&.&. .&.&.&.&./ Y Y Y Y Y Y Y Y Y Y R w Y / / / &.&.! % 0 2 4 2 o 5 0 0 e 1 ( e o ! 1 o 1 ! ! e e Y / Y r w w Y Y Y / Y Y Y e ~ ( ! ( ! ! ! ~ ~ ~ / / e ! ^ ;.R.+.0 ! M ! ! M ^ ~ M ^ ^ ( ( ( } } } } R R R e ..:.2.<.@X>.5 ^ R.+.( >.+.+.( ......+.+.R.R.>.5 1 r Y e <.<.I.I.I.I.I.<.<.<.<.<.<.<.I.I.I.I.I.I.I.I.I.I.I.>.>.+X<.5 V b z D D D n M ! 1 q 9 5 0 o.E.P.N.M.Y.b.` V._ n ^ V F ^ ^ ^ ^ ^ ^ _ ^ v z L.W.P._ ^ ^ N _ P.E.P.P.A.V.V.@.@.@.+.( +.+.^ +...+.^ ^ >.>.+.$.o.o.o.$.>.0 2 | ^ ^ o.N ^ _ +.+.^ ^ ^ ^ ..........( ( ^ ^ ^ ^ ( ( ^ ^ ^ ^ ..B 2 1 2 2 e ! 2 0 2 +.>.>.^ ~ ! e R q B 0 o.#.L.L.L.I.;.;.R.<.I.I.I.<.I.I.I.<.<.<.<.<.<.<.<.<.2...( 2.;.&.2.*.*.,.,.,.,. XXXXX X<.,.;.&.&.&.&./ / :.<.,.,.XX,.3.R w %.-.%.{ %.%.-.*.E U T -.%.%.%.",
"E E E E E E E E [ E E E W E { { E [ [ [ { E E E %.%.%.%.%.%.%.%.&.&.&.&.&.&.&.&.&.&.:.:.w ~ &.&.;.;.;.;.;.:.;...;.;.;.;.;.;.;.:.,.<.<.,.<.<.<.@.x C.NXbXxX(.(.xX:X*X^ 1 t q 1 v %XF.m.!.m.).H.r.S.` F ` ` ` ` ` O.F O.o.O.N M *X#X#XP.P.L.L.L.#X#X#X#XW.Y.P.A.Z.P.L.L.L.L.P.P.Z.Q.O.Z.P.P.W.P.P.Y.G.G.N.s D E.E.W.#XE.P.Z.Z.V.V.V.O.V.@.V.@.V.V.V.O.O.V.L.V.@.O.Z.O.O.#.$.n n $.@XE.E.E.E.A.D d i f c x M ^ F D ) x }.J.W.$XU.Y.$X$X$X$XE.E.I.I.I.I.P.P.I.$X$X$XI.R.R.+X+X! +.@X3.3.2.2.<.<.,.,.XXXXXX<.XX@X@X+X@X@X@X@XXX<.2.<.<.2.XXoX/ 3 / / Y Y R E R R r 3 Y 3 Y / &.&./ / &.&.&.&./ / Y Y Y Y Y Y U U U U Y R  .&.&.=.&.! ^ @X=X@XR.+.^ M M 5 1 4 4 e e ! +X@X@X2...e w r Y Y Y Y Y R ( ../  .~ e e ! ! ^ ^ ^ ~ ! ~ ! ! ! e ~ ! e ! 4 4 ~ e e 4 e 4 2 2 e 1 1 4 4 4 4 3 1 e e e w ..&.:...R.*X^ 5 +.;.+.+.;.+.+...........+.>.R.M e Y Y Y <.<.I.I.I.I.I.<.<.<.<.<.<.<.<.I.<.<.<.<.I.$XI.<.>.:.2.+XR.x W.NX%X`.T.Y.#X*X:.> 1 o 0 2 $.*XZ.V.N.Y.C.` ` _ B ^ ^ ^ ^ ^ ^ ^ ^ ^ ^ ^ M v I.E.L.' ( ^ ) o.L.L.L.L.L.L.@.' ;.;.:.;.( $.+.+...:.^ ^ >.$.$.>.#.o.o.#.#.v n #.>.L.E.@._ +.+.( ^ ......( ( ( ^ ^ ^ ^ ^ ^ ( ........( ^ ..+.! e ( +.+.:...;.:.2 % % z 4 4 0 0 B n B v o.P.L.@.@.I.+XI.<.>.>.>.>.>.>.<.<.<.<.<.<.<.<.<.<.2.2.( ..2.:.*.,.*.*.,.,.,.3.XXXX+XXX<.XX X2.2.XXXX*.&.XX@XXX<.<.<.3.E U %.-.-.-.-.=.=.-.E , U E -.-.-.",
"T T T E E E E E [ E E E U W { { { [ { { [ E E E E E / %.%.%.%.%.&.&.&.&.*.:.:.:.*.&.;.&.w ~ &.&.;.;.;.;.:.:.;.( ;.;.;.;.;.;.:.,.,. X X X<.XX<.L.x w.`.cXcX9Xc.x.`.` b n 9 9 n 2 n.%XT.).).).;Xe.B.G G ` ` ' ' ` ` F O._ @.^ M R.L.@.( _ _ _ _ _ _ _ ` _ D D N N N * z N D D x x b a D N z _ m F C C G C p s G D a b b v x z z b x N N N N N N N N z z N N N N N b N m v z * 2 n * n b F ` C D B.B.F.T.W.#X#X-X-X#Xx bX;XY.#XW.Y.I.$X$XE.E.E.I.E.I.I.I.P.I.E.$X$XE.$XI.R.R.M ..=X:.:.,.,.<.<.<.XX+X+X2.,.<.@X@X+XXX,.;.;...;.XX@X+X+XXXXX/ Y / Y Y Y Y Y R R w 1 3 3 w /  ./ E / &.&.&.&.&./ ~ Y Y Y Y Y U U U U  . .&.&.&.&.&.! M *X*X@X*X=X+X! o ..:.5 1 e e =X=X#X@X<.;.( Y r Y Y R R Y ~ ..&.&...Y R +.:.<.>.:.:.;...........( ..( ~ ( ..( ( ..( ( ( ! 4 ~ ( ( ( ( ( ( ~ ~ ~ e w e w &.:.:.....R.=X^ 5 ;.:...................^ +.R.3.,...e ! <.<.<.I.I.<.<.<.:.,.<.<.XX+X<.<.;.;.:.<.I.$XI.<.2.R.<.<.E.x M.NXNX&X!.r.b.Z.B & ! 2 M & n E.V.A.C.C.W.Y.C D #.V ^ ^ ^ ^ ^ ^ ^ ^ ^ ^ ! M >.>.1.+.>.:.>.R.<.>.>.>.>.1.;.;.&.&.&.&...:...^ ^ ^ | +.o.+.o.#.@.@.@.#.o.z n $.@.$.$.^ ^ ^ ^ ! ! ~ ! ! ^ ....^ ^ ^ ^ ~ ! ~ ^ ^ ~ ^ ~ ! 0 ! e 1 ( ..^ ..( ....! +.( >.;.>.>.>.R.>.R.$.Z.>XZ.O.E.@.1.I.:.>.>.<.<.<.<.<.I.<.<.<.<.<.<.<.<.2.2.~ ~ ,.2.,.&.*.*.,.,.,.,.,.,.,.,.,.XXXX,.,.*.,.&.&.&. X+XXX,.,.,.E U W W { [ %.%.%.{ T , , U , , , ",
", , , 7 U U U U T U U U 7 U { %.{ { %.%.%.[ E E E E E { %.%.-.*.*.*.&.&.*.*.*.&.:.*.:.*.w } :.&.;.:.;.;.,.,.:.&.;.;.;.;.:.:.:.,.<. X X X X XI.V._ C.J.~.uXvXiXc.f i s b a * n a h %X`.).).!.xX'.f 0.B.b.` ` ' ` ` _ O.F O._ 5 z 5 2 z 2 2 * v b s s s s s a a a b 2 N z $ i i a a $ $ b z v . b a i d d d d s i a x a p z z z z z z 2 5 z z 5 2 2 5 5 2 2 2 5 2 = z z = 2 v z 2 z n z b b a A.:X;X;X-X%X#X*X%X%X#Xi cXDXw.U.W.W.I.E.E.E.E.I.I.I.E.E.E.E.$X$XE.E.$X$XI.R.R.M ~ 3.XX2.,.:.;.,. XXX<.<.,.&.;.2.XX<.:.( ~ ! Y ! / ( +X+X+X2./ Y / / E E R R / / R R Y Y R / / R /  .&.&.&.&.&.&./ Y w U U Y Y E / / %.%.&.&.&.&.&.~ 2 R.#.v +.R.$.2 ^ =X<.^ ~ 4 :.=X+.( ~ ^ ....( R R R Y Y e Y / .. ./ e ..2.:.;...............&.&...&.&.&.:.,.;...;...;.;.! ! <.<.;.&.&....... . .R r r e ;.:.:.....^ @XR.e M ( +.( ( ..........( +.( +.,.2.&.Y ~ <.<.<.<.<.<.<.<...( ..;.<.<.:...( ;.1.<.<.<.<.I.<.<.>.#XI.) c F.xXxXxX!.w.h # v * 2 2 * n #.P.P.Y.n.`.%Xb.D ` V ^ ^ ^ ^ ^ ^ ^ ^ ! ^ ! 4 ^ ^ V ^ R r t t 0 0 0 0 & 9 q r r 7 7 , q & % % * * 2 5 5 5 = % % % $ % * # # * = % 5 5 2 2 5 % % 5 5 o o 5 5 5 5 5 5 % o 5 5 % o % 5 5 % 2 1 % 5 1 5 5 e 5 % ^ *X#X#X@X@X+XR.R.>.L.V _ mXE._ E.R.>.<.<.>.>.>.>.<.<.<.<.<.<.<.<.<.<.<.<.2.2.( Y ..,.2.*.*.*.,.,.,.,.,.,.;.;.;.,.,.*. ./ / / Y Y Y &.<.XX2.,.Y , 7 , U , , , , , , < < , , , , ",
"R T U U U U 7 , U , 7 7 7 W %.-.[ { { { E E E E E E E E { { %.-. .%.*.=.,.,.*.*.*.*.*.&.4 ( :.;.;.;.;.:.,.<.<.,.:.:.:.:.:.:.:.1.1.<.<.<.<.<.<.@.x P.G.D.~.(.iXcX'.).r.f C b a b s N.`.H.!.!.).cX/.t.8.w.b.` ` O._ O.O.D @.` % z z z z * b h k f l f f f f d p i a = b a D -X:X-X:XW.$ = * 2 0 #X:X;X-X-X-X;X;X-X%X#XE.V.@.@._ o.' _ z 2 M N M ^ M 0 0 ! ! 0 2 2 ^ ^ V V o._ n 2 z z = b b a P.:XA.C.C.M.@.@.V.V.` i h.DX>XE.Z.P.E.E.E.E.E.E.I.I.E.E.E.E.$X$X$X$XI.$X$X+X+X! e ( 2.XXoXoX+XXXXXXX+X+XXX<.XX@X@X+X+XXX+X@X+X,...Y ..<.@X+X/ Y / %.R Y U Y R R R R / / / / / Y / %.&.&.&.&.&.&.../ Y R E  . .%.&.&.%.%.&.&.&.&.&.! ^ E.+.v V n 0 M =X2...;.;.;.:.;.+.( +...&...~ r R R R R Y / ( &.&...Y ;.>.~ ~ ( ( ( ( ( ......&.......( ~ ( ;.;.......;.4 ! +X:.! Y e e e e r r R R Y r &.&.&...+.+.^ R.2.! +.:.,.:.:.,.,.,.,.:.+...( ..:.,.R Y <.<.<.<.<.<.<.<...( ( ;.<.<.:.( ;.:.<.$X<.<.<.I.>.@.@X:X( ' ` G F.`.;X;X;XK.D n z v * 2 m _ E.Y.Y.F.F.%X%XN.x F ^ ^ ^ ^ ^ ^ ^ ^ ^ ( ! % M 2 2 * 0 0 * = = a * $ * * & & 9 9 w t M 2 $.E.L.@.E.L.E.E.E.E.P.E.E.E.E.L.E.E.L.@.@.o._ ^ ^ ! ( ( ! e 1 e r e e r e 1 e ! M e 4 e ! ! M ! ! 0 1 e e e ! 0 2 +.#X+.1.<.:.;.( ....+.2 * *X-XE._ 1.I.:.;.>.>.>.>.<.<.<.<.<.<.<.<.<.<.<.<.:.+X..e Y ..3.3.3.3..X.XXXXXXXXXXXXXXXoXoXXXXXXXXX.X3.3.&./ ;.@X+X,.U U T W { T { { / { %.%.%.%.%.%.%.",
"%.%. .[  .[ E T U 7 U U 7 W %.%.%.%.%.%.{ [ E E E E E { { %.%.%.*.=.,.,.=.=.,.3.:.,.,.*.4 ( :.:.;.:.,.,.<.<.<.<.>.<.>.>.<.>.<.>.@.L.L.>.<.<.,.;.^ R.P.Y.F.e.J./.;XxXxXxXNX;XS.s b s W.F.J.~.p.9XcX/.q.e.n.` ' ` ` O.O.F V.` a V.W.B.B.`.cXmXMXMXnXnXnXnXbXbXbXbXW.N b p D -X%XY.W.-Xx b V n & V W.T.W.`.`.).T.F.T.Y.V.` O.@.@.@.+...4 5 ! ^ ! ^ 0 4 0 ~ ( 0 1 2 o.@.o.o.@.o.M 2 R.*XW.W.F p Z.*XG G O.@.>.>.P.P.Z.A d }.UX>XZ.O.P.P.E.E.E.E.R.R.$X$X$X$X$X$X$X$X$X$X$X$XR.M M e R ( :.2.oXoXXXXXoXXXXXXXXX+X+X+X@X@X@X@X@X=X=X@X4 ~ XX2.~ Y E E E E R R R R R ~ / / / R Y R / / / &.&.&.&.&.../ / %.%.*.%.%.&.&.%.%.*.*.&.&.%.Y M L.$.V ^ M ^ R.R.! :.+.^ ;.^ +.( +.+.;.&.} ~ r R R R E ( ....&...&.e ..:.( ;.;.+.+.+.+.....&.......;.:.;.............;.4 ! +X~ ! Y Y Y Y Y Y Y r w Y Y :.:.,.:.+.>.^ +.2.;.:.;.:.;.&.*.*.*.*.&.:.>.;.;.*.3.Y 4 <.<.XXXXXXXX<.<.,.,.,.,.2.XX<.,.<.<.<.<.<.<.<.I.U.#X=X@Xw e B m P d.g.J.;X:X-X#X#X#X@.n * a N.W.Y.H.m.T.;XW.G ` V V V ^ ^ ^ ^ ^ ^ | ! & B n n z C B.B.e.h.D.h.h.D.f.0.G H C b a z v #X*XL.L.-X#XP.P.W.#X#XW.W.W.#X*X*X#XE.@.o._ _ ^ ^ ^ ( ( ! q 4 Y R Y Y Y e 1 Y ! e 1 1 e ~ ( ^ ~ ..~ 2 M +...:.^ 2 +.*X@.' ( ;.;.( ....;.n N @.>X>XL.' <.<.+X<.<.I.I.I.$X+X+XXXXX$XXXI.I.2.2.<.3...Y e Y &.*.*.*.=.=.,.,.,.,.,.,.,.2.XXXXoXoXoXoX@X=X3./ / :.,...Y T [ { =.-.%.%.%.%.-.%.%.{ %.%.%.",
"W T E E %.-.-.%.U 7 U U U U E E =.=.=.*.-.-.-.-.%.%.%.%.-.-.-.-.=.*.*. .R R /  .XX2.XX3.Y ..,.:.,.<.<.,.:.>.<.>.<.>.>.>.>.>.<.>.L.P.L.L.<.<.<.:.e R.R.L.Z.N.B.e.e.q.J.J.J.`.:X-XC h G.G.H.!.~.t.'.xX{.m.H n.V._ ` N.O.D S.D a W.-XH.D.h.`./.{.'.uX9X9XuXuXxXxX;X:XO.D x C C.b.H H :XH i z ^ v b A.B.w.r.r.r.w.b.H ` _ _ @.@.@.o.+...4 2 ....! ! 2 1 e ( ^ e e 0 n @.@.o.$.@.^ 2 M ^ v N = a W.#XO.#.Z.L.>.$.O.L g s f f L E.h N.S.C.A.A.A.P.P.E.E.E.$X$X$X$X$X$X$X$X@XR.:.0 ! e r e e Y Y Y ! ! e e e e Y e e Y Y Y ~ Y Y / / ! e e ( Y > w E R Y R Y Y Y Y R R ~ ~ R Y Y / / / / &.&.&.&.&./ / / / %.&.&.&.%.%.%.%.&.%.%.*.&.( B R.$.v M M +.@X^ >.( ^ +...&.( +.( ( ......( R } } %.&.&.&.&... .*.Y ..:.( ..M ^ ( ..+.+.+.....:.( ( ......;.........;.e ( @Xe e r Y Y Y Y e e Y e e w ( M M e ~ ! ..M 2 e 1 e 4 1 1 1 3 4 w 3 2 0 e ( ( ..Y / XX<.XX$XXXXX2.2.+X+X+X+XR.R.R.+X+XR.<.<.<.2.$XI.E.-XE.0 ( ..0 n K Q.d.k Z w.A.W.W.*X-X#Xo.x F Y.C.Y.F.C.T.-X-XO.V V V ^ ^ ^ ^ ^ ^ _ ^ 2 +.L.>.O.B.cXmXbXbXbXbXmXmXbXbXNXNX-XN.a N 2 R.R.) ' *XL._ ) ` E.P.` D _ F V ^ ^ ^ _ o.o.^ ( ^ ^ ....! e w Y ~ R Y Y 4 % ~ ~ ! 4 1 Y ( ..+.! ..^ 1 M ;...^ ! % ..*X+.^ ^ / / ! ! v V = a i b b x N ^ ^ ( _ _ _ @.@.>.>.<.I.I.I.I.I.R.R.2.2.:.! ! ! e r e e e e Y Y Y Y Y Y e Y Y Y r Y R Y R R R R R Y e Y Y U U , 7 { %.{ %.%.-.%.%.%.-.{ { { ",
"Q W Q W W E E E Q Q U 3 U U U , R E / E E } / R R R Y R E / E R R Y w 1 4 e e 1 ~ ! Y w 4 w e 4 3 4 e 1 4 e ! 2 M 4 4 4 M M M M v v v 0 e e e 3 4 e M M N V.V.N.N.H b.B.r.B.-X-Xb.d C.Y.C.Y.F.F.r.H.`.`.C.` ` V.V.D V.` N.N.d W.`.e.B.N.N.G w.G w.w.w.w.w.w.w.G b.C.#Xx b V.V.V.b.%X%X` $ x N p V.B.S.N.b.` ` _ ` _ _ o.$.@._ o.$.| 2 0 ..^ M 0 0 0 0 M ~ q 2 M v o.$.o.O.o.N 2 2 2 2 2 z a A.*X#.$.E.O.A $ $ l S d l l f d f f d f d d d j p j a = n V V n $.n $.| 0 ! M 2 M e 1 4 e Y e e 4 e 4 e e e Y e Y ! ! 4 1 e e e 4 4 e 1 1 e R R Y 3 Y R Y Y / / Y Y Y Y Y Y ~ ~ ( ..&...&.&.&.&.&./ / ..&.&.&.&.&.&.&. .%.&.%.*.&.~ e R.^ B 0 ^ *X+.....+.....&.&.&.&.( &.( &...R / ......&...........&.r &.;.( ( ( ( +.+.( ( ..+.+.................( ;...;.Y ~ 2.Y R Y r e Y Y 4 ! M 4 ! M e M 0 0 4 1 e 4 o 1 e e w w w 4 3 3 w w 1 5 1 1 1 4 4 4 4 ;.! 4 ^ 0 2 ..M ~ ^ +.V N o.z z N z z 5 ) M ) z x # v n V 2 2 = _ P.` O.` @._ _ F _ W.E.b N L.P.C.V.` ` L.#X*XE.o.V ^ _ ^ ^ ^ ^ ( ^ z L.L.' O.` ` ` b.N.N.N.N.S.A.S.V.V.O.` @.! M ;.( +.+.;.+.+.+.+.+.o.+.o.o.( ( ^ ^ ^ ^ ^ ^ ^ ^ ^ ..^ ^ ^ 4 4 ~ ( R e 4 1 4 e e M 5 4 e ( ( ( ^ _ M 2 e 1 1 1 1 9 ~ @X+.+.;.+.| v v m C S k k d k h h b b h d d p p j = * 0 4 M M ( z n n b ^ ^ ~ ! M e 0 e e Y Y r Y e e Y e w w q Y Y e w w w w e e r Y Y r R R R R U E %.%.%.%.{ %.%.%.%.%.%.%.",
"Q Q W Q Q W E E , , 3 3 3 U U U 3 w w 1 1 3 3 1 w w w w w 3 w w r w e r r r r e e e e e e e Y Y Y e Y e ! 5 2 M ^ N M M ! ! ^ ! ^ ^ ^ ^ ~ ~ Y Y 4 Y ! M 5 ^ @.#.$.#.O.V.b.n.%X%XZ d C.T.C.Y.U.C.n.b.w.b.b.N.` D O.` V.` N.C.d W.`.B.C.C.S.V.Z.V.V.V.V.V.V.V.V.N.n.Y.#Xx N V.O.@.` #X-XW.P.P.P.N.A.V.V.N.O.O._ _ _ ^ _ o.@.@.o.o.o.| 2 0 ..^ M 0 2 2 2 0 B M 2 2 z o.O.` O.@.N 2 4 2 2 2 z a A.*Xo.>.#.N.$ S.IXDXDXDXIXDXDXDXGXDXDXmXbXDXDXDXDXmXmXDX:Xo.o.V V V ^ | >.=X:X:X:X=X=X=X+X3.;.&.3.+X@X@X@X+X+X+XR.XX2.:.:.2.@X+X+X+X=X@X@X@X@X@XXX2.e R Y Y E / Y Y Y Y Y ! ~ ( ....&...&.&.&.&.&./ / ( &.&.&.&.&.%.&. .%.&.%.*.%.R 1 :.! e 4 =X>.+.....&.&.&.&.&.&.&...&.( &...R ( &...&.&.........} ..r &.;.( ( ( +.+.;.>.;...( ..................( ;...;.Y ~ 2.Y R Y Y r r Y 0 ( =X+X@X@X+X@X+X+X@X=X2.XX=X:.1 ~ :.:.,.,.,.3..XXXXX+X+X+X@X@X@X=X=X=X~ ! =X=X>.o >.=X..M *XW.#.*X>X-X:X:X:X:X;.( #X-X>XE.L.:X:X*XL.N ) _ >._ ' o._ o.o.E.W.b z L.V.V.U.V.@._ ' @.>.( ^ ^ _ ^ ^ ^ ^ o._ z L.L.' @.@.@.@.@.O.O.O.O.F o._ _ o.o.@.>.! Y ;.( ....;.+.+.+.+.+.+.+.+.+.( ( ^ ^ ~ ~ ! ! ! ^ ^ ( ^ ~ ^ 1 4 ~ ( Y e 4 1 4 0 e M 1 4 4 ~ ^ _ ^ +.B 2 e 1 1 9 1 9 ~ @X;.;.:.>.# * >XmXmXmXDXDXmXmXmXmXmXmXmXMXMXmXmXDXmX>XR.+.+X) % v #X*X*X>X>X:X=X=X=X@X@X+X:.....XX=XoX2.@X+X2.2.2.3.:.&.2.2.2.XXXXXXoX+XoX2.3.3.=. .E E %.%.{ { { %.%.{ %.%.%.",
"W W W W Q W E E Q %.-.=.-.=.=.=.3..X3.3.,.3.3.3.,.,.3.,.,.,.3.3.3.:.,.3.2.,.,.2.,.3.2.2.2.XXXXXX+XXX+X@X@X! M 2.*X=X@X#X@X=X=X=XR.R.2.2.2.,.,.,.+X+X@XR.2 v ' O._ Z.` C.C.F.%X%Xd f C.F.C.Y.M.M.B.w.H D G ` ` ` ` O.O._ Z.L.p W.`.b.B.N.V.O.V.V.U.V.V.V.N.N.N.V.b.Y.#Xx b V.@.O.` V.P.P.P.Z.V.V.V.V.V.V.@.O._ _ _ ^ _ ' @.@._ o.+.^ 2 0 ..! q 0 2 0 2 0 ! ^ M M z _ @.` O.@.N 2 4 2 2 2 z a S.#X#.>.o.O.$ >XIX}.A Q.:XDXIXbX}.K.DXS.S DXIXK.P L O.mX>X! +.! >.>X2.:.| ;.:.;.:.........( ~ / &.2.2.2.,.,.,.:.;.&./ ~ ~ ..&.&.&.&............. .( w Y Y Y Y R Y R Y Y Y ~ ( ( ..&.&...&.&.&.&.&./ / ( &.&.&.&.&.%.&. .%.%.%.*.&.~ e 0 M 2 >.=X^ ......&.&.&.&.&.&.&.( &.( &...R ( ..&.....&...&.&.( ..r &.;.( ( +.+.;.;.;.;...................+.+...;...;.! ~ 3.Y Y Y R r r e ! :.<.( ( ^ ~ ( ^ ( ~ &.Y &.=X+Xw } ( ( ( ( / /  . .....} } ........( ,...~ :.@X2.e =X>X2.+.*XE.o.E.UX#X@.R.>X>X<.M R.*X:XE.*X=X@X*X*X) z _ >._ ' @._ O.O.W.W.x a V.V.V.V.O.` _ ) _ _ _ ^ ^ ^ ^ ^ ^ _ @.' z L.I.' @.@.@.+.o.o.o._ o._ o._ _ o.o.@.I.! e +.( ....;.;.+.+.+.;.;.+.;.;.( ( ( ( ~ ~ ~ ~ ~ ( ~ ( ( ~ ^ 4 e ( / r w 3 1 w e e ! e 0 4 ! ^ _ ^ +.B 2 e 9 9 w 1 1 R @X..;.;.+.* Q.DXQ.h A K.}.UXmXA L :X>XF Q.DXmXS.#.$.[...:.=X;.M =XmX*X#.| ........( ^ ( &.} Y R *.3.,.*.&.&. . .} } R Y  . . . .%.%.%.%.*.&.*.=.=.*./ E %.{ { { { { { { { { %.",
"Q Q Q Q W W E E , T E / E E E E Y R Y Y Y Y R R R R Y R /  . .}  ./ / / / R Y Y / ~ / ~ / ~ ~ Y / / ( ,.@Xe 0 +X+.+.^ ^ ^ ( ( ( ( ~ ! ! ~ R / / Y Y ;.<.2 z L.Z._ A.b.C.C.H.;X).f r.F.F.F.F.n.M.b.N.N.N.` G ` V.` ` ` O.P.V.$ W.%Xn.C.V.V.@.V.V.V.V.n.N.N.N.N.N.b.Y.W.h h V.@.O.U.` ` ` O.` ` V.V.V.V.V.V.V.' _ ^ _ _ ' ' ' ' o.+.^ 2 n ..! 0 1 0 q 0 2 ~ ..^ V z _ @.` O.O.V 2 z 4 2 2 z * V.#X:.2.L.o.# mXmXi d.p m P mXl i h P m h :XDXS.L K o.| ..( ..( >.;.:...! } ......( ( ( ....( / &.&.&.....} ....( ~ / / (  .&.&./ /  . . ...&.&.&.&.w Y Y w Y Y Y ~ Y Y Y Y ~ ( ....&...&.&.&.;.&./ / ( &.&.&.&.&.%.&. .&.%.%.*.&.~ e 2 4 ..=X+.( ......&.&.&.&.&.&.&.( &.( &...~ ( ........&.&.&.......r &.;.....;.;.;.( ~ ( ;.:.................+...;...;.! ~ 3.e R r R r r r Y <.3.( ( ( / / / ( ../ / ..,.2...w } ....&.%.%.%. .} } } } / / / E U / / / R R ..} 1 e ! ^ ^ +.#.#.>XR.+.! ^ ;.! :.M +.B @X=X+.2 o.*X_ N o.+._ @.o.` _ V.W.P.x x V.` ` ` ` ` ` ' ' ^ _ ^ ^ ^ ^ ^ ^ _ @.o.z >.I.@.o.+.+.+.+.+.o.o.o.@.@.' ' +.( +.I.^ M +.......+...+.+.+.+.;.;.+.......( ( ~ ~ ~ ! ( ( ~ ( ( ( ( 4 e ( / w 4 3 1 1 4 e ^ ! ! 4 ~ ..+.^ +.B 2 e 9 9 w 1 1 e @X..;.;.>.# R.mXV K F g h *XE.g v o.V b p mXmX: J t X.} 3 <.( Y +X=X| n ......} ..( ( ( Y R / E  . . .*. . . . . . ./ E  . . . .%.%.%.%./ /  .*.=.*.E T %.{ { { { { { { { { { ",
"Q E E E E E E E 3 T E { E E E E E E E E E R R E U Y Y Y U Y R R E / E U U E E Y &. ./ / / / / / Y Y / &.@X! e @X............( ( ( ~ / / / / / / ( / <.@XM z #.O.V.A.b.M.n.).;Xm.n.H.).F.F.m.m.m.n.b.b.b.b.b.b.H ` ` b.P.E.` $ W.%XN.C.V.Z.@.Z.V.V.V.N.N.N.N.N.N.b.G.W.h b V.O.@.@.` ` V.V.@.$.V.V.V.V.V.L.L.@.' _ ' ' ' ' ' ' ' +.^ 2 M +.! e 0 1 e 1 5 M +.| V z _ O.` O.O.V 2 z 4 4 2 z * V.#X+.:.R.V $ DX>XP P o.V K #.>XO.O.V $.V *XIXO.v $.B ..}  .:.Y ..2.:.....&...} ~ ~ &.../ / / E / %.*.&.&.&.&.&.&.%./ E /  .&.%.] ] &.&.&.&.&.&.&.&.Y R R Y Y Y Y R R Y Y Y ~ / / ..&...&.&.&.&.;.( / &.&.&.&.&.&.&.&. .&.&.&.&.&.~ e M 0 @X2.^ ..;.....&.&.&.&.&.&.&...&.( &...R ( ....&.&.............e *.:...;.:.,...! ! ( ;.;...............+.+.( +.+.;.! ~ <.e R r R r Y r Y :.2./ / / / &./  . .E %.....@X=XXXY R /  .%.%.] / } }  . . . .%.%.=./ R %.%./ &. ./ &.&.......+.R.>X2.( ..;./ ! / ^ ^ 2.=X;.^ +.^ #X+.^ 1._ _ o._ O.D P.#XV.D ` V.` ` ` ` ` ` _ N ^ _ _ ^ ^ ^ ..| +.>.+.2 >.R.o.+.+.+.+.+.;.+.+.+.( ( ( ' ;.' ;.I.^ e ..............+.;.;.&.&.&.( ;.;.&.( / ~ ! ! ( ( / ( ( ( ( 3 r } ~ w 1 9 1 1 1 r ..( ! 2 ! ..+.^ +.B 2 e 9 9 w w 1 e +X..;.;.>.. *XmXn n $.o.V 0 =XE.B | B V m *X>X| X. .} R *.*./ / <.:...*.} }  .( ( / R R / %./  .*.*.%.%.%. . . ./ / E E %.%.%.%.%. .{ / %.%.*.*.=.*.%.E %.%.{ { { %.{ { { { { ",
"E E E E E E E E 3 T E / /  . . .E R R R Y Y U U Y %.*. .U 3 Y E R / / U Y %.*./ Y Y Y Y R / / / ] ../ &.+X! 4 <.( ( ( ..../ ( ~  . . . ./ / /  ./ Y ( +XM z >.@.Z.V.C.n.n.`.;Xn.).`.`.T.T.m.m.n.b.w.H G b.b.n.` b.b.V.W.P.D $ E.#XN.A.Z.L.#.L.Z.V.V.N.N.C.V.N.N.b.G.W.b b Z.@.@.' ' @.@.O.@.@.@.L.L.@.L.L.@.' ) _ ' ' ' ' ' ` _ +.^ 5 0 ..! 0 0 1 0 5 5 M ....^ z _ O.O.O.O.N 2 z 4 4 4 z * @.#X>.&.+.@.= mX:Xv $.$.>.| ^ R.*Xv ^ :.B | UX*X| | :...*.&...~ ,.:.:.~  . .( &.*.3.&./ / / %.%.&.*.%. . . .%.%./ / / / / %.%.*.%.%.%. ./ / / &.&.&.Y / / Y Y e Y Y R R Y R ~ ( ....&...&.&.&.&.&./ / ] &.&.&.&.&.&.&...&.&.&.&.&.~ 1 e 2.2...( ..;.....&.&.&.&.&.&.&...&.( &...R ( ..&...&.....&.....X.e ;.>.;.:.:.<.! 4 ..,.&.( &.................( +.+.;.! ~ <.e ! r R R R Y Y &.,./ / /  .%./ %./ / / / / &.XX+XY R / %.%.%.{ /  .[ [ [ [ [ E  .E E E %./ E *.*.E / / R } ..( 2.:X:.( &.,./ / Y ..( =X2.! ( ;.^ @X( M +.+.( _ o.O.D W.W.` V.P.P.V.V.` ` _ _ _ _ _ _ _ ^ ^ ^ ..+.+.+.^ 2 >.R.o.+.;.;.;.;...+.( ( ( ( ( ;.@.( ;.I.^ e ....+...........;.;.&.&.] ] ;.;.&.( / ~ ~ / ( ( ~ / / / / 1 r } ~ 4 1 w 1 1 1 e ( ^ ^ 2 ! ..+.^ ..B 1 e 1 9 w w 1 e +X..;.;.>.. =X>XM ~ X.! :.B *.=X4.& q ^ n *X>X} R [ [ =.-.E Y / XXXX&.Y } }  . .%.%.%.%.E E R T [ { [ %.%.%.%.%.%.%.%.{ %.%.%.-.%.%.%.%.Q E  .%.*.*.%.E %.{ E E { %.%.{ { { { ",
"Q W E E E E E E , T E E Y R E  . .E E E E T U Y U %.*. .U w Y E Q / / Y U E %.%.E Y Y E ] ] ] %./ Y ! ( XX~ ! 2.( ( ( ( ( / / / E E E E E E E E &.( ( +X! 2 #.$.O.O.N.b.T.%XT.Y.`.`.`.W.T.T.F.n.` O.O.` ` ` ` V.` @.P.E._ v * E.-XV.L.Z.L.#.L.L.@.V.N.V.V.V.N.N.b.A.W.h b V.@.O.V.@.@.' ' @.@.>.@.@.@.@.1.@.' _ ) ' @.o.' _ ` ' +.^ 5 0 ..! 2 2 2 0 2 2 ! ( ( +.z _ @.O.O.O.N 2 4 4 4 4 M * $.E.>.:.>.>.# :X*XV o.| ! ;.;.M =X+X} } ..t >.| ^ ..! *.[ R &.~ ..3.:.~ &.&. .%./ / %.%.%.%.%.E E E %.%.%.%.&.%.%.%.%.%.{ { { %.{ / { / / %.%.*.*.=.Y / / / R Y Y Y R R ~ ~ (  ...&.&...&.&.&.&.&./ ( ..&.&...&.&...&.....&...&.&.~ 1 ! =X( ;.....&.....&.&.....&.&.&...&.( &...R ( ..&.&.&.............0 :.2.:.;.....e e &.,.:.&.&.............+.+.( +.+.;.! ~ <.e ~ r R R Y r Y *.XX/ / %.%.%.{ %./ / / %.*. .=.=XE / /  .{ { { E %.%.%.[ [ E E E { -.E /  . .%.E E E %.%. ...( &.>X&./ / E U U Q  ...oX/ ....! ^ @X+.M +.+.+.^ $.O.O.#XE.V.P.P.P.P.L.O._ _ _ _ @._ ^ ^ _ ^ ^ ^ +.:.+.M 2 >.>.+.+.+.;...+.......( ;.;.+.;.;.' ( <.^ 0 ....+.( ........&.&.&.] ] ] ] &.&.( / / / ( ( ( ! / / / / 1 e ( ~ w 1 w w 1 1 2 ( | ^ 0 ! ..+.^ ^ M 1 9 9 9 9 9 1 0 +X..+.+.+.= =X=XY &. . .U =.R oX=X~ ..( 9 R.=XR  .-.E { E %.&./ ,.&.&.} %. . . . .E E E E %.{ E { { %.-.[ [ { { { { %.%.{ { %.%.%.{ { { %.%.%.-.*.-.E U %.{ E E [ [ %.{ { { { ",
"W Q W W E E E E U Q E Y w 3 Y E  .E R R R Y Y E R  .%. ./ %.%./ E / { E U 3 Y { E Y Y E ] / / / / Y Y &.XX! e <.( ( ( / / / / E E E E / / / / E / ~ / +X~ 2 +.$.$.@.V.` #X#Xb.W.#XW.#X%X%X`.`.G.G G G F G G G ` ` V.E.L.v * 0 >.#X` _ V ^ V ^ _ $.V.V.V.V.V.V.N.w.A.W.x x O._ _ ` _ ' ' @.o.+.+.+.+.+.+.@.+.' ( ' @.L.@.@.@.@.@.>.+.4 ! +.! 2 2 2 4 2 2 ! ( ( +.z ` @.O.O.O.N 2 4 4 4 4 0 2 $.E.+.;.>._ = >XE.V o.| 2.Y &.&.~ +X&.Y +X3.2 ..X.} &.R %.*. .Y >.<.,.E  . .%.=.%.*.%.%.%.%.E E %.*./  .%.%. . .{ %.{ %.%.{ %.%.-.%.{ { / { %.%.*.&.w /  ./ ~ Y e Y Y R / ..&.&.&.&.&...&.&.&.&.&./ ( ..&.&...&.&...&. ...&...&.&.~ e >.+X..&.;.~ ;.....&.&.&.....&.&...&.( &...R ( ....&.&.............e :.2.:...! 4 e Y / &.2.,.&.............+.+.( +.+.;.! ~ ,.e ~ r ! R Y e Y ,.XX .%.%.{ { { -.] / %.*./ E =.XXR R E E / { { %.E E / [ %.%.%.%.{ %.E / %./ %.=.R / %.E / / Y 3.=XT *./ E E Q %. .&./ *.Y  .&.( 2.>.~ +...;.^ o._ L.#XL.P.E.L.E.L.L.L.@.@._ V ^ _ N ^ _ +.^ ^ +.>...0 % >.>.+.:.....&...;.;.;.;.( +.( +.+.^ ( I.^ 0 ....;...........] ] ] ] ] ] ] ] ] / / / ( &.( ( / / / / / 3 e ( ~ 1 1 e w 1 1 1 ( ....e ! +.^ ^ ^ M 1 9 9 9 1 9 1 0 +X..+.+.@.# R.=X~ =.Y %.-.W *.E  .*.Y ..3.t R  .{ E %.E /  .~ Y oX,.} E  .%.%.%.%.%.%.{ E E E E { { E { %.%.%.{ { { { { %.%.%.%.%.%.%.{ E E E %.=.=.%.U { E E E [ [ { { { { { ",
"W E W W E E E E < E / E E U , 3 Y %.E Y Y w =.R E R / =..X=./ Y E E { %.E U U E E / / { / / E E / / Y &.,.~ e ,.~ ( ( ~ / / E R E E E E E %. ./ / R &.2.^ 0 +.>.+.#.#.#.@.N a a z D _ O.P.W.%X-X%XW.W.W.W.W.W.T.W.#XW.a _ L.$ E.*Xa * * 2 % * z 2 z D O.V.Z.E.*XW.Y.W.F b E.#.E.E.E.E.I.I.I.>.>.<.R.R.>.R.<.I.L.@.@.@.#.>.L.@.>.>.+.M M ..! 2 2 M % 2 2 z @.@.' z F V.V.N.O.D z M 5 4 2 0 % $.*X>.>.( _ z :XL._ ....&.&.&.&.&.&.&.Y XX..+.( ..}  ./ E &.( ! >.>.:./  .*.*.%.*.%.-.%.%.%.%.%.%.%. . . .%. . .%.%.%.%.%.%.%.%.%.%.%.{ / / %.%.*.*.Y / &.&.&. ./ / R ~ ( &.&.&.&.&.&.&...:.&.&.:.] ~ / &.&.&.......( ..../ &.&.( Y e @X:.( ;.( ........;.;.&.&.&.............( ~ R ......( ..+.+...+.~ ! ....! e 4 1 ~ e 4 3 e ..XX;.;.;.......+.+.;.! ;.<.! ! ;...~ t e R R R w ,..X*.] { { -.%.{ E / E *./ / XX3.U R / %.%.{ %.%./ / { { { %.{ { { { { / E %.*.-.E [  ./ / %.%. .*.%.E E E U Q { %. . . . . . .( 2...! ..;.+.;.+.>.>.o.^ o.+.>.L.R.R.R.R.#.@.@.o.o._ ^ _ +.+.>.>.| 2 5 2 :.2.v M e e e 1 ! e ( +.....+.>.>.>.>.;.! ~ ( ..;.;.&.&.] ] ;.;.;.] ] &.&.&.;.&.&.&.;.,.;.:.;.&.&.;.&.! 4 ..! 1 e 1 1 2 5 2 B ....M n ..^ +...M 2 9 w 1 e 5 r e 2...;.( #.= >.2.R %.%.%.{ { %.%.%.%.&...@XR R  .E %.W { %.( ~ ! 3.} *./ %.%.%.%.%.%.%.{ { { { { { { { { { { { { { { { { { { { %.{ { { { E { %.%.-.=.{ U [ [ T 7 T %.[ U U E [ ",
"U W U 7 U 7 , 7 , Y E E %.E w 3 , R R R E U *.Y E U U E / E R R E E E E E Q T Y E / / / / / E E Y E E &.,.~ e ,... .( / /  . .E E E E E E E / / / ~ ( ..e 2 ! 1 9 9 2 2 2 5 % * 2 = = = = a D ` C.B.C.C.C.C.C.C.n.b.H x ` D = Z.*Xz # = M 0 2 2 2 5 * a * a N O.C a C $ = _ N _ ' ) N ) ) ( ^ ^ M ! ^ ^ ( z M z v v v v N N N N v v z v ^ M 2 z 2 2 z z 2 z x N z D F F H G N b 2 2 M 2 e 5 ^ >.+.>.>._ # -XE.$.| ....&.&.&.&.%.&./ 2.2.....X.} ~  .&.r ..! #.>.&./ E %.%.%.%.%.%.%.-.%.%.%.%. .%.%.%.%.%.%.%.%.%.%.%.%.-.-.%.%.E E E / %.%.&.*.U R /  ... . ...} } ..:.,.:.:.,.,.:.&.,.,.,.,.&.,.,.,.,.,.3.2.XX,.2.,.,.,.,.&./ Y XX&...:.&.:.:.,.&.( ..;.,.<.:.;.;.&.&.&.&.....&...;.&.;...( ( ( q % o 5 4 e ! 4 ! Y Y Y 4 3 e <.:.:.;.;.;.;.;.;.;.@X+Xe 5 ! ( ( X...~ Y ~ w  ..X*.{ / E { %.E { -.*.{  .=.=.Y U R / %.%.{ %.%. ./ { { { { { { { / { / E ] *.%.E [ [ [ /  .%. .%.E E [ W Q E %.E E E E / / / R XX&.r ! ! e M M 0 n 2 % 5 2 2 0 B ^ $.L.L.R.E.R.E.@XE.E.R.>.+.^ q ..:.M :.#XB % 1 1 e 1 e 5 1 1 ! e M ^ ;.>.;.( e M ! ( ( ( ( ( ] ( ( ] &.] ] ] &./ / ! ! ! ! / Y ! ! Y Y ! Y 3 e ..e % 5 5 1 5 0 M ! ^ ^ M M +.| +...B 4 2 1 1 w 1 e r ,.( ;.+.+.% <.@X/ *.%.%.%.%.%.%.%.%.&.&.2. .[ [ E { E / e ;.! M @X2.~ Y [ { { { { { { { [ [ [ [ [ [ { [ { { { { { { { { { { { { { { { E { %.%.%.-.=.{ U [ [ T 7 7 T U , U E E ",
", , , , 7 , , 7 3 Y E E  ./ E R , Y Y Y R U *.R / E R E R R E  .E E R E E E R Y R E E E E E Y Y Y E E  .&.r e ,.~ R Y R E E E E E E  . ./ E E / / ~ ~ ( 1 5 4 o 1 9 & & 1 1 1 q 1 @ 0 n a = $ $ # # # $ $ $ $ $ x z $ a * # = = a $ N n v & 5 2 M z z z z z N F ` D ` ` O.@.' L.U.I.I.1._ ) M ! M M M M M 2 _ @.>.>.>.>.>.>.L.L.@.@.#.L.E.L.L.R.>._ % z N x N x x h x s s s a % 2 4 M 1 2 2 M v M +.L._ # -XE.V +.....&.&.&.&.&.(  .&.@X..| } } } ..&.} 2 * E.>.:. . .*.&.&.*.%.%.%.%. . . . . . . . . . . . . .E E E /  . .E E / / / %.%.*.*.*.3 3 3 3 4 4 4 3 3 3 3 w Y Y Y Y Y e w Y Y Y ~ 3 ~ R Y R ~ ( ( ( (  .../ ( / Y w e ..~ /  .R  ./ ..&.&.&.....&.&.;.&.....( ~ Y e ( ~ ( ( ( ;.( ;.:.R.@X@X=X=X2.( e 4 1 4 e 4 1 4 1 1 1 1 2 2 2 5 2 5 2 4 1 5 5 o 5 r q w 4 r w &.oX,.=.-.%.%.-.%.Q / { E =.oX&.w E  .%.%.%.%.%.-.%. .%.%.%.%.%.%.] / / / ] &.&.%.R E / E E [ [ E [ E E E E W E %.{ {  . . . ./ / XX..4 1 e 1 2 1 1 0 1 & 1 1 5 & 1 & & 5 % & 2 & 5 2 2 2 M M 0 0 2 M ^ M ^ +.2 2 2 1 2 1 4 5 4 4 1 2 4 0 0 4 2 4 M M ! ~ / / ! ! / Y 4 U Y Y Y U ! Y e ! ( ( / / / ( ( / ( ..( / ( ..( ( ^ ^ ^ 5 o 5 5 5 2 % % 2 2 2 2 2 1 1 1 e e 1 e 1 ( ! ..+.>.% <.+X~ / ] %.%.%.%.{ %. ./  .3.4.} E %.E  ./ ( ^ . 0 >...( %.%.-.%.%.-.%.%.%.{ %.%.%.[ { { { E E E E E E E E { { { %.%.{ { { { E E %.*.-.E U U U , , , 7 , < 7 U U ",
"W E E E %.{ [ %.w E  . . ./  .*.E E E Y R Y *.E R R R E R Y R E  .E E E %. ./ E E E E E E E E R E  .R R R 1 w &.} ~ /  .%. ./  .E E E / E E E / ~ / &.2...5 1 e > 9 9 1 q q r e ~ q B B 2 b ` ` V.N.S.S.P.P.P.P.N x ` W.P.E.*XZ.` N z = * V +.;.E.E.#X#X*X#X#X#X#X#X#X*X*X#X#X#X$X#X#X$X1.) M M M n v b n n E.#X@.@.@.@.@.@.@.@.L.L.L.P.L.L.R.E.*XE.z V.-X-X-X#X#X#X#X#XW.W.E.P.v M 4 1 2 0 2 & 2 M o.V * -XE.n .... . . . ..... .*.( @X;.X.X. .} R / R q :XE.#.&. . .*.%.%.&.%.%.%.%.%.%. .%. .%. . . . . . . .E E / %.%.%.%./  . . . .%.%.%.%.Y U 3 3 4 4 3 3 1 > > > 1 1 1 1 1 1 < 3 3 3 Y > < < > > , > , 1 > 3 4 4 4 w 4 3 1 4 1 3 3 1 w 1 1 4 4 4 4 3 3 4 1 1 1 1 4 4 4 1 1 1 4 4 ! +X+X@X<.<.:.....:.:...( e ! ( ( ;.>.>.:.<.<.<.<.>.>.<.<.<.<.<.<.:.....R r e R Y r 3 ,..X,.,.,.-.=.=.-. X-.=.=..X,.U R  . .%.%.%.%.%.%. . ./ / / ] %.%./ / / / ] *.*./ E  .%.%.%.%.%.[ %.[ { %.{ E E %.%.[ E  . ./ / E XX&.4 4 1 1 e 1 1 w w w r q w e e 1 5 2 2 0 n M v M M 2 M 2 % M M 2 2 2 z 2 # 2 2 1 e ! ( ( ;.:.;.:.2.2.<.<.R.+X2.XXXXXXXXXX X X<.;.( / / / / / 4 Y e ;.<.<.;.&.&.;.;.&.&.;.;.;...;.:.+XR.R.>.2 ^ ;.;.+.1.1.+.@.o.+.| ^ ^ 0 1 1 w 1 1 o e 1 ! ..:.5 <.+X/ / %.%.%.%.%.%.%. . .} X.4.R E %.W / ~ ~ & =X>X>...} %.%.%.%.%.%.%.%.[ { [ [ [ [ [ [ [ [ [ [ [ [ [ [ [ { [ { { { { { E { [ %.-.%.E 7 , , , , 7 7 7 7 w , , , ",
"-.-.-.%.-.%.[ -.w T / %.%. . ./  .} E U R U  .E  . . .%.%. . . .E E E [ /  . .E E E E E E R E R E R r w w > > R ~ ~ / / / E E E  ./ E /  .} ( } Y ~ ..XX&.1 1 w > 9 w 9 ! ( ~ ! ~ t ~ B N E.:X:X-X-X-X-X-X-X-X-X` $ P.:X-X-X-X-X:XW.O.N n L.*X@X$XE.E.E.E.E.E.E.U.P.L.L.I.>.I.I.I.U.U.U.I.>.( ^ z _ @._ _ F W.P.V.V.L.L.L.L.L.L.L.V.O.O.O.O.@.@.P.P.a W.%XW.W.W.W.W.W.W.W.W.W.E.o.M 2 0 M M 0 0 e 1 2 2 * #XE.+.....%.%.%.&.....*...~ 3.:.X.&...*. .3.< :XIX*XL.&. .&.*.&.&.*.%.&.&.&.&.&. .%. .%. .%. . . . . . . .%.*.*.*.*.%.%.%.%.%.%.%. . .R Y Y Y R / R Y R Y r r Y Y Y Y R R Y R R / ..Y > w w w 3 > w w r R R ~ ( }  .} &.....,.:.*.3.*.,...4 e &.<.<.<.2.2.2.2.XXXXXXXX2.2.:.e 4 +X;.^ ( ( ( ( &.;...( ( 4 +.R.R.R.I.<.R.+X+X2.>.>.<.+X+X@X@XR.+X<.;.;...~ R } ( ~ 3 ;.XX,.XXoXXX.X.X,.oX X.X X,.%.w %.*.*.*.*.*.*.*.*.*.*.*.*.*.*.*.*.*.&.*.=.*.*.&./ E  .%.%.%.%.%. .%.%.%.%.%. . .%.%.%. . .%.%. .} 3.&.w w w 3 w 3 > r r r R R R R e e ..<.R.+X@XR.@XR.@X@XR.| 2 ^ #X#X#XR.I.I.o._ 2 0 ~ :.2.<.<.<.<.,.,.<.2.2.2.<.<.<.,.,.,.,.:.:.;.&.( / Y U Y ! ! ~ ! 2.<.:.....( ..&...( ..;.;.;...+.>.:.<.<.2 +X@X@XE.@X@X$X$X@XE.R.R.>.| q 1 w e q 1 w 1 w Y ! > :.@X&.&.&. .%.%.%.%.%.%.%. .} 4.}  .-.%.%.( 0 0 IXDX$.3.E -.%.%.%.%.%.%.%. .%. .%. .[ [ [ [  . . . .%. .%.%.%.-.-.-.%.%.%.%.-.%.%.%.W 7 , , T U U T T U U U U 7 7 ",
"{ { E E E U T E U , , w w U Y w U w U , w , T w w w 3 w w w w , 7 r r w w w U r w w w r w r w w r r 6 6 w 6 > 9 3 w w w 3 w U U 3 , , 3 3 > > 1 w w 1 w 4 > 4 w R ~ t e ! ( ( ( ( ....! z @.U.` b.b.b.b.b.b.V.V.W.s Y.W.n.T.W.W.T.W.-X*X` @.$XE.$XE.U.U.U.U.U.U.P.E.I.L.L.I.$XI.U.U.U.U.E.R.I.>.N L.E.P.V.` #XV.V.V.U.U.L.L.L.L.P.V.Z.P.A.P.A.V.W.P.x W.W.b.M.C.C.V.N.N.B.C.V.V.L.^ 2 ! ^ ^ ! ( Y 1 9 2 1 | | ( ~ / E E E R ~ ~ / Y r R ..r R R U U R   =X>X$.n ( R / / / / } R R R R R R R R R R R R R R R R R R R R R E E R R } [ } E E E R R w w Y Y Y R Y Y Y Y r r Y R ~ Y R ~ Y R R / &.R w w w 1 > > r R  ...*.&.&.&.&.&.*...&.:.*.&.*.*.,.&.Y Y ;.<.:.,.:.;.&.......( ( ;.:.;.! M =X1.( :.;.] ;.;.&.;.:.~ 5 ;.+X>.>.1.;.>.;.( ! ) ! ( 1.>.>.;.+.;.;.( ( e R t R R / 3 Y Y 3 Y Y Y R E R E E { E E E R %. . . . . . .[ [  . . . .%.%.%.%.%. .%.%. .} ~ r w r Y U U U R U U T T T T T T T E E R R E E R R } R 1 w w w r r w R R R R R R ~ R e ( >.>.>.1.1.+.+.>.>.R.+.2 +.R.R.R.E.$X$XI.@.+...( <. X<.:.,.<.,.,.:.;.;.....;.;.;.;.;.:.:.:.:.:.:.&./ / / ;...;.! 2.:...( ..;.;.;.;.;.;.;.;.:...( +.+.;.>.2 <.>.+._ o.@.o.@.@.@.@.>.>.+.! 2 e R ~ ! ~ r 3 3 1 O ~ ..R R R t R R R R R R R T t [ R E { E E R 0 0 >XE.} R E { E E E E E E E R R R R R R R R R T T T T T T T T E E E E E E E E [ E T U 7 7 U T T T T T T U U U T U w ",
"[ E T T T U T %.T , , 3 < < 3 , > O w < > < > < , , > > > > > > < > > > < > > > < > < > > > > > 6 6 6 6 6 9 > > 1 9 1 > U %.*.%.%.&.&.&.~ 4 1 w 1 1 O > 1 > U ~ ~ ( ! 4 Y / ~ ! ! ( ^ M ) L.Y.C.C.C.C.V.V.V.P.P.W.x ` c d M.F.C.M.M.Y.#X_ ' E.1.U.U.P.P.P.I.U.U.U.I.I.L.>.I.I.I.I.$X$XI.L.L.L.I.` P.P.P.N.` %XP.C.C.V.V.U.U.U.U.V.N.V.V.V.V.A.b.W.N.d T.T.Y.Y.Y.Y.P.C.C.C.C.A.A.L.^ 2 ^ ( ..^ ..R w w w e 1 + 1 1 , , , , > > > w > w < w > > 7 7 , < w w   0 & 1 > 1 1 > > 3 > > > > > > > > > 9 6 1 1 1 1 > > > > > > 1 w > > > > > > > > > > R Y Y R R R Y Y Y r r w Y R R R Y R Y R Y / &.R w w w w w U ~  . . . . ... . ...&.&.&.&.&.&. . ./  .Y Y &.( ! ~ ! Y Y ~ ( ( ........;.! 4 @X( ( ;.&.;.;.;.&.( &.+.5 >.+X1.L.L.L.<.;.( ( ( ;.<.I.1.<.<.;.~ ! ( ..! } ~ R Y R % 4 e 1 1 > , U E E Q E E Q Y R E , , > > > > , , > > 6 > > , , , , , , w w < > > O < > > < < > , , , , , , , , , , , > < > , , , > > 1 > w r r R R , U R R R R Y R ~ Y ~ +.( ' ' ' +.^ +.^ >.:.0 +.$.M N >.R.L.L.I.@X,.( ;.;.<.;. X] ;.,.,.;.;.,.<.;.;.:.;.:.:.:.:.;.:.,.,.&.&.&.<.;.:.M +X>.+.+.;.+.....+.........+.+.+.;.;.>.>.2 E.R.@.o.@.@.@.@.o.+.o.+.+.+.! 5 R ( } } } R w > w 6 9 > < > > 9 1 1 > > > 7 , 6 > O > , , , , < + @     t < U , , > > > , > < < > > > > > > > > , , , , , , , , < < , , , , , , , 7 7 < , U T E U U T T T T T T T U w ",
"[ E T T T U T %.w U &.=.R , w w w < w > > > w > > > , > > > > > > 6 7 > > 6 6 > 6 6 6 9 9 9 w 7 6 7 6 > > 6 9 1 > > > < E XX@XXXXXoX@XXX..4 1 w 1 0 ( 2.,.e w ( Y ( ! 4 ! ( ( ~ ( ( ^ ! _ V.V.V.V.V.V.V.V.V.V.L.*X_ ` V.` C.C.C.Y.n.C.%X_ ' $X1.E.I.U.U.U.U.U.U.U.L.I.I.I.I.I.I.U.U.U.U.E.E.I.L.V.Y.Y.E.N.G %XP.N.V.V.U.U.U.L.L.P.V.V.V.O.V.P.V.W.b.c #XW.Y.C.C.C.U.A.A.A.C.V.Z.L._ 4 ( ( +.^ (  .Y 1 > e 1 > r w w U 7 w w w w w , U > > w < 7 U , 7 < 3 e & 1 w 3 w w 3 w w 1 9 9 9 1 1 1 9 9 6 6 1 1 1 > > > w 3 > 1 w w w w > > > > w w w 3 Y Y Y R R Y Y Y Y Y r w Y R R Y Y ~ Y R R / &.R w w w r R } &.*. . . ...&.&.&.&...&.&.&.*.*. .*.*.&.Y e &.;.~ / / ~ / ( ....&.;.:...;.~ 4 @X( 1.;.&.;.&.] &.;.;.+.% ;.$X1.L.>.>.+.~ ! ( ;.<.I.<.R.;.^ ! ( :.;.~ t r w R R Y 4 ;...Y 3 3 3 E =.,.=.-.%.=.,.=.=.w , , , , 7 7 , > 6 6 6 7 , , , , , , 7 7 < , w 9 > 3 , > > , 7 7 7 7 7 , , , , , w , , w U w U w > w w r R r R Y , R E E E E R / Y e ( :.;.( ' ' +.+.;.^ 2.+X! ( ^ 2 2 +.>.( _ _ I.;.! ;.:. X;.,. X,.;.;.:.,.;.&.:.,.:.:.:.:.:.:.&.;.:.:.;.&.;.,.+.:.M +X>.+.....+.....+.+.+...+.+.+.( +.+.1.1.M R.>.o.o.@.@.o.@.+.+.+.+.+.;.^ e ( ..~ R ~ R w w > w w > 9 w > 9 1 > > , > 7 7 7 r O 7 7 , 7 , 3 > 0 t + 9 r < U 7 7 w w 7 7 > > 6 > , , 3 3 w w > , , , , , , , , , , , , , 7 7 , 7 7 , 7 T T 7 T E E T T E E T T U U ",
"E E T U T T T [ , U 3.%.3.*.< , > 7 7 , , 7 7 7 7 > < , 3 3 > 1 , > > > > > > > < > w 1 > > > > < < 7 w > > > > > 6 > > U XX+X+XXX2.2.2.( 3 3 5 M +X>.R.+X5 e ( ! ! ( 1 ! ( ( ~ t } ! 0 N L.V.U.@.@.@.V.V.V.V.U.#Xb.` #XY.P.V.V.U.A.N.#X` ' $XL.I.I.I.U.U.U.U.I.I.I.I.I.I.L.L.L.E.L.I.L.E.L.E.@.P.W.P.A.` G -XP.V.V.U.L.L.L.L.Z.Z.Z.Z.Z.Z.Z.V.@.E.` x #XP.U.P.C.P.L.V.Z.Z.Z.Z.Z.L.^ M ( ;.( ;.;.( 2 e 0 5 1 1 w , , 7 U U U w 7 w w U r r T T , 7 7 , , w w 1 4 w w w w w w w > 1 1 9 9 9 1 1 1 > > 9 6 > > 6 6 w 9 > > > > > 3 , , 7 w w U U , Y Y Y Y Y Y Y Y e Y Y w ~ R R e ~ Y Y ~ Y / &.~ 3 / %. .&.&.%. .&...&...&.&.&.&.&.&.&.&.&.&.%. .&. .R e ( :./ / ( / &.&.;.;.;.;.;.;.:.! e +X;.;.&.&.&.&.&.&.&.....% >.R.>.I.>.+.^ ( ;.,.<.<.<.<.;...( ..;.;.( Y ~ t ~ e ! Y e @XoX,./ , < E =.=.=.-.-.=.-.-.*.w 3 3 1 > > 6 6 6 6 > < 7 7 7 , 7 7 , < 7 w > < > < , < , , , [ [ T 7 < 7 7 7 , 7 < , T %.-.-.*.*.E , w 3 R R R R , R R R R R R R ~ 4 &.&.;.+.;.( ( +.+.+.+.R.+.~ +.+.( +.+.+.+.( R.<.4 <.] ;.,.,.,.=.,.:.:.*.&.:.:.,.:.:.,.,.:.:.:.:.,.,.1.( <.:.;.+.M @X1.+.+.+.....+.+.+.+.;.+.( +.+.+.+.+.^ M R.>.$.o.o.o.+.+.+...;.( ;.:.~ e ( ( / / ( / Y 1 w w O w > w , , , , , 7 7 w 3 , 7 7 7 7 7 , , w w > , w 7 7 7 , , w < < w 7 < w > > > > > > > > 6 6 < < 7 7 , , , , , , , , , , , , , T , U U T T T T T T T T T U U U ",
"E E T T R R R %.7 U =.*.=.%.E w , 7 7 > < > > < , > , , 3 > 1 w > > > > > > > > > 6 > > > , 3 w 7 7 , , > > > 7 > 6 < > U XX+X+X+X3.2.+X..> e ! >.@XR.@X<.% 0 ~ ~ ! ( 1 B ( ( ~ } X.} B M L.V.V.>.>.>.L.V.V.V.C.#XV.M.W.U.U.V.V.U.U.P.#X' ) E.>.I.I.I.I.I.I.U.U.I.I.I.I.I.I.I.I.I.L.I.L.I.L.E.` V.E.P.P.N.G #XP.V.V.V.Z.V.@.V.Z.Z.Z.V.V.V.Z.L.L.E.` x #XP.P.P.C.P.P.P.L.L.Z.Z.@.L._ ) ( ;.( ;.;.+.4 M 4 2 q R R *.-.-.-.-.*.*.*.=.*.=.*.-.*.-.T , 7 , > 3 3 > 3 > , 3 3 , w w < > > > > 1 1 > 1 > > > > > > > > < < , w R E /  . .[ %.%.%.%. .Y Y Y Y Y Y Y Y Y R e Y 4 ~ R ~ Y ~ Y Y ~ Y ( &.R 3 / %. .%.&.&. .&.&.&.&.;.&.;.&.&.&.&.&.&.&.&.&.*...~ w ( ,.( ..&.&.&.&.&.&.&...&...;.Y ! @X;.&.&.&.&.&.&.&.&.....% <.R.>.>.1.;.( ;.,.<.<.<.:.;.&.&.;.;.,.;.( Y R t R q ~ t 3 ,.@X,.%.*.%.%.%.%.=.-.%.=.-.=.*.w 3 , 1 > 6 6 6 6 < < 7 [ [ [ { { W U , 7 w , > 7 , U U E U , [ { [ U 7 7 7 , , 7 , U [ -.-.%.%.*.E , U w R R R R , R R R R R R R ~ w &.&.&.&.;.;.( ....( ;.+X+.! :.;.;.;.;.;.+.+.I.1.4 <.] &.,.:.=.,.:.:.:.*.&.:.:.,.,.,.,.,.:.:.:.:.;.1.;.' I.1.1.+.M $X;.+.+.( ....+.+.;.;.;...+.+.+.+.;.;.( M R.>.+.+.+.+.+.+.;.;.:.&.&.;.! 4 / ( / / ( / Y 1 w r > w w  . .R E E { { %.%./ / [ [ { [ U 7 , 7 , , , , < < < < 7 w w 7 w 7 , 7 > > > > > > > > < 6 6 > 7 , < , , 7 U W E E { E E E E [ U T T T T T T T T T T T U U U ",
"T E T W E E E %.U U -.=.=.%.,.R , , , , 7 7 7 7 7 , > , > > > , > > 6 6 6 6 6 6 6 > > < < , , , 7 7 > , 3 1 , > > 7 < > U XX+X+X2.XX+XoX/ 1 ( 2.+X+XR.R.! % M | ~ ! ( 1 ! ( ~ ~ R ~ ~ q z @.@.V.@.@.V.V.L.U.U.U.#XV.V.Y.O.V.P.V.` b.P.#X) ) $XI.I.I.I.I.I.I.I.I.I.I.I.I.I.I.I.I.I.>.I.I.I.E.E.' P.T.Y.P.V.H W.P.V.V.V.V.V.V.V.V.Z.V.V.L.L.U.V.V.E.` x W.Y.P.P.C.V.Z.Z.Z.P.P.V.V.L._ ) ( ........&.0 e 9 9 X.X. .,.=.=.=.=.=.=.*.=.=.=.=.*.=.-.T < U Y w Y Y Y Y / E  .%.} %. .r > > > > > > > > 6 > > > > 7 , > 7 r R  .%.*.*.*.*.-.=.=.*.=.%.R Y Y Y Y Y Y Y Y R Y r 1 ~ R ~ R Y Y Y / Y / &.Y 3 / %. .%.&.&. .&.&.&.&.&.&.&.&.&.&.&.&.%.%.%.%.&. .R 3 / ,.&.&.&.&.&.&.&.&.&.;.&.&.;.! ! +X;.( &.&.&.&.&.&.&.....5 <.R.;.1.1.;.:.<.<.<.,.;.;.;.&.;.:.,.;...~ Y R r t q ~ ! % ~ XX3. X=.-.=.=.%.=.-.-.-.-.-.*.7 , 7 > 6 6 6 6 6 > 8 U [ -.%.%.-.W 7 , , , < > , R E { -.E 7 W { W U , < < < < , T E -.=.-.%.%.=. ., w w / R R R > R R R R R R R R 4 &.&.&...;.( +.+.( +.;.+X+.! >.;.;.+.;.;.+.( <.;.4 ,.] ;.:.:.=.=.:.:.:.:.:.:.,.,.,.,.:.:.:.:.:.,.;.1.( +.<.1.1.+.! +X>.+.+.+.....+.+.;.;.&.&.;.+.+.+.;.;.^ 4 R.>.+.+.+.+.+.;.+.;.1.;.;.;./ Y / / / E } / T > 1 q Y ~ R *.=.*.-.-.=.=.=.=.=.*.-.-.-.-.U , w w w w U U T E [ %.[ [ [ E r 7 7 > > > > > > > > > < 6 6 < 7 7 7 U W E { %.-.-.%.%.-.-.%.%.U T T T T T T T T T T T U U U ",
"W E E E { [ E %.w T *.*.*.-.3.%.7 U U T E [ [ [ T 7 < < 7 7 > < > > > 6 6 6 6 6 > < < , 7 , , > < < > , w w , < > 7 > > U XXXX+X2.+X,.&./  .XX+XR.I.I.+.o 5 | } ~ ! ( 5 B ( ~ ~ ! ( ~ M z >.U.L.O.@.@.V.V.V.U.U.#XV.` P.` V.U.V.P.V.P.#X_ _ E.>.<.<.I.I.I.I.I.I.I.I.I.I.I.I.I.I.I.>.E.I.I.E.L.' W.T.A.P.N.D W.W.V.V.V.V.V.V.V.U.V.V.U.U.L.L.L.V.P.` x W.Y.P.P.U.P.P.P.P.P.P.P.P.P.' ) ( ( .... ...e 9 9 9 *.3.=.=.=.OX,.=.,.*.*.=.*.*.=.=.=.*.R R ,.XX3.XXoXoXXX=.*.=.=.*.=.*.w > > > > > > > > 7 > > > , 7 r T [ %.-.=.=.=.=.=.*.-.*.*.-.*.%.U Y Y Y Y Y Y Y Y Y Y Y 4 ~ ~ ~ R ~ Y Y / Y ( &.R w  .*.%.%.&.&.&.&.&.&.&.&.&.&.&.&.&.&.&.%.%.%.%...&.R 3 / ,.;.;.&.&.&.&.&.&.;.;.&.&.,.! ! +X..( &.&.&.&.&.&.......5 R.R.;.1.1.1.,.<.<.<.;.;.;.;.:.:.;.&.( / ~ ~ t t ! q } ~ % Y R *..X=.%.-.=.-.-.-.%.-.%.-.-., , 7 6 6 6 6 6 6 7 > 7 R %.{ %.-.{ E R R E E /  .%.%.%.-.{ 7 U -.{ W T U T T E E { %.-.=.-.%.-.=.%., w U / R R Y > R R R R E R R Y 4 &.&.;...;.( ;.;.+.;.;.+X( ! ;.;.+.( +.+.+.+.<.;.4 :.;.;.:.:.*.*.*.:.:.:.;.;.,.:.:.,.:.:.:.:.:.,.;.,.( 1.1.1.1.+.M R.>.+.+.+.....+.+.;.;.;.&.....&.+.:.;.( 4 R.>.;.+.;.+.;.;.;.( ;.;.;.:./ Y ( / E E } [ T > 1 1 ..3.*. .%.=.-.-.-.-.=.=.*.*.-.[ -.=.U w %.%.=.=.=.=.*.-.-.-.*.*.*.-.r , 7 < > 6 6 6 6 6 6 6 8 8 < 7 U T W { -.-.-.%.{ { { { %.%.%.-.U T U T T T T T T T T T U U U ",
"E [ E [ %.{ E %.7 E =.E =.=.-.=.%.%.{ %.%.{ { { { W r 8 7 7 8 < > > > > > > > > 6 6 7 T [ E T U 7 7 7 > , 3 > < > 7 > > r XXXXXX+X2.( ( ,.+X+X,.+XI.R.+.% 5 ~ t ( ! ( 5 M ( ( ( ( ( | M 2 o.@.V.U.V.V.V.V.U.V.V.#XV.` W.U.V.V.V.U.` P.#XN ) I.L.I.I.<.<.I.I.I.I.I.I.I.I.I.I.I.I.I.L.U.I.I.$X1.' W.Y.C.P.C.D P.W.V.V.V.U.U.U.V.V.U.L.1.1.L.L.U.U.' ) x E.E.U.U.P.P.A.C.C.U.A.U.U.I.' ) ( ..X. .} } t 9 9 + 4.3.3.*.=.=. X X,.,.:.,.=.,.=.*.=.*.R U ,.oXXX3.XXXX,.,.*.*.*.*.*.[ < > 6 6 6 6 6 6 6 6 > 6 6 > 7 T %.-.-.-.-.-.-.=.=.=.*.*.*.*.,.*.Y Y Y Y Y Y Y e e r r r 4 ~ ~ ~ R ~ ! Y ~ Y ( &./ 3  .*.%.%.&.%.%.&.&.&.&.&.&.&.&.&.&.&.&.&.&.&.&.&.&.( 3 / <.;.;.&.&.&.&.&.&.&.&.( &.,.! e 2.&.&.&.&.&.&.&.&.....( 5 2.+X:.1.<.<.,.,.:.;.;.;.;.,.,.;.( / / ~ ~ R e t ~ r ~ R % R Y Y =.oX.X%.%.-.-.-.-.-.-.=.=., 7 7 7 7 6 6 6 6 7 < < U %.-.-.-.-.*.*.=.3.3.2.2.3.*.-.-.%.U U =.-.%.%.%.-.-.-.*.-.-.-.-.*.-.*.=.*., r Y R R R r 3 R / R / / E / Y 3 ..&.;...;...+.+.( +.+.R.( ! ;.+.+.+.+.+.+.+.<.( Y ;.:.:.:.*.*.*.:.:.:.:.;.;.,.:.:.:.:.:.:.:.,.,.:.:.( <.1.;.;.+.M >.>.( ( ( ....;.;.;.;.&.&.&.&.&.&.&.( ! 4 XX<.:.;.;.;.;.;.1.( ;.+.;.:.~ e ( / R [ } [ T w w > *.oX,.%.%.*.-.-.=.=.=.=.-.-.-.%.-.=.R T .XoX.X.X.X.X,.=.*.%.*.X.*.[ 7 6 7 6 6 6 6 6 6 6 6 6 7 7 8 7 [ { { -.-.{ { { { -.-.-.{ -.-.=.W E T W W W E E W W W W U U U ",
"[ { { { %.%.{ -.7 E .XE *.=.E =.=.-.%.%.%.%.{ { { { [ U 8 < 8 7 > > > > 6 6 9 6 > > r [ -.-.{ { { [ T , < > > > > , < > U XXXXXX+X:./ ,.@XXX<.<.+X<.R.R.>.5 B B } ( ( 5 M ^ ^ ^ ! ! ~ n % o.L.V.b.b.V.V.V.V.V.Z.W.F N E.L.L.U.L.P.P.#X#X) ) >.$XI.I.I.<.I.I.I.I.I.I.I.I.I.I.I.I.I.I.I.I.E.$X_ 1.Y.P.P.P.P.` P.#XV.V.V.V.U.U.V.V.L.@.L.I.L.>.@.' N v x L.W.V.P.P.V.V.C.C.A.Y.P.P.P.' ^ ( ^ | } } } t 9 9 + 4.3.3.,.=.=.=.=.=.:.:.*.*.=.*.*.=.*./ Y ,.@X@XoX@X+XoXXX3.*.*.,.*.R > 1 1 1 1 9 9 9 9 > > 6 6 > 7 [ =.-.-.=.-.-.-.=.OX=.*.=.=.=..X=.Y Y Y Y Y R Y Y Y r r Y 4 ~ R ~ R ! Y Y ~ Y / &.Y , / *.%.%.&.%.%.&.&.&.&.&.&.&.&...................&.( 1 ! ,.;.&.&.&.&.&.&.&.&.&.:.,.<.~ e 2.&.&.&.&.&.&.&.&.....( 5 2.+X1.>.<.<.,.,.;.;.;.:.,.,.&.( / / / / Y Y e t ~ r ~ Y > ..,.&.,.oXoX.X X=.=.=.-.=.=..X3.U , , 7 6 6 6 6 6 6 > > w / =.=.%.*.=.=..XXX2.2.3.XX3.=.-.-.E U =.-.-.-.-.=.-.-.-.=.-.%.-.*.*.*.=.=., r R R R R r > Y R R R / R / e > ( &.;.( &...( ( ( +.+.R.( ! >.;.+.+.+.+.+...+X( ! &.:.:.:.:.*.*.:.:.:.:.,.,.:.:.:.:.:.:.:.:.,.,.<.;.( <.1.;.>.;.! >.R...( ( ....;.;.;.;.&.&.&.&.&.&.( / ! Y <.:.;.;.;.;.;.;.@.( +.+.1.:.^ ! ( / R [ } } T w r 1 :.*.*..X,.%.-.-.-.=.=.=.-.-.-.-.%.*.R U 3.XX=.,.,..X.X,.=.*.-.*.X.T 6 6 7 6 6 6 6 6 6 6 6 6 8 7 7 T %.-.-.-.{ { { -.-.-.-.-.%.=.=.=.E E W E W W W E W W W U U U W ",
"{ %.{ { %.%.{ -.7 W .X{ %.-.%.%.=.-.{ { %.{ { %.[ [ [ 7 > > 6 6 1 1 1 9 1 9 9 9 > < 7 [ -.-.-.-.-.-.E 7 < > w > > 7 < > r XXoXXX2.,...2.@X,.,.+X<.<.I.$X=X1 ! } ~ ~ ( 5 M ^ ^ ! ^ ^ ..^ 2 >.E.E.W.W.W.W.#X#X#X#X#X$.@.#X#X#X#X#XW.W.#X#X_ ^ ( <.1.<.<.I.I.I.I.I.I.I.I.I.I.I.I.I.>.I.I.L.$X$XM I.E.P.P.U.U._ L.#XU.L.L.L.U.L.L.@.>.>.>.>.;.( ! z M M 2 #.#XL.E.Q.Y.Y.W.W.W.#X$XI.1._ ^ ( ^ V | J | n 2 0 & >.:.&.XXXXXXXX X3.3.3.,.,.XXXX3.XXoX,.w =.oXXXXX+XXX+XXXXX*.&.,.} 1 3 1 1 1 1 1 1 1 1 1 > > 6 > 6 R *.*.=.OXOXOX=.=.=.-.=.=.,.,.XX*.U Y Y R ~ ~ ( ( ~ ~ ~ R 9 ~ ~ ( ~ ~ ~ ~ ( / ( &.Y > / *.&.&.&.&.&. . .&.&.&.&.&.&...&.&.&.&.&.&.&...*.( % Y ,.;.;.&.&.:.,.,.,.,.,.2.,.,.! e 2.....&.&.&.&.&.&.......5 2.+X:.<.<.,.,.:.;.;.:.:.:.;.( / ~ ~ / ~ ~ Y R t R r ~ Y 3 :.@XoXXX.X.XoXoX XOXOX=.OX.XoX.XU , , , > > 3 6 1 > w , , U %.*.{ =..X.XXXXXXXXX2.XX.X.X=.=.E U =.OXOX.X.XOXOXOX=.=.=.=.=.=.=.=.,.3.> r R R R ~ Y > Y ~ R R / R / Y > ( ;.:.&.;.;.+.+.+.>.+.>.^ M <.>.>.>.>.>.>.;.+X~ ! / &.*.*.*.&.&.:.:.:.:.,.,.:.:.:.:.:.:.:.:.,.;.<.( ( <.<.;.;.;.! >.+X+.........&.;.......&.;.*.&./ / ! Y Y ,.:.:.;.1.;.@.1.;.+.:.;.;.;.~ ! ( ( ~ ~ } } R 1 e 5 ,...&..X.X-.=.=.=.=.OXOX=.=.=.=.-.=.{ U =.XXoXXXXXXX.X.X=.%.*.*.[ w > 6 > > 6 6 > > > > > > > 7 7 U %.-.-.-.-.-.-.-.-.-.-.-.=.=.=.=.W T T W W W E E E E W W W W E ",
"{ { { { %.%.%.-.7 W OX=.%.E =.W OX-.{ { { { { %.%.E 7 < > w 3 < % o > > 5 5 5 5 w > , R %.%.%.{ %.-. .U 3 3 w > > 3 > > e XXXXoX+X2./ &.oXoXXXXX<.@XI.<.=X5 ! ! ~ R ! 5 M ! ) ! ^ ! ^ M % ( L.L.V.V.b.` ` _ V V ^ * * V z N N x D N N _ N ^ ) ( ;.;.1.<.I.I.I.I.I.I.I.I.<.<.I.I.>.I.L.L.#XE.z $X$XL.@.) _ z @.W.L.L.L.L.L.L.L.>.>.:.^ ! M M B ! B n 2 #.*XE.E.W.W.W.W.W.P.L.' ) M z ) _ _ F G G o.N * b * L.:...,. XXXoXoXoXoXXXXXoX@XoXXXoX@XXX/ ,.@X+X+X+X+X@XXX+X,.&.:.Y o 4 1 1 1 1 1 1 1 1 1 1 1 1 1 1 R  .%.=..X.X.X.X X X=.,..XXXXXoX=.w Y R ~ ( ..........} ~ w ( ( ..........:.&.&.:.R > } *.*.*.*.*.*.*.*.&.*.*.*.*.:.:.:.:.:.:.:.:.:.&.,...1 ~ 2.<.<.,.3.2.2.,.,.,.,.&...( 1 1 2.....&.&.&.&.&.&.......5 2.+X:.<.,.;.,.;.;.;.:.:.&.( / ~ ~ ~ R ~ ~ ~ ~ t R R ( R 3 ,.XX,. X@XoX.X.XoX.X.X X X.XXX.X3 3 3 3 3 1 3 1 3 > w 3 < , / =.-..X.XXXXXXXXXXXXXXXXXoX,.=./ U =.OXOX.X.XOX.X.X X,..X.X.X.X,.,.3.3.> r R R Y / Y 4 ~ ( / (  .}  .~ 3 ;.<.XX<.<.<.<.>.>.>.;.>.^ M R.R.R.R.+X+XR.R.+X~ Y ( *.&.*.*.&.&.:.:.:.:.,.,.:.:.:.:.:.:.:.:.,.;.XX( ( ,.<.;./ ( 4 ;.+X..........&.&.........&.( R R ~ ~ ! e <.<.<.<.I.I.I.I.2.>.2.>.+.( 0 e ( ( ( ( } ( Y 1 e o <.:.&.&. X.XOXOXOX.X.X.X.X.X=.oX=.XX,.E ,.XXXX X X.XXXoX.X,.%.*.R < > > > > 1 9 > > > > > > , , , w E %.-.OXOXOXOX-.-.-.OXOXOX.X.X=.T T T E [ { %.%.{ { { E E E E ",
"%.%.%.{ { { { %.7 E OX-.{ %.{ %.{ -.=.{ { { %.-.E 3 3 1 o 5 ! ! ..:.:.;.+.! ^ 3.( 1 3 , { =.-.-.%.*.=.E > > 3 > % % 1 5 Y 2.XX3.XX<.<.,.XXXXXXXX@X<.<.R.=X1 5 w 1 > e 2 5 2 2 2 5 0 2 2 2 2 2 N D c D D _ _ _ o.z z * ^ _ ) ) _ N N N z N ) ! ! ! ! ) ( ;.<.I.+X+X+X$X$XI.+X+X+X$XI.E.#XR.) z _ v z 2 2 z v N N ^ @.@.@.o.>.@.>.^ V M 2 2 2 2 2 * = = = $ $ $ $ d d i p z b z M ! 4 z z i k c i d $ x $ p L.E.+.;.,.XXoXoXXXXXXXoX+XoXXXXXXXXX@XXX@X@X@X+X+X+X+X+X<.@X;.! Y &.( ( % ~ ( e ~ 4 e 0 2 | ~ 1 1 9 X.*.,..X3..XXXXX.X.X.XoXXX,.oX3.4 1 1 1 1 1 1 1 > > > 5 5 5 5 5 5 1 5 5 1 1 > % 1 3 w Y R R / / / ~ / / R R / (  ...&.&.&.&.;.;.&.&...Y 4 4 Y Y e w Y 3 3 1 3 4 3 1 < 4 e e ! ..&.,.*.&.&.&.&.&.....1 :.+X:.<.<.;.,.:.:.:.&...( ~ Y ~ Y ~ ~ Y ( ~ ~ r R r Y 4 4 +X2.oXXX&.*.oXoX X.X.X,..XXXXXXX3 3 < % 3 1 1 4 o 1 4 Y R %.&.,.,.XXoXXX,.XXXX2.XXXXXX@XoX X{ Q =.OXOXOX.XoX.XOX.X X3.XX=.3.XX*..XXX3 1 R w r Y e % e Y w e e w Y w 4 4 e Y Y ! ! e e 4 4 0 4 2 0 0 0 0 4 0 e e 0 e Y Y e R  . .%.-.*.*.,.,.,.,.,.:.&.&.,.,.,.,.<.XX<.;.( ] &.( Y e e Y ! / ( &.;.;.;.....;.:...~ ~ R R Y Y e Y e ^ ^ ^ ^ ( ^ _ ^ ( ~ ! w e r 0 M 4 e ! 5 ! e 5 4 2 1 2.&.] / &.oX.XOX.XOX.X.X.X.X.X.X X XoX-.oX.XoX.X X.XoXoX.X.X,.R > 4 r 4 1 4 r w 1 > > 1 1 3 Y 3 U 3 Y =.=.OXOXOXOX.X.XOX X.X.XOX=.=.T W W U E W W W W W W U W U U ",
"U U U U U U U U , W .X=.%.%.E %.-.{ { { { %.E T , < 3 ! ( 1.I.+X>.2.R.+XR.2.R.@X+X..Y < U =.-.=.=.=.=. .w > 3 4 ! ! ^ 5 4 2.oXXX<.XX+X+XoXXX<.<.I.<.I.@X@Xe 1 1 1 w ..:.>.L.>.L.R.R.R.@X*X*X@XE.#X#X#X#X#X#X#X#X>.+.M R.@X@X#X*X*X*X#XR.( z M +.! ! ! ! ) ( ( ;.:.;.;.;.( ( ( ( ) M z N M 2 z ) ( | +.$.>.>.+.^ ^ M 2 M ^ ^ 2 5 * a b n N F _ _ $.@.O.N.S.A.A.A.S.B.A.` m v M M 2 5 R.-X-X;X&X;X;X%X:X:X$ O.#X@.<.<.XXoXXX=.,.XXXX<.XXoX+X@XoX&.,.XX+X+X+X+X+X+X@X+X@X:.2.@X=X@X<.( @X@X<.+X>.>.R.E.*X*X+.0 & ~ ;.:.3.XXXXXX3.XX@XXXoXXXXXoX,.1 4 w e e e e t e t t t t t t R t ~ ! ~ ~ ~ R e 4 1 3 w w 3 3 1 1 1 3 3 3 1 3 3 1 1 3 4 3 3 4 4 3 4 Y e 4 3 3 3 1 3 Y Y / R Y e 3 Y e 4 1 % 1 e Y Y R R / / ( ( ( e o ! ..! ( ( / ~ ~ / / ~ ~ Y Y Y / Y Y e 4 e 3 1 > 3 > w 4 4 XXXXXXXX,./ R ,.@XXXoX X XXXoXXX4 3 U 3 4 e ! :.:.XXXXoXoXoXoXXX,.,.XXXXXXXXXXXXXX+X XoXoXXX%.U =.oXOX XOXOX.XoX=.,.=..X,..X.X,.oX*.3 3 r 3 3 4 w 3 Y Y Y / / R / / ( ( ....( ( ;.;.:.:.;.:...! 4 0 e M e ! ~ ~ ~ ! e e Y / Y U Y E / ] &.&.,.,.,.,.,.,.:.;.&.&.&.] ( ! Y U Y 4 3 / / / ( ( / / ~ ~ ( ( ( ~ ! 4 1 5 5 5 > > > % % % % % % 5 5 5 5 1 1 r r R e 1 M ! M ! 4 ^ N z ) ! . @X@X,.,.&.-.OX X.X.X.X.X X.X.XOX.X.X-.-. XoXXXXXXXoXoXXX.XXX..~ 2.XX@X+X~ ,.3.,.,.:.,.,.<.2.+X( 4 < E *.%. X.XOXOXOX.X.X.X.X.X.X.X.XU 7 U U , , , , , , , , , , , ",
"W W U U T T W W , E .XOX-.%.E { { { { { { { U , 3 3 4 ;.@X@XI.>.( ;.<.<.:.>.R.+X@X+X&.Y < E E -.=.=.3.=. ./ ..;.+X+X#XM 1 3.3.2.2.2. XXXXXXXXXXX<.<.I.@X>.e 1 1 + 1 +.<.L.I.L.I.I.+.^ ^ +.R.$XE.E.W.W.E.E.R.R.R.@X^ % ( +.' _ +.o.#.R.@X@X>.^ 4 ! ! ! ! ! ! ! ! ! ! ! ) ) ! ! ! 1.<.<.<.<.I.I.<.:.:.:.:.>.>.>.:.>.( ^ M M M ^ @.E.W.#X-X%X#X#X-X#X#X#X`.`.`.`.-X`.-X-XW._ b n n M * -X:XW.`.).`.`.&XF.:XY.$ #X#X$X<. XoXXX=.=.,.@XXXXXoXXXoX,.Y <.XX+X+X+X+X@X@X+X+X<.;.@X=X=X<.) ) @X@XI.@X+XR.E.E.*X*XR.B @ 1 :...:.XX+XXXXXoXoX2.XXoXXX+X,.e e Y ~ ~ ! ~ ( ( ~ ~ ~ ~ ( ( ( ( ( } ( } ....~ 1 Y Y Y Y Y Y Y Y Y Y Y Y Y Y e 4 ..&.&.&.;.;.;.;...&.&.~ 3 3 4 e 3 Y / &.&./ Y w < 4 Y Y e Y r e Y Y Y U 4 3 1 1 e 1 Y Y e Y Y Y e Y Y Y Y Y Y R R ~ Y Y 3 4 Y w r Y Y r Y Y Y ,.@XXXXXoX,.Y E &.XXoX X X X+X<.3 4 <.@X@X=X@X@X@X@X@X+X+XoXXX,.,.,.2.XXXXXXXXXXXX+X,.+XoX@X,.3 =. X,..X-.U =.@X-..X.X,.XX,.,.XXXXY 1 4 3 1 3 9 ~ ,.:.&.,.XX2.:.,.,.2.XX+X+X+X+X+X<.2.2.3.2.3.( 4 ;.:.:.:.:.3.2.3.:...~ Y Y Y Y Y Y Y Y / / / / / Y Y Y 4 U ! ! Y 3 4 Y ! / &.,.,.&.&.&.&...( ! Y Y Y e e e e ~ ( ......;.:.:.>.2.2.2.R.R.R.R.R.R.&.R w w q 0 e 2.=X@X#X@X=X#X#X#X+X2 ! @X@X,. X&.=.=. X=.=. X=. X.X=.XX=.Y  X XXX XXXXXXXXX X.XXX&.,.=X@X@X2.~ XXXX2. X2.XX+X+X+X=X+X! o Y *.{  X.X.X.XOXOX.XXX.X.XOX.X.XU W %.{ %.%.-.-.-.-.-.%.{ { { ",
"W W W W W W W W , U -.=.=.=.{ E W { { { W U 7 , 3 < 1 ( @X@X' ) ( :.+X<.^ ( R.R.<.+XXX,.Y U 3 Q %. X.X.X3.3.2.@XI.+X:X) 4 +XoXoXXX<.,.<.XXoXXX<.<.<.I.I.0 1 e 1 1 1 ..>.1.1.@.I.z 5 2 M 2 M o.o.' @.@.o.o.o.( +.*X;.2 ( ;.;.+.+.^ o.+.+.<.@X<.e ! / ! / ! ! ! ! ! ! ! ! ! ! ! ~ R.R.<.>.<.<.1.+.:.+...( ....;.:.>.:.>.! 2 2 R.*XW.T.T.Y.C.C.C.C.C.C.B.n.n.n.n.n.n.B.W.W.` b B B n # -XW.Z m.e.m.m.n.n.B.;XN.x $X@XXX<.XXoX.X*./ XXXXoXoXXX,./ Y +X@X@X+X+X+X@X+X+X@X<.:.@X@X+X,.! ( +X+X<.+X+XR.L.L.L.R.=X2.n 5 ~ ! ( &.2.XX+XoX,.XXoXoX2.XX,.Y e R ~ ~ R R ! ! t t t t R R R R e ! R R } &.~ % ~ R ~ ~ ~ / ( ( / / / / ( ( Y e ..&.&.&.;.;.;.;.,.,.,.( e > 3 Y Y / / &.....( R e &.XXoX+XXX2.,.,.,.,.:. .~ ! ! ~ Y Y Y ! ! Y / R R Y Y Y Y R R R R Y Y e Y ..~ R R R r Y Y 4 ~ oXXXXXoX@XXX&.Y  XXX X,.XX+X:.3 4 @X@X@X@X$X<.<.+XXX<.<.XXXXXXoX&.,.XXXX<.XXXXXX+X<.+XXX@XoXU %..X.XoX=.Y E ,.XX.XXX,.XX,.,.XX&.1 3 4 1 4 w 9 } &.( ( &.:./ Y Y Y ! ( &.;.&.&.&.;.;.....;.,.&.4 ( ( ..( ........,.2.:.~ 3 R / Y Y Y Y Y Y Y Y Y Y R Y Y / ,.,.;.<.<.<.,.&.&.&.&.&.&.&.&.&.&.( / / Y e ~ ;.2.+X+XXX2.2.2.2.3.<.>.:.;.1.1.>.>.<.<.2.} w r t 0 2 @XR.! ( ( ' ' @.+.+X>.5 ! @XXXoX X.X X X-.%.=. X.X,.oX XE Y XXXX XXX X X,. XXX X,.( @X+X<.:.Y ~ <.<.<.<.<. XXXXX<.2.@X<.4 4 / / { =.OX.X.XOX.X X X.X=.OXOXQ %.OX-.{ { { { { { E Q E E E ",
"W W T T T T U U 7 , R E =..X*.%.[ %.{ E w , , w , , % Y :.<.( ( <.2.+X,.( ;.+X+X+X<.XXXX.XY , , E .XXX,.,.2.<.<.>.I.:X) 5 <.2.3.2.XXXXXXXX,.;.] <.XXI.>.% 1 e 9 w w ..>.@.>.I.#X) v v v 2 v _ o.o.o.o.o.o.o.+.+.+X+.5 ^ ( ;.;...:.>.$.^ ( R.+X( ! ! ! ! ! / ! ~ ! ! ! ! ! ! ! ! +X<.+.( ( ..;.;.........;.+.+...+.+.>.! M M >.L.C.C.n.b.b.C.C.C.C.C.C.C.C.F.F.F.Y.N.Y.W.N.x s a D $ -X`.w.H.J.m.F.F.F.B.Y.:X` ) $X@X+X XoXoX=.R ( XXoX+XoX/ Y ,.oX+X+XXX+X+X@X+X+XXX&.;.=X+X+X+X<.2.@X+X2.+X+XI.E.E.>.L.#X@X;.5 1 4 4 e ..XXoXXXXX@X@XXX2.+X:.4 e Y ! R r e e e r r e e e e e e r R e e ( &.~ % ( ~ ~ ! ! ! ! ~ ~ ! ! ! ~ ~ Y 4 &.....&.;.;.;.;.( &.;.;./ 3 3 w / /  . ..... .( Y &.,...( ( ( }  .&.&. .~ Y Y Y Y ~ Y Y / Y Y Y R R R Y Y Y R R ~ R R R 4 Y &.Y r R Y r Y Y Y Y ,.+XXX<.oX@XXX,.,.XX X,.XX+X&.3 ! @X@X<.+X+X+X@X@X+XXXXXXXoX+X@X,.,.2.oXXXXX+XXXXXXX@X X@X@XE E XX,.=.XX,.3 3 oX,.XX,.,.,.XXXXe 4 Y r 1 w w 1 ~ ;.&...;.:./ 4 3 e e Y ( &.;.( ( ..( ~ R ( ,.*.4 ( ..&. . .......( :.2.&.E / E 3 Y Y Y Y Y Y Y Y U Y Y U ! ;.,.] &.( ..&.&.&.&.&./ / / &.&.&.&.&.! e e ..<.2.:.:.;.;.&.( ( ^ ^ ^ ( ( ( ( ( ( ( +.2.M & 2 0 0 5 @X@XM _ ' ' _ +.( ( >.+X2 ! =X,.oXXX.X.X%./ =.=. X.XoXE , =..XXX XXX X,. XXXoX,./ Y @X<.<. X( ;.XXXX X X X XXX X<.:.+X@X;.< , T , Q %. X.X.X.X X X.XOXOXOXQ { -.W %.%.%.%.{ { E W 7 7 7 ",
"E E W W R T U U U , w U %.,.=.=.*. .Y w 7 , , , w U 3 > w ~ &.,.XX,.:.....,.2.<.XX,.XXXX.X, 7 3 U  XXX=.,.XX<.<.R.E.:X) 5 ( 3.:.<.XXXX,.&.] ;.<.<.XX+X;.% e w 1 1 1 ^ ;.@.@.L.E.E.1._ ^ M ^ o.+.$.+.+.+._ +.+.@.$X1.4 ^ ( ....( ^ B +.:.;.:.,.( ! ! ! ! Y Y Y Y ! ! ! ! ! ! ! ! 2.;.( ( ..( ( ........;.;.;.+.+.;.;.<.( M ^ >.o.V.C.N.C.P.P.P.P.U.C.C.C.C.C.F.C.P.` C.#XW.W.W.`.G.i -X`.B.B.B.B.n.T.n.B.S.P.*Xv ;.+X@X+XXX@XoX,.,.@X+X,.&.Y / @XXXoXXXXX+X@X@X@X@X,.4 / @XXX+X+X+X+X+X2.2.XXXX<.R.$XI.<.R.@X+Xe 1 w 3 > Y ,.oXXXXX+XXX<.+X@X:.3 e Y R e e e e e e t t t R R t R R ! e e ~ ..~ 1 ..( ~ ~ ~ ~ ~ ~ ~ ~ ! ! ~ ( ! e &.( ( ..&.;.;.;.;.;.:.:./ Y Y /  .%.&.&.&.&.../ Y :.:.~ Y ~ R ( / / / / R R R ~ e ~ Y Y ! Y Y Y R R Y Y Y Y Y Y R Y Y Y 3 Y &.Y R ~ R R ~ Y ~ Y ;.XXXX<.oXXXXX@X.XXXoX,.XXXX/ 3 3 +X+XXX@X+XXXXXXXXXXXXXoXXXXX2.oX&.,.oXXXXX+XXXXX+X+X XXX@X&.Y =..X,.XX@X&.R 3..XoXXX.XXXoX*.% 4 e w 1 w w 1 ! ( &.&.;.:.( Y Y Y w e ~ ....( / ( ~ ~ / ( ,.&.1 R / ( / / (  . .( ( ;.,./ Y Y Y Q Q Y Y Y Y Y Y Y E Y Y / :.,.] &.( ( / / / E E %./ / / ( &.&.&.Y 4 Y ....( ~ ( ( ( ( ( ;.:.:.:.;.;.;.;.;.;.;.+.@X+.M ! ^ ^ 5 #XR.M ^ ( ( ^ +.^ ( ^ +X;.2 ,.,. X X X.X-.*..X X.X.X=., Y @X,..XXX.X.X XXXoXXX*.U / ,.+X,.oXoX,.oX<.,. X X X X X<.2.>.+X+XR < U , , Q %..XoX.X.X.XOX.X.X.XW { { W { { { { { { { { W W T ",
"T U U U U U w , U , 7 7 R %.*.3.%.Y , > w w , > < > , < > } 3.oX3.3.=.*.,.2.2.<.,.2.3..X%.< , T 3 ,.XX,.XXXX<.$XU.U.-X_ 5 ! XXXX<.<.,.&.( &.<.+XXXXX@X+.5 0 9 1 w 1 ( 1.@.1.1.I.E.E.R.R.E.R.+.+.....( ^ ^ ( +.1.I.( 5 ( ..&.&...>.^ ..:.+.;.;.! ! ! / / Y Y Y Y Y Y Y Y ! ! ! ~ :.;...;.:.;...( &.&.....( ..+.;.+.;.>.+.z ^ >.L.Z.Z.V.V.V.L.@.@.U.L.U.U.U.V.C.C.P.V.C.T.W.W.).`.).d `.W.N.N.V.A.A.w.Y.H P.O.P.' z ;.@X+XXXXXXX,.XXXX,./ Y Y ,.@XXXoXoX+X@X@X+X<.+X:.4 ( @XXX@XXXXX+XXXXX+XoX+X+X2.+X+X@X<.@X=X..4 w w > w  ..XoXoXoXXXXX+XXX( 4 e Y R e Y ! B e e e e t t t R R R ! R e ~ ( ! 4 ( ~ ! ! ~ ~ ~ ~ ! ! ! ! ~ ~ Y 4 &.( / ( &.;.;.:.,.;.;.&.~ 4 Y &. .%.&.&.&.&. ./ 3 &.&./ ....( ( / / ~ ~ R R R R Y ~ Y R R Y / Y Y Y Y Y R R R R Y e Y Y 3 Y :.~ Y R r R Y w ! 4 &.XXXXXX@XoX,.XXXXXXoXXXoX XY 3 Y +X+XXX+X+X+X@XXXXX+XoX+XoXoXXX@X/ &.oX+XXX+X+XXX+XXXXXXX+XoX/  .XXoX3.oX@X2.,.,.2.XX3.+XoX~ % 4 1 4 1 w w 1 ( &.;.&.;.,.:.&.&...( / ( &...( ( / Y / %. .*.&., R /  . . .%.%...;.~ ( ,./ 3 Y E Q Q Y T T U U U Y Y U Y / &.;.( &.( / ] &.%./ %.%./ / / / &.&.&.&.! ! ..&.( ..:.;.;.;.;.;.] ] ] ;.;.;.( ( ( ( ( I.L.L.E.R.I.5 R.R.^ +.o.+.^ ..| >.( ! <.4 3 XX3..X.X.X=.=..X3.,.%.U U =.oX.X XXX,.XXXX,.*.%.E 3 / ,.oX,.,.XX,. XXX.X X.XXXXXXXXX2.:.,.@X*., U U , , W =..X.X.X.XOXoXOX-.W { { %.{ { { { { { { { W W U ",
"T T U U T T U 7 7 , w , 3 R  .3.Y 3 > > 3 , , w w , , > w *..X*.*..X.X,.3.,.,.XX,.XX=.XX .w , , 3 *.,.,.XX<.,.$XI.U.-X' 5 5 ,.3.3.,.,.<.XXXX<.,.2.<.+X~ 5 e 1 1 w 1 ~ ;.@.@.@.L.@.L.>.>.R.1.( ......( ! ^ ( +.1.@X( 5 ( ..( ~ ....^ +.+.( :.<.! ! ! ! ! ! Y Y Y Y Y Y Y ! ! ! ! :.;...( ( ......&.;.;.;.+...+.+.+.+.@.>.M _ @.>.@.#.L.L.@.>.L.L.@.@.L.L.L.L.P.P.V.P.A.C.F.F.D.D.D.f %XT.B.S.A.N.B.B.N.A.A.V.I.z 5 ! <.+X<.;.! 4 ! 3 Y Y 3 &.@X2.XXoXoX+X+XXX:...! Y % ~ +X2.@X2.XX@XXXoX@XXXXXXX+X<.+X@X,.XX@X/ 3 w w 1 > Y :.@X@X+X+X@X2.( 1 1 e e e e e ! e q e e e e t t R R e e e R ~ ~ Y 4 ..( ~ ~ ~ ~ ~ ! ! ~ ~ ~ ~ ~ e 4 &.( ~ / ..&.;.;.;.;.,.,...e Y *. . ./ / .... ./ e *.&.Y ( ..~ R / E R R R ~ ~ R Y R Y R Y Y / U R R R R R R R R R Y R ~ 1 Y &.Y Y R w R R e / Y ~ oX@X<.oX+XoX@XXXXXoXXXoX,.3 3 3 <.+XXX+X2.XX+X+X+XXXXXXXoXoXoX@XR / XXoXXX+XXXXX+X X@XXXXX@X&./ ~ / ..( ~ ( / / ( &.:.oXXXr w r 1 w w 1 1 1 ! ..&.....,.<.,.;.;.;.&.&...( / / ~ r / %. .*.&.3 Y /  ./ / / / / &.~ &.;./ Y R 3 Y T Y Y Y Y Y Y E Y Y Y / &.&./ / / / ] / / / %./ / / /  .&.&.&.&.Y 4 ( ,.;.( &.] ] ;.] ;.;.;.;.;.;.;.;.;.;.;.( @.L.L.L.@.>.% E.>.^ +.^ +.......! ;.+...5 3 &.XX.X,.=.T U R U w U < %.oX=.oXXX.X,.XX X%.U w w 3 U XX,.XXXX,.@X,..X X X X X X X,.,.2.3.oX*., , , U , U -..X.X X.XoXoX%.T T %.E { { E E { { { { { %.{ E ",
"W T T U U U r r > < R 3 > 3 Y E , > , , > w w 3 3 3 3 < 3 .X=..X,.3.,.3.3.3. X3.XXXX:.oXY > w 1 < *..X,. X X<.I.$XI.:X' M o ..@X3.3.@X+X+X<.I.R.+.2.@XR O 9 1 1 9 1 M ..>.+.+.1.+.@.+.+.+.( ( ^ ! ( e e ..( ..+X( e 4 ( ..( / ..( ^ ......<.,./ ! ! / ! ! / / Y Y / / Y 4 ! ! ! ;.;.&.( ( ;.;.;.;.;.;.;.;.&...+.;.+.+.1.^ ) >.>.@.L.>.@.@.L.>.#.L.>.V.V.U.U.P.P.P.A.C.C.A.A.G.G.A.i %XW.w.A.C.C.B.b.C.A.V.P.I.) ! ! ! 2 5 # b z M 5 e Y ! +X@XoXoXoX+X@X2.~ 4 4 4 e e e +XoXXX@XoXoXoXoXXX+X+XXX<.@X<.XX+X2.@Xo 1 1 1 4 5 2 ..@X:.:...r 1 1 1 1 r t t e e ! M 0 t B B t Y Y e e e e e e ~ ( Y 1 ( ( ~ ~ ! ! ! ! ! ~ ~ ! ! ~ Y 1 &.&.( ! / ( ( &.;.:.&.:.&.3 ..&./ ..../ ..&...~ e *.&.~ &. .Y  .E E R R R R R E / R Y Y R R Y Y Y r Y Y Y Y r r Y Y r ~ 1 4 :.Y R R R r r r r w R 3..X*.,.:.:.,.3.:.&.:.( 4 Y 1 1 3.@X+XXX+X@X+X$X@X+XXX+X@XXX3.E R R / &.XX@XXXoXXXXXXXXX@X@X,.Y 4 1 1 1 5 5 5 1 o w 4 4 R w w 9 9 9 9 9 1 9 r ( ] &.&.;.;.&.&.&.&.( / / ( ~ R Y / /  .:...Y w R R } }  . ./ E  ./ &.&./ R E Y Y Y Y U Q E R U R Y Y Y Y / &.%.] ] ] %.%.%.%./ / / / / / / ] %.] / Y &.&.&.] ] ( ] ;.;.&.] ] &.] ] ] ] ] ] ;.;.+.+.+.+.+.+.2 R.>.^ +.^ +.( +.+.( ;.;.( Y Y Y Y U R < < 7 > > 3 < ]  XXXXXXX,..X.X*.Y 3 3 U U w < .XXX,.,.XX=.3..X.X.X.X.X.X.X.X.X,.3.XX/ , w w U w , / oXoX3.oX=.E , 7 E E E { E W W W W W { { { { { ",
"W W T U U r 7 7 , w %.R e > 3 3 7 , , w > < 3 < 1 3 < 3 E XX,.,.,.,.,.3..X.X X X,.,.XX,.% o e > < [ 3..X X XXX$X+X>.:X+.. e 4 4 t 9 e 2 N ) ' z 2 M *.t > w 9 1 1 1 e ..;.+.+.+.+.+.+.+.+.( ( ( ..~ Y ~ ( ;.:.;.4 1 1 e ~ ( } ..........( ;.;.! Y ! ! Y Y ! ! ! ! e 4 ! ( / ! ! ;.;.;.....&.&.( ] &.&.&.&.&.....( ( 1.>.) N @.L.@.@.L.R.L.@.@.L.@.@.V.U.U.U.U.U.C.C.C.A.A.A.A.A.A.a %XW.b.F.C.C.C.B.A.P.V.I.I.) 2 4 % 4 L.o.a b v ! 4 Y  X@X+XXX+XXX,.@X2.e ! 2 % M e 5 ;.oXoXXXoXoXoXoX+X+X+XR.XX+XXXXXXX+X<.( ! ~ ! M M M 4 % 1 + O 1 9 > > w w t R t e M M 0 e e e e e e e e ! ! Y ! ~ ~ r 1 ~ ~ ~ ( ( ( ~ ~ ! ~ ~ ~ ~ ( ~ e /  .~ Y ~ / ( &.( &.( ;.&.1 ( ( ( ( ( ( ( &...~ e :.&.R  .( Y } R R R Y Y Y Y Y / R R R / E E E R R R R ~ ~ ~ ~ Y Y r ( 4 e :.Y Y r Y R R R R R w w O X 1 1 1 4 1 w 4 ~ ~ 5 1 e 3 ,.XXXX@X+XXX+X$X$X+X+XXXoX3. .> 3 w > 1 / 3.@XXXXX+XXXXXoX+X<.Y / ;.:.>.>.>.>.+...( } 1 w > w 9 9 9 9 9 6 9 r  .] ] &.&.;.&.&.&.] ( ( ( ( R Y R ~ } ....Y 3 3 Y R / R E E / /  ./ &.&.E Y Y Y Y Y R Y Y R R Y U 3 U Q R / %.E / / / / / %.%.%.%./ / / / / %.%.&./ Y &.&.&.&.&.;.;.&.( ] ;.;.( ;.&.;.;.;.;.;.;.;.+.+.+.$.+.2 R.>.^ +.^ +.( +.( ] ;.;.( Y , , w O , > , w > 3 3 Y *. X,. XXX.XXXXX/ 3 w R R R E 3 / =.=..X.X,..X.X.X.X.X.X.X.X.X.X,..X,.E 3 3 4 < e 3 > Y E U Y U 7 < 7 E [ [ { [ E W W T W W [ E { { ",
"T T U U U U w 7 > w ,.=.&.3 1 , 7 7 < w w 3 ....&./ < , Y =.,.,.,.,.,.,. X X X X<.,.@X( +.1 4 1 < T =.XX X X X<.&.XX=Xo e M 2 % 2 * a $ ` W.W.i z # 2 0 5 0 2 5 2 1 0 ..+...( +.+.+.+.+.;.+.....;.! ! ( ( :.:.e 5 e e 4 4 ~ ..( ..........;.;./ Y ! ! ! ! / / ! Y Y ! ~ ! Y 4 Y ( ..&...&.&.&...&.&.&.&.&.;.;.;.+.( 1.>.N M >.@._ N N _ _ _ _ N @.V.L.P.P.P.Y.Y.A.C.C.C.C.A.P.P.C.a #XW.b.C.C.C.C.N.C.V.@.L.>.! ! r w ..#X:X:X*X*X=X~ 1 +X X+X@X@X@X=X<.=X1.% M ;.0 2 M ! 2.@XXXXXXXoXoX+X+X+X+X+XXX+X+X2.@X( @X=X=X=X@X@X+X+.0 5 1 w w 1 > > w 9 r R t e e e e t t R t R R t t r e e R R Y w 4 ( ( ~ Y ! ! ! ~ ! ! ! ! ~ ~ Y 4  .&.../ ~ ! Y Y Y ~ / ....4 ( ..( ....( ..&...~ 4 &.&.Y ( ( Y / E R R R Y Y Y Y / / ~ R Y Y Y Y e e e e r r r r R Y e ~ 4 e &.Y ~ R Y r r r w w 3 < w :.XX:./ e O 3 e 2.=X2.4 % 4 3.XXXX@XXXXX+X X@X+X<.+X+X&.3 R ..*.} 4 4 &.+X XXX+XoXXXXX@XXXe ,.@X@X@X$X+X$X@X=X2.@X! e 1 t w 9 9 w 1 > w r  .%.( &.&.&.&.&.&.] ( ( ( / ~ Y ~ ~ ....R 3 3 w w R / / E E / %. . .&.&.R Y Y Y Y Y Y Y Y Y R R E Y Y Y Y / *.%./ / / %. .%.%.%./ / / / / / / / / / e &.&.&.( / &.;.&.( ( &.;...( ( ..&.;.;.;.;.;.+.+.+.+.+.2 R.>.^ ( ^ +.( ;.( ;.] &.&.Y < < w w ~ / ..( .. .U E  XoX.XXXoXXX.XXX&.U U Y Y w , U 3 ,.,.XX,..X,. X X X X X X.X.X,.=.XX=.&.XX2.2.&.,.&.Y Y w , U , , , 7 W [ [ [ [ E W U U U T T E E { ",
"E E W T T U r 7 < , ,.XX3./ ~ / R R < > 3 R oXoX@XXX3 < , Y =..X,.,.,.,. X X X X+X<.<.;.=X>.% 2 > 7 %..X X,.XX3..X3.+ w 2 % N #XV.i D #X:X%X:X:XU.x 5 2 * 2 2 * 2 1 q ^ ....( +.( +.+.+.;.;.;.;.:.! ! ( ..;.( 1 e ( ( e w ~ ....( ^ ......;.;.~ ! ! ! ! ! ! / Y Y ~ ~ e 4 Y ! 4 ( ( &.&.&.&.&.( &.&.&.&.&.&...( +.^ +.>.) ^ I.@.L._ ) z z >.E._ N _ ` V.U.U.U.A.C.P.Y.P.P.A.P.P.A.s #XW.C.P.C.C.C.C.V.L.>.>.+.q 1 w 1 & 2 #X-XW.@X@X..3 @XoX+XoXXXXX#X>.$X' z -X*X>.M ! Y <.+XoXXXXXXXXX+X+X+X+XXXXX+X+X+X<.e =X@X@X+X@X@X@X@X@X! w 1 9 w 1 1 w w R ~ ~ ~ ~ ( ( ~ ~ ! ! ! R t t R e R ~ R w 3 4 ~ ( } } ( ( ( ( ( ( ( ( ( ( ! 4 Y  .&.&.:.;.;.;.,.,.,.,.&.e / / / .. .( / ..( Y 3 &.&./ ( ../ ( R R Y Y e e e e e ! ~ ~ ~ R ~ ~ ~ R ! Y Y Y R R ~ ~ Y ~ 4 4 ..~ R Y Y Y Y R R R w % ..+X+XXX<.<.oX .1 ~ @X=X<.( < ,.@XoXXXXX@XXX X@XXX<.@X,.4 e 3.+X@XXX( > Y <.+XXX+X+XXXXX<.;.4 <.@XR.I.I.I.R.<.@X2.@X+.1 5 w w 1 9 1 1 1 w r  . ./ ( / ( ( ] ] ] ] ( ( ( ~ Y ( ~ ..( w w R R 3 Y / } / / / / / / &. .R Y R Y Y Y Y Y Y R R R Y U U U 3 Y / / / / / / /  . .%.%.%.&.&.&.&.&.&.&.( Y &.&.&./ / ! / ( ../ ! ( ;.......&.;.;.;.+.;.+.+.+.+.$.2 R.>.^ ( ^ +.( ;.( ( ( &.[ U 8 7 Y 2.2.<.$XXX+X.XU E .XoXXX.XXXXX,.3.=.E 3 Y *.&./ 3 < ,.XX,..XXX,. X X X X X X.X.X.X,.XX%.&.@X2.2.+X+XXXXX,.E 3 U E T 7 7 T E E { %.%.{ W W T T T Q Q W ",
"%.{ E E T U 7 7 > > *..XoX,.,.,.,.3.R < < / oX,.,.,.Y 3 3 , -.3. X X X X X X X XXX<.' #X#X-Xz 1 6 > E XXXXXX.X=.{ > 8 6 2 v %X#X:XW.%X:X%Xy.M.:X:XU.z 2 2 2 2 2 e 1 e ~ ........( +.+.;.;.;.;.;.;.( Y ( :.( 4 4 Y ( ( Y e r ( ..........&.;.( e ! ! ! Y Y Y Y Y ! Y e e ( ,.;.! ( &.&.&...&.&...&.&.&.&.&.......+.( +.>.^ ( $XR.L.L.L._ v @.#XI.) ' U.P.P.U.U.P.C.P.W.W.W.P.P.A.V.x W.Y.V.C.N.C.U.V.V.@.@.+.B + 9 R 9 1 +.@XL.E.;.;.<.! @X=X@XXX@X+X$X*XM.d %X:XR.=X<.4 4 <.<.@X+X+X+X+X+X+X+X+XXX+X+XXX@X( ! @X<.:...+.;.:.2.+X@X~ % 1 r 3 > w r R } } } } X. . . . . .} } } }  .} }  .~ w 1 3 1 R &.:.:.;.;.;.;...........~ e 5 Y ( } &.;.;.,.:.:.:.;.&.Y ( ..........&.&...! 1 ( &.( ( ..( ( ( ~ ! ! ! ! ! ! ~ ^ ..} ( ! R R e e e Y Y ! ~ ~ R R R Y 1 4 } } Y Y Y Y Y Y Y Y Y 1 ;.XX;.,.<.XX2.r ~ 2.@X@X@X,.e / ,.@XXX X@XXX+XXXXX@XXXY 4 <.@X+XoX+X:.e Y XX+XXX+X@X@X@X@X<.M +X@X<.I.I.I.R.1.I.<.+X+X4 4 4 4 4 3 4 4 1 4 w / /  . ./ / / ..&.&.&.&.( / / Y } } } Y 3 R  .R 3 w Y R E / / E / / %./ Y Y Y Y Y Y Y Y Y R Y Y 3 U E ] E E / / / / / / / / / / / / / / / / / / ( / Y &.&.&./ / e e ~ &.( Y Y ......&.&.&.&.&.;.;.+.;.+.:.;.2 +X>.^ +.( ..( ( ( ( (  .U 8 8 7 w XX+X$X$X$X+XXXT E .XoX,.,.XXoXoX@X,.Y 1 ~ XX@XoXY < / oX,.XX,..X X X X X X X.X.XXX,.,.Y / oX*.&.*.*.,.oXoX=.E U =.E 7 U E W W %.{ { { { W W U U U U U ",
"T T T U U U 7 7 w w *.,.XX,.,.XX3..X*.3 3 *.XX&.,.,.*.U w < E =.,. X X X X X X X<.( $X#XI.#XE.5 w 6 R ,. X:.%.E O 8 r y o :X#Xb.U.#X%XY.M.b.M.Y.:XE.z 2 0 2 2 1 w 1 e ! ..........+.+.;.;.;.;.;...( ! ( :.Y 1 ~ ( ( ~ Y w 4 e Y ..( ..;.;.;...Y ! ! ! Y Y ! ! Y Y e e / :.:.&.( / ( ( ( ( &.;.;.&.&.:.:.,.,.:.,.:.<.2.2.^ ! <.+XE.L.E.E.L.I.$XE.L.L.E.E.E.P.P.P.U.P.P.A.U.V.V.Z.P.b W.E.V.A.V.V.L.L.>.#.+.| q + y o 2 $.#X#X1.#X@X+X@X&.<.@X@X@X@X@XI.I.D A.:XY.I.R.@X<.4 ( @X+X+X+X+X+X+X+X+X+X+X@X+XXX+XY ( +X@X@X<.;.;.<.>.( +X+X:.e > 3 w > > w r r r t R R R R R R R ~ ~ ~ R R R R r w 1 3 1 e Y Y Y e e e e 4 e e e 4 1 1 1 4 1 % 1 5 5 1 1 5 1 1 e 1 Y ~ Y R ! Y ~ ( ~ e e ..&.....&.....+...........+.+.;.;.;.&...~ R t Y Y ! ! ! Y Y Y R R ~ ! e r ..&.;.&.&.../ R Y Y 4 3 XX@X+X@X$X<.XX4 ..@X@X+X@X@X:.w U XXoXXX+XXX@X,.@XoX4 4 <.@X@X+XXX+XoX( Y &.@X@X@X@X<.;.! 5 ! +X@X<.+X$XI.I.R.R.+X2.@X~ e e w 3 4 4 4 3 3 w R /  . ./ / / ..&.&.] ] ( ( / ~ ..} R w w /  .R w w w w Y /  ./ &. .&. .Y Y Y Y R Y Y Y Y Y Y U / / =.=.%./ / /  ./ %.%.%.%.%.%./ / /  . ./ / / &.( Y ,.;.:.&.&.( ! / :.,.( ~ ( ........&.&.&.......+.+.:.;.2 +X>.^ +.( +...( ( +.;./ r 8 8 7 3 / <.$X$X<.<.oX=.E ,.oXoXoXoXXXoXXX/ 1 Y :.+XXX2.XXY 3 XXXXXX,.XX X X X X X X.X.X.X=.%.U &.@X3.,.&.&.&.&.=.XX.X%.*.T , U [ E W %.{ { { { { E W T W W W ",
", , , , 7 7 7 7 w w =.=.,.,. X,.,.=.3.Y Y XXXX XXXXX,.U , , U [ ,. X X X.X X X X;.;.=XI.I.I.*XM 9 7 w R / Y 3 , [ 6 9 @ M #XV.#XU.L.U.U.#X` ) ' E.R.0 5 q 1 > 9 9 1 4 Y ^ ..........+.;.;.;.+.+...( ....( e e ( ( ( ( ~ Y e 4 1 e e ! ( ( ( ( Y Y Y Y Y Y Y Y Y 4 Y / &.&./ / / / ( ( ~ ! ! / ( / ....&.&.&.&.&.&.,.:.+.~ 0 ^ +.R.L.I.$X@X$XE.I.$X$X$X$X$X#X#X#X#X#X#XE.E.W.#X#XL.N E.E.L.Z.L.>.@.>.+.+.| | n 0 n * R.#X$X$XI.$XI.+X@X2.2.:.&.*.;.( ( ) _ :X%XW.$X( @X=X;.! +X+X+X+X+X+X+X+X+X+X+X@X+XXX] ! ,.+X,.<.<.;.<.@X+X;.~ XX+X/ % w R w < > > > > > 1 > O + + + > > > > > > 1 1 > 1 1 1 e 1 > o 5 1 2 4 4 2 2 4 w 1 9 w 4 e 4 1 1 4 4 4 e 5 4 1 e 1 1 4 4 4 1 > 1 w 4 > o 5 1 1 1 1 1 1 1 1 1 1 1 1 1 1 % 5 5 1 1 1 > + > 5 5 5 5 5 o o o O > o O + 5 9 e e e w 3 4 3 3 Y 3 ,.XXXX@XXX+X:.Y ;.@X+X+XXX+XXX( >  .@XoXXXoX.XXX.X/ 3 <.=X+XR.+X2.2.+X&.Y Y / / ] &.! Y e 2 e +X@X<.+X+X<.I.+XI.+X:.@X..1 w w 3 3 3 w 3 3 w R R  . . . ./  .....( &.] ( ( / ../ r r R / R R R R e w Y R ( / / / %./ Y Y Y Y R Y Y Y Y U Y Y &./ / / R Y R E / / / /  . .%.%.&.&.*.,.=.=.&.&.,.&.E ,.,.,.,.XX:.&...:.,.:.&.&.;.;.;.;.;.;.:.:.;.+.:.;.:.;.1 2.:.( ;.( &.( ( ( ..^ e 9 7 7 7 3 4 1.$X$X X XoXoX&.,.,.,.,.*.&.&.Y 3 4 &.+XXX<.:.@X.XY *.oX,..X X X X X X X X.X.XXX=.Q U *..X,.*.=.*. .R /  XXX,.=.E 7 7 E E T [ %.%.%.%.%.%.{ { [ E E ",
"T U 7 7 7 7 , , < w 3.,.,.,.,.,.XX=.oXE Y ,.,.,.,.=..XU U 7 , U OX X X X X X X X! @X<.I.I.$XI.>.> 7 > < 3 3 3 Y > e 2 0 2 #XU.I.<.+XI.1.$X' ) 1...2.e 1 r > 6 w 1 1 1 e ( ..........;.;.;.+.....;.( &.&.Y e ( } R ( ( ( ( } R 4 % > 4 4 1 1 4 1 3 4 3 3 3 Y Y Y 3 / ..( / ( ( Y :.:.&.! 3 1 1 1 1 1 3 3 4 4 4 4 4 Y 5 2 e 4 2 4 % M M 4 4 M M M z 4 2 z z N ) _ ' _ ' @.@.o._ V ^ % _ ^ M n M M 4 e 2 1 2 * = * . E.mX#X$X@X$X@X$X#XI.@XXXY 3 w Y o ;.mX:X:X#XE.$X@XXX<.=X;./ XX+X+X+X+X+X+X+X+XoX+X+X<.3 ! <.+X+XXX+X+X+X+X+X+XXX2.XXXX&.3 > 3 w w 9 9 1 9 9 > 9 9 9 9 1 1 > > > 1 3 > > 1 1 > 1 > 1 R +.<.:.;.:.:.:.:.:.;.:.3.:.,.<.:.2.3.:.,.<.&.:.;.3.:.&.&.&...~ Y R ~ ~ R ( ( ( ( ( ( ......&.&.&.&.&.&.&.;.&.....} ~ r w e e ! ( ( ....................X.} } ( ~ Y Y Y Y Y 3  X+X+X+X X@X/ &.@X+XI.@X@X@XXXXXw 3 oX@XXX@XoX.Xw < XX=X<.@XR.@X+X:.+XoX,.*.;.<.XX<./ 4 4 Y 4 2.+X<.+X+X<.@XR.R.+X2.+X:.1 w w 3 3 w w 3 3 3 Y R  . . . ./  .....( ( ] ] ( (  .R w R &./ Y / E E R e 3 w Y Y Y Y / / Y Y Y Y Y Y Y Y U 3 Y &.E Y E / / / E R U U Y Y R E E / / /  .&.&.&. . . ./ , R R / &.&.&.:.:.&.&.:.,.,.<.<.<.3.2.2.2.2.2.3.2.<.>.;.1 2.,.( ..( &.( ( ( ! 2 5 1 3 3 4 U 3 ;.,. XXX X X XXX=.Y 3 3 3 3 Y / ,.XX+XXX,.,.,.*.@X/ Y .X,.@X,. X X X X X X.X.X.X*.3 U =..X3.,..X=.,.,.=.=.,.,..X=.T , U T U T T T W W W W W W W E E ",
"E T T T U 7 , , , U *.3.,. X X,.,.,.XX/ E XX,.,..X3.,., w U , , E OX.XOX.X.X*.U ,.XX2.R.>.I.I.( r r r U U w 4 4 2 2 z a N $X>.R.,.oX,.,.XX&.Y &.,.,.e > r w 6 w 1 w e e e ! ( ( ( ~ ..;.( ;.;.( ..+.;...4 1 ( } ~ } ( ~ ( ( ! 1 ..3.3.../ &.&.~ Y &./ Y e 1 3 3 .. ./ / / / / ~ / :.:.Y 4 ~ / e 4 > 1 e e 4 4 ! ~ ~ ! ~ ~ ! e e 4 e e 5 e 4 M 5 M 4 2 2 4 4 4 5 % 5 5 5 z % . 0 2 2 2 & 1 1 5 1 4 o r 1 % z a C i ` :XI.E.@X@XoX@X$X@X+X@X&.3 / R e :.@X@XL.O.E.$X$X@X+X+XXX~ 4 XX@XXX<.+X+XXX@XXX@XXX! ! ,.+XXX<.+XXX<.XX@X@X+XXXXXoXXXXXY > w w R r R w 1 R w t 9 r R R O t R ~ ~ ~ ~ ~ ~ ~ ~ ! 5 t X.( ~ ! ! ! ! R R R R R R Y ! ! ! ! ! ! ! ! Y ! Y Y ! ! ~ Y Y Y e ....&.} ..........;.;.&.*.&.*.*.*.&.&.&.,.,.3.3.3.3.&.> e ..;.........X.......} ( ......;.&. .} }  . ./ 3 3 oX+XoXXXXX+X] ,.@X@X$X+X+X X+XXX/ Y ,.@X+X@XoX%., @X=XXX@X<.+X<.<.<.XXoXoXoX+XXXXX2. .3 3 Y 4 ! ,.+XXX<.R.+X@X<.+X3.XX3.> w w w w w 3 3 w w r R &.} } *. . ...&.&./ / &.&...&.r R } /  .R / R }  .R 3 < 3 Y 3 3 3 3 3 3 3 3 w 3 3 3 3 / &.Y / E R /  .%. ./ / U 3 3 , 3 3 , 1 1 1 1 3 w w 3 w Y Y e 3 3 3 > 3 w 3 4 4 > 3 % 1 1 1 4 3 3 e ! ~ e e Y e 1 4 Y Y 4 3 3 3 3 3 4 e o 5 ^ 5 5 5 4 < / XX.X X XoXoX,.oX%.< Y , / =X@X@X,.,.,.XX<.,.,.3.=.R 3 *.oX,..X.X.X.X,..XXX.X.XQ U %.=.3..X,..X=.3..X,.,..X=.=..X=., , , , , , , , , , , , , 7 , , ",
"W T T T U 7 , , , w *.3.,. X X X,.,.XX/ / XX,.,.,.=.%.3 3 , < U , U W W E W , < ,.XXXX2.<.<.R.:.,.,.3.=.=.,.<.<.U.Y.%Xi z E.:.2.,..X,.,.oX,./  .&.2./ 4 r w > > 1 1 1 1 4 e e e e 4 e ( ;.;.;.;.....;...4 1 ( } R } ~ ( ..e e ..:.:.&./ ~ ..../ ( &...&.( 3 Y / ..( ~ R / ( / Y Y ....Y ~ ,.XX<.2...w 1 1 1 e Y ~ ~ ( ( } ..} ( e r e 1 e 5 ! ! 5 e ..;.;...^ ~ ~ ^ 2 2 ..+.! ! M ! M e R t R ~  .R ..| B b N.mX:Xn.T.Y.#X+XXX@X+X$X$X+X@X:.U / Y  .XXR.R.R.o.^ +X+X@X+X+X+X( 4 / <.+X+X@X+X XXX@XXX&.&.<.+X+X+XXXXXXX+X@X+X+X+XXXXXoXXXoX~ 3 w r R w e R ~ ..R R t R t r 1 ~ ~ ~ ~ ~ R R R R R R + q ~ ! R e ! ! M e e t R t t ! ! ! ! ! ! ! ! e e ! ! ! ! ! ! ~ ! Y 4 ( ( } ( ( ( ( ( ( ( ( ( E R Y Y Y Y / R Y / &.*.*.*./ < w ! ! e M ! e e 1 e e e R R e e q r e R ~ ~ R w w 3 XXoXoXoX+X+XXX+XXX<.+X+X+X@X+X&.Y / ,.oX+X,..XR , &.+X<.+X@X$X<.<.<.XX+XoXoXoXXX+X,.R Y R w 3 e ..XXXXXX2.+XXX<.+X2.+X3.> r r 7 > 9 w w 1 > 4 4 R w w Y Y  . ...&.../ &.&...%.w R ~ / } R / } } Y 3 U %.:.*.(  . ...&.&.&.&./ Y Y Y Y / ] / R E E E R E / %.Y Y R / / R U , 3 3 4 e Y e Y Y Y ~ ~ R R Y Y r w e 1 3 4 < 4 3 e e 3 4 3 3 1 1 1 1 1 4 3 1 1 1 , 3 3 3 3 3 3 3 % 1 ! #X$X<.;./ / %.=.OX.XoXoXOXXX,.&.U , > &.XXXX,.,.&.&.,. X,..X.X.X/ 3 / .X,..X X X.X XXXoXXXE E %. X X,.,.,.,.=.3..X,.,. X X,.3.=.7 7 U U U U U U U U U U U U , 7 ",
"U U U U r 7 , 7 , U *.,.,. X X X X=..X%.-..X=..XXX.XE U , , , 3 , 7 , , , , , U -.,.,.,.,.:.2.<.,.3.3..X.X.XXXI.U.#X:X#X5 $X2.,.,.oXXX,.,.*./ ( ,.$X! 1 e e 4 1 e e e Y ~ ( / ~ ! 4 4 / ;.;.( ;.....&...e 1 / } / R } ..Y 4 ~ <.:.( Y Y R R ~ /  .( ( *. .w Y ..~ R / / ( / R Y  . .~ e Y &.:.:.2.<.;.( Y 4 4 4 e e r Y ~ ~ ~ ~ / ~ ~ R Y 5 ..3.:.2.XX2.;.( ( } } } e 1 ..2.;.! ( X...} ..} } *.%. .} } $.N D NXNX%X%XU.$X@X=X.X@X$X@X+X+X2.Y R  .3.=XXX2.@X:.! $X+X@X+X+X@X;.e / ,.@XoXXXXX+X+X@X<.;.XX@X+XXXoXXXXXXXXX+XXX+X+X+XXX+XoX+X/ 1 4 r ~ r t ~ t B q ~ ~ ~ r r 1 } ~ e e Y Y R R R R R O w R e e e M M M e t R R R R M M e M t t Y Y e e e e M e M e ! e e 2 ......( ~ ~ ~ ! ! ! ! ! E E R Y Y Y Y Y Y ( *.&... .~ 1 R ( ! e R ~ R R ( ! ! ! ! ! M B ! ~ ~ ~ ( } ~ R w 3 XX.XXXoXoXXX X+XXXXX@X+X$X@XXXY 3 U 4 e Y 1 3 < w Y oX@X+X2.<.<.<.XX+X+XoXXXoX3.oX.XR , U w w 3 / 3.+XXXXX2.+X<.+XXXoX*.> w > 6 9 9 9 2 0 0 1 5 e e w w 1 r ( .... ...&.&... .w r R / } R /  .R w Y &.,.,./ R ~ / (  . . ./ &./ Y Y / / / / E E E R E E / &.Y Y &.,.,.,.=.*.Y w 4 e Y Y Y Y R R R R R / R R Y U 3 Y E Y / %.&.&. ./ / E Y 3 1 Y ~ Y Y Y Y 3 Y Y Y E / / / ~ ~ } ! *X>X:X#X<.=.=.OXOXOX.XoX X3.3.=.U w E ,.,.,.,.,.=./ =.XX.X.X.X.X*.w U =..X.X,.=. X.X.X X=.E =. X.X X=.=.=.=.3. X,. X XOX X=.=.=.U U T T E W W W W W T T T U , U ",
"U U U U 7 7 , 7 , U *.,.,. X,.OX X=. X=.=..X=..X.X,., , < , w < 3 U , , , U 3 3 %.,.,.,.,...*.,.,.,.,.,.3.3.<.I.V.M.Y.NXU.1.+X,.XX,.&.,.oXXX&./ 1.I.) 5 4 4 4 4 1 1 w R  .........( e ! ;.;.( ( ......&.e 1 ~ } } R ..} 1 ! <...( Y w Y ~ Y Y Y ~ Y Y  .~ 4 Y / R E / R Y Y ~ ( &./ e 4 4 e Y e ! ..,.,.;.( e 5 4 4 4 w w w e e Y R R R Y 1 &.+X+X2.;...( ....&.} X.e 1 ~ :.:.;.....X.....} ~  . .*. .( >.o.x C.NX%X&X#X$XXXoXoX@X@X+X@X@X+X( / XXoX+XoX@X@X2...<.+X@XXX+X@X,.e 3 R ,.@X@X+XoX X] <.oXoX+XXX XXXXX<.,.:.<.+X+XXX+XXXoXXX@X( 4 w 1 t t B ~ B B ~ ! t R t r 1 ~ R r r r r r r r r R > e R e e M ! e e e e e e r e e M e e e e e Y R R e e M ! ! ! ! M M e ( ! M e ~ ~ ~ ~ ! R R R w Y R R E R Y Y ~ ( ( Y e R ! 9 e ~ ! r e e e e e 0 0 e e e ! ^ ^ ~ B M B ! ~ ~ 4 w oXXXXXoXoXXX*. X+X+X+X@X@X+X4 4 Y Y 4 4 ! Y 3 Y ! < ! XX@X<.<.<.XXXX+X+X+XXXoXXXoX3.R > > w U 3 R 3.+XXXXXXX@XXXXX2.XX&.> w 9 9 9 1 1 & 2 2 ^ ! ! ~ ( ~ e 1 / / .. . .&.&. . .w w R / / / / / w e &.,.&.Y 3 e Y Y R ~ ~ / / / / w Y &./ Y / E R Y E  .%./ R w 3 Y / / &.=.,.*.( e 4 e Y Y w w Y Y Y R R R R E Y w %.=.*.,.,./  ./ E / / Y 3 Y ..*. ./ / / / / / / / / / / /  .} 5 ' #X#X$X<.,.=.=.OXOXOX.XoX=.oX*., &..X.X.X.X,..X,./ *.XX.X.X,..X,.Y w  .=..X.X.XXXoX.X=.=.OX.X=.*.=.=.-.=.=..X,.=..X XOX X X3.=.w 7 U T R W W W W W W T T U , U ",
"7 7 U U U 7 , , , U -.,.,. XOXOX X=. XOX,. X,..X,.%.< Y E %.&./ , , U %.=.E , , %. X,.,.,. .%.&.<.<..X.X.X.X2.<.I.U.V.#X>X+.<.XX+X+X+X+X+X;.( ( ;.I.) z M 5 5 w 4 1 e ~  . .} } ( ..Y 3 / ;.;.&.+.....&.e 1 ~ } } } R w e &.:.~ Y Y Y R R R Y Y R Y Y ~ Y w ( ( } R U w U R }  .Y 3 3 3 Y Y Y Y e M ! ( &.:.( 4 e e w w w 4 4 4 > 3 3 3 3 1 ;.+X;...( ( ..&.&. ...~ w < 3 R &.2.&.......&.} r r  .*.*.} | +.^ x -XT.#X#X#X<.XXXX<.@X+X=X+X<.:.+X@X+XXXoX@XoXXX;.,.@X@XXX+X@X,.e Y e / ,.,.&.] / 3 :.@XoXXXXXXXXXXX;.] ,.XX+XXXXX+XXXXXXX@X( 4 1 ( ! t q 0 0 2 q 9 1 q R ~ 1 ~ ~ e r r e r Y r r R > q ! e ! M M e e e e t t t e e e e e e e e e e e e e M ! ! ! e 0 0 0 ..( ..( ! R R R R R R R r R Y 4 w 1 o 5 5 5 5 5 5 2 0 + w R ! t t r q B M ! ( ( M 0 0 M * * 2 2 0 0 0 e 4 4 oXoXoX+X+XXXXX X@X@X<.@X@X,.Y ,.@X@X@X@X@X@XXX@XXX;.1 ..@X+X<.2.XX+X+X+X+XXX,.=XXXR / &./ Y w 4 / 2.+X+X+X+X+XXXXXXX+X*.w r w 9 1 0 n n v 2 +.+.........~ 4 Y / ....&.&.&. .&.r > R / /  ./ Y Y / &.&.Y Y / R R Y Y Y R ~ ~ / Y Y E &./ Y / Y Y Y / / / Y 3 Y w U Y 3 U E / *.*. .Y w Y Y w w r U r w U U U E U w %.3.*.*./ E E E Y R / Y , 3 R &.%.E Y Q E / E Y Y E E E E R / / 2 ;.$X;.,.,.=.-.=.OX X X XoXXX%.Y .XXX.X.X.X X.XOXE %..X X.X=..X3.E , T E *.=.=.=.=.%.%.=..X.X-.-.=.-.%.=.=..X=.=..X.X X X,.3.=., , U T T W W W W W T T T T , U ",
"7 7 U U U 7 , , , U *.,.OX XOXOX X XOX X X X X.X3.T , =..X,.3.oX/ 3 Y XX@X/ , 3 E ,.,.,.,.%./  .<.<. X X X,.,.,.I.>.E.' :X#X$X$X<.<.@.( 4 5 1 M R.R.M % 0 0 1 1 w 4 r ( .... . . .&./ 4 Y ..;.( +.....&.Y > R } R *.w < &.&.e ~ Y R R Y Y Y R Y Y R R R w Y &.~ R w w R  .&.R w > > 4 Y ~ / / ~ ~ ! e e ~ &.;...e e w 4 4 1 4 w Y Y Y 3 4 1 &.<.( ( &.&...( ( / } r 3 w r Y ( ..;.&.....&.~ e e ( ( .. .R X.| * ` #X-X$X>.<. X/ ,.@X@X@X;.! 1.@X+X@X+X+X+X@XoX&.,.@X@X+X@X@X2.Y ( Y 3 Y E R Q R U ,.+X+X+XXXXXXX X/ !  X@X+X X@X+XXXXXXX@X( 1 e e . .   . . .   + o > q R 5 R ~ r r r e e Y Y r r + q ! e ! M e M e e e t t t e e e e e e e e e t R Y e e 1 5 5 o o o o 0 4 M ! R R t R R R R R R ~ e 1 e e 0 ! ^ ^ _ o.o._ n & 9 R ~ R ~ t e ~ ! ! M 0 2 2 2 2 b V _ $.@.o.^ M 2 1 2.XX+XoX+X+X@X X+X@XXX@X+XY ( +X+X<.+X+X<.<.@X@X@X@X4 1 &.@XXXXXoXoX+X+X+X+X@XXX/ Y ,.oX3.:...( ,.+X+X+X+X+X+X+XXX+X+X} > 1 + 1 0 0 * * = * 2 ^ ^ ( ( ..( e w R /  .&.&.&. .*.R > R / R } R w ( &./ Y Y Y / Y Y Y e e Y Y R R Y Y / / E Y Y Y E / / R U 3 3 E Y E / Y Y Y Y R &.:...Y 4 w r w w w 3 3 3 3 3 U 3 ,  .=.-./ Y / / / E / / Y 3 > w / &./ Y Y E / E Y Y R / / / E / *.3 ] +X;.XX&.=.OX X X X X X@XR / ,.oX=..X X X X.X=.{ -..X.X.X3..X=.R , w , T E T Y E U E .XOXOX X X=.E T E -.=.=.-.=.OXOX X=.3.=., U  .[ T W W W W W W W W T 7 U ",
"7 7 U U U 7 , , , U *.,.OX XOXOXOX.XOX.X X X.X XE , / ,.,.*.,.,.;.! ! ,. XR , U U OX,.=. X*.%.&. X X X X.X.X3.3.:.*.2.>.I.#X1.' ) 5 % o 1 ~ ! % >.R.^ . 1 9 y > > 1 e ~  .} }  . .&...Y 4 / ;...+.( ..&.Y 1 R E R R 3 w ..~ 4 Y Y Y Y w w Y Y Y Y Y R R w Y  .r w Y R  . ./ w < 3 w Y R R R R Y ! ^ ( ^ ! ~ ..;.4 4 4 1 1 w Y ~ &./ / ( ( 2 ( ;.) ( ( ( ( ( &.:. .R } *.:.&.&.&.;.;.&.&.&.~ Y ~ ;.( } X.X.X. .& 2 $X-X$X1.( &.&.oX@XXX;.! 4 <.@X$X@X@X@X@X@X@X:. X@X+X@X@X@X,.e > r U Y *.=.-.*.]  X+XXXoXXX X X&.! ! :.XXXXXX+X+XXXXXXX+X~ 1 e e o n ^ ! $.$.| q 1 9 e e 5 ! R e e e e e e e q r + e t e t e r e e e e t t t e M M e e e e t t R t e r e e 0 0 +.+.+.~ ..e e M ! R R R R R t t 9 e 1 q >.+XR.#XE.E.E.E.E.E.Z.^ 1 r r r t q e e ! ! 0 4 ^ R.@X@XE.E.W.W.E.E.R.>.! 1 <.XX+X+X+XoXoXXXXX@X@X+X] Y XX+XXX,.<.+X@X$X@X+X<.( e 1 4 3.oXoXoXoXXX+X$X+X@X~ e :.+XoXoXoXXXXX+X@X+X+X@X+X+X@X+X+X2.Y + 1 0 0 * * * a s x V +.^ ( ..( ..Y 1 Y ( ..%.%.&. .&.R > R  .R E w Y  .&.~ Y Y Y e R Y Y Y Y Y Y R R Y Y E Y Y Y R R / / R w 3 w Y R Y R / R Y R Y Y R  .&.( w 3 w w 3 , 3 w Y U w , 3 3 / -.%.%.E E E E E Q Y U U Y R  .&.%./ E { E Q U U Y E E E  .R R , *.XX,.,.! &.,.,.*.,.,.,.%.3 -.oXoX=.oX.X X.X.XOX-.OX.X.X.X.X.X=.T T E T E E E E { Q E oXOXOX.X.X-.{ E U E E %.{ { =.OX X,..X=., / .X=.U T T W W W W E E T 7 T ",
"7 7 U U U 7 , , , U *.=.OX XOXOX=..XOX X X X.X,., U oX,.,.,.,.:.,.<.<.,.,.] U 3 3  X,.,.XX X=.,.<. X X X X X3.3.,.2.:.;.R.M 5 5 x @.+X2.2.+X3.! o R.R.M & & 9 9 0 0 ! ....^ ( ../ /  .~ 4 Y ..;.&.( ..&.Y 1 R E } > R  .w e ( 3 Y Y Y R R R Y Y Y w Y / r e ( w E %.&.~ 1 % 5 4 M N ^ ^ N N V ^ N ! ! ! ~ ! ~ ( w w w 3 e ~ &.,.! 4 ! ;.,.4 ! ( ( ( ( ( ( ( ( ( &...&.:.&...:.,.&.&.&.&...~ ! ..+.;. . . . .[ 9 4 #X#XI.' ' <.+X@XXX&.4 4 ! @X$X+X@X$X@X@X+X@X X X@X+X@X@XoX,.w &.XX,.Y / *.*.=./ XX@X,.,.oX+X<.Y ! ! ! ( XX@XXX+XXXoXXX+X~ 1 e 2 = >.E.$.$.@.o.>.+.| n 0 5 ! e e e e e e e e r r > q e e t M e M M M M e t t t e e e e t t t t R r e r ! ..<.+X;.:.<.:.<.~ M M M e e r r r r q e B 2 M R.@X2.>.>.>.>.L.L.R.E.L.q t q q ! t q e e e 0 0 +.@X=X$X$X#XE.E.L.E.@X#X+.M <.+X@X@X+X+XXX@XXX+X@X,.( XX@XXX@X@X<.$X@XI.+X$X@X( @XXX> / oX@XoXoX+X+X@X@X<.4 ( @X2.2.@X<.+XXX+X2.<.@X@X+X$X@X$X+X<.R q ..+.* # a Y.:X:X;X>X*X_ ^ ( ( ;...> e ( ..%.&.&.....R > ~  .R R > &.( Y e e Y Y Y Y r Y r Y Y Y Y R Y R / U Y / / / R w > > 3 Y E  .R R E Y R / /  .U U &.*.R 4 w Y 3 3 3 E &.%.E 3 Y Y / { E %.E E / / / / ! ! ( ..} / E /  ./ E / E Y Y R / / E E R E E .X=.,.*.4 Y Y / &..X=./ < / .X=.oX.X.X.X.X.X.X=.=.OXOX.X=..X.X*.Y %.=.-.E { E E %.T W .XOX=.=.=.%.=.=.E , U E W U {  X X3.3.=.3 *.@X3.3 U U T T T W W W T 7 U ",
", 7 7 7 7 w w , , w -.=.=.OXOX.X=..X=.=. X.X.XY Y *.XX X*.,.,.:.,.,.,.,. X%., 3 3 { .X=..X X XXX,.,.<. X X X,.,.,.,.2.R.' z ) $X#X+X<.<.,.,.*.&.e % ^ n = * # z $ $ a $ z _ ^ ..../  . .w e ......&.( &.( 5 R } w R Y w U R E Y U U R E Y w U R Y  .Y U ~ e e / E W w e z # i f f f d f 8.q.8.f x n ~ t } r ( / U 7 , R ,.;./ U / ! ,.;.;.1 ! ( / ( ( ( ( ( ( ( &.&.........&.&.&.] ,.&.&.~ ..&.&.&.&. . .X.5.+ B @X@X' ' I.I.+X,.! Y ! 4 / XX@X+X@X@X@X@X@X+X+X+XoX=X2.+X=X( Y 2.@X@X<.../ / ] R ,.oX3.3.2.>.@.z #X-XI.M e &.2.@X X<.oX+X( e 0 % _ R.P.` F F F V _ o.o.n 2 0 ! e r q q q w e R r > w w q M 0 ! z ^ . . e t t w R q q t t t w + O X 1 ..2.:. .&.( :.;.&.;.2.;.0 M M 2 M B 0 0 0 & B % e +X,.&.,.&.*.:.:.>.>.<.R.>.0 B 0 t t t t t & 0 2 :.+X2.<.<.:.1.I.I.>.L.E.R.R.I.R.@X@X+X@X@XoX@X@XXX( @X@X+XXXXX+X+XXX$X$X$XI.@X@XXX@XXX,  X=X X@X@X@X$X@X;.4 ,.@X2.@XXXXX+X+X+X$X+X@X@X$X$X$XI.<.R.0 >.>.#.# $ `.cXcXxX;X:X*XG z _ +.^ ..R , R *.( ( &./ ..R w R ~ w 3 Y r w w Y Y R Y e r w r r Y r e Y Y Y Y Y E E E R > , , < , U Y *.R / / / R E E E E  .R U / R 3 U 3 4 ! &.,.] Q ,  .[ 7 E %.%./ / / &.! M ) z 5 ! ! / / / / E E E E  .Y R  .R R R w R 3 w 3.%.oXU < &.&.Y *.=.T , U -..X.X=..X.X.X.X.X.XOX X.X.X=..X*.oX*., .X,.=..X-.{ E E E %..X XOX=.%.%.=.OX=.=.%..XoX%.U %..X*.,.:.~ XX+X<./ ,.,.,./ T U T W T U 7 ",
"7 7 7 7 w w , , , w =..X X XOX X=..X.X=.,. X{ U *. XXX X X X X,./ &.,. X.X*., U 3 { oX,..X,.,.,.,.<.<.,.XX.X.X.X,.XX<.;.5 E.*X$X<.<.,.,.,.,.=.=.1 1 2 * * N ` C A.A.C.-XA.a _ ( ( / / %.Y e | +.:./ ~ :.! 5 r w q t ~ / / E E E E E R R Y U Y R U w , > > 1 e U U , > o # `.;X;X&X;XxXxXcXcX9X~.w.x B 0 0 ..! Y U U Q  X1.Y U / ;.( ..e ~ 4 / ! / / ! ! ( ( ;.;.;.;.;.;.;.;.&.&.:.&.&./ ( ( :.;.....( } &.:.^ * n #XE.` L.I.@.;.,./ Y ( Y 3 ;.@X+X@X@X+X@X@X@X@X@XoXoX+X=X<.1 :.@X+XXX@X+X;.&.:.*.%.,.XX2.@XR.z E.#X#XE.' ( ~ Y XX+X@XoXXXR e 0 B o.#.Z.Z.Z.Z.@.F _ _ ^ n 2 0 ! e r q e t q 9 + > > w R ~ ! 2 4 z . +.+.@ 9 t 9 q 9 9 1     > 1 r 1 % 4 ( &. .&.&.&.&.&.;.;.+.+.M 2 2 & 2 % 2 2 ^ ^ 5 M &.&.*.%.=.=.*.&.;.:.<.<.E._ * & & + & & 1 q 0 2 0 ~ ;.( ;.:.,.<.<.1.@.@.R.E.R.L.R.I.<.XX@X3.,.<.&.<.+X+XXXoXoXXX:.] ,.$X$X$X+X+XXXoXoX=.Y @X@X$X+X@X@X@X<.e ,.+X<.+XXX@X+X@X+X+X$X$X$X X+X@X+X@X;.r X.} Q.= S.}.`.!.~.!.G.S.Z._ n | ../  .3 Y &.&.( &.( ..! 9 3 Y Y Y R E R Y Y Y e e e Y r r r t R ! e e 4 > 3 U T U , > w r R E E / Y / / / R / / / / R E E /  .Y 3 Y 3 ,. X] R 3 3 /  . .U E %./ / / ( 4 ( ) % @.#X) 4 / / Y E E E  .~ e ( ! e e 1 5 ....1 < *.XX .< &.+X<.<..X[ , < [ =..X.X=..X.X.X.X.X.X.X.X.X.X.X,.oX,.w / @X=.=. X=. X=.=.%.{ .XOX.XOX-.-.OXOXOX=.OX=.=.,.E U %.,.:...:.+X+X,.<.<.<.,.,.%.T U E T U 7 ",
", , 7 7 , , , , < , %.=.=. X=. X=.=.=.E Y E , T  X X,.,.,. X,.:./ ] =.=. X%., , , E .X=..X,.,.,.,.,.,.,..X.X.X.X,.&.4 ! <.=XE.>.<.<.<.,.,.=.=.,.Y Y 1 ^ I.#X:X-X#X-X-X-X-XN.a ^ +.( ( &.! 2 M ^ ~  .....e 5 e & ......../ Y E / / ! / ! Y ~ ~ R r > w R R } } w *.> e b C NXcXNXcXcXcXxXCXCXxXcX;Xw.x V v ( ! ( 1 / ;.( 4 ) ] / ( ! 2 % +.~ / ;./ / / / ( ( ( ( ;.+.;.+.+.+.....;.;.,.;.<.>.>...;.:.:.+._ x d i Y.;X;X-X#X@.^ +X*.-.E E Y Y  X@X+X@X+X+X@X+XoX@X@X+XXX@X@X~ ! @X+X@X@X+X+X=X@X,.@X/ Y ,.2.>.@.' -X#XY.U.E.+X&.Y ,.XXoX.XoX .w 1 0 2 * v m V V V o.^ ^ M 2 % o 5 > > O O > 1 > + 1 O O X X + % 2 5 ( @X^ o 0 w w w 9 q t e ( ;.:.:.;.( e Y ~ ( ( &.&.&.&.&...:.2.n & ..^ +.:.<.>.>.| ..:.} / =.%.-.-.%.&.&.;.<.I.L.L.z _ ^ | $.>.+.R.1.>.( ) ;.;.&.=.*.&.;.>.>.@.@.L.L.@.+.+.+.:.Y , 3 Y ] =X+X@X+X+X+XXX:.] <.@X$X@X+X+X@XoXXX@X&.+X+X@X$X+X@X+X@X/ ;.+X+X@XXX+XXX+X+X+X+X@X@X@X@XoX.X@XE &.&.} 0 . E.*XE.W.Y.V.O.K >.>.q R *./ %.w 3 / &.( ( ( ..~ w , R  . . . ./ E R R ~ ~ ~ Y R R Y Y R r w w e Y R / / R Y ~ R R } ( ..,.Y ( / / / ~ ! Y Y / / / %./ w 3 w  ...t > > R X.3...( 4 ! :...( R ..^ % z #X:XW.P.! / / / / / / ( ~ 2 N 5 % ' @.I.+.( 1 5 ! 2.3 ! @X#X1.I.<.&.U U =.3..X.X3.3..X.X.X.X.X.X X,. X.X3.XX} r oX=X.X,..X3.,.,..X-.E .XOX.X.XOXOXOX X=..X.X=.=.oX=.T U ,.,.:.@XXX2.;.XX,.;.,.,.-.W 7 U T U 7 ",
", , , , , , , , , U -.=.=. X X.X.X.X-., , , , -..X X,.,. X X X X=.=.,.=. X%., 3 , E .X X.X,.XXXX3.3.3.3..X.X.X.XXXY < ! =XI.( >.<. X X,.OX=.=.,.Y 3 1 >.R.1.#X#X#X%X%Xb.W.-XD 2 M 4 1 e 4 o 1 2 < 3 o o 5 % . . . . % 0 ( &.&./ ( ( ] ( ( ( ..( r w R R R R R R + 0 v . L mX-X`.`.`.%X`.H.H.`.xXNX;Xc H D N ( ( 4 U ! ! ! ;.;.+.% 5 _ 2 o e :.3 ! ! ! / / ( ..+.( ;.;.;.;.+.+.;.] ] ,.;.1.) v 2 2 % = = a H F.%XNX&X`.;X:X#X+.( =.OXT w E &.@X+X+X@X@X@X@X@X@X@X@X@X@X@XY 4 +X@X+X2.2.+X+XXX+X@X+X&.< Y +X<.( E.#XI.U.U.I.$X<.:.,. XXX,.+X .e ^ 2 * = * = = a B 2 2 1 2 1 1 9 w w r t w 1 1 9 q t w t w w w 1 2 ^ =X+.. 2 5 5 R 1 e ( &.+.+.+...^ ;.;.( ~ ! ~ &. .*.*. .( ..:.:.+.0 R.:.3.<.<.;.;.+.R.@X:.R %.*.-.%.*.&.&.;.;.1.@.P._ $.>.>.>.>.R.R.1.#XI.;.( &.*.-.*.&.&.:.>.@.L.#X#XE.E.$X#X@XY , 3 3 XX@X@XXX+XoXoXoXoXXXXX+X+X@X+X+X@X@XoX@X<.<.+X=X@X@X@X@X+X~ ;.+X@X@XXX+X+X+X+X+X+X+X+XXXoXoX@X+XY ^ 2 = # = E.*XE.E.L.E.E.o.>.R...~ *.%.%.E U / :.&.( ] ..R w w E %.%. . . ./ E R R Y Y ~ R / ( ~ e 4 4 4 Y  .&... . .......+...! e ~ ( 4 e ~ ....^ ^ +.' ) ! ! 4 1 5 5 ..+ > ~  .*.*.t B ^ 2 2 0 % 2 M 2 2 _ #X*XO.a x 5 Y Y Y / / ! ! 2 @.#X#X#X#XU.' ^ ! ~ ! 5 ~ 2 @X$X#X1.I.$X@X/ Y XX X,. X.X.X.X.X.X X X.X X,. X.X.XR w *.=X.XXX.X.X,.-.=..X-.Q .XOXOXOXOXOXOXOX=..X-.=. X=..X-., / ,.XX+X,.<.;.,.,.*.=.,.=.%.W U U 7 7 ",
"> , , , , , , , w U *. X=.=.=.=.=..XE , , < Y =.=.=.=.,.,.=.,.,.,.=.=.=..X*., , , U ,.=.,.=.,.,.,.3.=.=.=.=.=.=..Xw w 3 :...R.<.,.,.,.,.OXOX X,./ 3 ] @X+X' @.*X*XE.O.V.O.W.*X2 o > X < w T R R / Y / ( M z @.#X@X>.z . . 5 e e ! ! ! ! Y e e w X o w 1 5 o   @ = = # $ W.W.S.Q.E.L.L.E.E.E.E.E.;XNX).f D ^ ;.4 Y U Y Y Y &.! 5 b E.:XE.) % 2 +.( ( ! Y Y ~ ..;.( ;.;.+.+.+.+.;.,.;.,.;.1.) @.*X*X#X-X:X>X:X:XxXr.d d c N.-X*Xe R T r *.=X@X@X@X@X#X@X@X@X@X+X@X@X@X@X+X1 % R.@X+X+X+X@X@X@XXXXX&.&.3 % <.=X@XI.I.I.I.I.<.<. XXX1.$X$XI.I.! v E.E.E.E.W.W.P.E.#X2 1 9 r r R R R w Y ! R t B B B q q R t t t 9 2 +X+.. % 5 . 5 e o e :.2.:...+.+.+.:.:.;.( M 4 ~ ..&.*.&.:.3.3.:.>.M 2.( ( ( } ( ..+.<.+XXX} Y %.%.-.*.&.....( ( @.L.I.N ..;...+.>.( ( I.L.>.! ( -.-.-.=.:...( _ L.E.E.E.E.#X#X@X/ Y U / @XXX@X+X+XXXXXoX@X@X@X+X@X+XXXXXXX@X@XR.^ ^ <.<.;.;.,.( ~ e ;.+X+X<.2.@X+X+XXX+X+X@X@X@X$X@X$X' x G C B.T.B.d Y.W.E.$.E.@._ +.R.2...E / / E U 3  .%./ /  .Y , 3 / / E  .E /  . . . ..... .~ ~ ( Y 3 1 ! ..&.;.;.&.....+.o._ ^ * % % 5 >.( ^ ! M 2 2 * a d i i i $ a * # M 0 ..:.;.&.:...:.B & z n b D C C G #X*XF a V M 4 Y e w ~ ..( ! _ -X#X#X%XU.` _ ^ ^ ;.^ o 4 <.=X$X$XU.1.1.$X3 ! XX<.,.<.XXXX XXX,.,. XXX X X X.X,.4 % :.=X*.,.3.,. X.X.XoX%.U .X X X XOXOX.X.XOX.X=..X.X=..X.XE 3 &.+XXX,.,.<.&.,.,.=.=.=.=.{ 7 U U w ",
"> , , , , , , , , , -. X.X.X=.=.=..XT , , < %..X=.,..X.X,.,.=.,.,.=.=.=..X*., < , , =..X.X3..X=.3.3..X.X.X=.=.3..X*.3 < 4 ,.2.:.,. X X XOXOX,.=.Y 3 XXXX:.@.@.*X=X1.@.L.O.P.*X#Xq ~ 7 7 [ -.-. .%.~ ,.+.5 @.-X:XL.W.#X>.M % 5 1 1 1 1 4 e e w 9 ..% o % z _ o.E.-X:XW.d k C W.E.E.R.<.3.3.3.3.E.G.;XcXr.` +.e 3 / ;.:.> 1 } 0 = *XW._ _ @X+.% % M ! ! ~ ~ ( ....&.;.;.........+...( ] ( +.n L.>XP.N.N.N.N.N.N.B.B.w.C.b.a _ L.0 r r } 2.E.E.E.A.P.E.E.E.$X$X$X@X@X@X+X@X1.2 ( @XI.@X#XR.+X=X<.Y ! e 3 1 Y 2.=XR.I.$X$X+X+XXXXXXX1.1.$X@X@X^ 2 @.@.O.O.@.V.@.O.$.M t R R R r r r ! ! e 0 n V V n V B ~ B R } R ! +.. % 2 2 2 % 5 5 2 ^ ;.;.:.<.2.+X:.! ! ^ M 5 5 e r ! ..;.;.;.:...M :.( ....:.;.>.;...&.oX,.U E %.%. . ...&.:.<.R.R.@X! ( :.:.>.:.:.2.+.+.+X..} -.-.%.*.&...1.L.#X#XW.E.E.$X#X+X1 w 3 +X@X+X@X@X+X+X+X+X+X+X+X@X@X+X+X@X+X@X2.M ^ 5 2 5 2 4 4 % e 1 ! :.+X@X@X+X+X+X+X@X@X@X@X@X=X*X#XV.-X:XcXmXcX;Xi s Z.E.>.>._ E.L.1.>.;./ %.%.%.T , E %.%.%.*.R 1 w /  . .&. .%.%.&.&.......&.( ~ ( ! 4 Y ....( e 0 0 M 0 0 * # # # b M 2 2 +.^ M v o.E.#X#X`.`.`.%X-X-X-X-Xz N M 4 ) ! ) ;.^ 0 n *X-X:X:X-X-X-XP.D N n 2 M :.:.( e r ! ! 0 5 *XL.U.#X` D _ ......e 1 ..=X+X+X$X@X@X$X<.4 XX<.,.,.<. X X<.<. XXX X X X X X,.*.&.1 R @X3.=..X,..X.X=.*.T 3 .X X.X X X.X.X.X.X=.oX.X=..X.X=..X3 R 3.2.XX,.oX,.,..X=.=.OXOX{ 7 U U U ",
", , , , , , , , , , %.=.=.=.=.=.=.=.E 7 , U -..X=.3..X.X.X3.3.,.3.3.3.,..X*., 7 U , =.,..X3..X=.3.=..X.X.X.X.X3..X,.> 3 ! :.( ;.,.OX X X,.,.,.*./ / @X+X;.<.+.$X$X' L.V.V.W.E.:XV ^ e U  . . .R &.( ! 5 ' :X-XV.N.P.W.W._ % % 0 } r 7 R  ...X...+.% I.:X-X-X%XW.;XcXxXcX;Xw.w.A.L.R.+X+XXX<.2.E.F.!.NX).D ^ < R ,.] ..~ R 9 & *X#XP.E.L.z @.R.2 2 4 e ! ( ......&.&...} ~ ~  ...;.;.,.;.>.n $.:XD G N.N.O.K K O.Z.o.@.$.a = 2 2 0 % n g p A Z S Z Z H ` ` ) ) ( $X@X$X@X#X>.1.R.I.@.( +.+.! 2 5 e o 5 e O 1 ..:.+.+.;.;.;.=.*.&.~ 1 } &.oXX.+ - 9 & @ & - 9 - + 0 e e e ! t ! ! 0 M M v a a * = a * v 0 q B 1 o 5 % M 0 M ^ 1 5 ! 4 1 4 e ! ! e ^ 4 o % ( :.+.^ M e e e 1 1 0 M M ! ( ( ( ..&...3.:...Y ,.XX/ Y / / /  ...;.:.<.+X3.,.~ R X.*.X.:.:.:.! X.2.3.t [ { %. .( ;.I.$XE.V.O.@._ @.I.I.4 Y &.=X@X$X+X$X@X@X@X@X+X@X@X@X+X@X@X@X@XL.V * V $ a 5 M M Y ~ ! 4 1 ! >.@X@XR.@X@X@X+X,.( ( ( ( ..+._ #X-XW.G.`.:XZ.* 2 r %.( >.#XE.1.@.;.( &... .R U R  . . .( M 4 4 ~ ......&...( ! ! e 4 2 2 2 2 5 % % 5 2 % % % 2 2 z z z _ ` O.*X:X*X=X* | ^ N N @.W.#X#X`.`.`.`.`.W.W.:XF p x O.D a i $ * a O.:XN.C C Z C s a z b v v M <.>.( 5 + 5 o @ 2 E.o.+.E.o.V +.} } t 1 w ..+X..1 / &.<.,./ Y &.<.XXXXXX+X+XXXXXXXXX,.&.&..XXX,.,.oX&./ =..X,..X.X*./ Y 3 , , %.{ { { { %.%.%.%.E -.E Q { E T  .w w / *.&.%.&.&.*.*.*.%.-.-.E U , , , ",
", 7 , , , , , , , < U U , , , U U 7 T < < T T E E E E E E  . .E E E E E / Y < 7 7 O Y T U U E U T R E E / E E R / 1 3 3 X o ~ / / ] ,.,.,.=.,.,.Y Y 2.<.1.<.+.<.;.1.` V.V.W.-XP.z M 2 Y &./ / &.Y ..M v -X-X` Y.W.C.N.#X#X@.2 & 4.T 7 R *.X.....o.% *X:X` c Y.).xX&XJ.'.mX`.Z E.E.I.<.<.<.I.+XE.J.`.cX`.$ 2 w Y % 5 4 5 9 & * -XW.P.` V.L.N v R.+X<.( 0 5 % % 5 1 > > o   o 1 w 1 e ! M | n $.-XV.V.V.#.#.$.$.$.| o.$.| n 2 2 n v # W.:XbXmX:XNXcXcXcX:X-XL._ ) E.$X#X@X$X*X*X_ L.L.@.z % 5 2 % % & & 1 9 & o & 5 5 5 o o % % O 4 . 5 5 ~ B + & 0 0 0 ; ; 0 9 9 n 0 0 n 0 0 0 M 2 #.*X-X*XW.E.P.N.D b = * M q q 1 M M ..^ e ~ 3 ..( ( ~ e e ! M 0 2 5 0 2.=X=X@X@X=X@X! % 5 2 5 % 4 2 2 e ! &.:.......1 Y 3./ 3  . .....( ( ( ( ! Y 1 } R } *.} } X.e q 4.3.2.r > R %...( +.@.' ) z a a $ z o.#.0 % ;.1.>.I.$X$X$X+X@X@X@X@X$X$X@X@X+X<.@X$.a F $ ` #XF 2 2 0 e 0 M M M ! ..R.@X@X@X@XR.( M 4 M e e 0 2 a h C h h a B % e O 3 > n F _ _ ( M 2 5 5 o o % 5 & % & % 5 % % e ^ ! e 4 2 2 M ^ o.$.$.o.#.>.@.@.>.+.^ 2 ^ R.*X*X*X*X-X-X-XE.*X$.$.:X^ 2 V _ _ _ V.U.V.b.C.b.N.O.b ` -XW.$ E.mXC.s F.C.D $ x :XN.N.N.L G D D N v M M 4 ! ^ ! 5 & 1 9 0 % | ^ ! $.| B X.~ R 9 > 1 9 w Y 4 &.< < U w .X@X+X@X@X@X@X@X@X+XXXXX,./ %.,..X,.3.XXoXXXY *.XX,.=.Y , < 3 3 < , , , , , , , , , U < , U , , , < 7 , > w < w 3 < , < < < < < < < < < < ",
"7 7 7 7 7 7 7 7 , , , , , , , , , , , , , , < < < < , , , , , , , < < , , , , , , , , , , , , < < , > < X < < 1 % 4 ! e ..+X@X=X,.Y ,.&.XX&.&.<.e ~ @X<.<.>.+.>.;.<._ E.#X#X#X` * M M Y ( ~ Y ..( M 2 :X#XV.U.Y.Y.T.C.N.#X#XF & } r > [ *. ...^ N % -XW.W.W.%XT.T.T.b.W.;X:XN.` $X1.I.I.L.E.U.M.).cXxX;X:X#X2 ! #X#X#X#X*X*XN.i Y.P.A.V.O._ N z R.R.R.n % | +.! M ! ^ 0 % 2 0 0 e 2 5 % # # v L.E.V.#.E.$.+.R.| $.| | n & t *.| b $ >XNX-X`.H.H.J.D.A.G D @.L.( ' #XE.#X-XW.#XP.N #X:X>XL.$ _ = * = = = = * * # & % . 5 n 2 5 2 x ` P.E.E.V.` ` b.` ` b.V.V.V.L._ | ^ V ^ @.o.z a V.W.Y.Y.W.`.%X-X:X-X#XE.2 B q ! ! ^ ! ! ~ ! 1 ;.! ~ ( e ( ! ~ ( ..5 o :.3.~ ! M M o.% ^ @X#X#X+X+XI.;.( ! Y 4 e e e e e 4 4 4 e e ! e 4 4 5 M ~ ! r w w R t w 9 9 1 0 B B t w e Y 1 5 4 5 z D N $ L.E.a v V 2 2 2 . % 5 N ' V.@.I.' 1.@.+.' _ ) ( ! 4 z n b $ S.mX:XV # 2 e ! ! M M M M 4 z ) +.^ N _ z ^ ) M M t B n v g n n m m n n B R U 4 2 * * * = 2 = 2 z z z z x x x a z = 5 5 # # 2 % = z 5 E.#XP.P.V.Z.V.V.V.Z.#.$.o.# L.*XE.N.A.A.A.V.P.V.E.E.N @X>.& 2 z N _ @.` _ _ n B o.$.V o.R.o.a ` -Xb.c NX:X:X` x -X#XD N.N.O.O._ @.^ ! ( 5 z _ | B | R.R.$.+.^ V B | | } B 1 0 0 2 2 2 1 5 1  .*. .w O =X=XXX<.<.,.;.&./ / / / / E E *.3.*.XXoXXXXX&.Y %.,.,.R < < 3 3 , , , , , < < , , , , , , 3 w , < U U w U w , 3 , , U U U 7 U U U 7 =.*.*.",
"r r 7 7 7 7 7 7 w 7 , 7 , , , , , , , , , , , , , , , , , , , , , , , , , , , 3 w , , , 3 w 7 , , < 3 / :.,.<.<.+X+X+X<.2.+X:.,.;.&...( &...;.+.M 2 +.+.>.<.+.>.( ;.( E.#XE.P.N b 2 o X % > % 1 e . R.:X` P.A.C.C.b.Y.P.O.*X*X2 9 1 X 1 1 % 5 % # # -X#XW.T.#XW.W.P.D -X-X-X-X* >.R.1.@.I.` U.-X:X`.'.`.-XW.% I.%X%X#XW.#X-X`.G.$ C P.W.P._ N v >.o.>.+.^ +.>.R.+.+.>._ V $.>.L.>.^ z z N x $ i $ b N B o.+.| | 0 % % & 2 ..3...D a #XC.H B.B.w.B.b.O.@.L.E.>.4 z W.` N #X#X-X-X$ s k ` x x E.P.A.W.W.A.P.P.E.E.o.E.o.b z z N P.%X%X%XT.Y.T.W.%XW.).T.T.M.H H ` @._ o.$.L.E.Z.x D V.A.B.B.B.B.B.r.w.b.` E.$.n B B B ~ ~ ~ ..( e ( ! ^ ( M ( ! ! 0 ..! 2 M M e ~ N * v N E.@XL.@.>.1.<.<.;.Y 4 4 4 2 1 4 e ! ! ! ! 4 1 2 ! ^ M M 2 4 ! ( e 5 5 2 M n M z 2 & 2 0 ^ 2 N z ) L.x z N -X>X*Xo.n n >.b * *X#X#X-X:X-X-XW.N @.L.L.L.E.1.' @.@.Z.F b A.mX-XC $ 2 M 0 M M N ) N N N ^ _ N N N @.@.' ' @.o.o.o.K P K P P j I P F V V _ _ 0 o.B 0 K #.v ` W.W.W.#XW.W.T.T.#X@.O.E.E.Z.#.@.P.L.D *XW.N.B.A.A.S.V.V.O.@.#.#.* o.Z.O.O.G C s ` N D $.L._ ^ ^ M M o.>.x a ) O.x b m n b * n $.n 2 N P.` c W.N.` z D -X-X` S.` ` O.' @.+...,.( M b M V +.$.>.>.>._ n b n n n 0 +.>.R.R.R.>.;...e w w [ E , oX=X( ( ( ( /  . . .%.&. .U Y =.=.E / ,.XX@X&.< , 3 &.Y 3 w Y Y R / Y Y Y R R U U Y w U w 3 U T T E [ [ E E E R R T T T U U U T U 7 =.*.%.",
"T U U U 7 7 7 7 7 , , , , , , , , , < , , , , , , 7 7 , , , , 7 , , , , , , , , , , < , , , , < w > 3 ( :.;.( ( +.^ ( +.<.,.~ / ( ..5 1 1 o o . 5 . % % . % o M 1 % o 2 5 = = . % 1 r Y w w 9 5 % . *X-Xx V.C.C.C.A.G O.*XE.z # z N M 2 2 % 2 2 V % L.E.E.P.P.U.$X' D -XW.V.:X>.! @X<.1.L.V.W.%XG.D.W.Y.-X#X% I.#X#XW.W.W.#X%X%Xb.D D F @.@.N 2 >.^ o.$.N z b o.L.' ` ` V.E.Z._ L.U.` b.C.N.w.b.b.H V.N * | ^ B B ^ +._ v _ L.L._ z L.` V.V.V.V.U.V.>.<.<.<.&.! 5 V.U.x D H C.W.C.n.w.w.b.B.W.W.H.`.).T.`.T.B.N.G ` D a s G F.W.Y.M.b.H H b.b.C.C.F.Y.W.T.C.` D P.Z.#.O.F D b a s C Z Z e.e.e.D.F.C.C.C O.V v L.^ ^ ^ ^ ^ ..( e ....+.^ ^ | ^ ^ ! ..^ M M M e M 2 N E.#X#X@.' @.1.;.;.<.;.! ( ,.2.>.;.>.<.;.+.1.( >.>.>.R.R.R.I.$XL.>.E.R.@.@.E.E.W.#XE.O.n b b E.#X#XE.-XE.N O.>X:XE.o.$.v n >XE.b -X-X-X#XW.P.V._ x L.E.V.` V.Y.U.P.L.P.` h :X-XC i b z % 2 M ^ #.L._ v N _ @.D O.` N D D D s C l k k l l f f S 0.g.f.n.n.c f h g P S.b A C H H H Z Z Z r.w.b.D F O.@.O.V.` b A.S.k -X`.G.B.G.B.B.B.V.V.@.o._ # * a a b C C A b b N o.o.^ M ( ^ z @.L.x x E.#X;X;X;XW.G.G x N n B 0 e 0 0 ! 1 2 z N P.E.N.C.C.b.V.V.@.( ( *.( 2 * * n _ _ o.@.` _ D x N D D N ' @.P.P.P.E.E.R.2.( / E R , E &. ...&.&.&.&.&.&.&. .E U U %.*.E 4 / &.,.&.Y Y / / Y Y / &.%.&.:.&.&.*.%.%.*.%. .U U U U T [ %.[ E E E E E E E E R T T U U T U 7 Y U 3 ",
"T T U U U U 7 7 7 , , 7 U 7 7 7 7 7 w 7 7 7 7 7 7 7 7 7 w w w w w w w w U U U U 3 3 3 w 3 w w w w , w ~ ( ~ ! ! ! M ! ~ ;.&.Y Y e e 5 ~ +X2.>.R.R.2.R.R.+.+.5 5 <.( ..^ v V V +.( e e 1 o 1 ! n >.z a -X>X#XA.W.#XW.%X:X-XF = N #X#XE._ N @.#X*X*XN ^ L.R.R.L.E.E.' 1.L.o.z #.@X2 ( ;...^ o.Z.b h G N.G o._ 2 ^ ' ` ` ` D x s s h s a a x N N z _ x N N N n x N b.` C.b.H ` N.P.b.b.` C.W.-X`.W.%XT.W.V.n o.$.| >.$.@.` ` N.C.` @.' ' E.#XI.L.I.I.I.I.2.;.( Y M @.G W.W.G.G.T.T.`.`.`.`.`.`.T.).'.).).'.).e.r.b.G.b.N.B.n.W.`.D.b.b.b.b.V.V.b.` b.b.b.b.C.P.P.L.@._ _ F b x D ` G G G w.F.F.D.J.n.w.b.G Z.O.b o.L.>.>.L.>.>.>...>.>.>.$.>.>.>.+.>.>.$.+.:.>.:.+._ @.E.R.E.>.R.>.1.( ( ;.( ! ..2.>.+.( ;.>.^ M _ I.>.1.$XE.N ^ E.P.` D O.V.O.V.W.W.C.b.C.W.W.V.x d P.N.W.W.x V.:XW.V.V v v v * b O.h i C ` s x D C N D V.P.` h x Y.Y.Y.V.` D h #Xh $ i a z z 2 * = O.W.W.L.L.E.W.P.#XA.N.-X-X:X-X;X;X;X;X;X;X;X;X{.}.;X;X;X;X`.J.B.W.[.[.Q.d.C S.`.`.-X-X`.`.`.W.*XE.W.-XP.p $ x W.C.c -X`.T.m.m.G.B.b.N.Z.L.#.o.= o.W.:X>X:X:XmX>X>XV V N z z 5 x N 1.L.' _ D i c m.`.;X:XT.D C z V ^ M M ....+.o._ x b F H N.b.b.` ' ' ^ ( ...._ o.o.V _ @.` D ` b.n.n.M.M.C.V.` ` ` ` ` ` ' ' ^ ! ..Y Y / ] ;.:.:.:.*.*.&.&. .} Y R E U U / =.&.&.( &.&.&.&.,.&./ / &.&.&.&.*.&.,.&.Y Y / / U Y Y E / [  .[ E T T T T T T E E E E T T T T U 7 U w 3 ",
"T T T U U U U U T T T R E T T T R R R E E E R R U w w U R R U w R E E E E  ./ / Y E / / R R E  ./ / Y 3 4 4 4 2 2 4 M 4 ~ ( / ( ~ 2 e e +XR.+.>.+.@.1.R.@X=X<.^ =XR.#X#XW.#XE.#X=X( 2 z _ #X:X-X-X-X= $ L.W.#XP.#XE.*X#XN = z = D V.E.V._ @.@.@.L.z 2 M 2 v M +.M M +.& B B 0 R w X 6 w 6 + @ & = . * ; . # v 5 % % % z z x n F _ O.L.L.V.@.L.E.L.@.L.@.Z.E.P.P.Y.C.C.B.b.N.` H c n.A.n.H c d c H M.c x F v 0 n v x D H n.F.T.C.U.$XM M 2 ) z 4 M 2 5 5 2 4 M ^ s i Y.`.W.).`.).H.).`.).).).!.'.!.~._._.~.m.`.`.C.Y.W.C.J.`.!.e.b.` ` O.O.O.O.O.N.V.V.O._ _ @.L.@._ @.E.E.E.#X#X*X-X-X-X;X-X-X;X:X-X-X-XE._ z a D N D _ D ^ ^ ^ $._ V _ _ _ _ V ^ ^ ^ ^ ^ ^ ( ^ o._ ^ n ' 1.$X>.1.:.:.&.( ~ ( ..! +.+.( >.L.L.P.) _ x x _ _ ^ x x x x c x i d s d c H H H H b.C.H b.C.%XD $ W.:X` b b b b P.Z.D E.E.V.` H H H H D D D N V.W.W.Y.C.T.Y.C.` C h x a b D N @.$.n = * N O.Z.V.V.P.W.W.W.w.F.:XF.F.T.F.F.F.F.F.M.n.n.C.F.m.M.n.n.n.n.J.`.;X}.J.B.Z e.Z k s p a a a a b b F Z.P.F ` P.N.b.d n.n.D.m.m.B.B.C.A.P.#._ M & +.E.W.E.Z.N.Z.#.E.m m z N V.P.U.P.V.` U.E.P.V._ _ ` b.` x d D b.N.T.G.B.C.B.C.B.N.H D F D N ^ _ _ ^ N N N x z _ V.P.Z.E.*X-X#X%X%X%X-X%X%X%X%X-X-X-X-X-X-X*X#X+.;.,.Y e ( 4 4 4 3 4 4 4 4 3 3 R w r R U 3 E *.,.;.&.;.,.,.;.&.:.&./ ..../  ...&.&...~ R R R U %.R E =.%.E R T E E E W W W T T W W T T T T U 7 E E E ",
"T T U U U U U U T T R E T U U U T U U R E E E E E R U R E E R U E  ./ R Y R R Y Y Y / E U U U E R R Y Y ..+X@XR.+X+X+X../ ~ w Y e 1 ~ % >.R.R.>.R.R.@.( ( <.&.M 1._ L.L.V.P.@.L.@X) 2 z z D ` s D N a z a $ $ z $ z $ # b N N N D D D z * z z v z v M 2 5 2 5 2 2 2 0 & 0 0 q 5 w R } r ~ B & o.o.#.o.0 $.E.o.V.E.L.L.L.P.L.>.L.L.L.' ` ' @.@.' _ _ O.` ` D D P.b.b.Y.A.G H ` P.W.W.Y.Y.#X%XW.Y.`.W.D s x $ x x ` C.W.`.`.`.&X-X#X#Xz v 5 M 4 ) ! ( ( +._ z = p k b.`.G.W.H.J.!.).!.!.!.).).!.).'._.'._.m.m.m.f c W.A.d n.`.r.e.b.` ` ` G O.O.O.G G ` O.` _ ^ ^ N v ^ $.o._ _ _ ) _ ` V.A.A.C.A.V.S.N.N.b $ $ D V.` b.N.O.` O.@.@.N a @._ _ _ N N N ^ ^ v v ) N * = V N z 5 ) ! ) ( ! 3 3 e r 1 5 1.( 5 N L.L.U.N V.U.D U.*XL.a N.N.C.Y.W.W.%X%X%X%X%X%X%X-X-X-X-X).-X`.b.G C a b a ` *X-X#XW.:X-X` W.E.A.W.W.Y.V.P.P.b N F D C H.H.H.T.Y.N.` x z x z D O.N * z D b s a s h k c c Z f J.&Xr.y.n.b.b.b.b.b.b.b.b.b.b.b.` b.b.n.b.r.f H.;Xr.f y.F.G.B.G G F F V B = b N D @.P.` s s c c e.m.!.`.&X-X-X-X#XL.o.B M 5 M B v b m V _ B v v b ` W.V.M.M.A.V.b.U.` H L.L.) M @.E.U.V.A.`.Y.T.H.D.D.h.e.B.C.C.C.V.O.o.#.L.>.@._ @.V.` ` V.V.O.` O.@.` ` b.b.b.` ` ` ' _ @.O.` ` V.L.L.>.^ ! R Y ~ &.Y ! e r r Y Y Y Y Y 4 3 4 e Y / &.&.( ( ,.;.;.,.;.;.;...( ( /  . . .,.&.&.:.*./ E %.*.R E =. .T T T E E E E E E W W W W T U T T U , U U T ",
"T T U U U U U U U U T U w 7 w T U 3 , , U R E R E R R R E E E E E  .E Y U Y Y e Y Y Y Y w w w U T T r R ..:.:.+.( ..;.~ Y e 3 / / ( ..e +.>.I.@.' @.<.;.;.( ( ! ( ^ o.o._ $.;.;.<.~ ! ( N D D D F b N.@.O.P.V.@.O.@.@.>.o._ _ @.Z.o.$.$.@.@._ _ >.L.I.@.L.L.' ) #.o._ _ D z N N N I.$X' U.E.C.Y.W.-Xo.# E.V.H C.D D ` ` ` ` ^ ! v ) ' _ _ _ ) _ _ _ ` ` ` G ` W.A.C b C L Q.W.#XZ.@._ N b b b F $.v # = b Y.;X;X;X;X&X&X-X-XW.N.F v # v _ V M _ ) N z $ s C N.W.T.W.Y.n.).H.e.q.).).!././._._.)._.)._.'.&X`.F.c W.E.O.p B.-XF.J.n.N.N.N.N.N.w.w.C.b.H H b.V.@.' M M ! ^ M M ^ +.+.1.@.@.V.@.O.O.O.L m K E.E.b A.%XW.Y.T.Y.P.P.P.E.F C -XP.Z.V.V.E.L.L.L.L.L.L.>.o.n R.#X+X;.^ ! &.( ! e ~ &.*.~ M 1._ 5 N @.` ` P.D P.W.#XV.a ` -XW.S.S.P.A.C.N.w.n.F.G.C.S.V.C.H.).`.Y.`.-XG A a G W.W.C.H b.-XW.$ D P.n.N.c x ` @.E._ _ N x D !.!.F.T.W.W.` ` #X' x _ @.L.Z.Z.O.A.W.W.W.`.G.H Z D.r.`.&Xm.m.n.N.N.N.N.b.b.n.n.b.b.` ` N.N.L C r.e.H.;X;XH.e.-X;X:X:X:X-XW.Z.o.O.F N O.L.D a c T.%X%X&X;X;XxX&X%XW.V.N 5 % 5 1 r ~ R e ! V v b m = m a h G H n.n.b.b.H b.N.P.*X>.0 * V $.E.W.W.A.N.w.b.B.B.G.A.B.B.S.N.N.V.P.E.N N _ N ` V.` V.C.N.V.V.@.` ` O.' ` ' ( ( ....X.| V n v z N M M ! r < r R ..Y ( ~ ~ ~ ~ R Y Y r e Y ! / ( ;.:.( &.&.:.( / ;.&.;.&...( ( /  ...&.&...&.&. .R R  . .U E *.[ R E E T Y T W W W W W T T T U T T U , , 7 U ",
"T T T U U U U U T T T T U U R %.E w , , U R E R Y Y Y Y R E  .%./  . ./ / &.;.&.( ( ( ( / / E R U R R / ~ e M M M M ~ ~ ~ Y e *.&.:.( ;.^ M ^ ) _ ^ ( ) ( ! &.( ^ ^ ..| B ^ ..~ ..! ~ >.L.Z.V.V.Z.V.V.V.V.O.O.V.L.O.' @.@.@.@.@.#.m n _ @.L._ $.L.@.@.' I.1.` L.@.E.P.` P.W.U.E.` U.V.U.M.M.`.F.b._ = L.W.x C.c ` ` ` ` ` ` _ ^ _ ' _ _ ' ' ' ' ' ` ` D ` b.G A.A.D D O.Z.O.m g * = $ $ i $ $ $ # * g a W.:X%X&X%X%X).B.G s $ = # $ * b E.E.P.` ` ` c H G.`.J.J.T.n.H.W.T.J.`.`.`.'.`.'.`.`.'.`.`.`.`.`.%Xn.c U.#Xz b D N.-X-X`.%XW.W.W.W.W.W.W.T.W.W.T.Y.C.b.` ^ M M ~ ^ ^ ( ^ ) _ _ V _ _ _ F v m b b E.W.$ W.%XY.C.C.Y.C.A.C.A.x s :XP.V.V.V.V.V.` ' V.@.' @.B & >.;.^ ! M M M 4 4 e } &.~ 5 o.@.' ` E.V.` P.H $ D D ` ` x W.A.O.H G O.G ` S.N.N.b.w.G G ` b.w.e.B.S.A.G.W.Q.H C O.G k c c d d C s %XW.W.` b.W.V.L.O.L.L.P.#XF.F.T.C.#XW.x _ #XV.U.P.` L.E._ F P.E.L.A.W.W.B.`.T.c `.&Xm.t.e.w.L d.` b.b.b.b.` b.N.L F P L P d.q.J.'.'.:XH.d d d d i $ $ $ $ p $ = a z a b.:X;X;X;X%X;X%XT.n.x i % * v M e 1 ! ! 4 z N v b n g $ b Q.-XW.-XW.W.#X%XW.W.#XE.F m ; V o.a a F D D V.G ` A.B.N.N.N.G A b D V.V.` _ ` ` D ` ` b G V.V.V.V.O.O.O.@.) ) ^ ^ ! ~ R R 0 t B B M n v 2 e t < w e ~ ! :.;.;.+.+.......( ....;.<.;.( ( ( ../ ( ! ( ,.;.;.&.&..... . ...&.&.2.,.R U / &. .U w %.=.%.%.*.E { E E E E E W W T T T U T T U 7 U U U ",
"E E T U U U 3 , w 3 w w U U U U  .R Y r w w r r w R U w R ~ / ..R } ..e ..<.~ +.( ( ( ( ( ~ ~ R R < r r ~ ! ~ ! ! Y ! e 1 4 ( ..............( ( ^ ^ ^ ^ ^ ^ ! M :.( e 5 5 2 2 2 5 2 ^ 1.L.@.O.O.U.V.U.U.V.` V.U.P.O.V.L.V.O.@.L._ n z N _ O.O._ @.@.z _ P.V.U.P.' ` U.L.L.L.' @.@.N V.U.P.A.C.i x h V.W.Y.b.w.n.` ` ` ` ` ` ` H ` ` D D _ ' ' ) ' D D ` ` D G Y.W.P.S.a * ; V * Q.W.W.W.T.G.B.G.F # s W.-X%X`.n.c x $ $ = # * * K V = N W.W.W.`.`.T.H.).`.J.!.`.'.`.'.`.`.W.T.W.A.n.C.b.G G C b.` D D F V 2 $.L.N D D D b b b n n v v v b b F G O.V.P.W.W.T.W.%X#.0 2 ! ! 2 2 n 2 * z z % z v $ a a a $ $ $ # W.*XP.C.P.A.U.U.C.P.b x :XW.N.C.N.V.V.V.U.` ` V.@.! r e 2 5 5 z z 5 z M % 4 e 5 M ' @.V.V.U.U.A.P.b.C.C.N.b.c G -XV.N.G O.V.N.O.O.V.N.V.C.C.C.C.G.B.G.Q.D.`./.`.`.`.-XQ.[.W.W.%X`.W.T.T.W.W.%XW.E.#XP.E.W.P.E.#XA.h D L.' E.I.) x P.#XY.U.P.#XV.z 2 0 4 +.$XL.D ` n.H c ).cX/.6.t.D.w.w.w.w.N.w.N.w.w.G G L L L P d.8.p.9X_.{.S.s s i k w.b.B.F.n.w.d.L P # h ;X`.;X`.W.` N M 5 5 % 2 N ^ @.V n # @.V.Y.T.C.N.O.B O.L Q.A Z.$.$.@.' 1.` ` _ _ D _ V v * $ O.F b O.Z.Z.Z.O.G S.B.N.Z.$.F b N L.` V.P.V.V.V.` ` V.` ' O.V.V.' N x x x x N z 2 v 2 0 2 0 % 2 * 2 v # * 2 ....M ^ <.@X1.@.1.+.+.+.+.+.+.+.' ( ;.>.>.1.<.<.XX:.:.XX2.2.XX,.,.3.,.,.3.,.,.&.&.E E %.E U U U R  .%.&.%.%.%.%.%.*.=.*.*.-.E [ [ E E T U , 7 U U ",
"E E E  . .E Y U Y T T T T U U U w w r Y Y r w w w w % < Y ( ~ ( / } ..e ..2.^ ( +...( ( ^ ( ~ ~ R < 4 > 1 % % % 4 5 1 e ( &.:.;...........( ^ ^ ^ ( ^ M ^ :.1.^ 0 ! ..;.+.+.o.+.@.@.@.@.1.1.V.L.V.V.V.U.U.U.U.V.V.V.V.V.' _ _ ` O.@.L.@.N z N ` ` ' @._ ` V._ O.N _ @.@.' N N ) z x @.V.O.P.#XN.s H Y.W.G.w.H H ` ` ` ` b.n.n.n.b.b.N.N.` D _ ` ` b.b.H H n.G.W.-XN.b V O.J v = -X-X-X`.`.-X-X:Xx p V.-XW.c d a * z 5 5 0 o.o.* E.#.% p P.-X;X).`.`.`.).'.;X'.!.J.J.e.r.Z G ` C H ` H D G D b a N N ^ B B 0 n v n N D N b v 0 0 q q n n v v g a z z z x b C Z G $.n B +.$.$.>.L.=X:X:X$.z L.*X#X#XW.*X-X-XW.m O.-XE.V.L.P.Y.Y.U.E.n a -XA.` N.V.V.@.1.@.@.@.O._ q 1 ! 2.#X*X#X#X-X*X@.$X@X! ! +.L.P.P.E.P.P.P.Y.W.W.#X-X%XN.N.-XY.A.A.A.E.E.E.E.E.E.E.W.T.T.T.T.W.W.Q.W.G.D.f.f.r.B.O.O.` N.n.b.N.N.N.N.` G G D ` ` P.Z.C S.W.C b F @.V 2 2 M I.E.W.Y.C.b.V.' ) _ _ E.L.@.@.E.#XY.Y.H H `.;X/.j.e.f.B.w.B.w.Z N.w.w.w.w.w.f.f.f.g.h.^.9X'.xXS.p L p N.:X:X;X;X:X;X;X[.[.p K.;X`.e.c a * 1 1 w ..:.>.^ ) L.V * = V.-XT.F.;XW.F W.-X-X-XF m B V M +.) N _ @.L.@.N $ p Z.` d h b.O.$.#.n v S.B.w.B.V.' _ D @.V.N p D ` ` ` V.O.N x N N V.P.` @.#X#X#XE.E.@X*X#Xo.2 ^ R.@X@XR.E.*X*XE.v _ ' z ;.+X' >.>.>.>.>.>.@.@.@.I.$X#X$X$XR.R.<...( ( ( ! e ( ! Y Y Y Y Y U 3 Y 3 U , 3 E U w U U w U w w 3 w U U U U U U U U E E [ [ %. .E U U T T ",
", 7 U U R U 3 , T U U U U w w , w w w Y Y R R /  . .Y Y ..&...( ( ..( 4 ( <.( ~ ~ ~ ~ ! ~ ~ ~ R e w &.&.&...&.:.( ( ( ..;.;.;.( ..+.....+...( ^ ^ ^ ^ ^ +.<.L.1.' L.$X$XE.I.E.$XU.U.V.U.U.V.V.V.U.1.V.U.V.U.U.O.N ` V.V.V._ N _ o.V n _ V.P.L.V.` E.#XN z P.U.D O.E.R.L._ x ' @.@.x _ E._ b O.E.P.b.A.}.`.B.w.b.A.P.P.Y.W.W.W.W.`.).).`.H.n.C.W.F.W.`.`.`.`.`.T.D a $ h i $ p h i i i $ i p i $ z n E.*X#.= # 0 9 9 r  .:.>.L.z 2 2 * z x s s c w.m.F.D.r.c f y.f y.f w.w.Z B.B.H b.c H w.k C C D b m g v g g a a z x b m n n n 0 0 0 0 v v v 0 0 0 e 1 2 2 0 2 0 & 1 0 0 2 0 v v v M 2 # v ^ n V a b a m v # a Z.@.V.L.@.1.U.1.$.n v [.W.Q.E.E.E.E.+XR.R.R.L.>.} t R +.+._ _ _ _ _ = M +.2 ^ +.V V F F F F F G C C C F D a p O.w.w.b.G G G G F G D c Z Z c c k b 0 0 B a x a b h a q 9 n _ _ ` g g g ; * * v v x h h C C a $ s d d a v n X.y B V * p i $ $ v b Z l l d s C a F x ) ) x ` W.-X:X;X:X;X;X;XG.r.`.xXxXcXcXcXcXcXxXxXxXCXCXCXxXf.p m = = h p i d d $ $ $ k c -XW.` b * + 9 t 0 ^ 1.+.1.N z L.N 2 v N x c H h p v V k k C i $ * v ^ ^ v ^ _ v % = = a N.-X`.B.c a D _ ^ * b L.C.w.F.C.n.Y.C.Y.N.N.V.D P.O.N @.#.V ^ ` z F O.D O.#XL.L.@.@.o.+.$.M 2 M +.#.o.$.o.n n ^ 5 z z M 1.>.1.' o.' ' o.' ' ' +._ N M M M z 2 M e ! M ! ~ ! ! ! ! ! Y Y R Y Y Y Y R Y Y E Y R Y T T U U U Y Y 3 3 , , , , 3 3 , , w w U U U , 7 U U ",
", , , , w w w , 7 w w w w 3 , , w 3 > > > 3 w w ~  . ./  . .( (  . .} e ( 2.;.;.( ( ( ( ( ( } } 4 4 ....&.......( &.&...;.;.:.<.;.>.>.>.>.>.>.>.>.^ ^ 1.>.+._ o.@.1.' ' ' ' ' ` ` ` V.U.U.V.V.V.U.@.@.@.@.V.V.' D L.L.L.P.@._ @.$.$.#.Z.L.@.F b x z a O.L.L.P.D #.E.L.L._ x ' ' z x D O.z v n N N.k C T.`.W.T.`.P.U.U.P.W.W.T.T.`.T.W.`.W.b.c c T.G.C.F.B.w.r.Z C C Z C.n.F.n.n.B.B.B.N.S.d.L h * & * = # = 0 0 9 < w ,.<.+.' x = * z D G N.T.W.i d d r.e.H.`.;X:X`.B.w.B.B.w.Z n.`.;X;X`.Z f G f s H S N.G G N.w.G G G G D b z b b z a a a z v 1 r Y Y r r w 5 1 & 2 0 2 2 v 0 M % * M n 2 2 M v v V * v z b V * 2 z z 2 2 z 5 % & % n V m V n ^ ^ ! e M B n B 9 > 0 n z * z N * b z z z N x N v v b b b b C C G N.N.d.S.B.A.K.n.B.B.b.w.b.b.w.n.n.n.B.m.e.r.w.D B } 0 z F O.O.V.D n B V x x s h h h h v m n v z x D C s B.%X-X;X;X`.S.b v ; n g g L S.W.W.W.S f /.xX;X;X}.s a ^ v M N x i h H H G H H b.k d B.b.n.n.n.n.e.e.r.B.e.m.~.].r.d k p k S l l g.h.Z G.S.c i %X:X' 5 5 t 9 y y n O.@.@.L._ z D = a D h s s ` Y.G * s Z f l G N.O.v # = . # = 5 n ^ a Z W.`.`.;XW.s D N * v $.V.N.C.b.b.` C.b.b.C G G.G S.G h F _ D _ ` x x F N D _ z v v N 2 5 2 2 M M 2 5 . * * # z 2 5 z 2 z 2 % 5 5 * 5 5 5 5 5 5 z z M ' @.L.@.@.M ! ( ! ! ( ( ( ( ( ~ Y 4 3 4 e 4 4 Y 3 3 3 , , U U w w w U U U U U U U w U U U , , , , , w w , , , , ",
"U w 3 3 w U U U w w w U U w w w 3 3 3 3 3 3 , < < , 3 3 3 3 Y e w Y Y 1 e ..&...:.;.;.&.&... . .Y % 4 % 1 4 e 1 % 5 % o 4 e 4 4 z z M M M M M M _ N ) +.@._ ^ o.+.' ' @.@.>.>.1.@.@.L.L.L.L.L.E.@.@.L.L.@.L.L.@.O.P.@._ $.$.o.L.Z.Z.O.F N N F _ ` L.O.D a x L._ o.>.#.E.#.N ` N ` L.E.E.^ n v * i s f d i d c d D x a x ` A.Y.Q.Q.O.b z z b N N z * a a x a s h f f m.xXcXcXCXxX&X%X`.T.T.G.`.A.0 9 * * a h a $ v 2 5 M ~ ( +.z $ S.-X:X:XNX`.r.f D.'.{.;X;X'.J.K.`.-XA.Z w.0.D.}./.H.!.;X;X0.i f J.;X'.xXxX;X&X;X;X&X;X&X&X%X`.F.F.B.n.w.w.` ` N ! ! ~ / ~ ~ ! M M ^ ^ ^ ^ +.^ ^ ^ +.| ^ ! ^ ^ $.o.>.$.L.L.$._ >.o.^ M ! ( ( Y ..4.| v v a b * % 5 5 > 1 1 & 2 9 0 B V N D D x N x x E.W.W.P.W.T.T.T.T.).).).`.).&X&X'.&X;X&X'.;X;X;X;X;X;X;X;XxXxXxXxXxXxXcXcXe.k F b T.-X:X;XcX;XA h c r.&XxX&X;X;XcXNX:X-XW.V F i k ;XNX&X_.J.H.{.xXcX`.B.Z G.S.}.;XcXcXxX!.6.;XcXD.G.K.A v * 5 z x h c s i $ $ = # # v z a * a a a a a a g & u g p d d y.;X;XcXcXbXbXcXcXcX`.A.C.i #XE.2 z % z * a = = F K $.o.F a a C `.-X:XmXNX:X-Xw.f `.;X&X'.`.%X-XP.# _ O.@.N F *X*XG w.`.`.H.`.;XG i a # v o.O.V.A.b.h a $ C G G Z w.w.G w.N.b.b.b.G ` ` ` F D x * z z * M M ! ( 0 0 2 z o._ #.N b E.E.N @.#X#X=X=X#X@X@X@X@X@X@X$X@XE.@X#X@XI.+.@.>.+.M ^ ^ ( ) ( <.R.+X<.;.( Y Y ( &...:.;.&.,.&.*.%./ E E / E T w 3 w 3 3 3 w 3 , U U U w w w w w , , , ",
"w 3 3 3 w w w w U U U U U U U U U U w Y R / / / / R Y U 3 3 U , 3 , > < % 4 4 4 5 % % < < < < < 1 1 ~ 4 4 4 e e 4 ( ^ ! ~ ! M M ( ( ' ' ' ' ' ( z z z z x z z z z z M M M M M ! ) ^ ^ _ _ ^ ^ _ ^ ^ _ _ N N N z * z z * a = = z b z a z ` P.E.P.P.V.#X#XL._ a m * n v V V z N a E.L.L.@.z * v _ P.Y.W.W.K.`.`.W.#XP.D x h h s s * v n M v n v z z V ^ n b n n b n.H.'.&X).].m.m.e.r.Z c Z c F.H * 0 o.W.`.`.'.;X`.B.p = 2 0 e & a S.-XW.N.G s i H.`.`.H.e.e.t.m.w.G W.Q.d.w.f q.!.!.!.r.e.`.H.r.f '.'.t.p.~.'.).t.e.e.m.D.D.J.J.J.J.~.~.!.!.T.T.V.N 2 2 4 2 4 M ^ ^ ^ ^ M M B M M B ^ ^ ^ ^ ^ M M V b * n V F N ^ N M M e e R R 1 M n z a b N v M ! ! ~ ( e % 0 * 2 v x x b.E.W.#XY.d W.%XF.T.H.!.!.!.!.!.!.!.!.~.].~.~.~.~.~.~.'./.~.~.~.J.J.J.J.J.J.J.~.~._.'.;Xr.C f -X`.G.n.m.'.Z k Z !.bXcXNXNXxX&X`.Y.O.b m m Q.-X`.m.e.r.0.0.r.f r.m.&XT.Z d k S 0.l y.y.f ;X;Xd }.C $ A O.L.E.P.C.B.B.S.W.O.O.#.o.V * & 0 0 0 0 ; 0 ; ; y 5.J g w.F.'.xX;X'./.~.p.q.y.q.w.H Y.` _ z z O.C.D.m.H.f.f a g ; & ; = h A.:X:X;XT.S.S s c H.'.~.!.!.F.n.N.Z.b _ L.E.o.* * v = Z `.`./.`.G.i p v 2 2 M L.P.M.C.S.F a S.W.[.W.W.W.G.W.%XW.W.W.W.W.#XE.P.W.P.O.L._ 2 2 5 e R w 2 M ^ @X#X*X_ @.#XE._ _ @.@.1.@.@.>.>.>.>.@.@.1.@.@.o.( ^ z z ) +.+.! M M ) ( ( <.( ;.:.:.&.4 4 ..:.;.,.:.:.,.&.*.*.*.*.*.*.*.%.E E E E R E E Y w 3 U w , , , w w w w w ",
"U U U U Y Y U U Y U U U U U U U U 3 3 3 Y / %.*.3.=.=.%.Y Y Y w R Y U Y Y Y Y 4 4 3 3 w U U w w % 4 ;.( ! e e 4 4 ;.1.+.;.+.( 1.I.I.I.I.I.I.L.L.E.$XE.L.L.L.@.' ^ ^ ) M M M M ! z 2 5 5 2 2 5 5 2 2 2 5 5 z N z ^ _ @.@.o.n b n a F Z.P.P.V._ b F z N _ E.*XO.b m b v b n N ) N z ) _ z N L.#X#X-XE.Y.W.W.Y.Y.P.L.@.) b x b b h N N ) z z z z z z z z z z D P.*XW.T.Y.b.r.w.` x F V J V O.G W.` v a f 8.9.9.a.9XcX'.r.s v # @ & 2 $ * = a * * @.W.O.D ` b.` H n.H H Y.B.Z r.t.;X'.'.'.~.~.&X`.f r.;X`.y.y.9./.J.0.w.w.w.w.w.w.r.)._.'.'.uXxXxX;X`.b.x ) ' ) N _ ^ N ^ ^ ^ ^ o.^ +.^ n M ^ ! M ^ = V n b b b x D z 2 z M 0 9 w 9 M v _ P.E.E.E.E.>.>.1.<.<.~ M +.@.@.O.` C b.W.-X%X`.f `.).H.`.!.).H.!.!.!.!.!.!._.!.!.).~.~._.'.'.F.r.r.e.r.r.r.w.e.n.m.m.m.H.).xXe.c k :X&Xb.r.F.;XZ k k '.bX;Xt.e.r.f p g m V O.W.W.A.O.O.O.S.N.N.w.m.&XNX:Xn.x N F o.F b x D c :X-XS.:XC G *X#XW.W.W.`.`.`.`.`.A.A.W.W.O.a b v v v 0 v g g g v m O.d.;XNXxX].y.r.r.r.0.w.P P w.H W.Z.= g S.}.{.7X9XcXCXH.g & y t t 0 n N V.D H D n z z ` F.).).G.`.W.O.= $.>.2 & 0 B ~ t 9 ; i B.`.`.`.k $ W.V 0 2 M @.` b.A.V.N.k G w.Z H G G G G G G D D ` ` ` F ` L.P.L.L.@X+.M 1 2 e w 0 2 5 v M ^ * @.W.@.L.' N ) N 2 _ N v v v v v v v M M M ^ ( ^ ^ ^ >...^ M ( >.+.^ ^ ( +.<.:.e e <.;.( ..( ( ( Y Y Y Y Y Y Y Y E / =.,.:.*.,.,. .Y 3 r R Y U w U U w w U ",
"U w w w U U U U U U U U U U U Y U U U Y E E Y U 3 Y %./ 3 3 Y Y U 3 3 E / / / Y / / / Y Y w 3 3 Y 4 ( ( <.+X<.( ! ;.( ! +.+.^ ^ _ _ ' ' ' ' ' ' @.' V.E.#X#XW.$X$XR.I.R.@X$XR.<.$X1.M 2 2 n V ^ ^ M 0 M ^ R.*X*XE.R.R.L._ v v V P.E.Z.` N b N F N _ D L.E.z z N b a b b N n v v ^ z N ' L.O.` D D D D C k C D D N ) ^ N N b x x a a x D G ` V.N.V.b.b.` D x b.%XY.Z C D O.F o.J K J J B o.F W.H k w.D.~.^.6X6X7X^.xXJ.d a 0 0 n v N N b N N v >._ _ _ _ ` ` b.b.C.W.Y.s Z `.;X'.{.'.~._.).&X-XZ k {.;X'.'.J.`.H.0.G L L L G w.n.`./././.~.~.!.!.).c i ` E.N.F ` _ N ) ^ ^ ^ ^ ^ M ^ | ^ ^ M ^ o.b E.E.W.#X#XW.-XW.F z M +.:.} 1 R._ ` W.P.C.` ` ' _ ) ( ( 4 2 @.L.@.V.A.A.C.n.b.n.w.c %X`.`.).).).T.T.T.W.).).).T.).`.`.).`.`.`.;XJ.r.r.w.w.b.n.n.C.F.T.T.H.F.F.;XD.C h -X-XD G T.%Xb b s -XW.Z Z w.w.S A L P.W.W.S.G O.O.O.$.K Z w.F.;XT.b.c c c N.L G C G C C s D C C $ G :Xb.` b.H H H H Z Z Z e.w.w.Y.C.d s s x h b C C D H w.Z c i m.CX_.y.e.w.w.G w.G J K G b.Y.S.j j l q.x.c.0X0XCX'.L ; 2 n 0 2 n a s s s z n q M @.Y.n.C.H N.O.o.= | 0 1 q 0 0 :.=X4.B b k Y.K.S $ O.:X| % 0 +.v z ` N.P.Y.A.A.Y.Z G G D V.` D O._ N _ _ F ` O.F N _ o.^ 2 5 e ..:.( e ^ ^ o.^ _ z P.E.O.` L.' ) ' ' M N V ^ ^ ^ ^ ^ ^ ^ ^ ^ ^ ) M ( >.;.4 4 +.+X+X+.( :.:.;.<.<.e 4 <.<.+.+.+.;.;./ ( ~ / / E Y E *.,.,.,.,.:.,.,. .w > r E R U w w w w w w ",
"r R R Y U Y Y w Y Y Y Y Y Y Y Y Y 3 U Y E Y Y E Y Y / %.U U Y U E Y U / / R R w w Y Y w 3 3 R &.....( ~ ( ;.<.<.M 1.+.^ ( ( ( ( ' ' ' @.@.@.' ' @.@.@.' ' ' ' ' _ _ _ _ ' ' ' _ ' L.L.z z _ E.R.R.^ 2 0 @X#X+.M z z 2 5 2 V #.L.L.o.b b V _ _ V N n E.@.* z N @.W.W.W.W.E.E.#X@XM ^ v N #XM.c b.` ` ` ` ` G ` _ ) _ ) M ^ N a ` b.G.`.%X-X-X-X-X;X;X;X`.H.f r.&XF.w.H G G F o.F o.D F D ` c W.b.c &X&XCXxX9X9X'.'.;XB.s -X-X*X*X-XW.#X:XW.a a Z.Z.Z.V.V.C.T.%X%X-X@.z V.-X-X`.`.H.J.e.0.N.A.L s s f.`.;X;XxX;X`.G L O.O.O.G w.b.C G k Z S Z f.G G C a _ P.O.D O._ V N V ^ ^ ^ ^ V V ^ ^ N n _ Z.V.V.N.N.C.b.B.T.#Xh b b >.:.e 0 1.N ` Y.C.b.b._ N ) ) ) ^ M z o.L.V.` V.C.A.C.C.H b.f T.F.m.e.n.G H G G G G G G w.w.b.w.w.N.C.F./.`.'.`.`.).).H.T.H.H.H.H.H.J.J.`.B.b N O.@.' ) ' N e ( ^ N N F G h A w.T.;X).J.e.w.n.N.b.G w.Z t.(.;XS.s s s Z ;XcXbXcXcXcXcXcX:Xb b C k T.%Xb.n.n.b.b.b.` ` b.e.e.r.r.-Xw.r.`.;X;X;X;X;X&X&XxXxX'.r.Z y.&X'.r.w.L O.O.w.` O.O.H Z W.d.d G.}.;XxXiXiXxXcX;XZ.m #XW.W.W.W.W.).).G.G ; - | E.W.C.b.C.V.` b 2 2 M 2 2 2 2 2 & 1 0 V * z x $ x E.*XB 1 e ..+.N x a x V.Z.` W.W.N.D b G F V _ N N ' b ` D N N V o.V * 2 2 2 ! ( +.+XR.R.L.@X_ 2 L.E.' V.L.' ) ) ) ) N V ^ ^ ^ ^ V ^ ^ M ) ^ M ! +.>.M 1 :.+X@X2.R.+X>.2.2.;.~ 4 e ( R.L.<.+.>.:.M ^ ! ~ ~ ~ / / / / ( ( ( ( ~ R Y r > R  .R U U Y U w w w ",
"r  . .R w Y Y w r r r r w w w w U 3 3 Y E Y Y E / Y / %.3 U Y w U w U / / R / Y R / / R U U R  .( ....( ( ~ ! e ! 1.( ^ ( ( ( ' ' ' ' @.@.@.1.@.1.@.L.@.' ) x z ) ) ) _ ' ' ' ' ' ' U.N 5 ) L.' +.0 2 ^ >.B 2 n z z N o.L.L.$.V b n _ _ V N b n _ E.@.b v V o.L.C.F.Y.P.P.E.R.>.M ^ N ) W.U.b.b.' ' ` ` ` ` ` ' ' ' ( M M N N E.`.T.F.e.r.r.r.r.8.q.H.`.`.f r.`.T.b.H ` _ F F G G H b.b.M.b.W.c M.&X&X).J.q.q.0.d.L s x L.V.U.Y.C.C.C.A.N.b p x Z.E.W.#X%XW.Y.C.N 2 * V #.O.h h C k k C b g ; g h k l 0.e.e.r.Z G L G F ` O.b.G V $.o.O.L A G G O.x % V E.E.` F _ _ _ N N n v v n N ^ ^ v z N O.V.C.C.G.F.B.B.G.%XH a a v 2 0 B o.z _ P.C.N.` x x ) ) ! M 2 n L.o.@.U.U.V.C.C.N.P.Y.H `.T.F.n.n.N.O.N.N.N.O.O.G N.G G G H H H C e.J.H.H.H.T.T.T.G.G.G.G.J.J.J.F.-XA.m v n ! ! ) ' ) Y w Y ! ^ B o.g G W.).D.e.m.r.r.r.b.n.n.Y.`.xXxX`.j = n g d.K./.^.^.^.^.(.'.W.n g s s `.%XH n.n.b.b.b.` ` ` w.e.e.r.`.r.r.%XJ.F.m.H.H.m.m.!.'.'.y.f r.&XH.w.O.o._ _ ` b.` ` B.w.T.w.0.-X;X;X{.'._._./.T.F v -X%X%X%X%X`.`.`.-XE.J & - | Z.P.E.W.E.Z.^ v M n z 4 2 5 2 4 0 2 2 2 M v = z V n q 1 w ^ $.@._ x a = * a O.P.W.#XZ.Z.O.o.@.@.o.@._ O.F O.L.o.V 2 2 2 2 2 0 0 ..@X>.R.R.@X_ z V.E.' N z z N N N M M b v M N ) ^ ^ M N ^ ^ +.I.R.+.4 e 2.3.:...( ! ! ! e e e ! e 5 +.+.>.>.I.>.! ~ ~ ~ / ~ ~ Y R / e e e e Y ~ ~ Y % R  ./ U w U U U U U ",
"4 ..*.~ Y /  ./ R R Y R R Y Y Y Y U Y Y R Y Y Y E Y / *., U R w Y Y Y  .( Y R e e Y Y Y U w R ( ~ ~ ( ( ( ( ( ~ ! <.;.( +.( ( ( ( ( ' ' +.+.@.+.' ' ' @.L.L.L.L.' _ _ ' ' ' ' ' ' ) L.@.5 ' $Xo.n t M 2 B 0 z 2 ^ o.>.L.@.V n n _ V N v v N _ #.>.R.z 5 N ^ @.@.n.n.b.` O.@.+.^ M M N D W.W.M.H ' ' ' ' ' ' _ ) ) ) ! ! M z N E.S.H s s k k k k S k S d.S.s G -XA.H b F F V D H w.r.y.c y.n.#XD U.V.D a s C b = ; # 2 ) ) x H c x ) ) z N N z 2 2 v ) _ ' ) N z x N n v v v b b C h h h p = ; n p i i i i i d d s p i a a i $ $ B t ~ B V o.@.L.o.N 2 _ E.E.@.F E.E.E.E.E.R.R.R.E.E.L.o.n z _ P.N.B.B.B.e.B.G.Y.W.C a ` F b n 2 #.n O.E.V.A.P.D N N ! ! ! 0 0 ^ M ^ @.' @.Z.P.P.V.V.D W.#X%X%X`.%X%X%X%X%X%X#XW.%XW.%X%X%X%X%XW.C.P.P.A.V.V.V.V.V.V.V.V.V.V.V.V.G.L m n B V B ^ x ) ..} ( ( ^ ^ b N.#XW.H G G.Z r.D.Y.T.Y.V.V.Y.`.;XW.b | X.B >.V.n.m.m.m.D.B.S.n 0 n V D W.%Xn.n.n.n.n.n.b.` G 0.Z Z 0.%XB.w.T.n.b.b.n.n.w.w.e.`.;XZ d G W.w.H N.O._ ` n.n.b.H c r.).n.b.T.` b h k c f s h v _ D H D ` ` ` ` _ _ ^ ! w w e ) ) N V B n 0 1 9 0 ( ! ! ......( e e e 0 * = a z * 2 & 9 ! | $.$._ | 1 & & 2 v o.@.#XE.E.E.I.E.E.E.W.#XE.E.@X+.2 * # 2 o.+.M 0 M ^ N ^ z v 2 * L.#XI.L.L.L.L.@.>.I.>.>.>.>.>.>.>.>.>.>.<.>.>.>.+.0 2 1 ~ 1 5 1 M 0 5 0 ! e 1 1 2 0 % % 5 5 2 2 % 2 2 5 2 4 4 4 4 Y ! ( ~ ! ~ } ~ e 1 Y &.&./ Y Y E w w w ",
"w ( &./ R ( &...&.&.&.&.&.&.&.&.Y Y Y R / R Y E E Y / ,.3 U U > R R Y  ./ Y Y 4 3 3 3 w w w Y / ( ( ( ( ( ..+.( ! &.( ( ( ( ( ( ;.+.;.;.@.@.;.+.1.+.' ' ' @.@.>.@.+.+.' ' ( ( _ +.^ @.+.% ^ I.+...q 1 2 B 2 V $.E.@.^ N N N F _ V N N _ @.>.L.R.R.^ 2 ^ ^ ^ >.@.V.M.b.` O.@._ N ^ N N D W.%XT.` ' ( ' _ ' ' _ _ ( ) ( ! ! M n E._ b x D ` ` ` ` V.G N.V.A.x b V.W.L.@.$.o.O.` H n.m.T.T.T.W.%X_ M M ^ N v n n q B q e M z x n.H D D x x z 5 % z * * 5 5 i z x x a x x z b D C b C G N.N.N.O.m $ Y.}.;X}.`.;X;X;X%X`.`.%XW.W.W.#X! w ! ^ >.E.V.L.N M z N _ _ N x D N D D _ _ _ o.^ V n z a z ` A.N.B.G.G.B.G.G.B.%XG h E.P.L.o.b L.b _ E.S.S.V.b z z M M M 0 * 0 B v 2 % z a x a b b p ` O.V.N.b.w.b.b.b.b.b.b.b.b.b.C.C.b.H H H D D D D D _ ) D N N N N x x b C f s h F O.O.O.O.n.c x m n b z b ` -XE.D S.H G T.%X:X`.G b z = * a D N 4 R R w ( I.L.P.C.V.A.Z.#.M t 0 V x b Y.W.n.n.b.n.b.H w.w.w.G.W.K.W.G ` #XP.V.N.V.V.N.N.N.G.}.G g O.W.C.Y.` ` O.` ` b.U.Y.H.`.-XC.D _ x z N N D b b z * V x c x D D D D N a z v 4 2 5 5 5 # = = & & 1 0 0 n 2 0 ^ ^ M e e o o # = a = $ * 2 & 2 q n B o.o.:.~ e + & % 2 = % % a z z D D ) N ^ N M M 5 = n +.R.E._ * v ) 2 z M 2 v N N F F z N ) _ ) ) ) ^ ^ ^ ^ ^ B M M M M M M ! M 2 2 5 0 % n q ! M 2 2 ! 2 5 M M 4 e ( ( ^ _ ) ) ^ ( +.( ^ ^ ^ ~ ! e 1 2 M ! M ! ^ ~ 4 4 r ( &.} R R  . . . .",
"4 4 w 3 3 3 1 4 e e e e w w w w 3 3 4 Y R R R R R R  .&.> 3 w 3 Y e w ( ( R Y 1 4 4 4 4 1 1 w Y e e ! ! ~ ~ ! ! ! ;.;.;.>.;.>.;.+.;.;.;.;.;.;.;.<.>.1.1.1.+.' ( ;.+.+.;.;.;.;.+.>.:.^ ^ 5 M M 0 B q 0 0 0 2 @.R.N N N ^ _ V N z o.+.>.>.o.^ ^ ^ ^ % 4 M 4 ! ^ +.` V.V.L.U.@.' N N N N x V.Y.W.b._ ^ _ _ _ _ ' +.:.^ ! ! M M N L.+.( ' ' ' ' ` O.' ` V.@.L.N z M N n ^ _ @.W.#XY.H n.Y.W.W.P.Z.z e w M 0 = * * = v n 2 _ U.U.Y.M.Y.Y.C.G.Y.C.N.C.C.C.B.B.B.C.F.F.).T.n.w.F.T.`.;X%X&X;X;X;X;X`.D.H.`.'.'.`.'.`.).`.`.).).).`.`.%XL.^ ) z x h i d x x x x z z z a a p = $ = = = = = = a a x h C D H C H G Z N.Y.P.W.a a N * _ b b E.m L W.W.A.S.b p z v M 2 v V o.$.V F D G c c c k s p s s s i i d d d d f s s s s d i d c D D H N.N.N.N.C.A.A.A.G.G.Y.Y.G.G.G.G.).`.`.-X;X;X;XxXxX^.y.f r.t.e.n.D P.O.H w.F.%X&X%X-XZ.* * y 9 y q 9 9 w r / / / ~ 1.L.L.L.E.Z.o.^ ^ M ^ V a G N.P.Y.Y.C.B.G.K.`.%X-X%XY.C.D ` E.V.O._ _ _ V V V m o.n 0 B Q.P.W.`.%X%XE.' _ Y.-X%XW.P.D N ) M ' N x N N F V v m N.b.b.b.N.w.G G N.b.b.n.b.b.b.b.b.` ` ` ` _ o._ _ _ _ x 5 # # # | #.Z.A.Y.C.B.E._ z 2 0 2 2 n ^ ..( 2 % v 5 * a b z v * * 2 % * = 2 2 2 2 2 n +.@X#XE._ z @.E.@.^ ^ M z z 5 # # z z 5 % % 2 5 . % # % % % % % % % . % 5 5 5 2 4 0 2 M 2 ^ _ +.>.>.I.$X$X;.M +.@XR.+X+X+XI.>.L.>.>.>.>.>.>.>.^ 2 2 M M 0 0 e e 1 % % > w w > > 3 3 3 3 ",
"Y 4 3 w w 3 1 4 > % % < < % < % 3 4 4 w e e w w w 3 Y U 3 w R R r e r ....~ Y 1 1 1 > 1 1 1 1 w 5 1 1 1 1 4 3 1 4 ! ! ( ( ^ ( ! ( ( ( ( +.;.;.+.( ( ^ ^ ^ ^ ) ^ ! M M ! ! ! ! ! M ~ 0 2 0 M 5 1 1 ! M 5 2 V E.^ N ) N z z N O.L.I.+.N 2 * % 5 5 5 0 ! % 2 e % M V N ) N x x x x x x N a x b ` O.^ ^ ^ V N N N N ^ 4 e e M v b _ M ! ) ) z x z N ) N N z M z ) M 2 v n z z _ _ z b z b b z z z z B 0 * v O.A.S.G a a i V.%X%XT.).T.W.T.W.`.`.).).).).).).).).).H.H.).).`.`.T.F.T.H.m.m.m.~.J.~.~.m.r.y.e.e.r.y.r.).m.t.).'.).n.w.i d k c c r.b.M.W.Y.Y.P.U.P.P.P.A.V.V.@.O.O.o.F o.o.` ` ` ` G H D C s s a b ` O.V z L.#.z N 5 N N $ s w.Z Z H G D x N N b b b a b G W.`.;X`.`.`.`.&X-X-X%X-X-X%X`.`.`.`.`.`.W.W.W.A.h C W.-XW.%XW.W.W.T.T.T.Y.Y.G.G.G.G.G.G.G.H.J.F.G.S.D.t.t.p.9X9X9X_.'.xXxX;XG ` D b.%X;XT.c C C a * n q 0 y 9 - 0 ! 4 4 ~ 2 2 M ^ B m b x i $ z x b b a b s F F F D C C N.A.B.w.c s x x z z N n v 2 2 0 0 0 & - 9 - - 0 n D M.M.V.N 2 * N ` D h z z v M z x x h C a a g m S.W.`.`.`.`.`.W.W.W.T.!.).).).T.Y.T.T.Y.Y.P.A.V.S.V.W.#XC.` O.O.N O.W.W.T.).`.`.`.Y.b 5 2 0 2 0 0 M ^ 2 M >.* * v b a z a V V * V M 2 2 5 2 2 * 2 5 5 5 * a x D z 2 B >.*X#XL._ n 2 z 2 5 z ' <.>.>.>.>.>.>.>.>.>.R.R.I.>.>.R.R.+.% _ @XL.E.@XE.L.I.L.@.@.1.1.( ) ! ^ ^ ( ^ ) ' _ @.1.@.1.>.+.^ 2 5 2 2 5 5 5 1 2 Y 4 w w r w 3 w w w w ",
" ./ / /  . . . ./ / / / ( ( ( ( Y Y Y Y r e 4 1 1 > 3 < R r } R r e e ( ! r R q 1 1 1 1 w 1 1 e Y Y Y e 1 1 4 4 o 5 % 5 % o 5 o o o % % % % % % 1 2 2 2 2 1 2 4 z z z z z z 2 2 5 2 z z ) N N N ..( 0 0 M v @.N N _ O.L.W.#XP._ z % o % 2 4 4 1 2 ....M ( ( ! ! 0 0 2 z x x _ ` ` ` b._ O.b v n B ! n v z 2 * 2 4 2 M M M n a z 2 4 0 2 4 z 2 % z 2 b 2 M 4 M 2 2 2 z z z v n 2 t 9 0 q n n b C i S.G.`.'.`.&X&XH.B.c B.J.H.!.`.).W.T.F.G.F.F.).H.H.H.H.H.H.H.H.H.K.G.S.w.G H b.n.m.H.).!.J.J.!.`.H.F.S.S.N.d.B.T.r.y.F.`.G.k i f h.`.{.{.`.`.).J.b.N.N.V.V.S.N.S.V.V.V.Z.#.@.@.O.O.` ` N.N.C.N.V.Z.Z.Z.@.n * = = v L.>.^ M M ) F G w.w.r.r.D.W.%XW.W.W.#X#XY.Z i Z `.).'.).'._.m.J.H.D.D.J.J.D.J.J.J.J.F.C.C.C.W.Y.d d E.Y.H b.Z Z Z H H H H G H H H G G G G G ` ` o.o.G w.r.8.p._.uX{.'.'.{.`.b.D W.:XN.p a a b a a z x z x x H n.C.P.M.' @.^ _ m a i p d c Z r.q.r.f k S m g ; 0 0 2 2 2 v N b V _ ^ N n ^ ^ 0 0 0 4 4 M M M ) ^ ! n q 9 2 z d i = ; t t n z v 0 q 0 v D b.J.`.`.}.K.S s C Y.).`.`.).`.W.W.W.W.T.!.m.H.F.A.P.F.F.F.F.F.C.C.B.s b.A.C.P.W.W.Q.s d.G.J.~.~.j.e.G.D z 2 0 e e 1 > 1 5 ! $.2 V V E.W.#XW.#XV.a @.+.5 2 0 2 M 2 2 +._ N D F D C D n 2 V #.>.>.L.L.L.E.L.+.^ ^ @.>.$.+.+.+...| ^ ^ ! ^ ^ ! ! ..( M 2 @.E.N N ) ) ) ) ' @.1.@.L.I.>.( ^ ) ^ N ) L.@.>.>.>.>.^ 2 2 0 ^ ^ | +.:.:.:.:.;.&.&.&.&. .%.%. . . .",
"Y Y Y Y Y R R Y R R R R R R Y Y ~ ~ ~ ~ ( ( ~ Y e 1 w < *.R R 1 1 5 5 2 1 1 ( ..( ~ ~ ~ ~ M 0 e 1 ! ..;.;.;.....+.;.( ( ( ! ( ! ! ! ! ! ! ! ! e 5 ! +.<.<.<.<.<.<.>.>.>.I.I.L.L.L.@.I.L.I.L.E.L.>.+X>.0 = 2 L.N @.E.E.L.` F z # % 5 2 2 2 2 2 2 2 4 M >.;.+.<.! * v _ L.E.#X%X%X%X#X#X#X-X#.n * 0 v v z z z z z z 2 z 2 % a a a 2 0 2 2 N o.o.N N z n n N 2 ) ! ^ M N ) N v n B t y y y 0 n z x D W.f.0.e.y.J.H.&X;X).`.h.j.t.8.Z c f f f f e.`.J.!.!.H.H.H.H.G.D.K.G.N.N.S.N.N.w.F.T.H.F.!.!.H.G.T.W.A.L G G G B.B.r.d Z A.S.p 0.K./.`.'.{.;X`.w.Z H ` D F G C F D D G _ ` ` _ ` V.V.A.C.C.M.b.V.V.O.O.@.F n o.o._ n # z N #X#XW.`.W.H.).`.T.F.F.n.C.C.C.Y.Y.b.i r.`.J.`.'.CX_.t.m.m.e.n.m.n.n.n.n.n.n.n.b.b.N.S.A.s k W.W.D N.b.b.N.N.b.b.b.b.b.b.b.b.b.N.N.N.` ' o.o.O.A.T.)._.~.m.e.e.e.e.w.H D D a a b a A C N.G.Y.Y.W.%X%X`.'.m.n.Y.P.W.P.a a Z W.;XxXcXcXcXxXcXcXcX;Xg.= = & 1 2 0 M z z B m m v = * * = 2 0 M M M ) ) ) N ) v z ^ ! M _ D D V B y 9 0 v q r t 0 v O.T.`.!./.{.}.}.K.n.F.H.H.J.t.e.f.d.0.f y.r.m.m.F.C.A.T.H.G.G.G.G.C.B.Z s d s c s k Z Z f f 6.6.6.6.y.r.H x z 1 1 w w 9 q 9 0 0 & $._ = F W.W.#X` $ P.R.5 1 q & 2 2 2 E.*X#X#X*X%X%X%X#Xv * z * z z a z z x x z 2 % % % = % % % & 5 5 5 % 2 2 5 % 2 z z _ L.^ _ _ _ @.@.@.@.L.L.@.1.1.L.1.( ( ) ) @.' ) N _ +.M % M >.R.>.>.R.R.+.M e e Y Y Y Y Y Y Y Y Y Y ",
"r r Y Y Y Y Y Y e e Y Y Y ! ~ ~ ! ! ! ! ~ ! ! ! ! e e e e e e e 1.1.+.+.1.1.1.@.' +.;.1.;.;.( 4 2 ( >.<.I.>.+.( 1.;.;.;.1.1.;.;.;.;.;.1.:.:.>.^ % +.>.( ! ! ! ! ! ! ! ! ! ! ! ) ) ^ ^ ^ _ _ ^ ^ ^ M ..+.M 5 v z 2 5 5 % % = z n _ @.L.L.L.L.L.L.L.L.N ) ' @.v * V.P.W.W.P.N.C.C.C.b.W.N.a a * * z * ` ` V.P.a a s b.Y.Y.Y.T.m.c $ m z p ` P.L.P.P.U.Z.Z.@.>.>.>.1.;.o._ N N n n V v 0 n M ! ! 2 #.O.F D D H H G Z n.W.;X;X;X'./.f r.D.H./.'.'.'.'.~.q.r.f.D.A.W.G.G.K.A.G C D w.B.J.H.H.H.H.H.T.T.T.T.T.T.A.N.b.T.b.Z b.Y.#XP.p w.`.H.r.D.`.;X:XC.G C F _ F D _ ` G H H H G b.C.A.C.b.b.n.n.n.b.N.N.N.V.N.O.V.P.P.P.E.P.s ` :XC.N.b.b.b.b.n.n.B.M.M.n.b.N.A.S.N.i N.A.` b.F.T.H.n.F.m.n.B.F.n.C.N.n.N.C.C.C.C.A.A.A.s h -XP.D ` ` ` ` ` ` ` b.b.n.b.b.N.` ` N.V.V.P.E.E.P.Q.A.d.r.r.w.w.H H ` F O.D s s h C f.`.`.`.&X&X%X`.`.T.m.m.;Xl b.A.B.$ c -XNXxX;X;X'.'.;XxX'.uX(.6.i l W.W.= = z x h C d i i s A L S.Q.Z.v * V o.@.' z b F _ O.$.@.O._ O.` ^ v n B M 2 0 0 0 n ^ O.` H w.r.0.f.).}.;X;X'.'.).j.r.6.8.y.t._._.'.'.J.r.H.G.Y.Y.Y.W.C.W.W.W.%XW.`.&X`.;X&X'.'.'.'.'.'.&X&X;X%Xb.a v q 6 r 4 4 4 1 2 0 ^ +.L.5 N #X:XZ.$ P.L.n 2 n 0 2 0 % @.Z.V.V.P.Y.Y.W.#XW.P.P.P.#XW.Y.P.Y.U.U.U.P.Y.P.L.N * 2 z z 2 z N L.E.E.E.#XV.z 5 >.>.M ( +.M ' +.@.1.1.@.@.@.@.L.L.1._ ) _ +.1.N z ^ +X>.5 M R.o.$.L.L.L.@.^ 4 R e r r Y Y Y U Y e Y ",
"r r r r Y r r r Y Y Y Y ! ! ! ! ! ! ~ ~ ~ ! ! ! ( ! ! ! ! ! ! ! 1.@.@.+.+.' ' ' ' _ ( ( ' ( ( 4 4 ( 1.1.1.;.( ;.( ( ) ( ( ( ( ) ) ( ) ( ) ( ( M % +.;.! ! ~ ! ! ! Y ! ! ! ! M M M M M M M z z 2 z 2 M +.+.M % & 2 2 z N _ @.>.R.L.Z.O.` ` ` ` ` ` E.x x U.) ) U.W.Y.b.H D D D D c H A.b.x ` $.n a V.P.V.V.b.D b.%X%X%X%X%X&X;X;Xb.z a a C P.W.c H D H D F ) N N ^ ^ ^ _ _ F F D z z N z 2 0 e 2 $.o.V V V F F G ` G G w.B.T.`.;X-X-X`.`.`././.~.;X'.xXD.i C C s w.B.A.A.S.O.N.A.F.F.T.T.T.Y.Y.Y.F.F.F.G.Y.C.C.N.P.N.D G V.W.W.a C W.`.G.D.n.w.B.G.V.O.O.@._ ' ' D C G N.N.B.C.C.b.b.C.n.b.b.b.b.b.b.b.b.` D C D s C N.W.H w.%XG.C.C.C.C.C.C.C.C.b.n.n.N.N.N.A.P.z O.Z.V.V.N.b.b.F.Y.F.C.C.C.M.C.A.U.U.C.C.N.N.O.V.V.k c #XA.b.N.G G ` ` ` ` ` b.b.b.N.N.V.S.A.A.W.C.b.G O.O.G G N.G G b.V.@.@._ O.O.A A A.}.}.`.!.H.J.m.e.n.n.n.m.&XcXG.B.S i w.:X;XJ.e.e.q.r.e.y.e.t.'.(.f {.xX;XA.$ z D i Z ;X`.`.}.;X;X:X-X-X-XF a O.V.` b.b.N.N.N.` ` O.O.O.@.@._ N z z N @.M M M M $.L.V.V.G w.w.w.w.e.J.).'.'.{.;X{.{.;X;X;X;X'.`.'.'.D.f A.L C k c c H w.b.A.W.G.J.J.J.!.!.~.!.~.~.!.!.!.m.F.H i * 9 6 w w e 4 e 4 4 0 e $.2 = N R.L.z _ ^ 2 & 0 2 2 v 2 o.@.O.O.V.C.C.U.U.P.U.n.V.P.Y.A.Y.Y.A.A.A.A.Y.Y.P.O.' _ _ N z z V.E.Y.P.P.E.U._ z ^ $X;.2 ) @.' +.+.@.1.@.@.@.@.@.1.@.' ' @.@.+.N M ) <.+.% M 2.o.@.L.R.R.R.>...! R r r r w Y Y e e e ",
"R R R R ~ ~ ~ ~ R Y Y ~ ( ......^ ( ( ......( } ( ~ ~ ( ( ~ R M +.+.+.+.+.o.' ( ( _ ( ( ^ +.( M 2 ^ ( ( ( ( ) ( ( ( ( ( ( ( ( ) ( ( ) / ! ( ..! % +...4 ! ! 4 Y e e e e e e e e 0 e M M ) ) ! ! ^ _ | $.>.B 2 $.^ ( @.L.L.@._ ^ ^ N N N D _ _ D ` #XD x L.x @.E.` D N N D ` ` D H n.A.W.W.#XE.N % E.U.` V.` V.V.` D c c D H ` C.W.V.b a x V.P.b.D D D F F _ _ _ ^ ^ ^ N F D b x D _ @._ z M ! 0 o.o.^ ^ ^ ^ _ _ _ _ F G G G w.G C.N.N.B.f.e.e.r.f.B.-XG i E.E.Z.a s D O.Z.Z.O.F ` b.b.b.b.b.` ` ` ` ` ` ` ` ` ` ` O.D b F E.E.p s S.W.A.B.b.b.C.C.A.P.P.P.P.E.E.W.W.E.E.Y.A.N.b.N.N.C.V.V.V.V.V.A.C.C.P.P.A.C.C.C.A.T.%Xn.c G.T.C.C.C.C.C.n.n.n.C.C.b.C.b.b.P.b.a F O.O.V.N.C.Y.n.M.M.M.U.M.M.U.n.n.n.M.C.A.A.V.P.` s H %XT.n.n.N.S.S.S.V.V.V.C.N.P.C.N.V.A.S.B.b.b.b.N.V.N.O.b.N.G C C D G G G b C p i G A.S.w.w.e.e.B.C.C.C.C.e.;X;XJ.w.d S :X-XG.w.e.B.e.w.w.T.e.6.~.cXx.uX/.g.s a = $ $ w.cX-X`.H.D.e.r.Z H ` a s O.V.C.C.b.n.n.b.` ` o.o.o._ n z z x N ` P.b.` x z ` V.` ` N.N.b.` G G G w.e.B.G.T.T.H.H.H.H.D.F.F.m.`.`.Z i $ G G H H x x h C A.B.B.H.m.!.J.D.D.D.F.F.F.H.F.G.M.b z n r 1 4 4 4 w e e 2 2 M n 5 2 M n 2 v % % 5 0 2 5 & 5 ^ o.` ' V.V.b.N.` O.O.` ` V.V.V.P.U.U.U.U.U.U.U.P.P.E.E.E.U.V.V.U.P.A.V.C.U.U.V.N % ' $X@.' @.' @.@.1.L.V.V.V.1.@.1.>.>.>.>.>.+.M 4 M :...5 M >.~ B V ^ ^ +.>.+.;.;.&.*.&./ / / ( ( ( ",
"R R ~ / } ............( ( ( ( ( } } ............( ( ( } } ( ~ ! ..+.( ( ( ( ( ( _ ^ ^ ^ ^ ( ^ M 2 / ..( ( ( / ] ( ( ] ] ] ] ] ( ( ( / ( ( ( ..! % :.;.e ! ~ e ! ! ! ! ! ! ! ! ! M M ! ^ ^ ^ ( ( ( +.+.^ M 5 M R.>.@.' ) N N N ^ ) ^ ^ _ ' _ D N ` E._ z D ' #XV.N V _ _ _ _ D D D c D P.P.D N $ % L.` ' @.F ` N N b N F _ D D F ` W.W.b $ ` Y.P.H D D D D F V F _ _ _ F F D D D ` O.V.o.n v M 2 ^ _ ^ ^ ( ( ( ( +.o.o.o.o.` _ _ ` _ F G G G w.w.H G G a _ E.>.R.*XZ.b $ = v _ @.` ` ` ` H F F F ` G G G _ _ _ _ _ o.F V F P.P.* a * a $ $ i i i i a a a x N D D G D G N.P.P.A.V.V.V.O.O.@.@.$.O.O.O.N.V.P.E.W.W.W.W.W.W.B.C C.W.W.W.W.W.%X%X`.`.W.%XW.W.W.W.%X` a O.E.Z.Z.P.V.N.C.U.U.P.P.V.` U.U.Y.Y.A.A.A.P.A.W.F i C T.F.F.C.N.O.@.V.V.V.@.@.O.V.O.` O.O.` ` b.V.V._ F _ ` G C b.B.n.w.w.f.B.C.`.:X:XW.H C N.G w.w.b.b.H C c ).xX;Xr.d d :X:XB.G w.w.w.w.N.G H n.t.j.{.'.q./.;Xi b z i E.;XF.r.r.r.r.r.w.b.N.` h x ` V.V.C.n.b.n.C.N.O.O._ V n z z N ` N.Y.Y.W.Y._ x V.V.` V.N.` ` O.O.O.G D H G G G b.b.b.b.n.H b.C.G V.W.P.$ N :X-X-X#XP.V.D b ` V.Y.T.F.F.F.F.F.G.G.G.G.G.C.C.C.` z 2 0 w e 1 1 1 w w e e 1 B M ~ B % % 2 >.>.;.^ ^ ! ^ +.+.@.@.@.L.U.V.U.V.L.L.V.@.V.L.L.P.P.P.P.P.P.U.U.V.L.L.L.L.P.P.E.U.P.P.P.P.P.Y.P.E.) z ' I.L.' I.1.@.@.@.1.1.@.@.1.+.+.+.;.:.;.+.M ! ! :...5 2 ( 0 1 5 5 5 2 M 0 0 e ! ~ ~ / ( ( ( ....",
"> > > 3 w w e e Y ~ ( ~ ! Y ! ~ t t R ! ~ ~ ~ ~ } ( ( } ( ..( ( +.+.+.+.+.o.o.+.+.+.+.+...+...! 1 / ] ( ( ( / ] / ] ] / / / / / ~ / ~ / ~ ~ ( e . ....e e e 4 Y e e e e e e M M ........+.( ( ( _ ^ ^ M 5 2 ^ +.N ^ _ ' _ ^ N M B ^ ^ ^ _ _ _ ' E.E.` z x E.P.N ^ ^ ^ B M M N _ ' ` ` U.b.x _ L.x _ @.@.^ N V v ^ B N V V V V V z b W.#Xx a V.P.N.V.` ` F V V V m n N V D F ` O.Z.` ` O.V v 2 2 ^ ^ ^ ^ ( ^ ( ( ( ~ ! ! ! ^ ^ ^ ^ ^ ^ V N N V V V ^ 2 2 ~ Y e ( #.E.*X#X$.n n o.@.@.@.` O.O.O.O.o._ o.o.o.o.o.o.o.o.| $.o.$.$.* ; = v V G G G C h s a p a a a i i p h ` V.V.D x z a z * 2 2 * * * * * * * a a a i a * g a = = g m m b F F F F F G N.O.Z.N.O.Z.b 2 +.+.V ^ o.@.#.@.#.#.#.$.B 0 B V | o.o.o.o.O.$.F b g a g $ * # % = = 5 5 2 5 % 5 5 5 z z z z z = = & & & * = $ b.-XcXxXxXxXxXxXNX;XW.W.W.b.b.Y.W.Y.G.Y.T.W.W.-XxXcXxXt.f J.NXe.B.e.B.B.b.S.C.G C.n.e.8.J.xXf 0.:Xb $ % P.W.H w.H w.b.b.b.b.` D ` p * ` L.b.b.U.b.b.V.` ` D x x x D ` ` N.C.C.N.V.L.N z @.Z.` @.O.O.V.` ` ` V.V.V.O.O.o.O.@.O.O.V.` D _ _ _ ^ $.z m :XL.V.` O.` O.D N V.W.Y.Y.Y.T.Y.E.E.E.P.P.P.P.Y.E.P.D 5 2 e e e e 9 1 9 9 9 1 w 1 } ..e e e % M ..2.+X+XR.I.>.I.I.I.E.I.U.L.#.>.#.@.@.@.@.@.' ' ' ' @.@.@.@.>.>.>.+.+.1.>.>.>.>.L.L.L.L.L.L.>.+X$.2 ^ +.M ( ^ ^ ^ ^ ^ ^ V ! ! ! e M ! ! ! ! ( ^ ( ..( > 5 1 1 > 1 e 1 5 5 o 4 1 1 5 5 5 4 ! ( ....",
"> 1 1 1 4 4 4 4 4 e Y Y e e e e w w w 9 9 9 1 1 e e e 2 0 e e 0 ^ ^ ^ ^ ( +.+.+.+.1.>.>.;.:.:.( 1 / ] ( &.&.] ] / ] ] E Q / { / / / ( ( ( ( ..e 1 ..;...} ....................+...( ( ( ^ ^ ^ ^ ^ M ^ ! 5 0 +.+._ ^ N v v v ^ ^ +.....^ ^ o.L.E.E.E._ x V.#XD N ^ B B B ^ ^ ^ _ _ ) ) ` U.L.#X#X_ 2 _ o.^ +.+.^ ! ~ ! B B B ~ B o.a O.*XL.i x Z.E.P.P.L.L.#.>.L.L.L.L.Z.Z.P.P.E.@.b z V V z 2 2 4 z M M ! ! ! ! e e e e 4 3 5 % o % 5 % % % 5 1 1 + o Y Y Y &.! ^ o.>.@X@X>.! & M M v v v v M M 2 v v M n n n n M 0 0 V n v n = # & o.E.E.W.W.W.E.P.V.O.V.L.U.V.P.Z.Z.Z.V._ x a * z v v 0 2 0 0 0 0 0 ; * * $ $ $ * $ = * * # # # # # # # $ $ $ $ $ a p $ $ $ = $ % # # % # $ n v n n q q - @ - 9 - & & = # $ $ # $ a a * = n * a a a * 2 2 2 2 2 5 2 z % $ $ # # . & q n & = z D `.;X'.9X9X9X'.!.T.T.C.D i D #XP.N.G D D C A G H.!.`.y.f -XT.B.w.r.b.C.N.b.b.` b.H B.e.e.;X;X;X-X$ N I.L.O.` ` ` ` G H ` ` O.@.= . # v @.L.L.U.V.V.O.` ` D ` ` V.U.P.C.P.T.C.D a n * = V V v b V N N N D D D D N n v M M v z 2 z N z 2 M M e q v z *X_ _ _ ' ^ _ N * F ` D b.b.` ` ` ` O.o.O.` V.` ` V.@.N 5 2 1 9 e q w 9 9 9 w w > w R R } e ..! 4 1 1 2 0 M 2 M z z z 2 * 2 2 2 2 2 2 2 2 * 5 * * * * 5 2 2 % 5 & & 5 2 2 5 M M M M z 2 z M & q ~ 1 % 2 5 % 5 1 2 1 1 5 5 & 5 5 5 1 1 1 1 1 e e e e e 5 1 1 w > 1 w 1 1 2 1 1 4 e ~ ( ;.1.<.( ( ( ",
"/ / / / ( ( ~ ~ ( ( ~ ! e 4 5 o 1 1 1 1 5 5 + % o o o o % 5 5 % . # = % 5 5 2 z z M M M M M M 2 4 ! ~ ! / ( / / / ] / Y U Y E R ~ ( ! ~ R ! ( e o 5 2 2 5 5 1 1 4 4 4 4 4 4 2 4 1 1 1 1 1 2 2 2 2 2 M 2 % % n +._ o.>.L.R.R.>.:.t e 2 5 % % 2 z N N a a O.Z.D @.^ ( ~ } } } ! M ) N ) ) L.#XR.1.) % 2 4 ! ..( ! ( ~ } | } } ~ ! B $.^ z n b * z _ _ _ _ _ o.o.o.^ V N V F _ V N n = = 2 2 5 & 1 1 2 4 4 4 4 4 e Y Y U w 3 r Y R Y ! e e e w 9 9 r 1 > U E R E 3 4 ( <.:.0   o 1 5 % % % % % % % % = & & & + & & 1 & % 2 = = n n $.#.Z.P.A.V.N.N.P.` F _ O.O.V.V.V.O.O.O.O.@.@.L.z 2 * * 2 2 2 * & * * = = z h x D D D h b F N D F D D D D D D D G N.N.a h b.G C.D.F.H.).`.w.d $ $ * * & 9 9 8 9 * = v N.W.%X%X&X&X`.H.F.G i G Z.G.G.A.A.A.S.S.N.S.N.S.G s w.H.B.Y.L a $ = * z a a N.G.J.!.~.j.!.`.A.` b * . 2 +.2 * * v v g a g i i h i p Q.A Z.A.A.V.V.N.` b.P.@.` A.B.w.W.:X-XZ.% % z v _ _ _ _ o.o.o.$.o.^ 2 2 0 5 o 2 ^ o.o.@.$.@.Z.L.V.V.P.Y.P.C.C.Y.Y.N.s = - : : 0 0 & & & & & 2 M M 2 % 2 2 2 2 2 0 0 0 2 ! M 2 2 e 1 1 2 % I.I.+.@.+.^ ^ M % % % % $ $ $ $ $ # # = = = % # # z ` ' z z 2 0 0 9 0 w w w w r w 9 1 w R e :.~ ! ! 4 1 4 2 2 2 2 5 2 2 5 z = % % % % % % % 5 5 5 5 5 5 5 5 % 5 5 1 1 1 1 1 % % % o o % % o 9   o + o + 5 1 5 5 1 1 1 1 1 1 1 1 1 9 9 1 1 w 1 4 5 2 2 2 0 1 r > 3 e 4 M / ( :.:.:.:.;.( ) 4 e e e ",
"r r Y Y Y Y Y Y Y Y e Y ~ ! e 5 5 > > + + % % & % 5 5 % 5 2 5 % % % % % # # # % # % % % % % 5 o o o o o o 1 1 3 3 Y 3 < < < , < < 5 o o o o 5   5 o % 5 o o o o o o o o o o o o o o o % % % % % % % . % 0 5 . 2 2 2 2 2 M M M e > > 5 1 4 4 2 5 % # 5 $ $ $ b a M e t t r t t ! 0 M ) 2 2 M 5 5 % 5 % % 5 % o 5 1 1 1 1 9 1 5 1 1 % % & . . % 5 % % % % % o o . o . . % M ^ N M ) M M M 0 4 e e e e e e e e Y Y e Y Y Y Y Y Y e e e e e r r w > < w > < E Y < / ..! 4 5 o o 1 9 e e 0 0 M 0 4 2 n n n q 0 w q r e 1 2 2 = z L.E.L.L.V.V.C.C.N.C.P.` N F F N N ) N N N V ^ _ @.L.L._ 2 * n o.^ n V V V b F V.W.#XW.#X%X#X#X#XW.W.W.W.W.W.W.W.W.W.W.-XW.d w.:X-X-X;X;X'.`.&X).r.d i a $ # = & & & v $ s C.`.%X`.`.&X).&XcX%Xi G :XT.H.G.S.A.S.S.S.S.N.B.Z f `.NXcXNX&Xr.i ` *XE.% % ` P.W.}.K.G.`.N.a # v +.B o 5 0 2 2 b v * $ = p i i i p # i $ a b x x F _ N N V n b b b L a a # 2 % % % v 5 v ^ ^ ....+...q O O O O + 9 & % 5 2 z V @.o._ N N x b D D Z k d $ = = = = # = * * 2 n B n M M ) ( ^ ^ ^ M e 0 0 0 0 2 2 2 4 e r 1 ! 5 +.@X^ ^ ! ..~ 2 5 o 2 +._ ) ` _ N b z v v v N @.@.@.L.@.' >.^ B 0 2 9 0 e 9 w > w r w w w w ;.e ~ ..! e M 4 4 0 4 2 M ! ) ^ ^ | +.+.+.+.+.$.+.+.+.+.+.+.( ( ......^ ! 2 2 4 M ! ^ ! ^ ( ^ ~ ^ ! | ^ ^ B 2 2 M M M M n n n e ! e r e e 1 w e e ! M ! ! M e 5 1 1 ~ ;.;.;.:.:.( ~ Y e e ! ! ! ! ! ! ",
"r r r r r e Y Y e Y ! Y ~ ..( 4 5 o ! e 0 0 M M +.+.1.>.L.L.L.L.>.>.L.L.L.>.>.>.>.I.I.@.% M +.+.+.:.<.<.( 4 5 5 1 o % 1 % > 1 > o e ~ ( ( ~ ! ! 4 4 2 % 0 4 0 M 4 4 4 4 4 4 1 1 2 4 2 2 o 5 % 2 % 5 2 5 2 4 % 5 % o % % 2 5 o 5 w w 1 1 1 1 2 2 z N N N N N * . % % o + O X X o o o % % % > > > 1 5 1 1 > > 5 o o o o   o o o 5 o o 5 e ! ! ! ( ! ! ~ R 1 > > 5 o 5 5 1 ..! ( ! ! ! ! Y Y Y Y Y Y r r r r e e e ! Y e 4 Y 4 4 2 5 5 % o % o O X X > X , Y Y Y U 1 o o ! ( 1 O t r ( R e ~ ! 4 2 * 0 0 0 t ~ R ~ ~ ! ! ^ n N _ ` G H b.b.n.n.M.C.P.O.D V V V N ^ V ^ ^ ^ ^ ^ _ _ L.L._ * N >.o._ $.O.O.O.b.n.b.b.b.b.b.b.` ` ` H D D D D D D H H H C.W.s c C.H b.G ` ` C b.T.-X;X`.`.).H.D.e.y.l s a h D G N.w.w.w.w.w.G.-Xs H %XY.b.G N.V.O.o.$.o.O.` D c c w.D._._.t.!.;XW.F D z * * z m m g = $ a F @._ 2 5 4 2 z x x H C.Y.T.`.'.'.`.`.).r.$ i $ # # @ .   + o o % # # # # = & 1 1 1 2 % % & 5 % 5 4 4 5 + O > > + > > 1 5 % 5 % z ^ M & . & % # = # D F.G.T.).`.`.`.`.&X%X-X:X-X:XV.N z ) @.@._ _ o.^ M 2 M M 2 M ( +.~ e 1 2 2 4 2.:.! &.~ 5 e ! 2 o ! <.I.U.Y.U._ 5 ^ o.o.+.@.@.' @.' o.o.+.+.^ B 0 1 9 q w 9 3 3 w w w 3 Y ( ! ~ ~ e 4 1 2 5 ( :.:.<.<.<.R.R.R.R.R.R.R.R.<.<.<.I.I.I.I.I.I.I.I.L.$X' % @.#XE.E.I.I.I.E.I.R.I.R.@.E.#XN L.#X$XE.$X$XE.E.R.R.+X+X;.0 1 ~ 2.:.:.;.:.<.>.+.;.e 5 ..:.! ! 4 e e r r Y Y Y ! ! ! ! ! ",
"r r r r r r Y Y e Y e 4 Y ( ( ~ e 2 ..! ! ! ^ ^ ^ ^ ( ' ' ' ' ' ' _ ( ' ' ' _ _ ' +.1.1.2 +.R.>.R.;.( +.;...e % 5 o o 5 % > 1 % 4 ( ;.:.<.<.<.<.<.2.( . ^ >.+.( ( ( ....&.;.;.;...+.( +.;.>.M 5 >.+.:.:.<.2.:.2.2.;.( M M e 5 e 3 , w r Y ~ ( ..>.>.I.>.L.L.>.( % % o O O O O > + > 5 5 1 1 9 6 w 9 1 1 1 5 > 5 5 1 4 2 4 4 o o < < w /  ./ / ( ~ ~ / R w < O O < < % 3 / R / Y Y Y Y Y Y Y Y Y r t r w e R ~ ! ! ! ! ! ^ ( ' ( ( ( ^ M 1 5 1 Y e w O 3 e 1 5 % 3 Y / ( Y 5 5 ~ e R e e ! M z ^ b v 2 2 q ! R ~ ( ! ~ N N D ` ` n.n.n.n.n.m.M.C.P.` D V V V V ^ | ^ ^ ^ V V ^ _ @.L.@.z N L.` _ O.O.` ` ` ` ` ` ` ` ` ` ` ` ` _ _ D D _ _ F F F D V.#Xi C N.` ` ` O.O.G G B.C.B.J.H.!.`.`.'.'.`.W.G F S.A.S.G N.N.B.b.A.-Xx h #XW.C.b.N.V.` _ O.O.O.F x s s Z e._.9X'.`.r.h O.@.v 2 2 v v * ; ; G O.@.$.M 5 5 M ) ) ' ` N.T.W.`.!.).).).`.&X%XT.$ % % + 9 > O > O 5 1 1 1 & 1 1 1 9 1 9 e 1 % 5 o o % % % % > > O O O 9 t ~ ( ! ( _ ^ ^ t > O 9 + & * * P.%X`.&X&X'.'.'.'.`.`.`.F.C.P.` D x ' O._ _ ' _ _ ^ ^ ^ ' _ ' @.o.M 0 4 M 4 2 +...q ! 1 % 1 e 4 5 2 M M M.Y.U.' 5 ) _ ( ' ' ' _ _ ^ ^ ^ ^ ^ _ ^ ! e e e e 9 4 4 4 w w w 3 4 1 4 e 4 ! ~ ~ ! ;.:.( ^ ^ ^ ! ! ! ! ! M M M ! ! ! ) ) ) ) ) z M ) ) L.' z U.` ' _ _ ) ) ) ) N N _ ) ' U.N U.U.V.` _ _ ) ) ) ! ! ! e 4 2 M ( ^ ^ ! ! ^ ^ ^ ( ! 5 +.1.) ) ! ( ~ ~ R R R R Y Y ! Y ! ",
"r r r r r r e e e e e e e ! ( ..0 4 ..! ! ! ^ ^ ) ^ ^ _ _ _ _ ) ) ^ ) ^ ^ ^ ) ) ) ) ' >.5 +.>.+.^ M M ^ +.;.+.( ~ ! ! ! e 4 1 o o 4 ! ! ! ! ) ! ! >.<.% ( I.M M M M M ! ! ! M M 0 ! ! +.<.>.5 2 >.^ ~ ! ( ( ~ ......:.>.,...1 > w r U Y R / ( ( ~ ^ ^ ^ ^ +.;.+.! 4 5 o O O < < O > > 1 9 6 6 6 6 9 > 9 w > o 1 ....;.+.;.( 5 % < > Y  . .R U U w w w , > < < < < < < 3 / Y E U U U U U U U U U r r r w w ! ..+.) ) ) _ ' ' ' ' ' @.@._ M M ! ..;.^ 1 4 e 5 3 e Y ~ / ~ e 5 % Y R t e ! ! z ) E._ n * 2 B ( ~ ~ R ! ^ N N O.P.C.T.T.H.H.T.H.T.T.Y.` D V V ^ ^ ^ ^ ! B ^ ^ _ _ ) N U.V.z N V.` D @.o._ _ _ _ _ _ _ _ _ ' ' ' ' _ _ _ _ _ _ _ _ _ V $.W.# N ` O.G G d.d.d.d.w.w.w.w.w.w.w.b.b.n.b.P.a h N.C.N.b.C.b.C.b.N.-Xc p E.-X`.T.G.A.B.S.S.S.S.S.B.G.T.`.;X{.H.S S O.o._ _ o.M z ' L.Z.Z.L.$.| B 1 X O w } +.+.o._ F ` G D F A H G N.A.W.E._ V 1 o O O O O O > 1 9 9 9 w w w w 1 9 r 9 > 5 M ) ' _ ^ M 2 o o > 9 ~ +.:.+.+.^ ! B q 9 > > 6 + + # = Z.A.H r.w.w.w.r.r.Z Z C D D D _ N z @.@.` ` O.` _ O.@._ ' ' ` ` ) v v N @._ 5 0 t > 1 O w e 4 4 0 2 1 M _ U.U.' z ) ^ ^ ^ ^ ^ ) ^ ^ ^ ^ N ^ ( ( ^ ! M 0 e e 4 4 4 e e e Y 1 1 Y e 4 &.>.( ( >.:.~ ! ! ! ^ ^ ^ ^ ^ ^ ^ ^ ( ( ( ( ( ( ( ^ ^ ^ _ ^ L.' z U.` _ ) ) ) ) ) ) ) ) ) _ ) 1.1.E.U.' ) N ) ) ) ! e 4 4 e ! M M M ! ! M M ! ! ) ' ^ 2 +.>.) M 4 ! e e r r R R R R Y ! ! ",
"r r r r r r e e Y e Y ! Y e ~ ..4 2 ( ! ! M ! ! ^ ^ ^ ( ' ' _ ^ _ ^ _ ^ ^ ^ ^ _ ^ ) ( >.% ^ ( M 4 ! ~ ! ! ! ( ;.;.&.;.:.;.;.:...e ( ( / / / ! ! ! ( <.5 ) 1.4 ) ! ! ! ! ! ! ! ! 4 0 e ..>.+.% ^ <.M 4 4 4 4 > 4 4 4 ! ~ ( ~ 1 w R R R Y Y Y Y Y Y ! e 4 e ~ ( ( +.! 1 > + O O O O O > 1 6 7 7 6 6 w 6 6 w O o M :.;.:.;.:.+.2 % w Y /  .E , < < O X < < < < < < < < < w / Y E T T T T T T T T U r r r r w e ^ :.^ _ ' ' ' ' ' ) ' ' _ _ ( ( ( ( ! 0 o o 1 4 Y ( ( Y Y ~ ! 5 o R ~ R R ! M z ' #XP._ * * B ^ ~ ~ ! ! ) N ) P.W.T.T.H.H.!.!.!.H.F.G.N.D V ^ V ! ^ B B ! ^ _ _ _ D N U.U.x D U.V.` O._ _ _ _ _ _ _ _ _ _ _ ' ' _ _ _ _ _ ^ _ ^ ^ ^ ^ $.L.= m o.o.F G 0.w.f.f.N.N.N.N.N.N.N.b.b.b.O.O.z ` P.N.C.C.n.b.C.b.V.E.x % D S.G.G.Q.Y.W.W.W.Q.Y.W.W.W.W.`.`.Q.h . # o.o.V o.o.z z x D N x z 2 & o + > 6 t ....+.o._ _ ` ` F K J J F F F _ $.R.>.B @ O > 5 > X O > 9 w w w w w w 9 w w 1 O > 1.L.E.E.E.L.) o o 2 ~ ....^ z 2 % + + O O O > O 5 1 & v E.Z.D G A A H G G G G G _ _ N _ N 2 >.L.` ` G F _ ` _ F ` ` ` b.` _ ' @.o._ % o 1 O < 1 Y Y 2 2 ! e 1 4 D V.U.@.z N ^ ^ ( ( ' ' ^ ^ ^ ^ ) ) ^ ^ ^ ^ ! ! r e e e e e Y e ~ e Y ( e e :.:.( ( >.:.^ ^ ^ ^ ! ) ) ) ) ) ) ) ) ) ) ) ) ) ) ) ^ ^ ) ) >.' z I.' ) ) ^ ^ ^ ( ^ ( ^ ) ^ ) ^ >.L._ ) N ) ^ ^ ! ! ~ ~ ( ( ( ! ! ! ! ^ ^ ^ ( ) ) ( ^ 5 +.R.@.' M ^ ~ ~ R R R R Y Y Y Y ! ",
"r r r r Y Y Y e Y e Y ! Y e ! ..e 4 ..~ ~ ! ! ! ! ) ^ ( ( ' ' ( ^ ^ ^ ( ^ ^ ^ ^ ) ^ ( :.% ! ( ! ( ( / ~ ! ! ! ! Y Y ! ~ ! ~ / 4 3 ! / ! / ! ! / ;./ <.2 ! <.^ M M M M ) ) ! M ! ( ( ^ ( >.>.2 ( 2.! 4 Y R R r R Y e 4 3 e e > w R R R Y Y Y Y ! / / / ! ! ! / ~ ( e 5 O O O O O < > 1 w w w 7 7 6 r 9 9 w O o ( :.+.;...:.;.4 5 / }  ./ U < O O > < < < < O < O < > < r E R T T Y T T T Y Y Y U R 7 r R w 1 M +.^ ^ _ _ _ ) N x ' D N ) _ _ ) N 2 4 1 o 1 ! R R R R ~ ( Y o o ! r w w 9 2 N V.P.E.O.z 5 M ! ! Y ( ! ! v D P.W.Y.H.H.H.H.!.J.F.F.G.N.D N ^ ^ ) ^ ^ ^ ^ ^ ^ N N N N L.O.a N V.O.D ` ` ' _ ) ) ) ) ) ) _ _ ' ' ' ' ' _ _ _ _ _ ^ ^ _ _ ^ = z @.` ` b.b.b.b.b.b.b.B.b.b.b.b.b.N.C.V._ 2 _ Z.` b.M.n.C.C.U.' N % o . . # = = = * 2 * 2 2 * * * $ # # * # = & . 0 +.| _ o.' N z 5 z 5 2 2 M ( ~ 0 q o._ _ ` ` ` b.V.O.$.o.o.O.` ` ` ` _ _ 0 o o 5 % % + > 9 w r U U r w t r q w 1 < 1 L.L.L.U.E.E.o.& 2 ( ;.:.~ 2 % o O > > O O > > o o % % z L.o.V o.V ^ o.o._ _ _ _ _ @.N ' N z L.E.U.b.H ` ` O.O.` ` ` ` ` ` _ _ ) z N & @ 9 > > r ! ( ^ ^ ;.+.M 0 _ V.Z.@.z ! ^ ( ( ( ( ^ ^ ^ ^ ^ ^ ) ! ! ^ ~ ~ ! e e r r Y Y Y e Y Y R Y 1 e :...+.^ ;.;.^ ^ ^ ! ^ ^ ^ ^ ( ( ( ( ^ ^ ( ( ( ( ( ( Y ! R e ;...2 <.( ! ! ! ! ! ~ R ~ ! ! ~ ! ! <.;.! ! ! ~ ~ Y r Y ! ~ ( ..( ! ! ^ ! ~ ~ ! ^ ! ! ( ^ % _ E.L.+.M M M e Y R Y Y ! ! ! ! ! ",
"r r r e Y Y Y Y Y e e Y e e ~ ..e 4 ..~ ~ ! ~ ! ! ! ! ~ ^ ( ( ( ^ ~ ~ ~ ^ ^ ^ ~ ! ~ ( ( 5 4 / ~ Y Y Y / / / / / ( / / / / / ! 3 3 R / R / / / / / ! ,.4 4 :.;.! ! ) ) ! ! ) M M M +.;.M 4 ( % M :.4 4 Y U U w w Y Y ! Y ~ R < < Y R Y Y E E / / Y Y Y Y R Y Y Y ~ 4 o O O O O O < > > 1 9 6 6 6 < 6 > > 1 O > ! &.+.;...&...1 % 1 1 3 > < O < < > > < O O O O X O > O U R R U T U U U U U U Y U E U w R w o 1 ^ _ _ _ ^ ) _ _ _ ' _ _ _ _ _ ' o.+.;.( 5 1 ~ R R r R r 1 5 o o O X O O @ 2 ' E.P.E.Z.N z M ! ! ! ( ! ! v N V.W.Y.H.H.H.!.!.!.H.H.G.N.D N ^ ^ ) ^ ^ ^ ^ ^ N N _ _ @.L.o.z N $._ N U.V.` ' _ _ ^ ^ ^ ^ ^ ^ ' ' ' ' ' ' ' ' ' ( ( _ +.M * = 5 o._ @.V.b.V.V.V.V.V.V.A.A.V.N.N.N.V.@.#.2 n @.#.Z.L.P.V.` @.v % o > o + + + o o o o o o o o o % & & & & . & + o 9 0 | ^ o.@._ ) _ ' _ ( ' ;.+.n % 2 $.o.` ` ` ` ` ` _ V V F ` ` ` ` ` _ ^ e o o o o 5 > 1 w w U U U w w r q w w > < 1 R.E.L.L.P.R.^ % 1 t ..( e 5 5 1 > > > O O > > > 1 5 2 B >._ _ _ ^ | | ^ ^ ^ ^ ^ ) _ ^ o.z % ) L.P.b.D D D N N F ` ` ` ` ` ` ` _ ' >.V % + O > t ( ..+.+.>.>.+.^ o.$.$.$.0 M ! ^ ) ) ) ) ^ ~ ! ! ^ ! ! ~ ^ ( ! t R R Y Y Y Y Y Y Y R Y w 5 Y >.;.+.^ ;.;.^ ^ ^ ! ! ! ! ! ! ! ) ! ! ! ! ! ! ! ! ! ( } } ! :...2 >.+.~ ~ ( ! ~ ~ R / Y ~ ~ ( ( <.;.) ! ! ~ ! Y R ~ ! ! e ! ~ ~ ! ! ! ~ ! ! ! ! ~ +.^ % o.E.R.L.( ^ M e Y Y ! ! ! ! ! ! ! ",
"e e e e Y Y Y Y Y Y Y ! ~ ( ( ..4 4  .R R Y ~ Y ! ! ! ! ! ~ ~ ~ ~ ~ ~ / / ~ ^ ^ ( / ~ 3 % > Y / Y / / / R R R R R R / / / / / Y 3 R / E / / / / / / ] % o e ;.<.( ' ( ) ) ) ! M z +.R.) % 4 % M ,.4 Y Y U R Y U Y Y Y 3 Y R , w R R R Y R R Y Y Y Y R E / E E / Y 1 + O O O O O O O O O O O O O O X X O O O o 1 e q Y w 3 > X < O O o X X X O O X X X X + + + O X > X t R R U R Y Y Y Y Y r r Y R T T Y 4 5 5 2 ( ( _ _ ( ' +.+._ o.o.' ( ( @.1.+.( ! o X w > 7 > > O X O > O X O   X o 2 $.E.P.P.P.` z 0 ! ~ ~ ~ ! ! N N ` Y.T.G.J.H.H.H.F.F.F.G.N.D N ) ) ^ ^ N N ^ _ _ @.@.>.L.L._ z V o.V ^ @.@.o.( ^ ( ~ R R R R ~ ~ ~ ( ( ( ( ( ( ( } } } B 1 o + & 0 0 n B V V ^ ^ ^ ^ ^ ^ ^ ^ ^ ^ ^ ^ ^ ^ % % 0 q 0 2 0 B 9 q 5 o 1 > > O X o o > 1 1 1 5 5 5 5 & > 1 1 o 1 5 O 9 @   +.$.o._ _ @.>.>.+.:.;.^ 2 . . * V _ _ ` ` ` _ o.o.o.o.$.@.` O.` _ >.| w < > < O 1 O o > > < < , > % 5 + + 1 + < > +.$.$.o.o.^ 0 @ X O + O X o + 5 % o O O O O < > O X o M @.) ` ` _ ^ _ _ _ _ ^ ^ ^ ^ ^ +.2 5 5 z P.P.P.V.@.@.@.@.L.U.U.U.U.P.U.P.E.E.^ @ o O O 9 e 2 z ) ) ! ~ ^ V V n B 2 M ! ^ ^ ) ^ ) ^ ^ ~ ~ ~ ~ ~ ( ( ~ ! R R R t t t R t r R R w 4 4 ! :.>.+.^ 1.1.^ ^ ^ ^ ~ ^ ^ ^ ^ / ( ( ( ( ( / ( / / ( ! ! ! ! ;.( 2 1.' ) ! ^ ! ! ~ Y / ! ( ! ) ) ' ) ) ! ! ! ! ! ~ / ( ~ ! ! ~ ~ ! ! ! ~ ! ! ~ ~ ~ ..^ # V >.L.E.R.R.:.;...( / ! ! ! ! ! ! ",
"e e e e Y Y Y Y Y R ~ ....&...~ 3 3  .R R R R Y Y Y Y Y Y Y Y Y R R ~ ~ / ( ( ( ( ~ Y X > > R / E E E E E { { E { / / E R / / 3 < r E E E / / / / Y 3 < 4 < 5 ~ <.<.<.<.<.<.<.<.R.;.R.^ % 2 . M ..1 4 r 3 Y Y w Y Y Y Y Y Y < < Y Y R R E / / / / E Y U U 3 , > 1 o o O O O O O X o o o o o X X O     o O > + X   o > X X < > R R ~ Y w > < O X o o o o @ @ o + o & o ! ~ R e R Y Y Y Y Y e e Y U E E U 1 1 5 o % 5 5 2 2 2 1 5 5 & 5 2 2 2 5 % % o 5 X O >   X X O O > > o 5 ~ t > > + 5 ^ L.@.V.E.$.v 2 e ! ~ ~ ! ^ ^ z N V.P.W.W.T.T.T.T.T.Y.P.O.^ ) ^ ! ^ ^ ^ ^ ( +.>.>.>.@.| B 2 . 2 0 & 0 ! ! M e r r r r r r r w w Y Y ! ~ ~ ~ ~ R R R R 9   O > 9 X o o   + @ X o @ o o o @ o o o o o o o o & @ @ + O @ + X O X > 1   > O O X O > O o o 5 5 1 1 1 + O X o % 4 o o 1 @ & 2 2 2 n M M ! ( / ! 4 o . & & # V V _ o.o.^ ( | ~ | ^ n b x z 5 & .     O X     o o o o o X o o o o . o 5 > < 5 . % % . . @ 1 9 w 6 > < < > O O 5 @ + > 6 + O O > O 1 ^ #._ V.D ' ' ' ' ( ( ( ( ..( ( ..1 1 O % 5 N @.o.^ +.+._ _ _ ) ) ) ) ) N v n 2 o + w O X 5 o 2 ( M 5 5 1 2 & & 0 1 e ! ~ ^ ^ ) ^ ^ ^ ( ( ~ ~ ~ ~ ! ~ ~ ~ R R Y Y R t r r Y R 3 3 4 e ( ;...^ >.:.! ! ! ~ ~ ~ ~ ~ ~ ~ ~ ~ ~ ~ ~ ~ ~ ~ / ~ ~ ( ~ ! ;.( 5 ( ' ! ! ^ ~ ~ ( ~ ~ ! ( ! ( ! ) ( ) ) ! ) ( / ~ ~ ~ ~ ( ~ ! Y Y ~ e Y Y ! ~ ! Y ( B   1 2 5 M 0 e ~ ! ! ! ! ! ! ~ ! ! ! ",
"Y r r r r r Y Y R ~ R ~ r 4 w < > 3 w Y R R R R R R U U Y w w R r > r r w w U E U 3 > < < < O O < < < < , < < < < , < < > > > > O < > > < > 3 w > > < < < < < < > 9 e 0 ~ ^ ^ ........B 1 @ o O > w 1 4 e 3 3 1 1 1 3 w 3 < O O O 9 9 1 w , , 3 < < < O 3 } *.&.<.>.>.:.:.:.:.:.:.:.:.;.:.:.;.;.:.......e X e Y Y 4 Y Y U < U / / / / / U < O > 5   . 1 . & @ @ o o @ % 5 1 1 1 5 5 5 5 5 5 1 1 4 X w < > > > o O o o o O o o o o X X o o o o o % < < < w R T > < O 1 O 1 ....:.+.( 1 o o e ! ! ! M ^ ! 1 o R r w r e e 4 2 4 M ^ ^ ^ _ $.o._ o.( ! 4 5 4 r e e e e e R e e 1 1 o 4 e e r r e e Y Y Y Y Y R R R R U Y E w X < % O X O > > X O 1 > 1 r r R r r r r w w w 1 1 > > > O o O O + + 5 o + + + + + + + + + O O O O O O X + + + + > o 1 2.2.2.3.3.<.>.>.e & + 5 O o + @ . # .   o X O < % O o + + + @ . @ & + 1 5 % 1 5 + @ . . # 2 V $.#.$.$.+.o...^ ^ ^ ^ ^ ^ ^ ) N M M M 2 M M 5 o e e q 1 o 1 > O *.&. . . .R 3 % > O + 6 + @ u + O + + 9 q B | | | ^ ^ ^ ^ ^ ^ ! ! ! M e e 5 + + + o o o o o o o o o o o o o o o o o o O o X O > > 1 o 2 >.1 e w w w w w w e r Y R ~ ~ ~ ~ ~ ( ( ( ( ~ ~ } ~ t t ~ R Y Y R Y R ~ R R Y 3 > 4 1 < > < 5 1 % 5 1 Y ( / ~ ( / ~ ( ! ( ~ ! ~ ( ..~ ~ ~ ( ~ ~ ..~ 4 1 % 1 4 Y ~ ~ ( ~ ~ ( ~ ~ ( ! ! ~ ~ ( ( ~ ( ( ..........( ( / ~ ~ ~ / R R R Y w 1 5 + O O O O O < < X < < O > < < 1 > < < ",
"r r r r r r r Y > > > > < > r w R E E E E E R R U R U U R U U E R X X O > w < < , , , , w w w w < < < < < < < < < , < < O < O O O O O O < < < < < < < < < < < < X O X X o o o o   o @ o X X + + > > O 1 e 1 1 1 o X X X < > O O   X X O < < < < , w w w R } } R ! ! ~ ~ ( ( ........( ..........^ ! ..;.( 4 &.&.&./ &./ / 3 Y / / / /  .E r > O O o o %   @ o % 5 & 5 5 2 1 5 5 4 e 4 2 4 4 4 4 e 4 r 3 X > > + X X O O O < > > O O O O O O < > O O O > R  . .R R > > e ..>.+.....^ 0 5 > 1 6 > w 1 1 1 1   1 o 1 9 w 4 1 1 1 4 5 % O O 5 % o % % e ( ( ( R R ( ~ r > > < < < < > R R R /  . .&.R R R R R Y Y Y U Y R &.R < > > R w < O < > w w r R R R R R R R R R R Y Y Y r r r 9 O O O O O O > O + X o + o o + + + + X @     + X +   O > O e ..........+.+...>.q o o @ & & @ & & @ & 1 > < X O O O o     + + + + O > > X < O o & 1 0 B | $.2.>.>.>.L.I.R.R.R.E.E.R.R.R.E.E.E.E.$X@X+X>.4 ! :...:.;.&.,.R <  ./ / / &./ Y 1 O 1 @       . . . . . . . . . .   . . . . o o o o o 5 5 o X @ 1 > > > > > > > > > O O < > > > > > > > > > > < O O 1 o 5 ;.r R r w r w w w w e r Y 4 w 4 4 w e e w Y Y Y R ~ } ~ ~ ~ Y Y 3 3 3 e 1 3 w Y R / / R R R R R r w w w Y / Y ~ Y Y ~ e ! Y ! ! r e ~ ~ Y R Y Y R r > < < O O < > > 1 1 1 e 4 e Y e Y ! Y e Y Y ~ ~ ~ ~ ~ ! M Y e Y Y Y Y w 3 w w w > O O O O < O < > w U U U U U U w < > > < < ",
"r r w w r r r r w w > > O > R Y U U U U R R R R U U U U R U U } } < O < w E U 3 w U U U R R U r T T T T U U U U , w < < < < X O O O O O < < < O X < < < < < < O > > O O > > O o o + + O O X O O X O X R ;...;.:.( Y 3 < O X X X O O > 1 w U U U U Y R R R R r r r r e e Y Y Y / Y ~ ~ ~ ~ ~ ~ ( ( ! ( ( / 4 ] / / / &.&.&.Y R E / / E E  .} r O O ( ..:.;.>.:.2.2.2.2.2.2.2.<.<.>.:.:.:.:.:.:.:.&.,... .O O O o O O + O O X X X O + + O X X o X > < > r /  . .R  .w O ! >.:.+.~ +.^ e o     X   O o o e ;...:.&.( ( } } / / / / e 1 O + e e e e ( ( ( ( :.*. . .&./ w 1 1 3 3 < w R R Y Y Y Y E R R R R R Y Y Y Y R E *.R < > < w r R r w w R R R R R R R R R R R R R R R R R R R w > O O O O O O O X X O O + O O O O O O + + + O O O X O O O w ( ~ ~ / / ( ( ( :.0 .   o & & . . . & & O < , w w < X X O O + + O + X > w 3 U w Y R ! ~ ~ ~ B ! n n M M ! ! ^ ^ ^ ^ ( ^ ^ ( ( ( ) ) ( ( ..4 ..:.;...X.X.&.Y 3 &./ / / &.&.%.Y 5 # 5 z N _ _ ) _ ` ` ` V.U.P.P.L.>.>.>.>.>.:.:.:.....&.! o + 1   O O O O O > > > + O O + > O O O O O O O > > O O O O 4 ;.1 w 9 w w w w w w w w w > > > 1 4 w w w R / } ~ ~ } } ~ / Y Y 3 , 3 3 O < w R R R / R R R R R R R Y U r , < % o % 4 O X o 5 > > % > 1 1 3 > > 3 3 > > 3 > > > > , 3 3 3 < X X < o < % % 3 1 > O o o o o 1 1 1 1 3 3 > > w , 3 w w > O O O > > > 3 Y E  ./ %.[ E / U > > > > < ",
"U r r w w r Y r R ~ R R 3 > Y U , , , , w w U U U U U U R U U  .R < < < < w U E R R R R R U r w U U T T T T T T U T w < < < O O O O O O < < < < < < < , > > < < O O X X > O X o o o o X O O O O O O O ( :.( ( ;.&.&.&./ w % o > O O w r Y R E E E Y Y R R r Y R R R R Y Y Y E R E E E R R R E / ( ! ~ ~ / Y &.*.*.] &.]  .U Y R / E Y Y E  .R < 1 3.:.,.,.:...&.....( ( ( ( ( ~ / ~ ~ ~ ~ ~ ~ ~ e } R  .w O O O X O O O O > > > O O O O > > + > O X < r / / } } } t > ~ ..^ +.......! e 9 6 w w + o o 1 ;.} ~ ~ R Y Y Y R R Y U R r 1 9 ( ..........~ e w w r  ... .} } } } Y > w R Y 3 3 , , 3 Y Y Y Y Y R R R R R R  .Y < < < X > R ~ R R R R R R Y Y Y Y Y R R Y Y Y R R R R R w O O O O O O X O O O O O O O o X X o O O O O O O < O < < O w } ( / ( ( ( / ~ >...( ( M e 2 5 * % # . o 1 / *.%.Y > < > O O X O + X w ~ R  ./ / / / R R R ~ ~ ( ( ( ( ( ( ( ( ( ( ....( ( ( ( :.......,.Y ,.:.:.:.:.3.3./ 3 &./ &./ / %.*.( e % V.Y.#X#X$X$X#X%X#X#X#XE.E.P.L.;.;.;.......( ( &.&.:...1 + > X > > > + > 5 5 > o + + + > + O O o O O O O O < < O > e ..e w w t w r w w w w w w > < > 4 Y ~ ( ( / %. .~ t t ~ } / / / / R R r O < Y R w w w w w U Y Y R R R R Y Y w Y Y ( ..q O o o 1 R Y > > Y r w w r Y Y R E R R Y Y Y Y R R r 1 > > % % > O X X X o % > % % &.....}  .} / R R U U Y r w > O > 9 w r R  .%. .E E E E  .R w w w 1 > ",
"T U U r U U Y Y Y R R R 3 , R Y U U U w w U U U U U U U R U U } R O < < O < , U U U U U U U U U U U U U U U U U U R 3 < < O O O X X O O O O > w R R R R T U r r r r r r R w < < < O X X X O O X O O > ( &.e 2 Y e ~  . .R w > O X X t R w Y Y Q E Y T Y U r R / Y Y Y R Q E E E E E E E E E /  .( ( ~ ~ ..e E Y Y U Y , 3 < R %.E / E R R  .R > r 2.~ 4 Y Y 3 Y R Y Y Y Y R Y Y R R Y Y Y Y Y Y w U r }  .O O X o O O o o o o o X X o O + + > > o O O 1 w w w w > 9 O 1 1 o e e 1 w t ~ ~ R R R R ~ 9 r 3./ Y Y / R R R E E E R R w O > t ~ R R ( ~ w > % < < w / } .. . . .Y < w R Y Y Y Y U Y Y Y Y Y Y R R R Y Y R &.R < > , > O < r R R R r R R R R R R R R Y R R R R Y R R R 9 O X O O O O O O < O O O > 1 w w 9 9 9 1 > > O O < O < < < R  . ./ / / / / ~ ( ( :.2.2.+X@X=X>.V = % M &.=.*.=.*. .U < X O 9 > O O R  .~ / E  .E E E E } } } R R E E / / / / / } } } ( } } ( ~ ~ } } ,.r &.&.} ~ } } ( e 3 &./  ./ / ( .. .~ o >.>.^ ( ~ ^ ( M 4 M M M ! ! ! ! ~ Y Y Y Y Y Y R e ~ ( e o + > > > > o + 5 o o o o 5 5 5 5 5 5 > > > < O O O O O X o e e R r w w w w e r w w w > O % 4 ~ ( } } } R w 1 > 1 w R  ./ &.%.%. .R O , R R w w R R Y Y Y Y Y R R Y U Y U Y Y } &.r X > > r .. .Y U / R R Y R Y U Y R Y U Y U Y U Y U w < X X X O > < > 1 w R } ~ w 1 ..} ~ Y Y Y Y U R R R R r r > O w t R R  . .R , w w w T } } R E U r r ",
"T U U U U T Y Y Y R Y Y 3 3 E R R R R U U U U U U U U U R U U E R < > r r U w U U U U U r U U R T T T T T T T U U R 3 < < < O O X O O O < > r R E R U U U U r R U T r r r > X < R r > O O O X X X X O ( ;.! Y ! e e 3 w R R R w o X }  .Y E Y E Q Q Q Y Y Y Y Y Y E E E E E E E E E E E E E E E Y t Y R / < < < < < , < , < U R Y E E E E [ R 1 Y 3.Y Y / / /  .E E E E E E / E E Q Q Q E E E E %.E R } *.> O X O O O o > 1 1 5 1 1 5 % o o o X o O o O < X X X X X   X X X o     X O > > > < > > 1 O 1 *.R R E R Y U Y Y R Y U R w O > R ~ Y e &.R < O 3 3 < > }  .} R R / Y > r R E Y / E Y E R R R R Y Y Y Y Y R / &.R < < < > O O w R R r R Y R R R R R R R R R R R R R R R ~ w O O O O O O O O O O > w R ~ ~ R R R R R R R r w 1 < < < < E / / / E / / / ( / ! e Y e Y ! M R.+.2 4 ;.<.*.%.%.-.=.*.E w < O > O O R &.R E E  .E E E E E R R [ } [  ./ /  . .%.%. .E  .%.&. .&...../ 3.r < O > o o X X o > / / &.&. ...&.../ 1 @X:.e ~ / E R %. . . . . . .} / / / / / { / / / R / &.( 1 o > O O o o 5 2 1 % 5 5 5 5 o o o o o O O > < O O O > > 1 r 1 w w 6 w w w e r r w w > O O 4 Y ~ ~ ~ &.w X X O O > 1 &. ./ / E / R < > R R Y R E R Y R R Y Y R R Y Y E Y R U / *.R O X > r r Y Y Y Y U U U U U U w w U U U U U U U U Y > < > 3 r R R ~ R r r Y r > O ..( Y r Y R R R T U U U r r > O r R R R / E w X < < < , R } E } R R U ",
"U U U U T T T T R E R R w w E R U U U U U U U U U U U U T U U } R O < w R R U R Y R R U U U r U U U U U U U U U U R w < < < O < O O O O > r R R w w > < < , w r U U U U U , > w r > < O O O < O O X X R ;.( ! ! ! Y w U ~ *.*.} O   ~ / w E U Q Q E E R Y R r > U T T E W W E E E W W E E E U w O < 1 R *.3 3 Y Y Y E E E w 3 < w w U r r U w < Y ,.Y / ] E E T E R Y Y E E E E Q Q Q Q Q E E E Y r r r } R O O X o O 5 ! ;.>.:...X...^ ! M 0 0 o o o X X < > > > O < O > 5 O O > O X X X X X O < < O r *.R E E R R R R E E E R R w O > R ~ R R Y Y r 3 > < > R &. .R 3 r / R > Y Y Y Y R Y w Y Y R R R R R Y Y R R R &.R < > > < > r R R r Y R Y Y R R R R R R R R R R R Y R Y ~ w + O O + O O O O O > Y } ....1 1 3 w U R R R / R R w 3 < < R / E E E E / / / ( ~ ! ~ Y ~ ~ ! ^ o.M 0 ;.,.] -.E E { -.*./ w > > O O ~ &.R /  .E E [ [  . .[ [ R R E E E E E E [ %. .E  .%. .R w 3 1 > :.&.O w R r R Y Y Y , 3 Y R E E R / R r O 2.X.r *.%.[ [ E E W E E E E E E E E E E E E E E E R / &.r o 1 > > + 5 e ..+.( ~ ! ! e 4 1 5 5 5 o O O O > < O 1 ! ....e 9 w t w w w w w w w w w > % 4 Y R R R &./ r 1 > > 1 w  ./ E U U R r O > Y R U Y R U r R Y Y Y R R R R U U Y 3 R ..r X < w U w U Y E Y U T T T T E E R T T T T T T T R w O X O < > w > > < X X X O < >  .~ Y r Y R R T U U T U R r 9 O r R R R R R r < < < < , E E R R U U U ",
"U U U U U T T T U Y Y R U w E U U R R R U U U U U U U U R U U } } O < > w U w U U U U U U U U R U U T T T T Y Y U U 3 < < < O O O X X O w R R R , < < < < > w U U U U U U , 3 R R w < O X O < O O X   e <.<.,.;.&.:.,.,.&.} q > >   / / U E Q Q U E E U U Y w < < < , U Q W E { E E W { E W , X O O < R *., w / { Q E Q %.E E T < < O X < < < X / ,.Y / / W E W E E E W W W W E W W Q Q Q Q Q W T E R R R X.O X O O o o e ....^ :.:.:.:.:.:.;.;.....! 1 O O O X O   O X X O   > O X X O < O O O < O < r *.R R R R R R R E E E R R r > > R R R R Y Y R } &. ./  ./ / w > w / Y < Y Y Y Y R Y U R w r Y Y Y Y R Y Y Y Y  .R w R / } R R r r R R U R R R R R R R R R R R R R R R R R 1 O O O + O O < O X > ~  .~ 4 4 3 3 w Y R R R R Y / R R w , E / E E E E E E E ! ~ ( &./ ~ / ! ( | 2 5 :.,.] =.{ E Q T T R  .&.1 > > ~  .R R / E E E E E R T U > , 7 U T E [ { E %.%.%.-.-.E , < < > X ~ ..O  ...}  .R /  .E Y < < < < > > < X O =X*.t %.T E %.E E E { { { [ W E E E E { { { E E  .Y Y &.R o 5 > O o > ! :.2.>.2.<.<.>.>.:.;.;...R > X O > < O X 1 ! R e 9 w w w w w w w w w w w > % 4 R R Y Y R &.*.~ w w ~ ..} E Y U U R Y O , Y R U U Y R R Y Y Y Y Y Y Y Y w Y R U R *.Y X 1 1 w R R U U Y U T U U U U U U T U U U U U U U Y < O O O < O   X O < < < O O <  .R R r R R T U T T T T R r > O w T R r R }  .E U U w U  . .R T U U U "
};
