/* XPM */
static const char *xpm_[] = {
/* columns rows colors chars-per-pixel */
"612 344 256 2 ",
"   c #050300",
".  c #0D0200",
"X  c #0C0903",
"o  c #05090A",
"O  c #130201",
"+  c #1B0301",
"@  c #130905",
"#  c #1C0A05",
"$  c #140609",
"%  c #140A09",
"&  c #1D0B0A",
"*  c #1B0609",
"=  c #1C110B",
"-  c #040C14",
";  c #071316",
":  c #141614",
">  c #230301",
",  c #2A0401",
"<  c #230B04",
"1  c #2B0C02",
"2  c #230C0B",
"3  c #2B0E0C",
"4  c #23070A",
"5  c #320D02",
"6  c #320E0C",
"7  c #390C03",
"8  c #2C1205",
"9  c #24120D",
"0  c #2C120D",
"q  c #261406",
"w  c #341303",
"e  c #3B1402",
"r  c #3C1905",
"t  c #33130D",
"y  c #3B150C",
"u  c #34190D",
"i  c #3C1A0C",
"p  c #351905",
"a  c #2D0F11",
"s  c #240E10",
"d  c #330F11",
"f  c #390E12",
"g  c #261311",
"h  c #2D1312",
"j  c #2D1915",
"k  c #2D1518",
"l  c #2E1A19",
"z  c #261914",
"x  c #321312",
"c  c #3A1513",
"v  c #341914",
"b  c #3C1A13",
"n  c #321619",
"m  c #331B1A",
"M  c #3C1D1A",
"N  c #3B1619",
"B  c #3C211D",
"V  c #37221A",
"C  c #2D2218",
"Z  c #391E21",
"A  c #172426",
"S  c #3C2321",
"D  c #3C2824",
"F  c #2D2D2D",
"G  c #131E21",
"H  c #431502",
"J  c #441B04",
"K  c #4B1C03",
"L  c #431B0C",
"P  c #4B1D0C",
"I  c #451608",
"U  c #531D02",
"Y  c #551E07",
"T  c #431C13",
"R  c #4B1D12",
"E  c #431D1C",
"W  c #4C1D1B",
"Q  c #451614",
"!  c #521E1D",
"~  c #521E13",
"^  c #440D06",
"/  c #4D210C",
"(  c #492109",
")  c #542204",
"_  c #5B2404",
"`  c #54230D",
"'  c #5B250C",
"]  c #5D290D",
"[  c #5A2907",
"{  c #452113",
"}  c #4C2212",
"|  c #43221D",
" . c #4C231D",
".. c #4B291B",
"X. c #532312",
"o. c #5B2511",
"O. c #5D2912",
"+. c #53231D",
"@. c #57281B",
"#. c #5A3218",
"$. c #632503",
"%. c #642905",
"&. c #6B2B04",
"*. c #642A0C",
"=. c #6B2C0B",
"-. c #652608",
";. c #742C04",
":. c #732E0A",
">. c #7A2E04",
",. c #6C310C",
"<. c #74320C",
"1. c #7C330C",
"2. c #7A3206",
"3. c #632B12",
"4. c #6B2D12",
"5. c #612714",
"6. c #722E12",
"7. c #6D3113",
"8. c #663417",
"9. c #743212",
"0. c #7B3412",
"q. c #7B3915",
"w. c #491E21",
"e. c #551E22",
"r. c #442422",
"t. c #4D2423",
"y. c #452925",
"u. c #4D2924",
"i. c #4D2629",
"p. c #4D2B2A",
"a. c #452A29",
"s. c #532523",
"d. c #5A2424",
"f. c #532925",
"g. c #5A2925",
"h. c #532629",
"j. c #5B2629",
"k. c #532B2A",
"l. c #5B2C2B",
"z. c #4A312C",
"x. c #5C322E",
"c. c #55322B",
"v. c #5C3433",
"b. c #583936",
"n. c #523232",
"m. c #632D2C",
"M. c #6B2D2E",
"N. c #632926",
"B. c #722D2D",
"V. c #64312E",
"C. c #6B312E",
"Z. c #683527",
"A. c #72332E",
"S. c #77382D",
"D. c #652E31",
"F. c #6C2E32",
"G. c #6E2631",
"H. c #712E32",
"J. c #772D36",
"K. c #643333",
"L. c #6C3233",
"P. c #643A35",
"I. c #6C3935",
"U. c #6C3539",
"Y. c #643C3B",
"T. c #6C3C3A",
"R. c #643639",
"E. c #723433",
"W. c #733A34",
"Q. c #733C3B",
"!. c #783836",
"~. c #621E11",
"^. c #5B413D",
"/. c #43423E",
"(. c #6C423D",
"). c #64423D",
"_. c #74423C",
"`. c #784826",
"'. c #7B421C",
"]. c #6E3E41",
"[. c #5D3E41",
"{. c #5D4442",
"}. c #644443",
"|. c #6B4444",
" X c #654946",
".X c #6B4B4A",
"XX c #694948",
"oX c #734443",
"OX c #7B4945",
"+X c #744C4B",
"@X c #7B4D4B",
"#X c #764745",
"$X c #7C524D",
"%X c #74524D",
"&X c #7C5452",
"*X c #755653",
"=X c #6F514F",
"-X c #333C4C",
";X c #833404",
":X c #83350B",
">X c #8C3B0C",
",X c #893806",
"<X c #933B04",
"1X c #933D0B",
"2X c #993C04",
"3X c #823612",
"4X c #843A12",
"5X c #8B3C12",
"6X c #893815",
"7X c #923E12",
"8X c #993D13",
"9X c #842E03",
"0X c #A63D02",
"qX c #823B36",
"wX c #9C430D",
"eX c #984109",
"rX c #944112",
"tX c #9B4312",
"yX c #994619",
"uX c #8C4417",
"iX c #A3450C",
"pX c #A94607",
"aX c #B54B07",
"sX c #BA520A",
"dX c #A74813",
"fX c #B44D12",
"gX c #B95313",
"hX c #AA5317",
"jX c #8F4F2C",
"kX c #A75527",
"lX c #B4662A",
"zX c #C75508",
"xX c #D55A05",
"cX c #C65813",
"vX c #CA5008",
"bX c #D66512",
"nX c #ED7112",
"mX c #D67127",
"MX c #EC7927",
"NX c #E15D04",
"BX c #824B49",
"VX c #82524D",
"CX c #87554D",
"ZX c #855754",
"AX c #855052",
"SX c #966957",
"DX c #C17F4B",
"FX c #F4872D",
"GX c #F18422",
"HX c #E79D5B",
"JX c #CDA470",
"KX c #FCD9A5",
"LX c #FFF3D0",
"PX c #FCFAF2",
"IX c #E0D5CC",
"UX c #D5B191",
/* pixels */
"  X % . . . . . . . . . .     X . X X . . . . . . . . . . . . . . . . . . . . . . . . . . . . . @     X         X     X . . . @ .                                                                 . . .       X     . @ .   . @   X %         . .           X X   . . . . . . . o .     o . .   . . . . . . . . . . . . . . . . @       o o     o X . . O @ @   X X                             @ @ O O O . . . . . . . . . . . . @ @ @           . . . . . . .   o % X     . @ . .             . . . . . O O . O O O O O . . . . . . . . . .   . . . . . . . @ . .       o o   X X .           . . . . . . . . . . . . . . . .                                 . . . . .       X       . . . .   X . . . . .   . . . . . . O O @ @ @ @ @ @ @ @ . . . O O . . . . . . . . . . . . . . . . . . . . . .   X o X   X . . O # # . . . . . . . . . . . . . . . . . . . . . . . O O O . . . . . . . . . . . . O . O . .     X X . . O . @ @ . . . @ @ . . . . . . @ X . . . . . . . . . . . . . . .   X X X             X X     X X   . .             . . . @ .     X                                       X X X                     X   . . . . . .     X X     .               .           X . . . . . . . . . @ @ O O . . . . . . O . . . . . . .   . .       X % . . . . ",
". . . . . . O . @ @ . . . . . . . . . . . . . . . . . . . . . . . . . . . . . . . . . . . . . . .     X X X   X       . @ . . . . . .   .   . . . . . X X X @ @ . . . .     .   . X . . . . .   . @ @ @ . .     @ . . . . . . .       . % % $ . . . .           o X X . X . X X . . . . X . X . @ . . . . . . . . . . . . . . . .           o X   @ * O . .     . . . . . . . . .   . . . .   . . . . . . . . . O . O O O O O O . . .   .   X X     . . . . . . %     . X % $ @ . . .   .       @ O @ @ O O . . O O O O . . . . . . . . . . .   . . . . . . . O . @ .       o X   . @ @ @ @ X X @ @ . . . . . . . @ . @ @ @ @ @ .   . . . . . . .   .   . . . . @ O . . . . @ = . .   . . . .     . @ @ . . @ % . . . . . . O O . . . . . . . . O O O O . . . . . . . . . . . . . . . . . . @ @ O O .     X X   . @ O O . . . . . . . . . . . . . . . . . . . . . O O O O O O O @ O O @ O O . . . . . O O O + # .       . . . O % @ O @ % @ . . @ @ O O . . . . @ . @ . . . . . . . . . . . . . . . . .   . . X         .   . @ . .             @ @ . . .       . . .   . . . X .   . . . . . . . . . .     . .     . . . X @ @     . O O O O @   X X       . .         o o     . . X X @ X @ X & # @ O . . . . O O O O O . . . O @ O O O . . . % @ . . @ @ .   . . . . ",
"@ . . . . . . . O O O O @ @ O . O O O O . . . . O O O O O O O O . . O O O @ O O . . O O @ @ O O @ .   . X X         . . . O O O O O O O O O O O O O O O O + * # * + O O O O O O . . O O O O O @ . . . O . . . . . . .   . @ @ . X .   . . . . . @ @ @ . . . . X . . . . . . . . . . . . . . . . . . O O @ O O O O O @ O @ O . . . . X         X   O @ O . . . @ O O O O * + * # O O O O O O O O O O O O O O O O O O O O O O . . @ . . . . @ @ . . . . . . . . . . .   X @ . . . . . . . . . o X . . . O O O O O O O O O O O O O @ O O O . O O O @ O . . O O . . . @ @             . O O . .     O O O . . . . O . . . . . . . O O O O O O O O O . . . O O O O O O O O . . . .   . .   . . . . . @ . . . . . . O O O O O O O O O O O O O O O O O O O O . . . . . O O O O O @ @ @ O O . . O . . . O . .       X X . . O O O O O O . . . . . . . . O O O O O O O O . . . O O O O O . . . O O O @ @ # # # < + O . . . X X     . O O . . O V z.z.n.b.n.z.n.z.a.D D D h j j g h g g 9 g g g g g g g g S S D D D a.a.a.b.a.a.a.S # . . . .   X X X     @ . . . O @ @ = @ O O + * # # # 9 9 g 9 g g h g V V V C m l l j * + O O O O O . @ @ O O O O O @ .           . X .   . . . . . . . . . . . . . . . . O O O O O O O O O O O O O O O O O O . . . . O . . . @ O . . . . . . ",
". . . @ O . O # S S D D D D D D S S m m l h h g & & & & & & & & 9 9 g g g j j j S D D a.a.a.a.D j # .   .         X @ . . 9 B a.z.z.z.z.z.z.n.n.b.b.b.^.{.{.}.{.}. X}.}.}.{.}.{.}.^.b.a.M 0 4 + O O O O O @ . . . . . @ .   . . . . . . . . O & O O O O O O @ @ O O O * * * * * & & & & 2 & 2 & 2 2 9 0 h j m m D D D a.D D S V O . .   X       . . . O & j S D y.y.y.y.a.y.a.y.a.y.a.y.a.y.a.y.a.y.y.D S S S B v j j 0 9 2 2 # + + + # # # . . O . . . . . . . . . @ @ . O O * O O O @ @ $ $ @ j v m V S S y.D a.y.y.D a.a.a.a.a.a.a.D a.a.a.z.z.a.D D a.D m j . . . X X       @ . . O O . . @ . O O O O + # # m m m V S S D D a.y.a.y.a.y.y.y.a.y.a.y.a.y.a.y.r.y.a.a.D j # . . . . . . . . . @ . O g D z.n.n.n.n.n.n.n.n.n.n.z.z.z.z.z.z.z.z.b.b.b.b.b.b.b.n.z.z.z.a.z.a.a.a.a.D a.a.a.V 9 O O . .         X . O + 3 B p.a.B D D D D S S S V g 0 g 0 g 9 g 9 g g h j m m B V z.z.b.b.^.{.{. X X X X.X}.n.m # . @ @     . @ O + 9 y.^..X X X X.X.X.X X X X X X.X.X.X.X.X.XXXXX.X.X.X.X.X.X.X.X}. X}. X X X X X}.^.}. X{.y.2 O . .     X     . . O 2 B z.b.^.^. X X X X X XXX X X XXX XXX X.X X.X X.X X.X XXX X}.^.b.b.n.p.a.y.a.D S B n 3 + . @ .         . . @ @ . . . . @ @ . O O O * & g g a.a.n.b.b.^.{.{.{.{.{.^.{.^.{.^.b.b.b.b.b.b.b.b.z.z.z.D 9 . . O . . . . ",
". . @ O . O j a.{.}.}. X X X X X{.{.{.{.}.{.}. X X XXX XXXXXXX X.X X.X=X.X=X=X=X}. X X XXX X X X^.z.j @ . . . . . . . @ m n.}.XX|.|.|.}.|.|.|.XX|.|.|.|..X.X.X.X.XXX.X|.|.|.|.|.Y.).|.XX+X+X+X+X.X X}.{.{.^.b.z.9 O . @ @ .   @ . . O & l D n.{.}.}.{.{.{.{.{.{. X XXX X X X.X XXX X X X X X}. X X X.X XXX X X X}. X X X X}.{.^.D # .   X     X O . O a a.{.{. X.X.X+X|.|.|.|.|..X.X.X|..X|.+X.X.X.X.X X.X X.X X.X=X.X.X.X X X X X}.}. X X^.z.D & O . . . . . . . . . O & Z n.{.{.{.{.{.{.{. X X}.}.}.}.}.}.}.}..X X X X X X.X.XXX X X X X X.X X=X X X X.X X^.b.j @ . X @     . . O + 3 M y.a.z.b.b.b.b.b.^.{.{.^.^.}.}. X X.X.X.X.X.X|..X|.+X.X.X|..X|.|.|.|.|.}.}. X=X=X Xz.V O . . . . .   . O + m n. X.X=X=X.X.X.X.X.X.X.X.X.X.X.X X.X X.X.X}.}.}.}.}.{.}.^..X X.X X X X X XXX X X=X.X{.z.S * . .   X     X . 2 r.n.}..X.X}. X X X X X X}.{..X=X.X.X.X X.X.X}.}.}.}.}. XXXXX X X X X X X X X X^.}.|.+X}.u.h . . .     . @ O < p..X.X}. X}.^. X X X X X X X X|.|.|.|.|.|.|.|.|.|.|.|.|.|.|.|.+X.X+X.X.X|.|.XX|..X+X|..X|.i.> O . .         . . 2 a.)..X.X=X=XXXXX|.|.|.|.|.|.|.}.|.}.|.}.|.}.].}.|.}.|.|.|.}.|.|.|.}.|.}.Y.).{.{. X=X.Xb.N + @ .   X X . . . . . . O * * # & j m m D z.b.{.XX^.^.}.}.}.}.}.}. X X X XXX X X X X XXX X X XXX X.X=X=X Xz.9 + O O . . . ",
". . . . . g n..XXX.X.X.XXXXX|.}.%X=X.X.X.XXX.X.X|. XXX.X.X.X.X.X}.).}.).}.).}.).XXXXXXXXXXXXXXXX=X Xz.0 .   . . @ . . j ^.*X.X}.oXoX|.oX|.oXoXoX|.|.|.|.|.|.|.|.Y.Y.Y.Y.Y.Y.Y.Y.|.oXoXoX|.(.Y.Y.|.}.}.}.}.}.}.{.{.m O . @ . . . @ . O m b..X*X*X.XXXXX}.[.[.[.b.}.).}.}.}.}.}.}.}.}.}.}.}.}.}.}.}.}.}.}.}.}.}.}.XXXXXXXXXX X}.}..XS O .     . % O O a p.XX=X X}.|.Y.Y.T.Y.P.R.R.R.R.R.K.R.K.R.v.Y.Y.).).}.|.|.XXY.Y.Y.).}.|.|.|.+XXX|.}. X X}.^.S g O . . . . . . . O l n..X=XXXXXXXXXXXXXXXXX.X|.XXXX XXX X|.}..XXX|.|.|.|.|.XXXX XXX X|.}.}.}.}.}.}.}.XX.X}.}.{.m . .       @ . 4 N n.}.+X.X}.).^.b.b.b.v.n.c.c.z.c.n.v.v.b.v.v.R.R.R.R.K.R.R.K.v.v.v.x.l.l.k.v.k.k.b.}..X}.b.g + . . . .   . O M }.=XXX^.b.).}.}.}.}.}.}.}.}.|.|.|.|.|.}.|.|..X.X.X.X.X.X.X.X|. X|.}.}.).}.)..X X}. XXXXX|.}.m & .   X     @ + r.|.+X|.|..X.X|. XXXXXXXXXXXXX}.}.}.).}.).).)..X.X|. X|.|.|.).|.}.|.}.|.|.|.|.+X|.Y.|.+X&X.Xb.# @       . . O 3 b.*X.X)..X+X X}.).).).Y.b.b.P.Y.T.T.T.T.T.Y.T.T.T.T.T.T.T.Y.Y.Y.T.T.T.Y.Y.Y.Y.oX@X+XY.|.@XY.E O . .         O 2 r.Y.+X.X}.^.b.Y.Y.Y.P.R.R.R.K.Y.T.Y.Y.Y.Y.Y.P.].T.|.oXoXoXoXoX|.|.|.|.|.oXoX|.).b.b.Y.|.|.n.r.# .   X X . . O 2 m n.{.XXXXXX}.[.{.}.}..X=X=X=X+X%X+X+X+X|..XXXXX X|. X|.|.|.|.|.|.|.|.|. X|.XXb.b.). X.Xb.n O O . . . ",
"  . . . # z.XX.X|.|.|.|.|.+X+X+XoX|.Y.b.v.k.k.k.v.b.P.Y.Y.).|.|.|.|.|.|.|.|.|.|.|.(.).).).(.|.|.|..X^.S + . . . @ . 2 z..X|.v.x.s.s.s.+.s.! s.+.l.l.l.l.l.l.l.l.g.g.g.g.g.g.g.g.g.g.K.K.T.T.T.Y.k.k.c.n.v.b.Y.}..Xb.V + . @ @ . O + v b..XXX[.Y.k.k.k.i.i.t.t.t.k.k.k.c.c.c.x.c.|.}.|.|.|.XX|.|.|.|.|.|.oXoX+X+X).).Y.).Y.).Y.).|.b.V O   . X O . 4 r.[.XXY.v.v.f.h.h.s.s.+.s.+.h.h.h.h.h.h.h.f.u.u.i.f.f.f.k.k.P.P.Y.Y.).|.oXoX|.|.|.|.|..X.X.X^.a.2 O . . . . . # S b.=X*X}.v.|.|.|.|.|.|.|.|.|.|.|.|.|.|.|.|.|.).Y.Y.P.P.Y.Y.|.|.|..X+X.X|.|.|.|.|.|.+X.X+X.X=Xn.9 .   . . O + | Y.|.+X+X|.v.v.x.x.k.k.u.i.u.r.r.u. .u.u.u.u.h.h.h.h.h.h.h.h.h.h.h.s.s.s.s.s.s.t.t.h.v.Y..X.Xz.h O . . .   . 4 p.+X=X|.|..X.X+X+X+X+X+X+X+X#X|.|.|.|.|.|.|.|.|.|.|.|.|.|.|.|.oX+XoX|.|.|.oX|.oX|.).).).|.+X=Xn.l O . X   . O M b.+X+XT.Y.|.|.oX|.oX|.|.|.|.(.|.).).).Y.Y.Y.Y.k.c.k.k.k.f.f.s.f.f.k.k.x.x.v.v.Y.Y.R.R.U.Y.|..XS #   . . . . + b.oX+X).v.P.P.x.k.k.k.f.f.u.i.u.s.s.s.s.s.+.s.+.s.s.s.s.s.+.s.s.+.+.s.s.h.h.h.h.W s.s.+.l.T.T.v.+ @         @ + n.}.+X+X|.Y.v.c.f.g.h.h.h.s.h.s.s.+.s.+.s.+.s.s.W W W +.s.+.s. .h.s.h.s.s.+.W W k.u.W W s.k.v.v.9 @ . . @ . O * m a.b.XX.X.XXX|.=X+X+X+X.X|.].].).).Y.Y.Y.P.Y.P.v.x.v.x.v.x.x.x.k.k.k.x.x.x.x.x.|.|.).).=X%Xp.+ O . . . ",
"  @ . O V  X.Xc.k.l.l.v.R.Y.(.oXP.P.x.l.f.s.s.s. .+.s.f.l.l.x.x.K.K.K.K.v.x.x.x.l.k.f.f.k.l.K.P.P..X=Xn.9 O O @ . * S {.b.| E l.g.g.g.h.h.h.h.h.s.s.s.s.s.s.h.h.s.s.+.+.+.+.+.+.+.s.s.s.s.s.W W s.s.s.t.E W i.k.n..X{.g . . @ . . 2 n.=X.Xk.t.k.h.s.h.s.h.h.h.h. . . . .u.u.s.s. . .u.s.f.l.l.x.K.x.x.l.f.s.s.t.f.s.s. . .s.s.f.u.Y.n.2 . . @ . O a n.|.v.t.r.k.h.h.h.h.s.s.s.s.s.s.s.s.+.+.+.s.h.s.s.s.s.s. . . . .s.s.s.s.s.s.l.K.Y.|.|.|.|.}.*Xb.v O . . . . O v b..XXX].|.+XoXoXoXoXoXoXoXoX|.(.T.T.P.K.x.l.l.f.h.s. . .+.+.l.v.Y.].|.oX|.|.#X#X+XoX|.|.|.|.}.{.D @ . @ # . 0 b.&X#XT.].R.h.t. . .t.s.s.s.f.s.s.s.s.s.s.s.s.s.s.s.s.+.+.+.+.s.s.s.s.s.s.s.s.s.h.g.h.h.k.P.|.}.B O . . .   O z.|.|.k.k.v.v.i.l.l.l.l.l.l.l.l.K.K.R.K.K.K.K.K.T.Y.Y.T.].|.|.|.(.(.(.(.(.(.(.(.K.K.v.x.l.l.l.x..XD O . . . . O ).|.oX].oX@X@X(.Y.T.P.K.x.l.f.s.s.s.s.t. . . . .s.s.s.s.s.h.s.s.f.s.s.s.s.s.s.s.E s.l.j.d.h.v.}.b.g . . @ . @ 9 |.P.l.s.s.h.s.s.s.s.s.s.s.s.s.s.g.g.h.s.s.s.+.+.h.h.h.h.s.s.s.s.s.s.s.s.s.s.s.s.s.h.h.h.s.s. . .+ @ .     . @ # v.v.v.h.s.s.s. .s.s.s.s.s.s.s.s.s.s.s.s.s.h.d.d.h.h.h.g.f.f.h.s.s.s.s.s.s.s.s.s.W u.k.l.g.h.h.a.m # . . @ O O 2 }..X=X.X.X|..X+X|.|.+X+X+XoX|.].K.K.x.l.f.s.s.s.s.s.s.s.s.s.+.+.s.t.s.s.s.s.s.u.u.k.f.u.v.@X).| O . . . ",
". . . O {.b.n.t.h.h.d.h.h.h.s.s.s.s.s.s.s.+.s.+.s.s.s.+.s.+.s.s.s.s.s.s.s.s.s.s.s.s.s.s.s.s.s.s.u.c.b.).a.O . @ . 2 S a.t. .s.h.s.s.s.s.s.s.s.s.s.s.s.s.s.s.s.s.s.s.s.s.s.s.s.s.s.s.s.s.s.s.s.s.s.s.h.h.h.h.s.s.k.r.b.b.9 . . . O r.b.k.p.i.s.h.h.h.h.d.h.d.h.h.s.+.s.+.s.+.s.s.s.s.s.s.s.+.s.s.s.s.s.s.s.s.s.s.s.s.s.s.s.s.s.s.u.i.y.j . . @ O + B k.h.h.i.t.i.s.s.s.s.s.s.s.s.s.s.s.s.s.s.s.s.s.s.s.s.s.s.s.s.s.s.s.s.s.s.s.s.s.s.s.h.h.g.x.v.Y.}.b.g . . . . < z.XXb.i.k.l.s.h.d.h.d.h.h.h.h.s.s.s.s.s.s.s.s.s.s.s.s.s.s.s.s.h.s.h.k.l.R.T.T.|.|.|.|.].|.|.).b.^.z.9 . . + + .X|.].U.D.l.h.s.s.s.s.s.s.s.s.s.s.s.s.s.s.s.s.s.s.s.s.s.s.s.s.s.s.s.s.s.s.s.s.s.s.s.d.s.s.d.x.R.|.^.2 . . .   O b.v.k.i.u.t.s.s.s.s.h.h.h.h.h.h.h.h.h.h.h.h.h.h.h.h.h.h.h.h.h.h.s.s.s.s.s.s.s.s.s.s.s.s.s.s.s.i.t.a.2 . @ . O B .X|.].I.K.m.l.g.s.s.s.s.s.s.s.s.s.s.s.s.s.s.s.s.s.s.s.s.s.s.s.s.s.s.s.s.s.s.s.s.s.s.d.d.d.d.s.u.b.S O . . . @ B s.s.s.s.s.s.s.s.s.s.s.s.s.s.s.s.s.s.s.s.s.s.s.s.s.s.s.s.s.s.s.s.s.s.s.s.s.s.s.s.s.s.s.s.s.s.s.u.y.. . .   . O B p.s.h.d.d.h.h.s.s.s.s.s.s.s.s.s.s.s.s.s.s.s.s.s.s.s.s.s.s.s.s.s.s.s.s.s.s.s.s.s.s.s.d.d.d.d.h.u.a.2 O @ . . # b.}.|.|.|.+X|.|.|.|.].T.R.x.l.h.s.s.s.s.s.s.s.s.s.s.s.s.s.s.s.s.s.s.s.s.s.s.s.s.s.s.+. . .s.l.x.b.# . . . ",
". . @ # b.v.k.s.d.d.d.d.d.h.s.s.s.s.s.s.+.+.+.s.s.s.s.s.+.+.+.+.s.s.s.s.s.s.s.s.s.s.s.s.s.s.s.s.s.f.k.b.p.+ . O . 9 S a.i.s.s.s.s.s.s.s.s.s.s.s.s.s.s.s.s.u.s.u.s.s.s.u.s.s.s.s.s.s.s.s.s.s.s.s.s.s.h.h.h.h.d.h.h.t.n.n.9 . . . O r.v.k.i.s.s.h.h.h.d.h.d.d.h.d.s.+.+.+.+.+.s.s.s.s.s.s.+.+.+.s.s.s.s.s.s.s.s.s.s.s.s.s.s.s.s.s.s.i.p.v O . @ O + B h.h.h.s.t.s.s.s.s.u.s.s.s.s.s.s.s.s.s.s.s.s.s.s.s.s.s.s.s.s.s.s.s.s.s.s.s.s.s.s.s.s.d.h.j.l.k.b.n.h O O @ O h p.b.k.i.k.g.d.d.d.d.d.d.d.d.h.s.s.s.s.s.s.s.s.s.s.s.s.s.s.s.s.s.s.s.s.s.h.g.g.g.g.g.g.g.g.g.k.k.c.y.9 O O # 0 b.R.K.D.j.d.s.s.s.s.s.s.s.s.s.s.s.s.s.s.s.s.s.s.s.s.s.s.s.s.s.s.s.s.s.s.s.u.s.s.s.s.d.s.e.d.j.x.].}.m O O . X 9 c.k.s.s.s.s.s.h.h.s.h.s.h.s.d.d.d.h.h.h.h.h.h.h.d.d.d.d.d.d.d.s.s.s.s.s.s.s.s.s.s.s.s.s.s.s.s.s.t.p.3 . O . O r.k.k.g.j.d.s.s.s.s.s.s.s.s.s.s.s.s.s.s.s.s.s.s.s.s.s.s.s.s.s.s.s.s.s.s.s.s.s.s.s.s.s.d.d.d.d.h.i.b.B O . . . # S s.s.s.s.s.s.s.s.s.s.s.s.s.s.s.s.s.s.s.s.s.s.s.s.s.s.s.s.s.s.s.s.s.s.s.u.s.s.s.s.s.u.s.u.s.s.s.u.y.O @ @ . . + r.u.s.d.d.d.d.s.s.s.s.s.u.s.s.s.s.s.s.s.s.s.s.s.s.s.s.s.s.s.s.s.s.s.u.s.u.s.s.s.s.s.s.d.d.d.d.h.s.a.h O O O O m }.+XoX|.|.].Y.Y.R.l.l.j.h.d.s.e.s.s.s.s.s.s.s.s.s.s.s.s.s.s.s.s.s.d.d.s.s.s.s.s.s.s.s.+.+.+.f.g.c.9 . . . ",
". . # 9 n.i.s.d.d.d.d.d.s.s.s.s.s.s.s.s.+.+.s.s.s.s.s.s.s.s.+.+.s.s.s.s.s.s.s.s.s.s.s.s.s.s.s.s.s. . .p.p.2 . O O g y.p.i.s.d.s.s.u.s.u.s.u.s.u.s.s.s.u.s.u.s.u.s.u.s.s.s.u.s.u.s.u.s.u.s.u.s.s.s.s.s.s.h.h.h.h.s.r.p.z.h O . . > | k.t.s.s.s.s.d.d.d.d.d.d.d.d.s.+.s.s.s.s.s.s.s.s.s.s.+.+.s.s.s.s.s.s.s.s.s.s.s.s.s.s.s.s.s.s.s.s.p.M + . @ O + w.h.h.h.s.s.s.s.u.s.s.s.u.s.u.s.u.s.u.s.u.s.s.s.s.s.s.s.s.s.s.s.s.s.s.s.s.s.s.h.s.s.+.e.s.s.d.t.k.p.n + O @ O r.r.u.u.t.h.h.d.d.d.d.d.d.h.h.h.s.s.s.s.s.s.s.s.s.s.s.s.s.s.s.s.g.h.s.s.+.+.s.s.+.+.+.+.! ! +.t.t.i.r.x O . < M p.h.h.d.d.d.s.s.s.s.s.s.s.s.s.s.s.s.s.s.s.s.s.s.s.u.s.u.s.u.s.u.s.u.s.u.s.u.s.s.s.s.s.s.e.e.s.h.v.Y.y.+ O . @ C y.+.t. .s.+.h.s.s.s.s.s.s.s.s.s.s.s.s.s.s.s.s.s.s.s.s.s.s.s.s.s.s.s.s.s.s.s.s.s.s.s.s.s.s.s.s.s.t.p.x O O . + r.t.t.s.e.+.s.s.s.s.s.s.s.s.s.s.s.s.s.s.s.s.s.s.s.s.s.s.s.s.s.s.s.s.s.s.s.s.s.s.s.s.s.d.d.d.d.h.s.n.B # . O O & y.s.s.s.s.s.s.s.s.s.s.s.s.s.s.s.s.s.u.u.u.u.u.u.u.u.u.u.u.u.u.u.u.u.u.s.u.s.s.s.u.s.u.s.u.s.u.s.u.p.+ @ @ . O 9 y.i.h.d.d.d.d.s.s.s.u.s.s.s.u.s.u.s.u.u.u.s.u.s.s.s.u.s.u.s.s.s.u.s.u.s.u.s.u.s.s.s.s.s.s.d.d.h.s.u.S O O O + n..X|.|.Y.P.v.l.g.k.s.s.s.s.s.s.s.s.s.s.s.s.s.s.s.s.s.s.s.s.s.s.s.s.d.d.s.s.s.s.s.s.s.s.+.+. .+.s.y.j . . . ",
". . # v p.i.e.d.d.d.d.d.s.s.s.s.s.s.+.+.+.+.s.s.s.s.s.s.s.s.+.s.s.s.s.s.s.s.s.s.s.s.s.s.s.s.h.s.s.+.W u.u.9 . O O j a.p.u.s.d.+.s.u.s.u.u.u.s.s.s.s.s.u.s.u.s.u.s.u.s.s.u.u.s.u.s.u.u.u.u.u.s.s.s.s.s.s.h.d.h.h.s.t.t.a.m # . O 3 t.s. .s.h.s.s.d.d.d.d.d.h.h.s.s.s.s.s.s.s.s.s.s.s.+.+.+.+.s.s.s.s.s.s.s.s.s.s.s.s.s.s.s.s.s.s.s.s.k.r.# . O O 4 w.k.s.d.d.s.s.s.u.s.s.u.u.s.u.s.u.s.u.u.u.s.s.s.s.s.s.h.s.h.s.s.s.s.s.h.s.h.s.h.s.s.s.e.e.s.s.t.k.p.M < O . O p.t. .t.s.s.s.d.d.d.d.h.h.h.h.s.s.s.s.s.h.s.h.s.s.s.s.s.h.s.h.s.g.f.h.s.s.s.h.f.h.h.h.h.h.h.h.h.s.i.u.B + O > r.t.s.d.d.d.d.h.h.s.s.s.s.s.s.s.s.s.s.s.s.s.s.s.s.s.u.s.u.u.u.s.s.s.s.s.u.s.u.s.s.s.s.s.s.e.e.e.e.s.v.p.> O . . D |  . .+.s.s.s.s.s.s.s.s.s.s.s.s.s.s.s.s.s.s.s.s.s.s.s.s.s.s.s.s.s.s.h.s.s.s.s.s.s.s.s.s.s.s.h.s.t.p.M + O O 2 a.f.f.d.d.d.d.h.h.s.s.s.s.s.s.s.s.s.s.s.s.s.s.s.s.h.s.h.s.s.s.s.s.s.s.s.s.s.s.h.h.s.s.d.d.d.d.h.s.z.B # . O O 2 y.s.s.s.s.s.s.h.s.s.s.s.s.s.s.s.s.s.u.u.u.u.u.u.u.u.u.u.u.u.u.u.u.u.u.s.u.s.u.s.u.s.u.s.u.s.s.s.u.p.2 O O . O j a.s.h.d.d.d.d.s.s.s.u.s.s.s.u.s.u.s.u.u.u.u.u.s.s.s.u.s.u.s.s.s.u.s.u.s.u.s.s.s.s.s.s.s.s.d.d.h.s.u.z.O O O + b.}.v.x.l.f.s.s.s.s.h.h.d.d.d.d.d.s.s.s.s.s.h.s.h.s.s.s.s.s.h.s.h.s.s.s.s.s.s.s.h.s.s.+.s.s.s. . .r.V @ . . ",
". . + B u.h.s.d.d.d.d.d.s.s.s.s.s.s.s.s.s.s.s.s.s.s.s.s.s.s.s.s.s.s.s.s.s.s.s.s.s.s.s.s.s.s.s.s.s.s. .u.y.9 . O O m p.u.t.s.d.+.s.s.s.s.s.s.s.s.s.s.s.s.s.s.s.s.s.s.s.s.s.s.s.s.s.s.s.s.s.s.s.s.s.s.s.s.s.s.d.h.h.i.i.u.S 2 . O x r.u. .s.f.s.d.s.s.s.s.s.s.s.s.s.s.s.s.s.s.s.s.s.s.s.s.s.s.s.s.s.s.s.s.s.s.s.s.s.s.s.s.s.s.s.s.s.s.k.r.2 O O O 2 r.k.s.d.d.s.s.s.s.s.s.s.s.s.s.s.s.s.s.s.s.s.s.h.s.h.s.h.s.h.s.h.s.h.s.h.s.h.s.s.s.s.s.s.s.d.d.h.k.k.M < O O # u. .u.f.s. .+.g.s.s.d.h.s.s.s.s.s.s.h.s.h.s.h.s.h.s.h.s.h.s.h.s.s.s.s.t.s.s.s.s.s.s.s.s.s.s.s.s.h.s.k.r., O > u.u.s.d.d.d.h.h.h.s.s.s.s.s.s.s.s.s.s.s.s.s.s.s.s.s.s.s.s.s.s.s.s.s.s.s.s.s.s.s.s.s.+.s.s.d.s.d.s.s.k.p.+ O O . D y. .+.s.+.+.+. .s.+.s.s.s.s.+.s.s.s.s.s.s.s.s.s.s.s.s.s.s.s.s.s.s.s.s.s.s.s.s.s.s.s.s.s.s.s.s.s.t.k.E 4 O O 9 p.f.f.h.d.s.s.s.s.s.s.s.s.s.s.s.s.s.s.s.s.s.s.s.s.s.s.h.s.h.s.h.s.h.s.h.s.h.s.h.s.s.s.s.d.d.s.h.s.p.B 9 O O O 2 a.s.s.h.s.h.s.h.s.h.s.h.s.h.s.h.s.s.u.s.u.s.u.s.u.s.u.s.u.s.u.s.s.s.s.s.s.s.s.s.s.s.s.s.s.s.s.s.u.p.9 O O . O V u.s.h.d.d.d.d.s.s.s.s.s.s.s.s.s.s.s.s.s.s.s.s.s.s.s.s.s.s.s.s.s.s.s.s.s.s.s.s.s.s.u.s.s.s.d.s.h.s.t.n.+ O + > b.k.u.u. . . . .u.s.s.s.s.s.s.+.+.+.s.s.h.s.h.s.h.s.h.s.h.s.h.s.h.s.h.s.h.s.h.s.s.s.t.s.s.u.f.u.u.t.S @ . . ",
". . O y.r.k.d.d.d.d.d.s.s.s.u.u.s.s.s.s.s.s.s.s.s.s.s.s.s.s.s.s.s.s.s.s.s.s.s.s.s.s.s.s.s.s.s.s.s.d.s.f.r.9 . O O m z.u. .s.d.e.h.s.s.s.s.s.h.h.h.h.h.s.s.s.s.s.s.s.h.h.h.h.h.s.s.s.s.s.h.s.h.s.s.s.s.s.s.s.d.h.s.k.i.u.y.9 . O N u.u. .f.f.s.d.s.s.s.s.s.u.u.u.s.s.s.s.s.s.s.s.s.s.s.s.s.s.s.s.s.s.s.s.s.s.s.s.s.s.s.s.s.s.s.s.s.s.k.y.2 . . O g r.k.t.d.h.s.s.h.s.h.h.h.h.h.s.s.s.s.s.s.s.s.h.h.h.s.s.s.s.s.s.h.h.h.h.s.s.s.s.u. .s.s.s.h.d.d.h.h.k.| 2 O O 0 r.u.f.k.s. .+.d.s.s.h.s.s.s.u.s.s.h.h.h.s.s.s.s.h.h.h.h.s.s.s.s.s.s.s.s.t. . . .t.t. .t.t.t.t.s.e.h.k.| 4 O 3 p.u.s.s.s.s.s.s.u.s.s.s.s.s.s.s.s.s.s.s.s.s.s.s.s.s.s.s.s.s.s.h.h.h.h.s.s.s.s.s.s.s.+.s.s.d.d.d.d.h.k.p.+ O # @ a.u.s.s.s..... . .+.+.s.s.s.s.+.+.s.s.s.s.s.s.s.s.s.s.s.s.s.s.s.s.s.s.s.s.s.s.s.s.s.s.s.s.s.s.s.h.t.p.r.3 O O v u.u.s.s.s.s.s.s.u.s.s.s.s.s.s.s.s.s.s.s.s.s.s.s.s.s.s.s.s.s.s.s.s.h.h.h.h.s.s.s.s.s.s.s.d.s.s.h.s.y.D 9 @ O O 9 p.s.h.s.s.s.s.s.s.s.s.s.s.h.h.h.s.s.s.s.s.s.s.s.s.s.s.s.s.s.s.s.s.s.s.s.s.h.s.s.s.s.s.s.s.h.s.s.s.u.h O O . + r.y.s.h.d.d.s.s.s.s.s.s.h.h.h.h.h.s.s.s.s.s.s.s.s.h.s.s.s.s.s.s.s.s.s.s.s.s.h.s.s.s.u.u.s.s.s.s.h.s.u.p.> + + < p.t.i.u.u.u.u.u.u.s. . .s.s.s.s.s.s.h.h.h.h.s.s.s.s.h.h.h.h.s.s.s.s.h.h.h.h.s.s.s.s.s.u.s.i.f.f.i.u.D @ . . ",
"@ . + z.| k.s.d.d.d.d.d.s.s.u.u.u.s.s.s.s.s.u.u.u.u.s.s.s.s.s.s.s.h.i.i.i.i.h.s.s.s.s.s.s.s.s.s.s.s.s.u.y.0 O . @ m z.y.W s.d.e.d.h.h.h.h.h.h.h.d.d.h.h.h.h.h.h.h.h.h.h.d.d.h.h.h.h.h.h.h.h.h.s.s.u.s.s.s.s.s.s.t.k.i.t.y.9 . O b  .s. .s.s.+.g.s.s.s.s.u.u.y.u.s.s.s.s.s.s.s.s.s.s.s.s.s.s.s.s.s.s.s.s.i.i.i.h.s.s.s.s.i.i.i.s.h.+.f.y.9 . . O h a.k.t.d.h.s.s.h.h.h.h.d.d.h.h.h.h.h.h.h.h.h.h.h.s.s.s.s.h.h.s.s.s.s.s.h.s.s.s.u. . .s.s.s.s.s.h.s.k.r.3 O O g | s.f.s.s.s.s.+.s.s.s.s.s.u.u.u.s.s.s.s.h.s.s.s.s.s.s.s.h.s.s.s.f.f.f.f.f.s.s.u.u.u.u.u.u.u.u.s.! h.k.E > + 0 p.u.s.s.s.s.t.u.u.s.s.s.s.i.i.i.h.s.s.s.s.i.i.i.h.h.h.h.h.h.h.h.h.d.h.h.h.h.h.h.h.s. . .+.s.d.d.s.h.s.k.+ O 2 @ z.u.u.u...........+.+.s.s.s.+.+.+.s.s.s.s.s.s.s.s.s.s.s.s.s.s.s.s.s.h.i.i.i.i.h.h.s.s.s.s.s.s.s.s.s.i.r.3 O O v y.i.u.s.s.s.s.s.f.s.s.s.s.h.h.i.i.i.i.s.h.s.s.s.s.s.s.h.h.h.h.s.s.s.s.s.s.s.s.s.s.s.s.s.s.s.s.s.u.y.r.j O O O 9 p.i.s.s.s.s.s.h.h.h.h.s.s.s.s.s.s.s.s.h.h.s.h.s.s.s.s.s.s.s.s.s.h.h.h.h.h.d.h.h.h.h.h.h.h.h.h.h.s.t.n O O O # y.r.s.s.s.d.s.s.s.s.h.h.h.h.d.d.h.h.h.h.h.h.h.h.h.h.h.h.h.h.h.h.h.h.h.h.h.h.h.h.h.s.u.u.s.s.s.s.s.s.u.B 4 + > 6 t.i.u.u.u.u.u.u. . .+.+.s.s.s.f.f.f.h.s.s.s.s.s.s.s.s.s.s.s.h.s.s.s.s.s.s.s.s.s.s.s.s.i.i.i.i.i.i.u.D @   @ ",
"@ . # n.E s.s.d.d.d.d.h.s.s.u.u.s.s.s.s.s.s.s.u.s.u.s.s.s.s.s.s.s.s.h.i.h.i.s.s.s.s.s.s.s.s.s.s.+.+. .r.y.j O . O m p.t.W h.d.s.d.h.h.h.h.h.h.h.h.h.h.h.h.h.h.h.h.h.h.h.h.h.h.h.h.h.h.h.h.h.h.h.s.s.s.s.s.s.s.s.W k.i.r.y.2 . O y  .s. .s.+.W f.s.s.s.s.s.u.u.u.s.s.s.s.s.s.s.s.s.s.s.s.s.s.s.s.s.s.s.s.h.i.h.i.s.s.s.s.h.i.h.s.h. .f.r.2 . . O j y.k.t.h.h.s.s.h.h.h.h.h.h.h.h.h.h.h.h.h.h.h.h.h.s.s.s.s.s.s.s.s.s.s.s.h.s.s.s.u. . .+.s.+.s.s.s.s.k.u.9 . . 9 r.s.s. .+.f.s.W s.s.s.s.s.s.u.s.s.s.s.s.h.s.s.s.s.s.s.s.h.s.s.s.t.u.s.s.s.f.s.f.s.f.s.s.s.s.s.s.s.g.k.b > + 0 u.i.s.d.d.h.s.u.i.s.s.s.s.h.i.h.i.s.s.s.s.h.i.h.s.h.h.h.h.h.h.h.h.h.h.h.h.h.h.h.h.f.s. .+.s.s.s.s.d.u.p.+ O # O z.y. . . . ...s.s.s.+.s.s.s.s.s.s.s.s.s.s.s.s.s.s.s.s.s.s.s.s.s.s.s.s.s.i.h.i.s.s.s.s.s.s.s.s.s.s.s.s.r.3 O + m y.u.f.h.s.+.+. . .s.s.s.s.h.s.s.i.h.i.s.s.s.s.s.s.s.s.s.s.h.s.s.s.s.s.s.s.s.s.s.s.s.s.s.s.s.s.s.u.r.r.j O O O 0 p.i.s.s.s.s.s.s.s.h.s.s.s.s.s.s.h.s.h.h.h.h.h.h.h.h.h.h.h.h.h.h.h.h.h.h.h.d.d.h.h.h.h.h.h.h.h.h.s.t.M O O @ # z.r.s.s.s.s.s.s.s.s.h.h.h.h.h.h.h.h.h.h.h.h.h.h.h.h.h.h.h.h.h.h.h.h.h.h.h.h.h.h.h.s.u.u.s.s.s.s.s.u.u.v < O > x E k. . . .s.s. . . .s.s.s.s.+.+.+.s.s.s.s.s.h.s.s.s.s.s.s.s.h.s.s.s.s.s.s.s.s.s.s.s.k.f.i.u.t.u.i.r.D @ . @ ",
". . + p.t.j.e.d.s.s.s.s.s.s.s.s.s.s.s.s.s.s.s.s.s.s.s.s.s.s.s.s.s.s.s.s.s.s.s.s.s.s.s.s.s.s.s.s.+.d.s.u.D 9 . O O x u.i.t.s.s.+.s.s.h.s.h.s.h.s.h.s.h.s.h.s.h.s.h.s.h.s.h.s.h.s.h.s.h.s.h.s.h.h.h.s.s.s.s.s.s.s.s.s.k.p.B & . O b s.f.u.f.s. .s.s.s.s.s.s.s.s.s.s.s.s.s.s.s.s.s.s.s.s.s.s.s.s.s.s.s.s.s.s.s.s.s.s.s.s.s.s.s.s.s.h.t.i.r.2 . . . h r.i.t.h.s.+.g.s.s.h.s.h.s.h.s.h.s.h.s.h.s.h.s.s.s.s.s.s.s.s.s.s.s.s.s.s.s.s.s.s.s.s.s.s.s.s.s.s.s.p.B 2 . . 9 r.u.f.u.t.s.s. .s.s.s.s.s.s.s.s.s.s.s.s.s.s.s.s.s.s.s.s.s.s.s.s.s.s.s.s.s.s.s.s.s.s.s.s.s.s.s.s.t.k.p.N + O 9 p.u.s.s.s.s.s.s.s.s.s.s.s.s.s.s.s.s.s.s.s.s.s.s.s.s.s.h.s.h.s.h.s.h.s.h.s.h.s.h.s.s.s.s.s.s.s.h.h.h.i.r.> O O # a.u.s.s.s.s.s.s.s.s.s.s.s.s.s.s.s.s.s.s.s.s.s.s.s.s.s.s.s.s.s.s.s.s.s.s.s.s.s.s.s.s.s.s.s.s.s.s.s.h.k.r.3 O O 9 M t.i.s.s.s.+.+.+.s.s.s.s.s.s.s.s.s.s.s.s.s.s.s.s.s.s.s.s.s.s.s.s.s.s.s.s.s.s.s.s.s.s.s.s.s.s.h.i.p.y.2 + O O N t.s.s.s.s.s.s.s.s.s.s.s.s.s.s.s.s.s.s.s.s.s.s.s.s.s.s.s.s.s.s.s.s.h.s.h.s.h.s.h.s.h.s.h.s.h.s.h.s.s.E O . . # y.f.d.h.s.u.u.s.s.s.s.s.h.s.h.s.h.s.h.s.h.s.h.s.h.s.h.s.h.s.h.s.h.s.h.s.h.s.h.s.h.s.s.s.s.s.s.s.s.u.y.j # O O x p.i.s.s.s.s.s.s.s.s.s.s.s.s.s.s.s.s.s.s.s.s.s.s.s.s.s.s.s.s.s.s.s.s.s.s.s.s.s.s.s.s.s.s.s.s.s.s.s.u.a.& . O ",
"@ . + p.w.g.e.d.s.s.s.u.s.s.h.h.h.s.s.s.s.s.s.s.s.s.s.s.s.s.s.s.s.s.s.s.s.s.s.s.s.s.s.s.s.s.s.s.+.d.u.u.D 9 . O + v i.s.t.s.s.+.s.s.s.s.s.s.s.s.s.s.s.s.s.s.s.s.s.s.s.s.s.s.s.s.s.s.s.s.s.s.s.s.h.h.s.s.s.u.s.s.s.s.h.p.B & . O n s.f.u.f.s. .s.s.s.s.s.s.s.s.s.s.s.s.s.s.s.s.s.s.s.s.s.s.s.s.s.s.s.s.s.s.s.s.s.s.s.s.s.s.s.s.s.h.t.u.r.2 . . O v r.i. .h.s.+.g.s.s.s.s.s.s.s.s.s.s.s.s.s.s.s.s.s.s.s.s.s.s.s.s.s.s.s.s.s.s.s.s.s.s.s.s.s.s.s.s.s.u.u.B 2 . . = r.u.f.u.t.s.s. .s.s.s.s.s.s.s.s.s.s.s.s.s.s.s.s.s.s.s.s.s.s.s.s.s.s.s.s.s.s.s.s.s.s.s.s.s.s.s.s.t.p.p.m + O 0 u.u.s.s.s.h.s.s.s.s.s.s.s.s.s.s.s.s.s.s.s.s.s.s.s.s.s.s.s.s.s.s.s.s.s.s.s.s.s.s.s.s.s.s.s.s.s.h.s.s.i.r.> O O # y.i.s.s.s.s.s.s.s.s.s.s.s.s.s.s.s.s.s.s.s.s.s.s.s.s.s.s.s.s.s.s.s.s.s.s.s.s.s.s.s.s.s.s.s.s.s.s.s.h.k.r.3 O O 9 M r.i.s.s.s.+.+.+.s.s.s.s.s.s.s.s.s.s.s.s.s.s.s.s.s.s.s.s.s.s.s.s.s.s.s.s.s.s.s.s.s.s.s.s.d.s.h.s.p.y.2 + O + N t.s.s.s.s.s.s.s.s.s.s.s.s.s.s.s.s.s.s.s.s.s.s.s.s.s.s.s.s.s.s.s.s.s.s.s.s.s.s.s.s.s.s.s.s.s.s.s.s.s.E O   . # t.h.d.d.s.u.u.u.s.d.s.s.s.s.s.s.s.s.s.s.s.s.s.s.s.s.s.s.s.s.s.s.s.s.s.s.s.s.s.s.s.s.s.s.s.s.s.s.s.u.y.j # . O x a.i.s.s.s.s.s.s.s.s.s.s.s.s.s.s.s.s.s.s.s.s.s.s.s.s.s.s.s.s.s.s.s.s.s.s.s.s.s.s.s.s.s.s.s.s.s.s.s.u.a.& . O ",
"@ . + p.w.k.e.d.s.s.s.u.s.h.h.h.h.s.s.s.s.s.s.s.s.s.s.s.s.s.s.s.s.s.s.s.s.s.s.s.s.s.s.s.s.s.s.s.+.s.u.u.D 9 . O + v i.s.t.s.s.+.s.s.s.s.s.s.s.s.s.s.s.s.s.s.s.s.s.s.s.s.s.s.s.s.s.s.s.s.s.s.s.s.h.h.s.s.s.u.s.s.s.s.h.p.M # . O n u.f.u.f.s. .s.s.s.s.s.s.s.s.s.s.s.s.s.s.s.s.s.s.s.s.s.s.s.s.s.s.s.s.s.s.s.s.s.s.s.s.s.s.s.s.s.h.t.u.r.2 . . O j r.i. .h.s.+.g.s.s.s.s.s.s.s.s.s.s.s.s.s.s.s.s.s.s.s.s.s.s.s.s.s.s.s.s.s.s.s.s.s.s.s.s.s.s.s.s.u.u.u.B & . . & | u.f.u.t.u.s. .s.s.s.s.s.s.s.s.s.s.s.s.s.s.s.s.s.s.s.s.s.s.s.s.s.s.s.s.s.s.s.s.s.s.s.s.s.s.s.s.t.p.a.n + O 3 y.u.s.s.s.h.s.s.s.s.s.s.s.s.s.s.s.s.s.s.s.s.s.s.s.s.s.s.s.s.s.s.s.s.s.s.s.s.s.s.s.s.s.s.s.s.s.h.s.s.i.r.4 O O + S i.s.s.s.s.s.s.s.s.s.s.s.s.s.s.s.s.s.s.s.s.s.s.s.s.s.s.s.s.s.s.s.s.s.s.s.s.s.s.s.s.s.s.s.s.s.s.s.h.f.r.3 O O 9 m r.i.s.s.s.+.+.+.s.s.s.s.s.s.s.s.s.s.s.s.s.s.s.s.s.s.s.s.s.s.s.s.s.s.s.s.s.s.s.s.s.s.s.s.d.s.h.s.p.y.2 + O + M t.s.s.s.s.s.s.s.s.s.s.s.s.s.s.s.s.s.s.s.s.s.s.s.s.s.s.s.s.s.s.s.s.s.s.s.s.s.s.s.s.s.s.s.s.s.s.s.s.s.E O . . # t.h.d.d.s.u.u.u.s.d.s.s.s.s.s.s.s.s.s.s.s.s.s.s.s.s.s.s.s.s.s.s.s.s.s.s.s.s.s.s.s.s.s.s.s.s.s.s.s.u.y.0 # O O x p.u.s.s.s.s.s.s.s.s.s.s.s.s.s.s.s.s.s.s.s.s.s.s.s.s.s.s.s.s.s.s.s.s.s.s.s.s.s.s.s.s.s.s.s.s.s.s.s.u.a.& . O ",
". . + p.w.k.e.d.s.s.s.u.s.h.h.h.h.s.s.s.s.s.s.s.s.s.s.s.s.s.s.s.s.s.s.s.s.s.s.s.s.s.s.s.s.s.s.s.+.s.i.u.D 9 . O + v i.i.t.s.s.+.s.s.s.s.s.s.s.s.s.s.s.s.s.s.s.s.s.s.s.s.s.s.s.s.s.s.s.s.s.s.s.s.h.h.s.s.s.u.s.s.s.s.s.p.M # . . n u.f.u.f.s. .s.s.s.s.s.s.s.s.s.s.s.s.s.s.s.s.s.s.s.s.s.s.s.s.s.s.s.s.s.s.s.s.s.s.s.s.s.s.s.s.s.h.t.u.r.2 . . O v y.i.t.h.s.+.g.s.s.s.s.s.s.s.s.s.s.s.s.s.s.s.s.s.s.s.s.s.s.s.s.s.s.s.s.s.s.s.s.s.s.s.s.s.s.s.s.u.u.u.m & . X & M  .f.u. .u.s.s.s.s.s.s.s.s.s.s.s.s.s.s.s.s.s.s.s.s.s.s.s.s.s.s.s.s.s.s.s.s.s.s.s.s.s.s.s.s.s.s.t.i.t.n + O 2 r.u.s.s.s.s.s.s.s.s.s.s.s.s.s.s.s.s.s.s.s.s.s.s.s.s.s.s.s.s.s.s.s.s.s.s.s.s.s.s.s.s.s.s.s.s.s.h.s.i.i.r.4 O O + B i.s.s.s.s.s.s.s.s.s.s.s.s.s.s.s.s.s.s.s.s.s.s.s.s.s.s.s.s.s.s.s.s.s.s.s.s.s.s.s.s.s.s.s.s.s.s.s.h.f.r.3 O O 2 m r.t.s.s.s.+.+.+.s.s.s.s.s.s.s.s.s.s.s.s.s.s.s.s.s.s.s.s.s.s.s.s.s.s.s.s.s.s.s.s.s.s.s.s.d.s.h.s.u.y.9 O O + M t.s.s.s.s.s.s.s.s.s.s.s.s.s.s.s.s.s.s.s.s.s.s.s.s.s.s.s.s.s.s.s.s.s.s.s.s.s.s.s.s.s.s.s.s.s.s.s.s.d.E O . . # r.h.d.d.s.u.u.u.s.d.s.s.s.s.s.s.s.s.s.s.s.s.s.s.s.s.s.s.s.s.s.s.s.s.s.s.s.s.s.s.s.s.s.s.s.s.s.s.s.u.r.0 + O O x p.u.s.s.s.s.s.s.s.s.s.s.s.s.s.s.s.s.s.s.s.s.s.s.s.s.s.s.s.s.s.s.s.s.s.s.s.s.s.s.s.s.s.s.s.s.s.s.s.u.a.& . O ",
". . + p.w.g.e.d.s.s.s.u.s.s.h.h.h.s.s.s.s.s.s.s.s.s.s.s.s.s.s.s.s.s.s.s.s.s.s.s.s.s.s.s.s.s.s.s.+.s.u.u.D 9 . O + x i.s.t.s.s. .s.s.s.s.s.s.s.s.s.s.s.s.s.s.s.s.s.s.s.s.s.s.s.s.s.s.s.s.s.s.s.s.h.h.s.s.s.u.s.s.s.s.s.u.M # . O n u.s. .f.s. .s.s.s.s.s.s.s.s.s.s.s.s.s.s.s.s.s.s.s.s.s.s.s.s.s.s.s.s.s.s.s.s.s.s.s.s.s.s.s.s.s.h.t.u.r.2 . . O v y.i.s.d.+.+.s.s.s.s.s.s.s.s.s.s.s.s.s.s.s.s.s.s.s.s.s.s.s.s.s.s.s.s.s.s.s.s.s.s.s.s.s.s.s.+.+.u.u.r.v * . X & N  .s.s. .u.s.s.s.s.s.s.s.s.s.s.s.s.s.s.s.s.s.s.s.s.s.s.s.s.s.s.s.s.s.s.s.s.s.s.s.s.s.s.s.s.s.s.s.i.r.v + . 2 r.u.s.s.s.s.s.s.s.s.s.s.s.s.s.s.s.s.s.s.s.s.s.s.s.s.s.s.s.s.s.s.s.s.s.s.s.s.s.s.s.s.s.s.s.s.s.s.s.i.i.r.4 O O O V i.s.s.s.s.s.s.s.s.s.s.s.s.s.s.s.s.s.s.s.s.s.s.s.s.s.s.s.s.s.s.s.s.s.s.s.s.s.s.s.s.s.s.s.s.s.s.s.s.f.r.3 O O 2 m r.t.s.s.s.+.+.+.s.s.s.s.s.s.s.s.s.s.s.s.s.s.s.s.s.s.s.s.s.s.s.s.s.s.s.s.s.s.s.s.s.s.s.s.d.s.h.s.u.p.9 + O + | t.s.s.s.s.s.s.s.s.s.s.s.s.s.s.s.s.s.s.s.s.s.s.s.s.s.s.s.s.s.s.s.s.s.s.s.s.s.s.s.s.s.s.s.s.s.s.s.s.d.E O . . # r.h.d.d.s.u.u.u.s.d.s.s.s.s.s.s.s.s.s.s.s.s.s.s.s.s.s.s.s.s.s.s.s.s.s.s.s.s.s.s.s.s.s.s.s.s.s.s.i.u.B 9 O O O v p.u.s.s.s.s.s.s.s.s.s.s.s.s.s.s.s.s.s.s.s.s.s.s.s.s.s.s.s.s.s.s.s.s.s.s.s.s.s.s.s.s.s.s.s.s.s.s.s.u.a.& . O ",
". . + p.w.g.e.d.s.s.s.u.s.s.h.h.h.s.s.s.s.s.s.s.s.s.s.s.s.s.s.s.s.s.s.s.s.s.s.s.s.s.s.s.s.s.s.s.+.s.u.y.D 2 . O + v i.s.t.s.s. .s.s.s.s.s.s.s.s.s.s.s.s.s.s.s.s.s.s.s.s.s.s.s.s.s.s.s.s.s.s.s.s.h.h.s.s.s.u.s.s.h.s.s.u.m # . . x u.s. .f.s. .s.s.s.s.s.s.s.s.s.s.s.s.s.s.s.s.s.s.s.s.s.s.s.s.s.s.s.s.s.s.s.s.s.s.s.s.s.s.s.s.s.h.t.u.r.2 . . O v u.k.s.d.+.+.s.s.s.s.s.s.s.s.s.s.s.s.s.s.s.s.s.s.s.s.s.s.s.s.s.s.s.s.s.s.s.s.s.s.s.s.s.s.s.+.+.u.u.r.j * . X % c W f.s. .u.s.s.s.s.s.s.s.s.s.s.s.s.s.s.s.s.s.s.s.s.s.s.s.s.s.s.s.s.s.s.s.s.s.s.s.s.s.s.s.s.s.s.s.i.r.x + . 4 B u.s.s.s.s.s.s.s.s.s.s.s.s.s.s.s.s.s.s.s.s.s.s.s.s.s.s.s.s.s.s.s.s.s.s.s.s.s.s.s.s.s.s.s.s.s.s.s.i.i.y.4 O O O m i.s.s.s.s.s.s.s.s.s.s.s.s.s.s.s.s.s.s.s.s.s.s.s.s.s.s.s.s.s.s.s.s.s.s.s.s.s.s.s.s.s.s.s.s.s.s.s.s.f.r.3 O O 2 v r.r.s.s.s.s.+.+.s.s.s.s.s.s.s.s.s.s.s.s.s.s.s.s.s.s.s.s.s.s.s.s.s.s.s.s.s.s.s.s.s.s.s.s.d.s.h.s.t.p.9 O O + r.u.s.s.s.s.s.s.s.s.s.s.s.s.s.s.s.s.s.s.s.s.s.s.s.s.s.s.s.s.s.s.s.s.s.s.s.s.s.s.s.s.s.s.s.s.s.s.s.s.h.E O . . # r.h.d.d.s.u.u.u.s.d.s.s.s.s.s.s.s.s.s.s.s.s.s.s.s.s.s.s.s.s.s.s.s.s.s.s.s.s.s.s.s.s.s.s.s.s.s.s.s.u.B 9 O O O n p.u.s.s.s.s.s.s.s.s.s.s.s.s.s.s.s.s.s.s.s.s.s.s.s.s.s.s.s.s.s.s.s.s.s.s.s.s.s.s.s.s.s.s.s.s.s.s.s.u.a.& . O ",
". . + p.w.g.e.d.s.s.s.u.s.s.h.h.h.s.s.s.s.s.s.s.s.s.s.s.s.s.s.s.s.s.s.s.s.s.s.s.s.s.s.s.s.s.s.s.+.s.u.y.S 2 . O O v i.s.t.s.s.+.s.s.s.s.s.s.s.s.s.s.s.s.s.s.s.s.s.s.s.s.s.s.s.s.s.s.s.s.s.s.s.s.h.h.s.s.u.u.s.s.h.s.s.t.m # . @ x u.s. .f.s. .s.s.s.s.s.s.s.s.s.s.s.s.s.s.s.s.s.s.s.s.s.s.s.s.s.s.s.s.s.s.s.s.s.s.s.s.s.s.s.s.s.h.t.u.r.2 . . O v u.f.+.s.+.+.s.s.s.s.s.s.s.s.s.s.s.s.s.s.s.s.s.s.s.s.s.s.s.s.s.s.s.s.s.s.s.s.s.s.s.s.s.s.+.+.+.u.u.r.h + O X @ x E f.f.u.u.s.s.s.s.s.s.s.s.s.s.s.s.s.s.s.s.s.s.s.s.s.s.s.s.s.s.s.s.s.s.s.s.s.s.s.s.s.s.s.s.s.s.s.i.r.x + . < B u.s.s.s.s.s.s.s.s.s.s.s.s.s.s.s.s.s.s.s.s.s.s.s.s.s.s.s.s.s.s.s.s.s.s.s.s.s.s.s.s.s.s.s.s.s.h.s.i.u.y.3 O O O m i.s.s.s.s.s.s.s.s.s.s.s.s.s.s.s.s.s.s.s.s.s.s.s.s.s.s.s.s.s.s.s.s.s.s.s.s.s.s.s.s.s.s.s.s.s.s.s.s.f.r.3 O O 2 v r.r.s.s.s.s.s.s.s.s.s.s.s.s.s.s.s.s.s.s.s.s.s.s.s.s.s.s.s.s.s.s.s.s.s.s.s.s.s.s.s.u.s.s.d.d.h.s.t.p.9 O O > r.u.s.s.s.s.s.s.s.s.s.s.s.s.s.s.s.s.s.s.s.s.s.s.s.s.s.s.s.s.s.s.s.s.s.s.s.s.s.s.s.s.s.s.s.s.s.s.s.s.j.E + . . # r.h.d.d.s.u.u.u.s.d.s.s.s.s.s.s.s.s.s.s.s.s.s.s.s.s.s.s.s.s.s.s.s.s.s.s.s.s.s.s.s.s.s.s.s.s.s.s.s.u.V 9 O O + n p.u.s.s.s.s.s.s.s.s.s.s.s.s.s.s.s.s.s.s.s.s.s.s.s.s.s.s.s.s.s.s.s.s.s.s.s.s.s.s.s.s.s.s.s.s.s.s.s.u.a.& . O ",
". . + p.w.g.e.d.s.s.s.u.s.s.h.h.h.s.s.s.s.s.s.s.s.s.s.s.s.s.s.s.s.s.s.s.s.s.s.s.s.s.s.s.s.s.s.s.! s.u.y.S # . O O x i.s.t.s.s.+.s.s.s.s.s.s.s.s.s.s.s.s.s.s.s.s.s.s.s.s.s.s.s.s.s.s.s.s.s.s.s.s.h.h.h.s.u.u.s.s.h.s.s.t.m # . @ x u.s. .f.s. .s.s.s.s.s.s.s.s.s.s.s.s.s.s.s.s.s.s.s.s.s.s.s.s.s.s.s.s.s.s.s.s.s.s.s.s.s.s.s.s.s.h.t.u.r.2 . . O v u.k.+.s.+.+.s.s.s.s.s.s.s.s.s.s.s.s.s.s.s.s.s.s.s.s.s.s.s.s.s.s.s.s.s.s.s.s.s.s.s.s.s.+.+.+.+.u.u.r.g O O X @ t E f.f.u.u.s.s.s.s.s.s.s.s.s.s.s.s.s.s.s.s.s.s.s.s.s.s.s.s.s.s.s.s.s.s.s.s.s.s.s.s.s.s.s.s.s.s.s.i.r.x + . < B u.s.s.s.s.s.s.s.s.s.s.s.s.s.s.s.s.s.s.s.s.s.s.s.s.s.s.s.s.s.s.s.s.s.s.s.s.s.s.s.s.s.s.s.s.s.h.s.i.u.u.3 O O O v i.s.s.s.s.s.s.s.s.s.s.s.s.s.s.s.s.s.s.s.s.s.s.s.s.s.s.s.s.s.s.s.s.s.s.s.s.s.s.s.s.s.s.s.s.s.s.s.s.f.r.3 O O 2 j r.t.s.s.s.s.+.s.s.s.s.s.s.s.s.s.s.s.s.s.s.s.s.s.s.s.s.s.s.s.s.s.s.s.s.s.s.s.s.s.s.u.s.s.d.d.h.s.r.p.h O O > r.u.s.s.s.s.s.s.s.s.s.s.s.s.s.s.s.s.s.s.s.s.s.s.s.s.s.s.s.s.s.s.s.s.s.s.s.s.s.s.s.s.s.s.s.s.s.s.s.s.j.E O . . # r.h.d.d.s.u.u.u.s.d.s.s.s.s.s.s.s.s.s.s.s.s.s.s.s.s.s.s.s.s.s.s.s.s.s.s.s.s.s.s.s.s.s.s.s.s.s.s.s.u.M 2 O O + n p.u.s.s.s.s.s.s.s.s.s.s.s.s.s.s.s.s.s.s.s.s.s.s.s.s.s.s.s.s.s.s.s.s.s.s.s.s.s.s.s.s.s.s.s.s.s.s.s.u.a.& . O ",
". . 3 r.h.h.d.+.s.s.s.u.s.s.h.h.h.s.s.s.s.s.s.s.s.s.s.s.s.s.s.s.s.s.s.s.s.s.s.s.s.s.s.s.s.s.s.s.s.+.f.p.B # . O O v p.i.t.s.s.+.s.s.s.s.s.s.s.s.s.s.s.s.s.s.s.s.s.s.s.s.s.s.s.s.s.s.s.s.s.s.s.s.h.h.h.s.s.u.s.s.s.s.k.r.x + . . v s.f. .u.u.t.s.s.s.s.s.s.s.s.s.s.s.s.s.s.s.s.s.s.s.s.s.s.s.s.s.s.s.s.s.s.s.s.s.s.s.s.s.s.s.s.s.d.k.p.M 2 . . O B r.i.s.s.s.f.s.s.s.s.s.s.s.s.s.s.s.s.s.s.s.s.s.s.s.s.s.s.s.s.s.s.s.s.s.s.s.s.s.s.s.s.s.s.s.+.+. .u.r.g O . . @ c W s.s. .u.s.s.s.s.s.s.s.s.s.s.s.s.s.s.s.s.s.s.s.s.s.s.s.s.s.s.s.s.s.s.s.s.s.s.s.s.s.s.s.s.s.s.s.i.r.x + O < B u.i.s.s.s.s.s.s.s.s.s.s.s.s.s.s.s.s.s.s.s.s.s.s.s.s.s.s.s.s.s.s.s.s.s.s.s.s.s.s.s.s.s.s.s.s.h.s.i.i.p.3 O O + j i.s.s.s.s.s.s.s.s.s.s.s.s.s.s.s.s.s.s.s.s.s.s.s.s.s.s.s.s.s.s.s.s.s.s.s.s.s.s.s.s.s.s.s.s.s.s.s.s.s.r.0 O O < v r.i.h.s.s.+.s.+.s.s.s.s.s.s.s.s.s.s.s.s.s.s.s.s.s.s.s.s.s.s.s.s.s.s.s.s.s.s.s.s.s.s.s.s.d.s.h.s.r.y.v O O 0 r.t.s.s.s.s.s.s.s.s.s.s.s.s.s.s.s.s.s.s.s.s.s.s.s.s.s.s.s.s.s.s.s.s.s.s.s.s.s.s.s.s.s.s.s.s.s.s.s.s.d.i.2 . . & u.s.d.d.s.u.u.u.s.d.s.s.s.s.s.s.s.s.s.s.s.s.s.s.s.s.s.s.s.s.s.s.s.s.s.s.s.s.s.s.s.s.s.s.s.s.s.s.s.u.v 9 . O O r.u.t.s.s.s.s.s.s.s.s.s.s.s.s.s.s.s.s.s.s.s.s.s.s.s.s.s.s.s.s.s.s.s.s.s.s.s.s.s.s.s.s.s.s.s.s.s.s.s.u.a.& . O ",
". . 3 r.h.h.d.s.s.s.s.u.s.s.h.h.h.s.s.s.s.s.s.s.s.s.s.s.s.s.s.s.s.s.s.s.s.s.s.s.s.s.s.s.s.s.s.s.s.+.f.p.B # . O O x i.i.t.s.s.+.s.s.s.s.s.s.s.s.s.s.s.s.s.s.s.s.s.s.s.s.s.s.s.s.s.s.s.s.s.s.s.s.h.h.h.s.s.s.s.s.s.s.h.r.v + . O x s.f. .u.u.t.s.s.s.s.s.s.s.s.s.s.s.s.s.s.s.s.s.s.s.s.s.s.s.s.s.s.s.s.s.s.s.s.s.s.s.s.s.s.s.s.s.d.h.u.M 2 . . O B r.k.s.s.d.f.+.s.s.s.s.s.s.s.s.s.s.s.s.s.s.s.s.s.s.s.s.s.s.s.s.s.s.s.s.s.s.s.s.s.s.s.s.s.s.+.+. .u.r.g O . . @ c E s.s. .u.s.s.s.s.s.s.s.s.s.s.s.s.s.s.s.s.s.s.s.s.s.s.s.s.s.s.s.s.s.s.s.s.s.s.s.s.s.s.s.s.s.s.s.i.r.x + O < B u.i.s.s.s.s.s.s.s.s.s.s.s.s.s.s.s.s.s.s.s.s.s.s.s.s.s.s.s.s.s.s.s.s.s.s.s.s.s.s.s.s.s.s.s.s.h.s.h.i.p.3 O O + h i.s.s.s.s.s.s.s.s.s.s.s.s.s.s.s.s.s.s.s.s.s.s.s.s.s.s.s.s.s.s.s.s.s.s.s.s.s.s.s.s.s.s.s.s.s.s.s.s.f.r.0 O O < h r.i.h.s.s.+.s.+.s.s.s.s.s.s.s.s.s.s.s.s.s.s.s.s.s.s.s.s.s.s.s.s.s.s.s.s.s.s.s.s.s.s.s.s.d.s.h.s.r.y.v O O 3 r.p.s.s.s.s.s.s.s.s.s.s.s.s.s.s.s.s.s.s.s.s.s.s.s.s.s.s.s.s.s.s.s.s.s.s.s.s.s.s.s.s.s.s.s.s.s.s.s.s.h.i.2 . . & u.h.d.d.s.u.u.u.s.d.s.s.s.s.s.s.s.s.s.s.s.s.s.s.s.s.s.s.s.s.s.s.s.s.s.s.s.s.s.s.s.s.s.s.s.s.s.s.s.u.n 9 . O O r.p.t.s.s.s.s.s.s.s.s.s.s.s.s.s.s.s.s.s.s.s.s.s.s.s.s.s.s.s.s.s.s.s.s.s.s.s.s.s.s.s.s.s.s.s.s.s.s.s.u.a.2 . O ",
"@ . 3 r.h.h.j.s.s.s.s.u.s.s.h.h.h.s.s.s.s.s.s.s.s.s.s.s.s.s.s.s.s.s.s.s.s.s.s.s.s.s.s.s.s.s.s.s.s.+.s.u.V # . O O x i.s.s.s.s.+.s.s.s.s.s.s.s.s.s.s.s.s.s.s.s.s.s.s.s.s.s.s.s.s.s.s.s.s.s.s.s.s.h.h.s.s.s.u.s.s.s.s.s.r.v + . O t u.f. .u.f.t.s.s.s.s.s.s.s.s.s.s.s.s.s.s.s.s.s.s.s.s.s.s.s.s.s.s.s.s.s.s.s.s.s.s.s.s.s.s.s.s.s.s.h.t.N & O . O B y.k.s.s.s.+.+.s.s.s.s.s.s.s.s.s.s.s.s.s.s.s.s.s.s.s.s.s.s.s.s.s.s.s.s.s.s.s.s.s.s.s.s.s.s.+.+.u.u.r.g O . . @ v E u.u.u.u.s.u.s.s.s.s.s.s.s.s.s.s.s.s.s.s.s.s.s.s.s.s.s.s.s.s.s.s.s.s.s.s.s.s.s.s.s.s.s.s.s.s.s.i.r.h + O < M u.i.s.s.s.s.s.u.s.s.s.s.s.s.s.s.s.s.s.s.s.s.s.s.s.s.s.s.s.s.s.s.s.s.s.s.s.s.s.s.s.s.s.s.s.s.h.s.k.i.u.3 O O + h i.s.s.s.s.s.s.+.s.s.s.s.s.s.s.s.s.s.s.s.s.s.s.s.s.s.s.s.s.s.s.s.s.s.s.s.s.s.s.s.s.s.s.s.s.s.s.s.h.k.r.0 O O < h | i.h.s.s.+.+.+.s.s.s.s.s.s.s.s.s.s.s.s.s.s.s.s.s.s.s.s.s.s.s.s.s.s.s.s.s.s.s.s.s.s.s.s.d.s.h.s.u.y.v O O 3 r.p.s.s.s.s.s.s.s.s.s.s.s.s.s.s.s.s.s.s.s.s.s.s.s.s.s.s.s.s.s.s.s.s.s.s.s.s.s.s.s.s.s.s.s.s.s.s.s.s.h.i.2 .   & u.h.d.d.s.u.u.u.s.d.s.s.s.s.s.s.s.s.s.s.s.s.s.s.s.s.s.s.s.s.s.s.s.s.s.s.s.s.s.s.s.s.s.s.s.s.s.s.i.u.v 2 . O O r.p.t.s.s.s.s.s.s.s.s.s.s.s.s.s.s.s.s.s.s.s.s.s.s.s.s.s.s.s.s.s.s.s.s.s.s.s.s.s.s.s.s.s.s.s.s.s.s.s.u.a.2 . O ",
"@ . 3 r.h.h.d.s.s.s.s.u.s.s.h.h.h.s.s.s.s.s.s.s.s.s.s.s.s.s.s.s.s.s.s.s.s.s.s.s.s.s.s.s.s.s.s.s.+.+.s.r.m # . O O t t.s.s.s.s.s.s.s.s.s.s.s.s.s.s.s.s.s.s.s.s.s.s.s.s.s.s.s.s.s.s.s.s.s.s.s.s.s.h.h.s.s.u.u.s.s.s.s.s.r.v + . O 0 u.f. .s.f.s.s.s.s.s.s.s.s.s.s.s.s.s.s.s.s.s.s.s.s.s.s.s.s.s.s.s.s.s.s.s.s.s.s.s.s.s.s.s.s.s.s.h.h.r.n & O . O S u.k.s.s.+.+.+.s.s.s.s.s.s.s.s.s.s.s.s.s.s.s.s.s.s.s.s.s.s.s.s.s.s.s.s.s.s.s.s.s.s.s.s.s.s.+.+.u.u.| 9 O . . O x E u.u.u.u.s.t.s.s.s.s.s.s.s.s.s.s.s.s.s.s.s.s.s.s.s.s.s.s.s.s.s.s.s.s.s.s.s.s.s.s.s.s.s.s.s.s.s.t.| h + O < N r.u.s.s.s.s.s.u.s.s.s.s.s.s.s.s.s.s.s.s.s.s.s.s.s.s.s.s.s.s.s.s.s.s.s.s.s.s.s.s.s.s.s.s.s.s.h.s.k.t.y.3 O O O h u.s.h.s.s.s.s.s.s.s.s.s.s.s.s.s.s.s.s.s.s.s.s.s.s.s.s.s.s.s.s.s.s.s.s.s.s.s.s.s.s.s.s.s.s.s.s.s.h.k.r.0 O O < h M t.h.s.s.s.+. .s.s.s.s.s.s.s.s.s.s.s.s.s.s.s.s.s.s.s.s.s.s.s.s.s.s.s.s.s.s.s.s.s.s.s.s.d.s.h.s.p.y.h O O 3 r.p.s.s.s.s.s.s.s.s.s.s.s.s.s.s.s.s.s.s.s.s.s.s.s.s.s.s.s.s.s.s.s.s.s.s.s.s.s.s.s.s.s.s.s.s.s.s.s.s.h.i.2 . . # t.h.d.d.s.u.u.u.s.d.s.s.s.s.s.s.s.s.s.s.s.s.s.s.s.s.s.s.s.s.s.s.s.s.s.s.s.s.s.s.s.s.s.s.s.s.s.s.u.r.h 2 . O O r.p.i.s.s.s.s.s.s.s.s.s.s.s.s.s.s.s.s.s.s.s.s.s.s.s.s.s.s.s.s.s.s.s.s.s.s.s.s.s.s.s.s.s.s.s.s.s.s.s.u.a.2 . O ",
"@ . 3 r.h.d.d.s.s.s.s.u.s.s.h.h.h.s.s.s.s.s.s.s.s.s.s.s.s.s.s.s.s.s.s.s.s.s.s.s.s.s.s.s.s.s.s.s.+.+.i.r.j # O O O 3 w.s.s.s.s.s.s.s.s.s.s.s.s.s.s.s.s.s.s.s.s.s.s.s.s.s.s.s.s.s.s.s.s.s.s.s.s.s.h.h.s.s.s.u.s.s.s.s.s.r.h O . O 3  .f. .s.f.s.s.s.s.s.s.s.s.s.s.s.s.s.s.s.s.s.s.s.s.s.s.s.s.s.s.s.s.s.s.s.s.s.s.s.s.s.s.s.s.s.s.h.s.r.v # O . O S u.k.s.s.+.+.+.s.s.s.s.s.s.s.s.s.s.s.s.s.s.s.s.s.s.s.s.s.s.s.s.s.s.s.s.s.s.s.s.s.s.s.s.+.s.s.+.u.r.B 3 O . . . t Q u.u.u.u.s.s.s.s.s.s.s.s.s.s.s.s.s.s.s.s.s.s.s.s.s.s.s.s.s.s.s.s.s.s.s.s.s.s.s.s.s.s.s.s.s.s.s.t.E h + O + n r.t.s.s.s.s.s.u.s.s.s.s.s.s.s.s.s.s.s.s.s.s.s.s.s.s.s.s.s.s.s.s.s.s.s.s.s.s.s.s.s.s.s.s.s.s.s.s.k.| r.3 O O O h  .s.h.f.s. . .s.s.s.s.s.s.s.s.s.s.s.s.s.s.s.s.s.s.s.s.s.s.s.s.s.s.s.s.s.s.s.s.s.s.s.s.s.s.s.s.s.h.f.| 3 O O # h M t.s.s.s.s.+. .s.s.s.s.s.s.s.s.s.s.s.s.s.s.s.s.s.s.s.s.s.s.s.s.s.s.s.s.s.s.s.s.s.s.s.s.d.s.h.s.p.r.9 O O 3 M t.s.s.s.s.s.s.s.s.s.s.s.s.s.s.s.s.s.s.s.s.s.s.s.s.s.s.s.s.s.s.s.s.s.s.s.s.s.s.s.s.s.s.s.s.s.s.s.s.d.t.< . . # r.d.d.d.s.u.u.u.s.d.s.s.s.s.s.s.s.s.s.s.s.s.s.s.s.s.s.s.s.s.s.s.s.s.s.s.s.s.s.s.s.s.s.s.t.s.s.s.u.| 0 2 . O O B p.i.s.s.s.s.s.s.s.s.s.s.s.s.s.s.s.s.s.s.s.s.s.s.s.s.s.s.s.s.s.s.s.s.s.s.s.s.s.s.s.s.s.s.s.s.s.s.s.u.a.2 . O ",
"@ . 3 r.s.s.d.s.s.s.s.u.s.s.h.h.h.s.s.s.s.s.s.s.s.s.s.s.s.s.s.s.s.s.s.s.s.s.s.s.s.s.s.s.s.s.s.s.+.+.i.B g # O O O 3 E s.s.s.s.s.s.s.s.s.s.s.s.s.s.s.s.s.s.s.s.s.s.s.s.s.s.s.s.s.s.s.s.s.s.s.s.s.h.h.s.s.s.u.s.s.s.s.s.| h O . O 3  .f. .f.f.s.s.s.s.s.s.s.s.s.s.s.s.s.s.s.s.s.s.s.s.s.s.s.s.s.s.s.s.s.s.s.s.s.s.s.s.s.s.s.s.s.s.h.s.| x # O . O B y.k.s.s.s.s.+.s.s.s.s.s.s.s.s.s.s.s.s.s.s.s.s.s.s.s.s.s.s.s.s.s.s.s.s.s.s.s.s.s.s.s.s.s.s.s.s.u.r.M 3 O . . . 6 T t.u.u.s.s. .s.s.s.s.s.s.s.s.s.s.s.s.s.s.s.s.s.s.s.s.s.s.s.s.s.s.s.s.s.s.s.s.s.s.s.s.s.s.s.s.s.t.M 0 + O + x |  .s.s.s.s.s.u.s.s.s.s.s.s.s.s.s.s.s.s.s.s.s.s.s.s.s.s.s.s.s.s.s.s.s.s.s.s.s.s.s.s.s.s.s.s.s.s.s.E M 4 O O O h E  .h.f.s. .s.s.s.s.s.s.s.s.s.s.s.s.s.s.s.s.s.s.s.s.s.s.s.s.s.s.s.s.s.s.s.s.s.s.s.s.s.s.s.s.s.s.h.s.M 4 O O 2 h M t.s.s.s.s.+.} s.s.s.s.s.s.s.s.s.s.s.s.s.s.s.s.s.s.s.s.s.s.s.s.s.s.s.s.s.s.s.s.s.s.s.s.d.s.h.s.u.B 9 O O 4 N r.s.s.s.s.s.s.s.s.s.s.s.s.s.s.s.s.s.s.s.s.s.s.s.s.s.s.s.s.s.s.s.s.s.s.s.s.s.s.s.s.s.s.s.s.s.s.s.s.d.E # . . # | s.d.d.s.u.u.u.s.d.s.s.s.s.s.s.s.s.s.s.s.s.s.s.s.s.s.s.s.s.s.s.s.s.s.s.s.s.s.s.s.s.s.s. .s.s.s.t.| 0 2 . O O B a.i.s.s.s.s.s.s.s.s.s.s.s.s.s.s.s.s.s.s.s.s.s.s.s.s.s.s.s.s.s.s.s.s.s.s.s.s.s.s.s.s.s.s.s.s.s.s.s.u.a.& . O ",
". . 2 | t.s.d.s.s.s.s.u.s.s.h.h.h.s.s.s.s.s.s.s.s.s.s.s.s.s.s.s.s.s.s.s.s.s.s.s.s.s.s.s.s.s.s.s.+.s.u.M 0 # O O + 3 E i.h.s.s.s.s.s.s.s.s.s.s.s.s.s.s.s.s.s.s.s.s.s.s.s.s.s.s.s.s.s.s.s.s.s.s.s.h.h.s.s.s.u.s.s.s.s.i.| h O . @ < W s. .f.f.s.h.s.s.s.s.s.s.s.s.s.s.s.s.s.s.s.s.s.s.s.s.s.s.s.s.s.s.s.s.s.s.s.s.s.s.s.s.s.s.s.s.h.s.| x # O . O B r.p.s.s.s.f.+.s.s.s.s.s.s.s.s.s.s.s.s.s.s.s.s.s.s.s.s.s.s.s.s.s.s.s.s.s.s.s.s.s.s.s.s.s.s.s.s.u.r.M 3 O . . . 6 Q u.u.u.s.s. .s.s.s.s.s.s.s.s.s.s.s.s.s.s.s.s.s.s.s.s.s.s.s.s.s.s.s.s.s.s.s.s.s.s.s.s.s.s.s.s.s.t.M 0 + O + t |  .s.s.s.s.s.t.s.s.s.s.s.s.s.s.s.s.s.s.s.s.s.s.s.s.s.s.s.s.s.s.s.s.s.s.s.s.s.s.s.s.s.h.s.h.s.s.t.c N 4 O O O j T W s.f.s.s.s.f.s.s.s.s.s.s.s.s.s.s.s.s.s.s.s.s.s.s.s.s.s.s.s.s.s.s.s.s.s.s.s.s.s.s.s.s.s.s.s.s.s.t.b > O O 2 h N r.s.s.s.s.+.} s.s.s.s.s.s.s.s.s.s.s.s.s.s.s.s.s.s.s.s.s.s.s.s.s.s.s.s.s.s.s.s.s.s.s.s.d.s.h.s.t.M 2 O O 4 x E s.s.s.s.s.s.s.s.s.s.s.s.s.s.s.s.s.s.s.s.s.s.s.s.s.s.s.s.s.s.s.s.s.s.s.s.s.s.s.s.s.s.s.s.s.s.s.s.s.E + . . O E s.d.d.s.u.u.u.s.d.s.s.s.s.s.s.s.s.s.s.s.s.s.s.s.s.s.s.s.s.s.s.s.s.s.s.s.s.s.s.s.s.s.u. .s.s.h.t.E h 9 O O O M t.t.s.s.s.s.s.s.s.s.s.s.s.s.s.s.s.s.s.s.s.s.s.s.s.s.s.s.s.s.s.s.s.s.s.s.s.s.s.s.s.s.s.s.s.s.s.s.s.u.y.& . O ",
". . & M t.t.s.s.s.s.s.s.s.s.s.h.s.s.s.s.s.s.s.s.s.s.s.s.s.s.s.s.s.s.s.s.s.s.s.s.s.s.s.s.s.s.s.s.s.h.i.M 9 # O O O 2 N i.k.s.s.s.s.s.s.s.s.s.s.s.s.s.s.s.s.s.s.s.s.s.s.s.s.s.s.s.s.s.s.s.s.s.s.s.h.h.h.s.s.s.s.s.s.h.i.E g O . @ , E u. .f.f.s.h.s.s.s.s.s.s.s.s.s.s.s.s.s.s.s.s.s.s.s.s.s.s.s.s.s.s.s.s.s.s.s.s.s.s.s.s.s.s.s.s.h.i.E x # O O O B y.u.i.s.h.s.s.s.s.s.s.s.s.s.s.s.s.s.s.s.s.s.s.s.s.s.s.s.s.s.s.s.s.s.s.s.s.s.s.s.s.s.s.s.s.s.s.s.t.M 3 O . . . 3 T u.u.u.s.s. .s.s.s.s.s.s.s.s.s.s.s.s.s.s.s.s.s.s.s.s.s.s.s.s.s.s.s.s.s.s.s.s.s.s.s.s.s.s.s.s.i.r.M 9 O . + 0 | | t.s.s.s.s.s.s.s.s.s.s.s.s.s.s.s.s.s.s.s.s.s.s.s.s.s.s.s.s.s.s.s.s.s.s.s.s.s.s.s.s.s.s.s.s.s.t.v x 4 O O O h c W s.f.s.s.s.f.s.s.s.s.s.s.s.s.s.s.s.s.s.s.s.s.s.s.s.s.s.s.s.s.s.s.s.s.s.s.s.s.s.s.s.s.s.s.s.s.t.t.c > O O 2 h N w.s.s.s.s.s.+.s.s.s.s.s.s.s.s.s.s.s.s.s.s.s.s.s.s.s.s.s.s.s.s.s.s.s.s.s.s.s.s.s.s.s.s.s.s.h.i.r.M 2 O O < x N s.s.s.s.s.s.s.s.s.s.s.s.s.s.s.s.s.s.s.s.s.s.s.s.s.s.s.s.s.s.s.s.s.s.s.s.s.s.s.s.s.s.s.s.s.s.s.s.t.E + @ . O M t.d.h.s.u.u.s.h.s.h.s.s.s.s.s.s.s.s.s.s.s.s.s.s.s.s.s.s.s.s.s.s.s.s.s.s.s.s.s.s.s.h.s.s.s.h.s.t.M h 2 O O O M r.t.s.s.s.s.s.s.s.s.s.s.s.s.s.s.s.s.s.s.s.s.s.s.s.s.s.s.s.s.s.s.s.s.s.s.s.s.s.s.s.s.s.s.s.s.s.s.s.u.D & . . ",
". . # v | u.s.g.s.s.s.s.s.s.u.s.s.s.s.s.s.s.s.s.s.s.s.s.s.s.s.s.t.t.t.s.s.s.s.s.s.s.s.s.s.s.s.s.h.w.E N h # O . O 2 n w.i.l.j.w.s.+.s.s.s.s.s.s.s.s.s.+.+.+.+. .s.s.s.s.s.s.s.s.s.s.+.+.s.s.s.s.s.s.s.s.s.s.s.s.l.w.E N h O . O , y |  . .u.s.s.+.s.s.s.s.s.s.s.s.s.s.s.s.s.s.s.+.+.+.+.+.+.+.+.s.s.s.s.s.s.s.s.s.s.s.s.s.s.s.s.u.M x h 2 O . . j M r.t.h.h.h.e.s.+.+.+.+.+.+.+.s.s.s.s.s.s.s.s.s.s.s.s.s.s.s.s.s.s.+.+.+.s.s.s.+.+.s.s.s.d.d.d.h.w.N 3 O . . O x y T t.f.s.s.s.s.s.s.s.s.s.s.s.s.s.s.s.s.s.s.s.s.s.s.s.s.s.s.s.s.s.s.s.s.s.s.s.w.w.s.s.s.s.s.s.r.Z j 2 O . O 9 j M r.p.i.s.d.j.s.s.s.s.s.s.s.s.d.d.d.s.d.d.d.s.s.f.s.f.s.f.s.s.t.t.t.t.t.t.t.t.t.s.s.h.h.i.t.r.x x h 2 O O * 3 t Q  .s.s.u.s.s.s.s.s.s.s.s.s.s.s.s.s.s.s.s.s.s.s.s.s.s.s.s.s.s.s.s.s.+.s.s.s.s.s.+.+. .+.+.s.s.E M x 2 + O + h x E k.k.s.! s.d.s.s.s.s.s.s.+.+.+.s.s.+.s.s.s.s.+.+.+.+.s.s.s.s.+.+.s.s.s.s.s.+.h.s.s.s.s.t.u.r.r.n 4 O O 2 j j E s.h.g.h.s.s.s.h.h.h.h.h.h.h.s.t.u.t.i.s.u.s.u.s.u.i.u.s.i.s.t. .+.+.s.s.s.s.d.s.s.s.s.s.s.s.s.N j & O O + x c t.i.h.h.s.s.e.W s.s.s.s.s.s.i.u.i.s.s.s.s.s.s.s.s.s.s.s.s.+.+.+.s.s.s.s.s.s.+.s.l.d.w.t.k.k.r.n h + O O + h r.r.i.s.s.h.h.h.g.g.h.h.h.h.h.h.h.h.s.s.s.s.s.s.s.s.+.+.+.+.+.+.+.+.s.s.s.s.s.s.s.s.s.s.s. .s.+.+.r.j % . . ",
". . # 0 M | u.f.s.+.+.+.+. . . .s.s.h.s.s.s.s.s.h.s.h.s.h.s.h.s.s.s.s.s.s.u.s.u. . . . . . . .t.w.w.N n h * O O O & j M w.h.j.h.s.+.+. .+. .+.+.s.+.+.+.+. .+. . . .+. .+. .+. .s.+.+.+.s.s.s.s.s.s.s.s.e.e.e.d.j.W N N h O . O < t b | u.f.f.s.s.s.s.s.s.s.s.s.s.s.s.s.s.s.+.+.s.s.s.s.s.s.s.s.s.s.s.s.s.s.s.s.s.s.s.s.s.s.s.s.| m x g 2 O . O g m S r.i.k.j.j.s.s.s.s.s.s.s.s.s.s.s.s.s.s.s.s.+.+.+.+.+. .+. .s.s.s.s.+.+.s.s.+.+.s.s.s.s.e.d.e.w.n a O . . O h t b  .s.s.s.s.s.s.s.s.s.s.s.s.h.h.h.h.h.h.h.h.h.h.h.h.h.h.h.h.s.s.h.h.h.s.s.s.s.h.h.h.h.s.s.i.B m h 2 O . O g j V y.p.h.s.d.d.d.d.d.d.d.d.d.d.d.d.d.d.d.h.d.h.t.u.u.u.u.u.t.t.t.u.u.i.s.s.f.f.k.h.k.i.t.r.M M v v j 2 O O * g x b E u.u.u.f.s.s.s.s.s.s.s.s.s.s.s.s.s.h.s.h.s.s.s.s.s.s.s.s.s.s.s.s.s.s.s.s.s.s.f.f.f.s.s.+.t.N n g 2 O O + x v M i.k.s.s.d.d.s.s.s.s.+.s.+.+.+.s.s.s.s.s.s.s.+.+.+.s.s.s.s.s.+.+.s.+.s.s.s.+.s.s.s.s.s.s.i.u.M n < O O & g h c E w.t.s.t.s.s.s.s.s.s.s.s.s.s.s.i.i.i.s.s.s.s.s.s.i.s.h.h.h.s.h.s.s.s.s.+.+.+.+.+.+.s.s.s.+.u.v g * O O 4 h x E w.t.i.s.h.h.s.h.h.h.h.h.h.h.h.k.k.k.k.k.k.k.k.u. . .u.s.s.s.s.f.s.s.s.+.+.+.+.d.e.e.s.k.t.E v v + O O + g Z M h.s.h.s.h.s.s.s.s.s.s.s.s.t.s.s.s.s.s.s.s.s.s.s.+.+.+.+.+.+.+.+.s.t.s.s.s.s.s.s.s.s.f.h.s. .W M z %     ",
". . # 9 v N w.s.s.s.s.s.s.u.u.u.u.i.s.t.t.t.t. . .t.t.t.t.t.t.t. .E E E E E E E Q c c c c c Q c N N x v g * O . O & g v N w.h.h.s.u.s.s.s.u.s.u.s.u.s.u.s.u.s.s.s.u.s.u.s.u.s.u.s.s.s.u.s.s.s.s.s.s.s.s.d.s.d.d.w.E c n g O . . < 0 v M r.k.k.s.s.s.d.s.s.s.t.u.f.f.f.f.s.s.s.u.t.u.t.u.t.t.t.t.t.u.t.u.t.u.t.t.s.u.t.t.t.t.t.i.x v h 9 # O O O 2 j m M w.t.h.d.t. .t.u.t.u.t.t.s.u.s.u.s.u.s.s.s.s.s.s.s.u.s.s.f.f.f.f.f.f.f.f. . .s.s.s.s.d.s.w.M n s $ . . . 9 t N E | t.u.t.t.t.s.t.t.t.t.t.t.t.t.t.t.t.t.t.t.t.t.t.t.t.t.t.t.t.t.t.t.t.t.t.s.s.s.i.t.t.w.w.x n h 2 O O O 9 j m B t.h.d.d.e.h.h.h.h.h.h.h.h.d.h.d.d.d.s.d.s.u.u.u.u.u.u.u.u.u.u.u.u.u.t.t.u.t.t.t.r.E N x v v m j & O . @ g v c c E  .r.r.t.u.u.u.u.t.t.t.t.t.t.t.t.t.t.u.u.s.i.s.i.s.i.s.s.s.f.s.f.s.s.s.f.s.s.f.f.s. .W E v g s * O O + h v N r.i.h.s.d.h.s.s.s.s.s.s.s.s.s.s.s.s.s.s.s.s.s.s.s.s.s.s.s.s.s.s.s.s.s.s.s.s.s.s.s.s.i.i.r.r.x h 2 O O @ g j x c E t.t.i.h.h.s.i.h.i.s.i.s.s.t.t.t.t.t.t.i.t.t.t.t.i.i.i.i.i.f.f.f.s.s.s.s.t.s.s.s.s.s. .W E j g * O O + 3 v x N E E t.t.t.t.t.t.t.t.t.t.t.t.w.t.w.t.w.t.w. .E E |  . . . . .u.s.s.s.s.s.s.s.s.d.s.h.i.r.N h v + O O O s m x i.s.s.s.s.s.s.t.s.s.s.s.s.u.s.s.s.s.s.s.s.s.s.s.s.s.s.s.s.s.s.s.s.f.s.f.s.i.s.i.s.f.f.f.t.E Q x z %     ",
". . # 9 j x N t.t.t.t.t. . .r.r.E E E E E E c c c c c c c c c c c c c c x x d 6 6 6 6 6 6 6 6 6 c d x v 3 @ . . . & g j n N w.t.t. .t.t.t.t.t.t.t.t.t.u.u.i.i.i.u.u.f.f.f.f.f.f.i.i.u.u.u.i.i.i.u.u.s.t.s.s.s.s.Q c v h 9 @ . . # 0 x n E t.i.t.s.s.s.s.t.t.t.t.t.t.t. .E E E E E E E E E E E E E E E E E E E E E E E E E E E E t x j 9 + . . @ & h m x c N E E E T E T E E E E  . . . . . . . .t.t.t.t.t.t.t.t.u.u.u.u.u.u.u.u. . . . .t.t.t.t.N N n 2 @ . . . 2 0 x c N E E E E E E E E E E E c c c c c c c c c c c c c c c c E E E E E E E E E E E E E E c c d n h 2 O O + 2 g v c E w.d.d.e.h.s.s.s.s.s.s.s.h.h.h.h.s.s.s.s.s.u.i.u.s.u.f.u.t. .E E E c c c c c c N c v x h j v h & . . @ 9 x t t v N M N b E E E E E E E E E E T E E E E T E E E E E E E E  .|  .| W W  . .E E E E E T c c j g s * O . + g g x N E t.s.s.s.s.i.i.i.i.i.u.u.i.i.i.i.i.i.i.i.i.i.i.u.i.i.i.i.u.i.u.u.u.u.u.i.t.s.s.t.t.E N x v g & O . @ g m x c E E E t.t.t.t.t.t.t.t.t.t.t.E E E E E E E E c c E E E E E E t.t.u.u.u.f.f.k.k.k.k.f.u.E Q c j 2 @ O O + 3 n x x c c c c Q N c c c c c c c c c c c c c c c c c c c N b b T T E E W t.u.s.f.f.h.k.k.k.r.M v g h + O O O 2 k g E E t.s.f.k.f.f.f.f.s.s.s.f.f.f.u.i.i.i.i.i.i.i.u.u.u.u.u.u.u.u.i.i.t.t.t.t.t.r.E E E E E c d 3 g @ . . ",
". . @ 9 h h x N c c c c c c v x c c c c x x d d 6 6 d d d d 6 6 x x x x x x x x x x x x x x x x x x v j 2 @ . . . @ g m n x N E c c c c c c c c E E M E E | | | r.r.r.| r.r.r.r.| | | | | | | | E E E E W W W E c v v g & . . . O 9 v v x N E w.w.w.w.E E E E E c c c v x x t 6 v v x x x x c c x x x x x x x x c x x x x x x x x v j 9 O . . O & g j v a x c c c v v v x x x x v c c c c c c c c c c c c c c c N N b N b b b b E E E E E E E E x n h & O . o . 2 0 v x x c c c c c c c x v v v x x x x x x x x d d x x x x d d x x x x x x x x c c c c c x x x x n n 2 O O + + j x x c Q W W W W W W W W W W W i.i.i.i.i.i.i.i.t.r.t.r.t.r.r.r.E N b c c t 6 6 6 t t t x x h h j h g # . . @ & v x 3 0 v x v x x x x x c c c c x x x x v v v v x x x x x x v v v v v v x v x v c c c v x x x x k z s & O . O 9 g h x N E E E E E E E E E E E E E E E E E E E E E E E E E E E E E E E E E E E E E E E E N c x 0 m g # . . . s m h d x x c c x x x c c c c c x c x x c x c c c c d d d x c c c c N E E E E t.t.i.t.i.i.t.E c c 6 l & O O O O 9 m h x x x x x x x x x x x x x x x x x x x x x x x x x x x x x x x c c b E E E t.t.t.t.t.E N x j j 2 O O O O 2 l j v c E W i.i.i.i.t.t.t.t.t.t.t.t.E E E E E E E E E E E E E E E E N N c c c c c x c c c x x x x x 9 @ . . ",
". . @ g k h x x x d d x x t x x x x n x x x x x x x x x x x x x x x x v v v v v v v v x v v v v n v j h & . . . . @ 9 l n x d x x x x x x x x x v x v x x x x x x x x x x x x x x x x x x x x x v v c c c c c c x x h 9 @ . .   . 9 m v g h n M N c N c x x x x x v x x x x d t x x x x x x x x x x x x x x x x x x x x x x x x v v j & @ . . . @ 9 j j h x c N x x x x x x x x x t x t x x x x x x x x x x x x x x x x x x x x v t v v c c c x d n g * . . X . & g m j h x N x x x x x x x v v x v x v v v v v v v v v v v v v x x x x x x x x x x x v v x x x n n g * O O O O v v x d f f Q Q c c c c c c c c b b b b b b b b c c c c c c c x v v x x x x x x v v x x x x j h j g & O . . @ & l v h j v v x x x x x x x x x x x x x x x x x x x x x x x x x x x x x x x x x x x x x t x x x m l g & @ O . O # j j v x x x c x c c c c c c c c c c c c N c N c c c c c N c N c c c c c c c c c c c c N x x h h l 2 @ . . . & k v x x x x x t 3 x x x x x x x x x x x x x x x x d x x x x x x c x x c c c c N c N c N N N c d a h & . . . O 2 m h h x x x v v v v x x x x x x x x x x x x x x x x x x x x x x x x x x v x x x c c c v x x h j j * . O O O & k l x x c c N N N b c c c c c c c c c c c c N c N c c c x c c c c c x x x x x x x x x x x x x x n m & @ . . ",
"X . . & z k h h x x x v v x v v v v n v n x n x n n n n n n n n x x x h h h h h h h h h x x x x v j h g @ . . X . . & j m x x x v v v v v v v v x x x x x x x h x x x x x x x x x x x x x x x x t t t t x x x x v v h & @ .     . & l l g h n n d d x x x x x x n x n n n x n x v v v v v v v x v v n x n v n v n n n v n n n n j j 9 O . O . . . & j j h v m N v v v v n v v v v v v v n v v v v v v v v v v v n v n v v v v v x t x x x x x x x n g O . . X . @ g l h g n n x n x n x n v n v x x x x x x x x x x x x x x x x v v v v v v v v v v v x x v v v n k 2 O O O O . 9 h v x t 6 6 y x x x x x x x x t 6 t t 0 0 0 0 t t t t t t t t t t x v x v v x n n x v x h j j j 9 @ . . . . O g h k j k j j j n n n n n v n v x x x x x x x x v v x x v v x x x x n x n x n x x x v v v x n n l & @ O O . O O l l v v x t t x x x x x x x x x x x x x x x x x x x x x x x x x x x x x x x x x x x x x v v n k h & O . . . $ & m x x x x n v h v v v v v v v v x x x x x x x x x x x x x x x x x x x x x x x x x x x x x x x h s @ . O O . * g g h h h x x v n v v v v v v v v v v v v v v v j h j j j v v n v v x x x x d d d 6 3 3 0 h g g g O . @ @ . @ z j x x x x x x x x t t t t t t t x x x x x x x x x x x x x x x x x x x n x n v n v n v n x n v n n * . . . ",
"% . . $ g k k h n x x x j h h j k k n k n n n n x j x j n h n j m m m k k k h h n k k k k n n n j g g = @ .   X   . @ g l j x n x j x h x j x j n v v v x h x h n n n n n n n n n n n n n n n v x x x x x x x x v j h & . .     . & z k k l k h x n n n n n n n h h x h x h x j v j x j x j x v n k n n n k n k n n n k n k n k h g & O . @ . . . & j j g h x v x j x j x j x j x j x j v j v j h j h j x h x h x h x j x h x x x x x v x x x v h m g .   . X . . & k g g n n h n n n n k k k k h h x h h h h h h h h h x h x h v j v j v j v j v v v v v j x h l z * . . @ O . O 2 j n x t t v x x x x x x x x v x v v x x x v x x v x v x v x t t x x x x x x x h h h h j j j j & O . . . . . & g h k g g h k k k k k k n n v x h x h x h x x 0 0 0 0 0 0 0 0 x j x j x h x j h j n m m n x g h & . . . . @ @ z j j j h h x n x n n n n n n n n v x v n n n n n n n n n n n n n n n n n n n n n x n v x j k k g @ . O . . . @ h h 3 h v v v h v j v j v j v v v x x v x v x v x v x v x v x x n n n n n v v v n v v n x x v j % . . @ O . O 2 j j h h 0 0 0 0 h h h h h h h h j j j j j j j j g g j j j j m m n n n n n n n x x x x x v j 9 = . . @ @ . . g h v x x x x x x x x x x x x x x x x v x v n n n n x x v v x x x x h h h h x k n n n n n n n h h g O . . . ",
". . . . $ s l S k k k j j j j j k k k k k k k k n k k k k h h g k k k k k k k k k k k k k k k k l g & @ . .     . . @ = j m m j j j n k n m m m n m n j v j v j v j v j j j h h v j v j n m n v v v v x x x j j l h & O . . .     X & g k k h g n n n n n k k h v j v j j j h j j j v j j j j j n n n n n n n n k k k k n n n n l 9 O . . . . . . O 2 g j j j h m m n m n m m m n m n m v j v j j j j j v n v m v j j j h j j v x x x x x x v j m 9 O . . .   . . @ = k l m n k k k k k k k k h j j v h h h h h v j v j v j v v v v j j j j j j h h v m m v v g z & @ . . . . . @ # 9 j j j j 0 v v v v v v v x h h h h h h h h x x x x x x x x x x x x x v x n x h h 0 0 j j j # O @ . . . . . $ & g l m l k g k h k k k n n n v h h h h h h h h h h h x h x h v j v j v j v j m m n m v j h h * @ @ . . . . . # 9 j j 0 9 0 x v v v v v n n n n n n j x h x j x j x j x v v v n n v v v v v v x x x v v j h g O O O . . . . O 3 g v m v h h j h h h h h h h h v v x v x v x v x x x v x v v v n n n n v v v j m n v j v v h g . . . . . O @ O j j j v m v v j j j j j j j j j j j j j j j j j j j j l l l l m m n n v v v x v x 0 0 v m j = @ . . . . . . & 9 j h x h x h h h x x x h h 0 0 9 x n n n n n n n n n x j x h x h g g g g h h k k k k n m m k a & .       ",
"$ . . . O & g k h j k j j j j j h k k k k k k k m m m m n n n k k k k k k k k k k k k k k h k h 9 & @ . . . .   . . . @ 9 h j j g g g g g g g g h h j j j j h h m j j j j j j j g g g g g g g g h 0 h 0 0 9 g g 9 2 # @ . .       . @ & g k l m n n n n k k k k j j j j j j j h j j j j j j j j h h g k h k k k g g g g g h h g 2 + . . O @ @ O . O + 2 g j j j g g g g g g g j g g g g g g g g j j j j j j j j j j j j h h j j h h h h h h h g g & @ . . . .   . @ & g h k l m n n n n l l l l h h j j j v v v g g h g g g g h h h g g g g g g h h j j j h 9 3 % X .   .       . . @ 9 z j j j 9 9 9 9 9 9 9 9 v v v v v v v v v v n v n v n v x h x h x h x h v v j j j 0 g 9 O O O . . . . . . O & g k k k k l l l k k k k k h h h h h h h h v v v v v v v v j j j h h h j g g j j j j j g g O @ O . . . . . = z C C m j h x h h h h h h h h j j j j h h h h h h h h h h h h h h h h h h h h x v x m v j a s O O O . . . . . # 3 j m m v v v v v v v m m m v v v v v v j v j v v v v v v n v h h h h h h h h g g h j n j g 2 . . . . . . O O + # 2 9 j j 0 0 g g g g 9 9 9 9 j j j j g g g h g h h h h h j j g g h h j j j v h 0 0 0 0 = @ . . . . . . . @ # m n m m m n n v v v v v v v n m a g g g g a g g m m m m n n n m k k k k k k k k k k k k h s * O .       ",
". . . . . O O * g g g g g g g g g g g g g g g g s s s s 3 s 2 2 2 2 2 2 2 2 & & 2 2 2 2 & & & & O @ O . .   . . . . . O # 2 g h m m m m m m m m l l l l l l l l l l l l l l l m m m m m m m m m v v v v m j l l * O @ . . . X X   . X @ & g k m g g g g g g g g l l l j j j j j h j h h h h h h l l m m m m m m m m m m m m m l * O O O O O + O O O O # & 9 j l l l l l l m m m m m m m m m m m j j j j j j j j m m l l l j j j v v v v j j j j + O . . . . . . . . . O * & 2 s s s s s s s s s l l k j h h g g m m m m m m m m m m m m m m m m l l l l j g g 2 .         X X X   . @ # = 9 z z j j j j m m m m 9 g g g g g h h g g h g h g h g v v v j h h h 9 h j j j j 9 & # O . . . . . . . O O * & g z h h k k k k k h h h j j j j j j v v g g g g 9 9 9 9 m l l l l k j j j l l l h 3 & + O O O . . . . . . O # 9 0 9 0 0 m m m m m m n k m m m m n m m m k k j j j j j j m m m m m m m n h x x v h 3 + + O O . . . . . O . O 2 g h g g g g g g g h g g g j j h j h j h j v j n j n j j j m m m m m m m m m m m m m g + O . . . . O O O O + & 9 j m V j j j l l h h h g g 2 2 2 2 2 2 & & # * # # # & & & g g g j j m m m v v v g 9 # @ . . . . . . . O O 2 2 9 g h h h g h h h h h h h h m m m m m m m m g g g g g g h g n k k k k k k h m l k g s 2 + O .     . ",
"O O O O O O O O O O O O O O O O O O O O O O O O + O O O O + O O O O O O O O O O O O O O . . . . . . . . . . . . . . . . O O + & + + + * * + * + & # & # & 2 2 2 & # & # 2 & & 2 + + + + * + * + + + + + + O O O . . . . . . . . . . . . . O * * 2 2 2 2 2 2 2 2 * + + + + + O O + + O O O O O O O O O + + + + + * + + + + + O O O O . . O O O . O . . . O O O + + + + + + + * + + + * + * + + + 2 2 2 # & # & # & # & # + + * + + + + + + + + # O O . . O @ . . @ @ O . O O O + + + + + O O O O * * * * + O O O + + O O + + + + + + + + + + + + O O O O O . . . .               . . . . . . . @ O O O + + + + + g g j j j m m m j j v j v j v j h g g 9 9 9 2 2 + + + + O O . . O O O O O O O O . . . . . . O O O O O O + * * + 9 9 9 9 g g g g j j j g g g g g 2 2 2 2 & # * + + + # + + O O . O . . . . . . . . @ # 9 0 g j v 9 9 3 3 3 2 2 2 2 < 2 + + + + + 2 2 2 < 2 < 2 < 2 2 2 2 2 2 2 2 3 3 3 3 2 + + O O O O O O O O O O + 2 g j l l j h h h h h h h h 3 3 3 3 3 2 3 2 3 9 s g 3 3 3 3 3 2 3 3 3 3 3 3 g g a 3 2 + O . . . . . . . . . . . O O + + O O O O O O O O O O O O O O O O . . O O O O O O O O O O + + + + 4 4 + # # # O O . . . . . . . . . . # 2 9 h v m m m m m m m v j j j 9 9 g 9 g 9 g 9 j j j j j j k k g g g s s s s 2 2 2 & * + O O . . . . . ",
"O O O O O O O O O O O O O O O O O O O O O O O O O O O O O O O O O O O O O O O . O O O O O O O O O O @ @ @ @ @ @ @ @ @ O O O + * + + + O O O O O O O O O O O O O O O O O + O + + + + + + + + O O + + + + O O O O O @ O @ @ @ @ X X . . . O O O + O O O O O O O O O O O O O . . . O O O O O O O O O O O O O O O O O + O O O O O O + O + + + + O O O O O O O O O O O O O O O O O O O O O O + + + + O O O O O O O O O O O O O O O O O O O O O O O O O O . O O . . . @ . O O O O O O O O O O O O O O . . O O O O + + O O O O O O O O O O O O O O O O O O O O O O O O @ @ @ @ @ O . . O @ O O . . . . O O O O O + + + O O O O O O + + O O O O O O O O O O O O . . O . O O O O O O O O O O O O O O O . O @ O . . . O O . . O O O O + + . . . . O O O O O O O O O O O O O O O O O O O O O O O O O O + + + @ @ O @ @ @ @ . . O O O O O O + + + + + + + + O O O O O O O O O O O O O O O O + + + + O O + + + + + + + O O O O O O O O . O O . . O O O O O + O O O O O O O O O O O . O . O O O . O . O . O O + + O + + + + + + + + + + + + + O @ @ @ O O O O O O O O O O O O O O O O O O O O O O O O O O O O O O O O O O O O O O O O O O O O O O O O . . . @ @ @ @ @ O O O O . O O + + + + + + + + + + O O O + + + + + + + + O O O O O O O O O O O O O O . . O O O O O O O O O . O O ",
"O O O O O O . . O O O O + + + + + O O O O O O O O O O O O O O O O O O O O O O . O O O O . . . . . . . . .   . . . . . . . . . . O O O O O O O O O O O O O O O O O O O O O O O O O O O O O O O O O O O O O O O . . . . . . . . .     . . O O O + O O O O O O O O + + O O O O O O O O O O O O O O + + O O O O O O O O O O O O O O . O O O O + O O O O O O O O O O O O O O O O O O O O O O O O O O . . . . O O O O O O O O O O O O + + + + + O O O . . . . . . . . . . . O O O O O + + O O O O O O + + O O O O O O O O O O O O O O O O O O O O O O O O O O O O O O . . . O O O O O + O + O O O O O O O O O O O O O O O O O O O O O O O O O O O O O + + + + O O O O O O O O O O + * O O O O O O O O @ O O O O O O O O O O O O O O O + + + + + + + + O O O O O O O O O O O O O O O O + O O O . O O O O . . . . . . . @ @ O O O O O + O O O O O O O O + + + + + O O O O O O O O O O O O O O O O O O + + + + + + + + + O O O O O O . O * + O O O O O O O O O O O O O O @ * * @ + + + + O O O @ * * * * O O O O O O O O O O O O O O O O . . . . . . . . O O O . O O O O O O O O O O O O . . . O O O O O O O O O O O O + O O + + + + + O O + + O O . . @ . . . . . . . . O + + + O O O O O O O + + + + + O O O O O O O O O O O O O O O O + O + + + + + + . . O O O O O + O O O O ",
"m m m m m m m m j j h h h h x h v v v v v v v v B B S S S S S S S S S V V V V m & # # # + + O O O @ O O O @ @ O O O # * + O O + O O O + + + + + 9 9 0 0 h h v v 0 0 0 9 0 9 2 2 + + + + + O O O + + + O O O O O @ @ O O O O @ @ . . @ # & 9 9 g M M S S S S S S m v v m m v v v h h h h h h h h 2 2 4 + + + + + O O O O O O O + + * < 2 3 3 9 g h g g g g g g g # < + + + + + O O O O O + + + + < < < < 2 9 0 0 0 h j v m v v h v n n n m l j j l l m m j j m m l l C V V V B B S S S S S S S S S Z m k g 2 4 * O O O O O O + + O + + + O O O O O O O O O O O O + * & 2 2 2 3 h x h x x x h h h < 2 # + * O O O O O O O O O O O O O O O O O O O . . . . O O O O 9 9 0 h j v m m S S S S S S S S j j g g g g j j j j j g g 9 3 3 + + O O O O O O O O + + + + + + 9 0 0 0 h h h j v v h 9 2 < < # + * * @ O @ @ @ O . O O O # < < 9 9 9 0 0 h h h n n n v v v v v h h h h h h h h x x x x x x x x B B B B B | B S B B S S B V V m s 2 + + + + O O O O O O O O O O . . . . . . . . . . . O O O O O 9 9 9 9 0 h h x v h 9 0 3 2 < + * & & * * @ + + O O O O O O O O O O O O O O O O O O * * & 2 g g V V V V V V B B m v v v v v v x v v j j j j z z 9 = & # & & + O + + + O O O O O + + + 4 2 2 3 3 x x h h h h x x > > + + + + + + O O O O O O O O < 2 3 9 3 3 9 h n n m m ",
"*X*X=X=X=X=X=X=X*X*X*X*X*X*X*X*X*X*X*X*X*X*X*X*X=X=X=X*X*X*X*X*X*X*X*X*X*X*X=X=X*X*X=X.X.X X}.{.{.{.{.{.{.{.}. X{.{. X X}.}. X.X}. X XXX.X.X=X=X=X=X=X%X%X*X*X*X*X*X*X%X=X=X.X.X.X.X.X.XXX X X X}.}.}.}.}.}.{.{.{.^.{.^.b.{.{.{.{.{.{. X X=X*X*X=X=X=X%X*X*X*X*X*X*X*X*X*X%X%X%X*X*X*X*X*X*X*X*X*X*X=X=X.X.X.XXX}.}.}.}.}. X X X.X=X=X*X*X*X*X*X*X*X*X*X*X*X=X*X*X*X*X=X=X.X.X.X X X X.X.X.X.X.X.X.X.X=X%X%X*X*X=X=X%X*X*X*X*X*X%X%X%X*X*X*X*X*X=X=X=X=X=X*X*X*X*X*X=X=X=X*X*X*X=X*X*X*X*X*X=X*X*X*X*X=X=X=X=X=X}.}.}.}.}.}.}.}.}.}.}.}.}.}.}.}.XXXXXXXXXXXXXX.X.X=X=X=X=X%X*X&X*X*X*X*X*X*X%X=X*X*X*X*X=X.XXX X X X X X X X}.}.}.}.}.}.{.{.{.{.{.{. X X X X.X.X.X.X%X*X*X*X*X*X*X*X*X*X=X=X=X=X*X*X*X*X*X*X*X*X*X*X*X*X=X=X=X=X=X.X.X.X.X.XXXXX}.}. X.X.X.X=X=X=X=X=X=X*X*X*X*X=X=X%X%X%X=X=X=X.X.XXX X X{.{.{..X=X.X=X%X%X%X=X=X=X%X*X*X&X*X*X*X*X*X*X*X*X*X*X*X*X*X*X%X*X*X*X*X*X*X*X*X*X*X*X+X%X%X%X*X*X%X%X*X*X*X*X*X=X=X.X*X=X.X.X.X.X}.{.}.}.}.}.}.}.}.}.XX XXX XXX XXX XXX X X.X=X=X=X=X*X%X*X*X*X&X*X*X=X*X%X*X*X%X=X.X.XXXXXXX X X X X X X X X X X).^.}.}.}.{.{.{.{.^.}.}.XX.X=X*X*X*X*X%X%X*X*X*X*X*X*X*X*X*X*X*X*X*X*X*X%X*X*X*X*X*X*X*X.X.X.X.XXX}.XX X}.}.}..X.X.X=X=X=X=X*X*X*X*X=X%X%X%X%X=X%X%X*X*X=X=X+X.X.X.X X X.X.X.X.X.X=X.X=X*X*X=X=X=X=X+X+X%X%X",
"$X$X$X$X$X@X@X@X@X@X@X@X@X@X@X@X$X$X@X$X@X$X@X$X$X$X$X$X$X$X$X$X$X$X$X$X$X$X$X$X$X$X$X$X$X$X$X$X$X$X$X$X$X$X$X$X$X$X$X$X$X$X$X$X$X$X$X$XVXVXVX$X$X$XVXVXVX$X$X$X$X$X$X$XVX$XVX$X$X$X$X$X$X$X$X$X$X$X&X&X&X&X&X&X$X$X$X$X$X$X&X$X$X$X$X$X$X$X$X$X$X$X$X$X$X$X$X$X$X$X$X$X$X$X$X$X$X$X$X$X$X$X$X$X$X$X$X$X@X$X$X$X&XVXVXVX&X$X&X$X$X$X$X$X$X$X$X$X$X$X$X$X$X$X$X$X$X$X$X$X$X$X$X$X$X$X$X$X$X$X$X$X$X$X$X$X$X$X$X$X$X$X$X$X$X%X%X@X@X@X@X@X@X@X@XOX@X@X@X@X@X@X@X@X%X%X$X$X$X$X$X$X$X$X$X$X$X$X$X$X$X$X$X$X$X$X$X$X$X$X$X$X$X$X$X$X$X$X$X$X$X$X$X$X$X$X&X&X&X$X$X$X&X&X&X&X&X&XVX$XVX$XVX$X$X$XVX$X$X$X$X$X$X$X$X$X$X$X$X$X$X$X$X$X$X$X$X$X$X$X$X$X$X$X$X$X$X$X$X$X$X$X$X$X$X$X$X$X$X$X$X$X$X$X$X$X$X$X$X$X$X$X$X$X$X$X$X$X$X$X$X$X$X$X$X$X$X$X$X$X&X&X&X&XVX&X&X&X$X$X$X$X$X$X$X$X$X$X$X$X$X$X$X$X$X$X$X$X$X$X$X$X$X$X$X$X$X$X$X$X$X$X$X$X$X$X$X$X$X$X$X$X$X@X@X@X@X@X@X@X@X@X@X@X$X$X$X$X$X$X$X$X$X$X$X$X$X$X$X$X$X$X$X$X$X$X$X$X$X$X$X$X$X$X$X$X$X$X$X$X$X$X$X$X$X$X$X$X$X$X$X$X&X$X$X$X&X*X&X&X$XVXVXVX$X$XVX$X$X$X$X$X$X$X$X$X$X$X$X$X$X$X$X$X$X$X$X$X$X$X$X$X$X$X$X$X$X$X$X$X$X$X$X$X$X$X$X$X$X$X$X$X$X$X$X$X$X$X$X$X$X$X$X$X$X$X$X$X$X$X$X$X$X$X$X$X$X$X$X$X&X&X&X&X&X&XVXVX$X$X$X$X$X$X$X$X$X$X$X$X$X$X$X$X$X$X$X$X$X$X$X$X$X$X$X$X$X$X$X$X$X$X$X$X$X$X$X$XVXVXVXVX",
"I.I.I.I.I.I.I.I.I.I.I.I.I.I.I.I.I.I.I.I.I.I.I.I.I.I.I.I.I.I.I.I.I.I.I.I.I.I.I.I.I.I.I.I.I.I.I.I.I.I.I.I.I.I.I.I.I.I.I.I.I.I.I.I.I.I.T.T.Q.Q.Q.T.T.T.Q.T.Q.Q.T.T.Q.Q.Q.Q.Q.Q.Q.Q.Q.Q.Q.Q.Q.Q.Q.Q.Q._._._._._._._._._._._._._._._.oXoXoXoXoXoXoX_.#X#X#X#X#X#X#X#X#XOXOXOXOXOXOXOXOXOXOXOXOXOXOXOXOXOXOXOX#X#X#XOXOXOXOXOXOXOXOXOXOXOXOXOXOXOXOXOXOXOXOXOXOXOXOXOX#X#X#X#X#X#X#X#X_._._._._._._._.Q._.(.(.T.T.T.T.(.(.T.T.I.I.I.I.I.I.I.I.I.I.I.I.I.I.I.I.I.I.I.I.I.I.T.T.I.I.I.I.I.I.I.T.T.T.T.I.I.I.I.I.I.I.I.I.I.I.I.I.I.I.I.I.I.I.I.I.I.I.I.I.T.I.T.T.T.T.I.I.T.T.T.T.Q.Q.Q.Q.I.I.T.T.T.T.Q.T.Q.Q._.Q.Q.Q.Q.Q.Q._.Q._._.Q._.Q._._._._._._._._.oXoXoXoX_._.oX_.oXoXoX_._._.#XoXOXOXOXOXOXOXOXOXOXOXOXOXOXOXOXOXOXOXOXOXOXOXOXOXOXOXOXOXOXOXOXOXOXOXOXOXOXOXOXOX#X#XOXOXOXOXOXOX#X#X#X#X#X#X#X#XoXoXoXoXoXoXoXoX(.(.(.(.(.(.(.Q.Q.Q.Q.Q.Q.Q.Q.Q.I.I.I.I.I.I.I.I.I.I.I.I.I.I.I.I.I.I.I.I.I.I.I.I.I.I.I.I.I.I.I.I.I.I.I.I.I.I.I.I.I.I.I.I.I.I.I.I.I.I.I.I.I.I.I.I.I.I.I.I.I.I.I.I.T.I.I.I.T.T.T.T.T.Q.Q.T.T.I.T.Q.Q.Q.Q.Q.Q.Q.Q.Q.Q.Q._._.Q.Q._._._._._._._._._._._._._._._._._._.oXoXoXoXoXoXoX_.#X#X#X#X#X#X#X#XOXOXOXOX#X#X#XOXOXOXOXOXOXOXOXOXOXOXOXOXOXOXOXOXOXOXOXOXOXOXOXOXOXOXOXOXOXOXOXOXOXOXOXOXOXOXOXOX#X#X#X#X#X#X#X#X_._._._._._._._.Q.Q.Q.Q.Q.Q._.Q.Q.Q.Q.Q.",
"L.L.L.L.C.C.C.C.M.M.M.M.M.M.M.M.M.M.M.M.M.M.M.M.M.M.M.M.M.M.M.M.M.M.M.M.M.M.M.M.C.C.C.C.C.C.C.C.L.L.L.L.L.L.L.L.L.L.L.L.L.L.L.L.C.C.C.C.C.C.C.C.C.C.C.C.C.C.C.C.C.C.M.M.C.C.C.C.L.L.L.L.L.L.L.L.L.L.I.I.I.I.L.L.L.L.L.L.L.L.L.L.M.M.M.M.M.M.M.M.C.C.C.C.C.C.C.C.m.m.V.V.V.V.V.V.V.V.m.V.V.V.V.V.M.M.M.M.M.M.M.M.C.C.C.C.C.C.C.C.M.M.M.M.M.M.M.M.M.M.M.M.M.M.M.M.M.M.M.M.M.M.M.M.L.L.L.L.L.L.L.L.I.I.I.I.C.C.C.C.I.I.C.C.C.V.V.V.V.M.M.M.M.M.M.M.M.M.M.M.M.m.m.m.V.V.V.V.V.V.V.V.V.V.V.V.V.V.V.V.V.M.M.M.M.M.M.M.L.L.L.L.L.L.L.L.I.I.I.I.I.I.I.I.C.C.I.C.C.C.C.C.C.C.C.C.C.C.C.C.C.C.C.C.C.C.C.C.L.L.L.L.L.L.L.L.L.L.I.I.I.I.L.L.L.L.L.L.L.L.L.L.m.m.m.m.m.m.m.m.M.M.M.M.M.M.M.M.M.M.M.M.M.M.M.m.V.V.V.V.m.m.V.V.V.V.V.V.m.m.V.V.M.M.M.M.M.M.M.M.C.C.C.C.C.C.C.C.M.M.M.M.M.M.M.M.C.C.C.C.C.C.C.C.m.V.V.V.V.V.V.V.C.C.L.L.I.I.C.C.I.I.I.I.I.I.I.I.L.C.C.C.C.C.C.C.M.M.M.M.M.M.M.M.M.M.M.M.M.M.M.M.V.V.V.V.C.C.C.V.V.V.V.V.V.C.C.C.L.L.C.C.C.C.C.C.L.L.L.L.L.L.L.L.I.I.I.I.I.I.I.I.C.C.C.C.C.C.C.C.C.C.C.C.C.C.C.C.C.C.C.C.C.C.C.C.I.I.I.I.L.L.L.L.I.I.I.I.I.I.L.I.L.L.L.L.L.L.L.L.m.m.m.m.m.m.m.m.C.C.C.C.C.C.C.C.M.M.M.M.M.M.M.V.V.V.V.V.V.V.V.V.V.V.V.V.V.V.V.V.C.M.C.C.C.C.C.C.M.M.M.M.M.M.M.M.M.M.C.M.M.M.M.M.M.M.M.M.M.M.M.M.L.L.L.L.L.L.L.L.L.L.L.L.L.L.L.L.I.I.I.I.",
"L.L.L.L.L.L.L.L.L.L.L.L.C.C.C.C.C.C.C.C.C.C.C.C.C.C.M.C.C.C.C.C.C.C.L.C.C.C.C.C.L.L.L.L.L.L.L.L.L.L.L.L.L.L.E.L.L.L.L.L.E.L.E.L.L.L.L.L.L.L.L.L.L.L.L.L.L.L.L.L.M.M.M.M.M.M.M.M.E.E.E.E.H.H.H.L.M.M.C.C.C.C.M.M.M.M.M.M.M.M.M.M.L.L.L.L.L.L.L.L.L.L.L.L.E.L.E.L.C.C.C.C.C.C.C.C.C.C.C.C.C.C.C.M.C.C.C.C.C.C.L.L.C.C.C.C.C.C.C.C.M.M.M.M.M.M.M.M.C.C.C.C.C.M.C.C.L.L.L.L.C.C.C.C.M.M.M.M.M.M.M.M.L.L.L.L.C.C.C.C.C.C.L.L.C.M.C.C.L.L.L.L.L.C.C.C.M.M.M.M.C.C.C.C.L.L.L.L.L.C.C.C.C.C.C.C.C.C.C.C.C.C.C.C.L.C.C.C.E.L.L.L.L.L.E.L.L.L.L.L.L.L.L.L.L.L.L.L.L.L.L.L.L.L.L.L.L.L.C.C.L.L.L.L.L.L.L.L.C.C.C.C.C.C.M.M.C.C.L.L.L.L.L.L.M.M.M.M.M.M.M.M.L.L.L.L.L.L.L.L.L.L.L.L.C.C.C.C.C.C.C.C.L.L.L.M.C.C.C.C.C.C.C.C.M.C.C.C.C.M.C.L.M.M.M.M.M.M.M.M.C.C.C.C.C.C.C.C.C.C.L.L.C.C.C.C.C.M.C.C.C.C.C.C.C.C.C.C.C.C.C.C.M.M.M.M.C.C.C.C.L.L.L.L.L.L.C.C.L.L.L.L.L.L.L.L.L.C.C.C.C.C.C.C.C.M.M.M.C.C.M.M.C.C.C.C.C.C.C.C.C.C.C.C.C.C.C.C.L.L.L.L.L.L.L.L.E.L.E.L.E.L.E.L.L.L.L.L.L.L.L.L.L.L.L.L.L.L.L.L.L.C.L.L.L.L.L.L.C.C.M.M.M.M.M.M.L.L.L.L.L.L.L.L.C.C.C.C.C.C.C.C.M.M.M.M.M.M.M.M.L.L.L.L.L.L.L.L.L.L.L.L.L.L.L.L.C.C.C.C.C.M.L.L.C.C.C.C.C.C.C.M.C.C.C.C.C.C.C.C.C.C.C.L.C.C.C.C.M.M.M.M.M.M.M.M.C.C.C.C.C.C.C.C.L.L.L.L.C.C.C.C.M.M.M.M.M.M.M.M.L.C.L.L.L.L.L.L.L.L.I.I.",
"M.M.M.M.M.M.M.M.M.M.M.M.M.M.M.M.M.M.M.M.M.M.M.M.M.M.M.M.M.M.M.M.M.M.M.M.M.M.M.M.M.M.M.M.M.M.M.M.F.F.M.M.M.M.M.M.F.F.F.M.M.M.M.M.M.M.M.M.M.M.M.M.M.M.M.M.M.M.M.M.H.H.H.H.H.H.H.H.H.H.H.H.H.H.H.H.M.M.M.M.M.M.M.M.M.M.M.M.M.M.M.M.L.L.E.L.H.L.H.F.F.F.F.F.B.M.F.M.E.E.E.E.E.E.E.E.E.E.E.E.E.E.L.E.E.E.E.E.E.E.E.E.E.L.E.L.E.L.E.L.E.L.E.L.H.L.H.L.E.L.E.L.E.E.E.E.E.L.E.E.E.L.E.L.M.M.M.M.M.M.M.M.F.L.L.L.L.L.L.L.M.M.M.F.L.L.L.F.M.M.M.M.M.M.M.M.M.M.M.M.M.M.M.M.F.F.L.L.L.L.L.L.M.M.M.M.M.M.M.M.M.M.M.M.M.M.M.M.M.F.F.F.F.F.M.M.M.M.M.M.M.M.F.F.M.M.M.M.M.M.M.M.M.M.M.M.M.M.M.M.M.M.M.M.M.M.M.M.L.L.L.L.F.F.F.F.F.L.L.L.L.L.L.F.M.M.M.M.M.M.M.M.F.F.F.F.L.L.L.L.F.L.E.F.E.L.E.L.E.E.E.E.E.E.E.L.E.E.L.L.E.E.E.E.E.E.E.E.E.E.E.E.L.L.E.L.E.L.H.F.E.L.E.L.E.E.E.L.E.L.E.L.E.E.E.E.M.M.F.F.F.F.F.F.F.F.L.L.L.L.L.C.L.L.F.F.F.F.L.L.L.L.L.L.L.L.L.L.M.M.M.M.M.M.M.M.M.M.M.M.M.M.M.M.M.M.M.M.M.M.M.M.M.M.M.M.M.M.M.M.M.M.M.M.M.M.F.M.M.M.M.M.M.M.M.M.F.F.M.M.M.M.M.M.F.F.F.M.M.M.M.M.M.M.M.M.M.M.M.M.M.M.M.M.M.M.M.M.F.F.L.F.F.F.F.F.L.L.F.F.F.F.L.L.M.M.M.M.M.M.M.M.M.M.M.M.M.M.M.M.L.L.L.F.F.F.L.L.M.M.M.M.F.F.F.F.E.E.E.E.E.E.E.E.E.E.E.E.E.E.L.E.E.E.E.E.E.E.E.E.L.L.E.L.E.L.E.L.E.L.E.L.H.L.H.L.E.L.E.L.E.E.E.E.E.L.E.L.E.E.E.E.M.M.M.M.M.M.M.M.E.L.E.L.E.L.E.L.L.K.K.K.",
"F.M.F.M.F.F.F.M.F.F.F.F.L.L.L.L.F.F.F.F.L.L.L.L.E.E.L.L.L.L.L.L.L.L.L.E.L.L.L.L.L.L.L.L.L.L.L.L.E.E.E.E.E.E.L.E.E.E.L.L.L.L.E.L.L.L.L.L.L.L.L.L.L.L.L.L.L.L.L.L.E.H.H.H.E.E.E.E.E.E.E.H.H.H.E.E.F.F.L.L.L.L.L.L.L.L.L.L.E.E.L.L.M.M.M.M.M.M.M.M.M.M.M.M.M.M.M.M.M.M.M.M.M.M.M.M.M.M.M.M.M.M.M.M.M.M.M.M.F.M.F.M.F.M.F.M.F.M.F.M.M.M.M.M.M.M.M.M.F.M.F.M.M.M.M.M.F.F.F.F.F.F.F.L.E.E.L.L.L.L.E.E.F.M.F.M.L.C.L.L.F.M.F.F.F.L.L.L.F.F.F.L.L.L.L.L.L.E.L.L.L.L.L.L.L.L.L.L.L.L.L.L.L.L.L.L.L.L.L.L.L.L.L.E.E.E.L.L.L.L.E.L.E.E.L.L.L.L.L.L.L.L.L.L.L.L.L.L.L.L.L.L.L.L.L.L.L.L.L.L.L.L.L.L.L.L.L.L.E.E.E.E.E.E.E.E.L.L.L.L.L.L.L.L.L.L.L.L.L.L.L.L.M.M.M.M.M.M.M.M.M.M.M.M.M.M.M.M.M.M.M.M.F.M.M.M.M.M.M.M.M.M.M.M.M.M.M.M.M.M.F.M.M.M.M.M.M.M.M.M.F.M.F.M.F.M.F.M.F.M.F.M.M.M.M.M.M.M.F.M.M.M.F.M.F.M.F.M.F.M.F.M.L.L.F.F.F.F.L.L.F.L.L.L.L.C.F.C.F.C.F.M.L.L.L.L.L.L.F.L.L.L.L.L.F.F.F.F.L.L.L.L.L.L.L.L.L.L.L.L.L.L.L.L.L.L.L.L.L.L.L.F.L.L.L.L.E.E.E.E.E.E.L.L.L.L.L.L.L.L.L.L.L.L.L.L.L.L.L.L.L.L.L.L.L.L.L.L.L.L.L.L.L.L.L.L.L.L.L.L.L.E.L.L.F.F.F.L.L.L.F.F.L.L.L.L.L.E.E.E.M.M.M.M.M.M.M.M.M.M.M.M.M.M.M.M.M.M.M.M.F.M.F.M.M.M.M.M.M.M.M.M.M.M.M.M.M.M.M.M.F.M.F.M.F.M.F.M.M.M.M.M.M.M.M.M.F.M.F.M.M.M.M.M.F.F.F.F.F.F.F.L.L.L.L.L.E.E.E.E.F.F.F.F.F.F.F.L.L.V.K.V.",
"N.m.m.m.m.m.m.m.m.m.m.m.m.m.m.m.m.m.m.m.m.m.m.m.D.m.D.m.D.m.D.m.D.m.D.m.D.m.D.m.D.m.D.m.D.m.D.m.D.D.D.m.D.m.D.m.D.m.D.D.D.m.D.m.F.D.D.F.D.D.D.D.D.D.F.D.F.D.D.F.m.m.m.m.m.m.m.m.F.M.F.M.D.M.D.M.F.M.F.M.F.m.F.M.F.F.F.F.F.F.F.F.L.L.L.L.L.L.L.L.U.U.U.U.U.U.U.U.L.L.L.L.L.L.L.L.L.L.L.L.L.L.L.L.L.L.L.L.L.L.L.L.L.L.U.U.U.U.U.U.L.L.L.L.L.L.L.L.L.L.L.L.L.L.L.L.L.L.L.L.L.L.L.L.m.m.m.m.m.m.m.m.j.j.N.N.m.m.m.m.j.d.j.d.j.j.m.m.m.m.m.m.m.m.m.m.m.m.m.m.m.m.m.m.m.m.m.m.m.m.m.m.D.m.D.m.D.m.D.m.D.m.D.m.D.m.D.m.D.m.D.m.D.m.D.m.D.m.D.m.D.m.D.m.D.D.D.D.D.D.D.D.D.D.F.D.F.F.D.D.F.F.D.D.D.D.F.F.F.M.F.M.F.m.F.M.F.M.F.M.F.M.F.M.F.F.F.F.F.F.F.F.L.L.L.L.L.L.L.L.L.L.L.L.L.L.L.L.L.L.L.L.L.L.L.L.L.L.L.L.L.L.L.L.L.L.L.L.L.L.L.L.L.L.L.L.L.L.L.L.U.U.U.U.L.L.L.L.L.L.L.L.L.L.L.L.U.U.U.U.L.L.L.U.L.L.L.L.L.L.L.L.m.m.N.N.j.j.m.m.j.l.l.l.j.g.j.g.l.l.l.l.l.m.m.m.m.m.m.m.m.m.m.m.m.m.m.m.m.m.m.m.D.m.D.m.D.m.D.m.D.m.D.m.D.m.D.m.D.m.D.m.D.m.D.m.D.D.D.m.D.m.D.m.D.D.D.D.D.m.D.m.K.K.D.D.D.D.D.D.F.D.D.D.D.D.F.F.m.m.m.m.m.m.m.m.D.M.F.M.F.M.F.M.D.m.F.M.F.M.F.M.F.F.F.F.F.F.F.F.L.L.L.L.L.L.L.L.U.U.U.U.U.U.U.U.L.L.L.L.L.L.L.L.L.L.L.L.L.L.L.L.L.L.L.L.L.L.L.L.L.U.L.L.U.U.U.U.L.L.L.L.L.L.L.L.L.L.L.L.L.L.L.L.L.L.L.L.L.L.K.K.m.m.m.m.m.m.m.m.j.j.N.j.j.j.j.l.g.g.g.g.",
"Q Q Q W W W W W W W W W W W W W Q W Q W W W W W W W W W W W W W W W W W W W W W W W W W W W W W W W W W ! W W W ! W ! W ! W W W ! ! ! ! ! W ! W ! W ! ! ! W ! ! e.e.e.e.e.e.e.e.d.d.d.s.d.d.d.d.d.d.d.d.d.d.d.d.d.d.d.d.d.d.d.h.s.s.s.s.s.s.s.s.d.h.d.h.d.h.d.d.j.j.j.j.j.j.j.j.j.j.j.j.j.j.j.g.j.g.g.g.g.g.g.g.l.g.l.g.l.g.l.g.g.g.g.g.g.g.g.g.g.g.j.g.j.g.g.g.! W W W W W W W W W W W W W W W W W W W W W W W Q Q Q Q Q W W W W W W W W W W W W W W W W W W W W W W W W W W W W W W W W W W W W W W W W W W W ! W ! W ! W W W W W W W ! ! ! ! ! ! ! ! ! ! ! ! ! W ! ! e.e.! W ! ! ! W ! W ! ! s.s.s.s.s.s.s.s.d.d.d.d.d.d.d.d.d.d.d.d.d.d.d.d.s.s.s.s.s.s.s.s.s.s.s.s.s.s.s.s.g.g.g.g.g.g.j.g.j.j.j.j.j.j.j.j.j.j.j.j.j.j.j.g.g.g.g.g.g.g.g.g.l.g.l.g.l.g.l.g.j.g.g.g.g.g.g.g.s.s.s.s.e.s.e.s.W W W W W W W W W W W W W W W W W E E E E E E E Q Q E E E E W W W W W W W W W W W W W W Q W W W W E W W W W W W W W W E W W W W W W W W W W W W ! W W W W W W W W W W ! W W W W ! ! ! ! ! ! ! ! ! W ! W ! W ! ! e.s.e.s.e.s.e.e.s.s.s.s.d.d.d.d.d.d.d.d.d.d.d.d.d.d.d.d.d.d.d.d.s.s.s.s.s.s.s.s.d.h.d.h.d.h.d.h.j.g.g.g.g.g.g.g.g.j.j.j.j.j.j.j.j.j.j.j.j.j.j.j.l.g.l.g.l.g.l.g.g.g.g.g.g.g.g.g.g.g.j.g.j.g.g.g.W W W W ! W ! W W W W W W W W W W W Q W Q W W W E E E E ",
"E E E E E E E E E E E E E E E E E E E E E E E E E E E E E E E E E E E E E | E E E E E E E E E E E E E E E E E E E E E E E E E E E E E E E E E E E E E E E E E E W W W E W E W E W E E E W E W E E E E E E E E E E E E E E E E E E E E E E E E E E E E E E E E E E E E E E E E E E E E E E E E E E E E E E E E E E E E E E E E E | E E E E | t.t.E E E E E E E E E E E E E E E E E E E E E E E E E E E E E E E E E E E E E E E E E E E E E E E E E E E E E E E E E E E E E E E E t.w.E E E E E E t.t.E E E E E E E E E E E E E E E E E E E E E E E E E E E E E E E E E E E E E | E E E E E E E E E E E E E E E W E E E E E E E E E E E E E E E E E E E E E E E E E E E E E E E E E E E E E E E E E E E E E E E E E E E E E E E W E E E E E E E E E E w.| E E E E E E E E E E E E E E E E E E E E E E E E E E E E E E E E E E E E E E E E E E E E | | | | E E E E E E E E E E E E E E E E E E E E E E | | | E E E | | E E E E | | E E E E E E E E E E E E E E E E E E E E E E E E E E E E E E E E E E E E E E E E E | E E E E E E E E E E E E E E E E E E E E E E E E E E E E E E E E E E E E E E E E E E E E E E E E E E E E E E E E E E E E E E E E E E E E E E E E E E E E E E | E E E E | t.t.E E E E E E E E E E E E E E E E E E E E E E E E | | E E E E E E E E E E ",
"M M M M M M M M M B M B M B M B B B B B B B B B M B M B M M M M M M M M M M M B M M M B M M M M M M M M M M M M B B B B B B B B M M M M M M M M | B B B B B B | E E E M M M M N E E E E E E E E E E E E E E E E E E E E E E M M B B B B B B M B M M M M M M M M E E | | | | r.| M M M M M M M M | B B B B B B B M B M B M B M B M M M M M M M M M B B r.B B B B B B B B B B B B B B B B B B B B M M M M M M M M M M M M M M M M | B B B B B B B M B M B M B M B M M M M M M M M M M M M M M M M N M M | r.r.r.r.M M M M M M M M | | | | B | r.| B B B B B B B B M M M M M B M B M B M B M B M M N N M N M M N N E E E E E E E E E E E E M E M M E E E E E E E E | | B B B B M B B B B B B B B B M M M M M M M M E M M E E M M M M M M M M M M M M M M B M B M B B B B B B B B B B B B B B B B B B B B B B B B | | B | | | | | | M M M M M M M M B B B B M M B B M B B B B B B B B B B B B B B B B B M M M M M B B B M M M M M M M M M M M M M M M M M M M M M M B | B B B B | | M M M M M M M M | | B B B B B B M B M M M M M M E E E E E E E E E E E E E E E E E E E E E E M M E E E E E E E E M M M M M M M M B B B B B B B | M M M M M M M M E E | | r.| | E M B M B M B M B M M M M M M M M M B B | B B B B B B B B B B B B M B B B B B B B B M M M M M M M N E E E ",
"B B B M V V V V B B B B B V B B B B B B B B B B m B B B S V m m S B M m m m B B S S S B S B B B B B B B S B S B m m m m m m m m m m B B B B S B S B S B S B S B S B S B B B S B S B S B S B S B S B S B S B S B S B S B S B S B B B B B m m m m S S S S S S S S m M M M M B S B B B B B S B M B B B V V m m m m S B S B S B S B B B S S D S S S m B B B S B m m m m m m m m m m m m m m m m m m S B S B S B S B B B B B B B B B B B B B B B B B B B B B B B B B S B S B M M M M m M B B S B M m m m B B B m m v S B S B S B S B m m m m M M M M M B M B M M M B B B B B S B S B B B B B B B S B S B S M M M M M S B S B S B S B S B S B S B S B S B S B S B S B m m m m m m m m m m m m m m m m m M M M S B S B S B M M M M M M D S S S S S S B B B S B S S D S m m B B B B B B V B B B B B m m m m m m m m m m m m M B M B B B S B B B S B S B V V V V V m m m B B B B B B B B B B B B B B B B S B V m m m m V V V V V V V m m S S S B S B B B B B B B S B S B M M M M m M M M M M M B B B S B S B S B S B S B S B S B B B B B S B S B S B S B S B S B S B S B S B S B S B S B B B M M M M M m S S S S S S S S m m m V B B S B B B B B S B B M M B M M M M M m S B S B S B S B B B S S D S S S m B B B S B m m m m m m m m m m m m m m m m m m B B B B S B S B M E E E ",
"g g g g g g g g 9 9 9 9 9 9 9 9 g g g g g g g g 9 9 9 g g 9 2 2 9 9 9 9 9 9 9 9 O O O O O O O O O O O O O O O O 2 2 2 2 2 2 2 2 9 9 9 9 g g g g g g g g g g g g g g g g g g g g g g g g g g g g g g g g g g g g g g g g g g g g 9 9 9 9 2 2 & & + + + + + + + + 2 2 2 3 3 9 9 9 g g h h h h g g 9 9 2 & 2 & # # O O O O O O O O O O + + + + + + 9 2 2 2 9 9 2 & 2 & 2 & 2 2 2 & 2 & 2 & 2 & 2 2 g g g g g g g g g g g g g g g g 9 9 9 9 9 9 9 9 9 9 9 9 9 9 9 9 g g g 9 9 9 9 9 2 9 9 9 9 9 9 9 9 9 9 2 & # # # O O O O O O O O # # # # & 2 2 2 2 2 2 2 2 2 2 2 g g g g g g g g g j g j g g h h g h h h h h g g g g g g g g g h g g g g g g g g h g h h g g g g 2 2 2 & 2 & & & 2 & 2 & 2 & 2 2 3 3 9 9 g h h j h h g g 9 9 3 3 + + O O O O O O O O O O O O + O 2 2 2 9 9 9 2 2 2 2 9 9 9 9 2 2 2 2 2 2 2 2 2 2 2 2 2 2 9 9 9 9 g g g g g g g g 9 9 9 9 9 9 9 9 g g g g g g g g g g g g g g g g 9 9 9 9 9 9 9 2 9 9 9 g g 9 2 2 O O O O O O O O O O O O O O O O 2 2 2 2 2 2 2 2 9 9 9 9 g g g g g g g g g g g g g g g g g g g g g g g h g h g g g g g g g g g g g g g g g g g g 9 9 3 3 2 2 2 2 + + + + + + + + 2 & 2 2 9 9 9 9 g g h h h h g g 3 3 2 2 2 2 < # O O O O O O O O O O + + + + + + 9 9 2 2 9 9 2 & 2 2 2 & 2 & 2 & 2 & 2 2 2 & 2 & g g g g g g g j h x h h ",
". . . . . . . . O . O . O . O . O O O O O O O . . . O . O . . . . . O . O . . . O O O O O O O O O O O O + @ * @ O . O . O . O . O . O . O . . . O O O O O O O O O O O O O O O O O O O O O O O O O O O O O O O O O O O O O O O O O O O . O . . . O O O @ O @ O O . O O O O O O O O O O O O O O O O O O . O . . . O O O O O O O O O O O O O @ * @ O . . . . . O . . . . . . . . . . . . . . . . . O O O O O O O O O O O O O O O O O . O . O . O . O . O . O . O O O O O O O O O O O O O . . . O O . . . . . . O O O O + O + O O O . . . . . O O O O O O O O O O O O . O . . . O . O @ O @ O O O O O O O O O O O O O O O O O O O O O O O O O O O O O O O O O O O O . . . . . . . . . . . . . . . . O O O O O O + + O O O O O O O O O O O @ O O O O O O O @ O O O @ . . . . O . . . . . . . O . . . O O . . . O . . . . O O O O O O O O O O O O O O O O O O O O O O O O O O O O O O O O O O O O O O . . O O O O . . O O O O O O . . O O O O O O O O O O O O O @ * * O O O O O O O O O O O O O O . . O O O O O O O O O . O . O . O O O O O O O O O O O O O O O O O O O O O O O O O O O O O O O O O O O O O O O @ O @ . . . . O O O O O O O O O O O O O O O O O O O . O O O O O O O O O O O O O @ * @ O . . . . . O . . . . . . . . . . . . . . . . . . . . . O . O O O O O O ",
"O O O O O O O O O O O O O O O O O O O O O O O O O O * @ * # # # O O * # # # * @ O . . . . . . . . . . . O O O . # # # # # & # # # @ * @ O O O O O O O O O O O O O O O O O O O O * * * * * * * * * + + + + + + + + + + + + + + * # # * @ * O O O . . . . . . . . O + + + + + + + + 4 4 4 + + + + & & & # # # * # O . O . O . O . O . . . . . O O * @ O O O @ * O O O O O O O O O O O O O O O O O O O O O O O O O O O O O O O O O O O O O O O O O O O O O O O O O + + + + * * * * * & & * O O * & # @ O @ O O O @ . . . . O . . . O + + * * * + * + + + + # # # # O @ O O O O O O O O O O O O O O O O O + + + + + + + + + + + + + + + + + + + + + + + + + + + + * O O O @ O @ O O O O O O O O O O * + + + 4 2 2 2 2 2 4 + + + + * O O O O O . O O O . . . . . O O * @ O @ O @ O O O O O O O O O O O O + O + + + O O O + + * * * * + + + + + + + + + + + + + + + + O O O O O O O O O O O O O O O O O + + 2 2 2 + + + + + + + + + + O . . . . . . . . . . . O . O O + & + * # + + + + * * * + O O O O O O O O O O O O O O O O O O O + + + + + + + + + + + + + + + + + + + + + + + + + + + + + + + + . . . . . . . . O O O @ @ @ * * # 4 4 4 + + + + 2 4 4 + + + + * O . O . O . O . O . . . . . O O * @ O O O @ * O O O O O O O O O O O O O O O O O O O O O O O O O O O O O ",
"h h h h h h h h 9 9 9 9 9 9 3 9 g g g g g g g g l j h j l l V S l l j j l l m S l j h g g g g h g g g h h h h h j j j j j j j j h j h j h j h h 3 9 9 9 9 9 9 9 g g g g g h j h j j j j j j j j n n n v v v v v n n n n n m n m h h h h h h h h h j j j j j j j g h h h h h h h n n n n n n n m j j j j h j h j h j h j h j h j h l m m m m l l g g g h m m l g g g g g h z g g g g g g g g g g g g h g h g g g j h j h j h j h g g g g g g g g 9 9 9 9 s 9 2 9 h h j j j j j j j m S S m h j j m l m l j g 2 2 g g g g h g g g h h j h j h j h j j j j j j j j h h h g g g g g 2 9 2 9 2 2 2 2 j h h h h h j j v n n n n n v v n n n n n n n n n n v v v v v v h h h g h g g g g g g g g g g g n n n n n n n m m m m n n n n m l l l l l l l l h h g g g j l l m l h g g g h h m l h g g g g h g g g g h g h g g h j h j h g h j v v x x x x x h h h h h h h h g g g g g g g g g g g g g g g g j v n n m M M M m m n v v m M Z l j h g g g g h g g g h h h h h l l k l j j j j j j j j j j j h 3 9 9 9 9 9 9 9 g g g g g z h h v v v v n n n n n n n v v v v v n n n n n n n n j j j j j j j h h j j j j j j j g h h h h z g h m n n n n n n n n n v v j j j j h j h j h j h j h l m m m m l l g g g h m l l g g g g g h g g g g g g g h z g g h h h g z g g g h h h h ",
"m m m m m m m m v v j v j j v j v v v v v v v v m v v v m m S y.m m j h j m S y.M m m j h h j j g g j j j j j j j j j j j j j j h h h j j j v v j j j j j j j j j v v v v v n x v v v v v v v v v v v v x x x x x x x x x x x n v j m m m m m m j j v v v v v v x x x n n x x x v v v v v v v v j j j j j j j j j j j j j j j j g j m S S m v h h h v M y.y.m j v v v m m m v v v v v v v v v v j j j j j j j j j j j v j j j j m m m m m m m m v v v v j j j j g g g j j v v v v M y.y.M v h h h l V S S V j g g g g g j h h h v v v j v j v j v j v j v j v j v v v v j j j j v v v v v v v v m m n x x v v v v v v v v v v v x x x x x n n n v v v v x x x v m m v v v v v v v v v v v v v v v x x v v v v v v v v v v x x v j j g g g g g g j j j j j m V S D S m v j v m m a.D M v v v v n n n n n n n v v v v v v m j v v m n m n m n m n m n m n m n m m v j j j j j j v v v v v v v v v N c x x x M r.r.M N x x x N w.r.M m m j h h j j h h j j j j j j v v v v v v v v h h x j v v v v j j j j j j j j j j j j j j m m v x v v v v v v v v v v x x x x x n x n x x n x n x m m m m m m j j v v v v v j v v v v v j v v v v v v x v v x v v v v x x x v j j j j j j j j g j m S S V l h h h v M D D m j j v j j l l j j v v v v m m v v v v v v j j j j j j j j ",
"x v v v v n n n t t t t t t 0 0 v v t x v N E | M N t 6 6 c E E | b v t c b b b r.E t t v b M M v v v v 0 0 t v 0 0 v u 0 0 x n v b c b c v t t b c t t t v t x v t 6 c M N N N N N x 6 x c x 3 v v v v t t t v v t t t v t t 3 v x x x x x N r.N c x x c c c c N t t t N b v 6 t v c v t t t t t 0 0 0 0 0 t t 0 0 n B B B v t 3 N | | E b v 6 c c c E | | c 3 3 0 x N M M N n x v x t x x n n m j j j j j j z j j j j j j j j t t t v c c c N N b t t t t v v m V V V V v t 3 6 c E t.r.E c t 3 t b B | | b 0 0 v B | M v 0 0 t t t t t t t t t t t t v v v t t v v v v t v c b c c t t t c b r.c x x x x x x 3 x v v v x v x c x x x v v x x 3 x x 0 3 x N x N N N M c 6 t x x x x 6 6 t x N c v v v t c c b c t t t v c t 0 t x x x x v v n B V v x 0 v M | N b N v t v b | E E c c f y Q E E E N c v v v x x x x x x v n v v v v u v u 0 u v u v v v v v v v v v v x x x x x x v N N N N N E c y t c b M E | T c y c Q Q T r.M t 0 v b M M v v n v t t t v 3 t v v t t v N v v c v v t t t N x x 0 x x x 0 x h 0 n M M n n n N x 0 x n x 3 v x x v x x x x c v x x x x x t x x x x x x N r.b c t t t c c b N t t t N N v 3 t v b v t t t v t t t t v v v v 3 0 n B B V v t 0 v | | B b x 0 c c c E t.r.c 3 3 9 v V B V m v n v t t t t v N b v v v v t t t j j j j ",
"b b b b b b b b b b b b b E E E t b | u.f.u.u. .s.u.t. . .s.s.h.f.u.E Q c Q W s.f.s.W T b b | y.c.| b t b B b t u v v b b b b c b b b b c c c c y y c c b b T T E E E u.h.r.E N c N E b E E E b c b b b b b b b c b b b b b E E E N b N N E r.k.c c c Q E E c 6 b b c b b b b b y y y c b b E E b b b b b b b b c E y.f.u.| T b y E u.u. . .E T y E f.f.s. .W  .p.u.i.r.r.r.r.r.E E E E E c c v N v v v b v b v b v b v b v b b b T T T T c c c y c c T E E E | B V B r.y.y.f.f. . .s.f.u. .E T b | | | y.y.| b b b | y.u.r.E b b b b b E b b b E b b b c y y y b b b b b b b c 6 y Q T Q c c c k.t.E E E N E E E M N N M M N c N N c c b b c c b E E N N M N v b E t.p.i.E E E N N N N c c c y b b b b b b b b y c b b b b c c y b E b c b | c.u.| b b b | y.u.u.E Q c b | u.f.u.u. .+.! +.e.s.s.u.i.i.u. .E b | | | M M M M M b b b V b b b b b V V V b b b B M M M B M | | | E E E  .u.u.s.s.s.+. . . . . .u.k.s.} Q Q W ! s.f.u.| T b T | u.c. .b y b E b y y c c b T b b c T b T b b b b b v c c c N b N N E M | u.p.r.N N v N M N N E E b N b b b c c c c c c N N b N E E E N N N E E r.k.c c Q Q T Q y 6 T b c b b b b b y c c c c b E E b b b b E b T b c E y.u.y.| b b y | y.y.| | | E c W s.k.t.w.w.t.u.a.y.y.r.r.r.r.| E E E T c c y b b b b b b b b b b b b ",
"i.i.u.i.i.i.i.i.u.t.t.u.i.k.k.k.Y.P.x.f. .E Q Q s.g.V.K.K.K.K.K.P.P.P.x.g.g.V.K.K.K.x.f.E E u.x.|.P.f.r. .r. .| f.f.f.c.v.v.c.f. . . . . . .u.u.f.f.f.f.u. . . .E t.k.v.v.k.t.t.E t.s.i.t.i.t.t.t. . .r.u.u. . . .u.u.r. . .u.f.t.r.r.r.t.i.k.R.Y.v.k.t.w.s.k.k.f.f.f.u.u. .u.u.k.f.f.f.c.x.x.c.f.f.u.u.u.r. . .u.k.K.K.l.s. . .f.x.v.x.x.v.x.x.x.P.T.P.x.l.l.x.R.x.h.E E E E t.v.v.P.P.v.v.k.i.s.s.s.s.s.s.s.s.s.s.s.s.s.s.s.s.s.i.i.i.u.u.u.u.s.k.x.v.P.P.v.v.| | b E | s.x.K.l.x.x.v.v.P.P.P.x.v.x.x.x.v.x.f. . .u.k.P.P.k. . . .u.r.u.u.f.f.x.x.x.c.f.u.f.c.u. .|  .f.k.f.f.k.f.s. . .f.K.T.R.l.s.i.t.t.t.i.k.t.r.r.t.u.t.r.r.t.i.i.t.t.t.t.t.t.i.t.i.u.t.E t.i.k.v.v.k.t.E w.w.t.k.k.k.h.u.t. .u.r. . . .| f.c.v.v.c.f.f.k. . . . .u.l.P.(.x.s.Q E f.v.v.x.P.V.l.l.x.P.P.P.v.v.x.V.K.m.d.s.f Q W s.l.K.P.P.x.c.k.u.u.u.u.i.s.h.h.h.d.h.d.h.d.g.d.h.d.h.d.f.i.u.u.u.f.k.k.x.Y.Y.K.l.s.W Q Q s.f.x.v.x.x.x.x.P.P.P.x.g.g.m.I.K.K.x.s.W W s.x.|.P.f.t. .t. .W f.f.f.c.v.v.c.f.u. . . . . .u.u.p.k.k.k.i.r.t.t.E t.k.v.v.k.t.t.E r.u.t.t.t.t.t.t.t.t.i.i.i.t.t.t.t.i.i.t.t.i.u.i.t.t.t.i.u.k.R.T.K.f. . .s.f.k.f.f.f.u.u. .r.u.k.f.f.f.k.c.x.x.s.u.u.u.u.u.u. .u.k.R.R.l.u. . .f.x.v.x.x.v.v.x.x.R.Y.Y.x.k.l.x.v.x.i.E E E E w.v.v.P.P.v.x.k.i.u.u.u.u.i.i.i.i.s.s.s.s.",
"f.f.f.f.f.f.s.s.f.s.i.s.s.k.k.k.x.k.u.W W W  .s.Q s.K.I.U.L.F.L.x.K.T.(.T.I.K.K.K.T.T.K.f.f.l.P.Y.(.(.R.s.W s.k.s.s.h.l.x.K.K.v.s.s.s.t.s.h.f.l.K.x.l.l.l.x.l.l.x.v.Y.Y.R.l.h.k.k.k.h.s.h.h.t.W f.f.s.f.f.f.f.s.k.k.f.u.u.u.u.u.u.r.i.k.k.k.k.v.oXY.l.s.t.d.j.g.x.x.x.x.k.f.f.u.u. . .f.x.v.x.k.x.l.f.s.s.s.f.g.K.K.I.T.K.l.l.g.P.T.T.P.P.T.T.I.#XT.K.x.K.P.K.V.T.R.l.s.W w.s.h.s.k.k.x.l.k.k.s.j.j.j.d.d.d.d.d.d.d.d.d.d.d.d.d.h.s.h.f.f.k.k.k.s.s.k.l.l.l.f.s.f.u.W W +.g.K.I.I.K.K.v.v.P.).|.Y.T.I.K.K.I.I.K.l.g.g.K.I.Q.K.K.f.f.s.u.f.k.l.x.k.x.v.x.f. . .u.u.f.f.k.x.x.x.l.l.f.s. .s.l.T.oXv.l.k.k.k.i.t.i.i.t.t.i.u.k.k.k.i.k.k.k.h.h.h.k.t.i.k.k.k.k.k.k.k.h.l.Y.Y.Y.v.v.l.v.v.v.v.v.K.R.k.f.f.u.u.u.u.u.x.v.v.x.k.f.s.s.l.+.W d.K.oX_.I.K.l.s.d.K.I.T.K.K.I.T.(.(.T.K.x.P.P.K.P.T.K.d.W s.s.W W s.h.l.x.x.l.k.f.f.f.k.k.d.d.d.d.N.d.N.N.N.N.N.N.N.N.N.d.k.k.f.f.k.k.l.x.l.g.k.h.s.s.+.W W g.K.T.P.P.P.P.c.K.I.T.Q.I.U.I.K.T.I.K.d.h.l.K.I.Q._.K.d.W s.g.s.u.f.k.x.v.v.v.s.u. . . .u.f.k.P.v.v.x.v.v.v.l.x.v.P.Y.P.k.h.k.k.k.k.i.i.i.t.w.k.h.h.k.k.k.h.s.k.k.k.h.s.i.t.t.s.t.i.k.k.k.k.v.oXT.l.s. .s.f.l.x.x.x.x.k.f.f.u.u. .u.f.c.v.x.x.x.c.f.s.u.s.f.f.K.K.I.T.K.l.l.g.K.I.I.K.K.I.I.T.oXT.v.v.R.Y.R.D.T.K.g.e.W W e.d.s.f.k.x.l.k.s.u.k.k.k.f.f.f.s.s.d.d.d.d.",
"s.s.s.s.s.s.s.s.h.s.t.t.t.t.t.t.W  .s.f.g.h.s.+.! j.L.E.L.m.N.d.W W s.l.K.K.m.l.L.U.I.K.K.K.K.K.l.I._.T.m.s.s.h.! s.s.h.g.m.K.T.g.f.f.f.f.l.x.V.g.+.W  .l.P.T.P.#XoXT.Y.l.s.t.s.h.t.W s.k.g.k.s.s.u. . .s.u.t. .f.u. .u.f.k.f.f.s.t.u.f.f.s.t.s.Y.|.OX@X@X#XT.K. . .t.f.x.x.l.f. . .s.k.R.P.v.l.d.s.! ! +.d.l.K.Q.Q.L.L.L.U.L.D.I.T.K.K.K.K.K.V.l.s.Q W s.l.K.K.K.D.l.d.s.e.s.s.W W W t.t.t.t.t.d.d.d.e.e.e.e.e.e.d.d.d.d.d.d.d.s.s.s.s.s.s.s.s.t.t.t.t.t.w.W W +.! ! ! d.N.M.L.U.K.g.s. . .u.f.K.L.L.F.F.L.Q.E.L.L.F.L.L.E.Q.Q.K.l.s. .W  .s.f.l.v.P.P.l.u. . .s.k.v.x.f.t. . .K.T.#X@X@X#XoXT.h.s.s.h.h.s.t.s.f.k.k.f.u.t.u.f. .u.s.u.t.t.s.s.s.k.l.k.s. .s.k.s.w.s.l.Y.T.oX#XT.Y.T.l.w.W s.l.v.x.k.f.s.f.k.k.T.P.l.f.f.s.s. .d.e.d.M.Q.Q.L.m.L.F.F.L.U.Q.L.L.j.m.K.K.g. .W W l.k.l.K.I.K.l.s.l.g.s.! ! +.s.h.s.s.s.s.s.s.f.g.d.e.e.d.e.e.e.e.d.d.d.d.d.d.d.d.f.f.s.u.s.s.s.s.s.s.+.+.s.s.h.d.s.l.I.I.K.c.l.g. . .s.m.K.I.L.m.L.U.Q.U.L.D.F.L.m.U.Q.Q.m.d.e.d. .u.s.f.f.x.P.).f.f.s.s.f.k.l.x.g.s.W s.l.T.T.T.#XoXT.T.l.s.s.h.h.t.W t.k.g.k.s.s.s.t.t.s.s.t.t.s.t.t.s.k.l.k.s.s.t.t.s.f.s.t.s.T.oX#X@X@X#XT.K. . .t.f.x.x.k.f. . .s.k.K.P.v.l.f.u. . . .s.l.x.Q.Q.L.L.L.L.L.F.E.Q.U.F.F.L.L.K.l.t.E W d.D.K.K.L.D.m.e.e.e.e.e.W W W t.t.t.t.t.s.s.s.s.i.i.t.s.e.e.e.e.",
"k.k.k.k.l.k.l.k.k.k.k.h.s.s.s.t.l.k.f.f.f.d.d.d.L.U.E.L.m.e.! ~ ! Q Q W l.L.L.D.L.L.L.K.K.K.K.K.K.L.K.Q.Q.I.m.d.d.d.d.d.d.m.U._.T.T.I.I.I.T.Q._.g.+.W W l.K.I.K.U.K.l.j.s.W ! h.h.e.s.l.K.T.T.T.l.f. . .s.s.s. . .t.s.l.K.T.T.T.g.s.s.s.s.s.W e.W e.g.K.L.K.l.h. .W s.l.T.|.(.P.T.T.T.(.(.Y.x.g.+.! ! s.l.K.Q.Q.Q.L.M.M.L.Q.E.L.U.U.K.K.K.K.K.l.Q W W Q Q Q s.m.D.D.D.m.l.h.s.W k.k.k.f.f.k.k.k.h.h.h.g.g.l.l.l.g.g.g.g.g.g.g.k.g.k.k.k.k.h.k.k.k.k.k.k.k.k.k.g.e.d.d.m.m.M.F.M.d.d.W W Q T E W m.F.L.F.F.L.E.E.L.E.E.L.M.F.E.Q._.T.K.f.s. . . .f.x.T.(.(.T.T.T.P.(.oXT.l. .W +.s.l.K.K.V.g.! W e.W e.s.s.s.h.g.Y.Y.T.R.l.s.t.t.t.t.s.s.w.s.k.l.T.T.T.T.l.s.s.h.d.! W s.j.l.K.U.T.T.K.g.W Q s.l._.T.T.P.K.P.T.Y.(.R.l.f.f.f.f.h.! M.!.].Q.F.F.E.M.L.E.E.L.F.F.L.M.L.L.d.W Q W  .E W  .f.K.I.K.K.d.d.g.l.l.l.l.g.h.f.f.f.f.f.k.g.l.l.m.l.m.l.j.l.l.l.l.l.m.l.m.l.k.k.f.f.f.f.h.h.l.g.g.d.h.h.d.g.K.I.I.K.g.+.W R +.R Q ! m.L.L.L.L.L.L.L.E.L.L.F.L.L.L.Q.Q.Q.M.d.s.f.f.f.f.l.P.(.T.T.T.Y.T.Y.(.(.g.e.W e.l.U.I.K.U.D.l.j.e.W ! h.h.s.s.l.K.T.T.T.l.k.t.w.s.s.s.t.t.t.h.l.K.Y.T.Y.g.s.s.s.s.t.W e.W ! g.V.K.K.l.s.W W s.l.T.|.(.P.T.T.T.(.T.P.x.k.s. . .t.f.x.T.Q.Q.E.M.M.L.E.E.F.E.E.E.F.F.L.F.m.W W W Q Q Q d.D.D.F.D.m.N.d.e.e.g.k.k.k.k.k.k.k.h.h.h.k.k.k.k.k.g.g.j.g.",
"w.E w.t.t.t.t.i.t.i.h.k.k.k.k.k.s.u. . .s.x.T.oXK.K.m.d.e.! ! ! g.s.! s.m.L.U.Q.L.L.F.D.L.L.K.I.I.L.K.U.Q.oXI.K.d.s.! ! W ! s.d.K.K.K.K.K.I.I.T.m.l.l.l.m.K.K.K.j.d.s.d.d.d.d.d.d.j.K.Q.Q.U.U.Q.I.x.h.s.s.f.g.f.+.f.K.P.I.T.T.oXT.m.h.s.s.s.h.l.m.l.j.l.m.L.U.U.l.l.l.x.K.T.T.P.K.K.K.x.g.s.W W s.d.d.m.K.Q.Q.].E.L.M.M.L.L.L.F.L.U.U.L.U.U.K.m.! d.d.s.W Q W +.m.K.U.I.I.K.K.l.f.i.i.u.u.r.r.r.p.a.a.y.r.r.r.r.S S B B B B B | t.w.t.t.t.h.h.h.t.t.t.i.i.i.h.h.D.K.I.Q.Q.I.L.m.! W W W +.s.s.h.m.F.E.E.F.E.L.F.F.L.E.L.M.M.F.Q.oX(.T.K.l.f.s.s.W W s.l.x.K.K.K.K.T.T.I.V.g.l.m.K.K.K.m.l.d.l.m.j.d.s.s.s.h.m.T.oXT.T.Y.K.K.k.t.s.h.h.h.s.g.K.I.T.U.U.T.T.K.j.d.j.d.d.d.d.s.d.l.D.K.D.m.l.l.l.m.I.P.I.P.K.P.I.P.s. .W W W  .s.h.M.!.].].E.F.L.!.F.L.L.F.M.M.F.E.Q.Q.L.m.s.W s.g.W W W t.f.l.K.K.I.I.K.V.g.s. .W g.g.l.l.l.f.+. .u.u.r.r.r.| | | | r.r.r.r.y.u.u.u.s.f.l.l.l.g.g. . .+.s.l.K.I.T.I.K.V.g.s. . .W f.+.W +.g.L.E.E.L.L.F.F.F.L.L.L.Q.L.F.E.Q.].Q.D.s.s.W W W W s.h.K.P.I.P.I.T.T.I.m.m.m.m.D.D.D.D.j.d.e.d.d.d.d.j.d.j.K.T.Q.T.T.T.T.K.h.s.h.h.g.h.s.g.K.T.U.T.Q.#XT.l.d.s.s.s.h.l.m.l.d.l.m.K.K.K.l.l.l.V.K.T.T.P.K.K.K.x.g.s.W W s.h.g.x.K.T.T._.E.L.M.M.L.L.L.F.L.E.E.L.E.E.F.N.e.h.j.d.W Q W e.D.F.U.U.U.U.F.D.h.i.i.i.i.i.i.i.k.h.i.i.i.t.t.t.r.r.| | ",
"> > > > , , , , x c E r.t.i.i.t.f.f.f.f.f.f.s.s.g.s.W Q W +.d.g.s.s.s.d.l.m.m.M.L.L.F.m.m.m.L.K.K.K.K.V.V.K.I.Q.K.m.d.s.s.s.! W Q W W W W W W W s.l.K.K.K.V.K.K.U.L.K.L.U.D.j.d.s.m.Q.oXL.d.e.j.T.K.h.+.s.h.g.h.W l.T.I.l.s.g.K.#XU.j.d.d.j.D.U.L.L.L.U.U.U.L.D.K.V.g.s.W Q W W W W W W W W s.s.+.d.m.K.K.K.L.K.m.L.L.L.L.F.M.m.m.M.F.F.L.U.m.d.d.d.s.d.l.l.+.Q ^ Q W h.g.k.s.u.i.i.u.u.u.u.u.u.m m j 9 2 # + + O O O O O O O + > > , 3 6 c N E i.i.p.k.p.i.i.i.s.f.l.l.f. .W Q +.s.s.d.g.g.h.d.d.F.E.L.F.F.m.N.m.M.L.L.L.F.F.L.K.K.K.K.K.l.h.+.s.s.W W W W W W W W W W +.d.m.K.m.K.U.U.K.L.L.L.U.D.j.d.d.j.U.#XD.j.s.g.K.T.l.W h.h.h.s.s.j.K.Q.j.e.s.L.].U.m.e.d.j.D.U.K.K.L.U.L.D.D.L.U.L.j.e.Q W W W W W W W W W s.s.s.g.V.K.].E.M.m.F.L.L.m.L.L.M.m.m.M.L.E.F.M.m.m.d.s.s.s.f.s.t.W W W s.f.x.l.f.+.s.f.l.x.s.s.s.u. .R y p 3 < < < < + + + + + # < < < < 8 y y R  .u.s.s.s.c.l.l.f.f.l.l.l.g.s.+.W  .s.f.l.s.s.s.g.m.m.C.L.U.K.L.m.m.m.L.U.D.L.L.D.m.L.U.Q.K.m.g.s.s.s.+.W Q W W W W W W W d.N.F.L.F.D.F.L.Q.F.F.L.U.F.j.d.d.m.Q.oXL.d.s.l.T.K.d.e.s.h.g.h.s.m.I.K.l.d.l.K.#XU.j.d.d.g.D.U.L.L.L.U.U.U.K.m.K.V.l.s.W Q W W Q W W W W W s.g.s.g.l.K.K.K.K.V.m.F.L.L.L.F.M.M.m.M.F.F.L.L.M.d.d.d.e.d.l.j.e.Q Q Q w.h.g.g.h.s.i.t.p.p.p.p.p.a.N N c 6 3 , > > + O O O ",
"+ + > > > > > > + + + + > > 3 t M | r.u.k.f.u.u.f.f.f.s.s.s.s.s. . .s.l.K.K.U.L.N.N.e.! ! d.m.K.K.K.K.x.l.f.s.s.f.h.s.s. .s.s.s.! s.d.d.s.+.s.s.! ! W +.g.V.K.K.m.D.L.L.L.L.U.Q.d.L.Q.L.d.d.e.s.K.K.l.h.s.s.s.d.s.l.K.K.g.+.s.d.L.L.D.m.L.Q.Q.L.D.L.L.m.m.L.K.l.! ! W W W s.s.! g.d.s.! W ! s.s.f.f.f.f.h.h.h.h.l.K.I.I.K.l.d.! ~ ! d.m.L.U.K.L.d.d.d.s.+.! s.g.s.u.u. .u.u.u.u.u.y.| b t 3 > + O O O + + # # # O O O O O O O + + > > > > > > > + > < t b | t.u.u.u.u.u.|  .u.f.s.s.h.d.d.d.d.d.K.U.I.K.m.d.! W ! d.m.K.U.K.K.m.d.d.d.h.d.d.d.d.s.s.! W ! s.d.g.+.s.+.W W W ! ! m.K.L.m.m.L.L.D.m.Q.Q.L.m.K.U.K.d.s.+.g.K.K.l.s.h.s.s.s.h.l.K.K.! ! d.m.L.Q.L.d.Q.Q.U.U.L.m.m.m.L.L.L.m.! W ~ ! s.+.! s.h.h.s.! s.s.s.! s.s.h.d.! d.d.m.m.L.L.K.K.m.d.! ! s.d.m.M.L.E.L.l.s.+.s.l.k.f.s.s.s.s.s.u.u.f.f.f.u. . .t 5 1 , > > > > + + + + + # + # O + + # # # + + , > > > > 1 t y  . .f.c.c.c.f.s.g.d.s.s.s.s.s.s.f.s.s.g.V.L.E.U.l.g.s.+.+.g.K.I.K.K.K.V.l.g.s.s.g.d.s.s.s.s.s.d.s.s.s.s.! ! s.d.! ! ! ! N.M.L.E.F.M.M.F.L.Q.Q.Q.d.L.Q.L.m.d.! ! K.K.l.s.s.s.s.d.s.m.I.K.d.+.s.d.L.K.K.m.L.Q.Q.L.D.L.L.m.m.L.K.l.! ! W W W +.s.+.g.d.s.! W ! s.s.d.d.d.d.d.d.d.d.m.L.K.U.K.m.d.! W ! d.m.K.U.K.L.d.j.j.d.e.e.d.k.s.i.t.r.t.t.u.p.a.u.r.M x < > + + + + > > > > > + + + + ",
"b.v.v.c.k.u.r.r.x t 6 < > > + + + + + > 1 b | u.r.u.u.k.c.k.f.u.v.v.K.P.T.I.L.m.d.! ! ! ! d.m.m.x.l.s. . . .s.f.s.u.s.s.s.s.s.s.s.s.s.s.s.s.s.d.K.m.l.l.m.K.K.K.U.L.L.m.L.L.U.Q.Q.].].L.m.m.L.U.K.m.g.d.s.s.s.s.! d.m.K.K.m.l.l.Q.Q.].Q.Q.U.L.m.m.L.U.U.U.I.K.m.m.V.m.l.l.g.s.+.W ! s.g.l.g.s.s.s.u.u.u.s. .t.s.+.s.l.K.I.K.s.W e.! ! d.j.m.K.I.K.K.l.l.g.h.s. . .u.u.f.u.y.| E 1 , > + O O + + O + + < 9 j m v z.z.n.z.n.n.b.n.p.u.r.| N v t 3 > > + + > > < 3 v V B y.y.y.| y.u.u.s.s.g.m.L.U.I.K.V.g.s.! ! s.W d.K.I.K.g.s.+.s.s.s.s.s.s.s.s.+.s.d.l.g.s.! W +.s.g.l.l.m.V.m.m.K.I.I.U.U.L.m.M.U.Q.Q.Q.Q.Q.U.l.l.m.K.K.V.g.+.h.s.s.s.d.l.m.K.U.L.m.m.L.Q.].Q.U.U.U.L.m.m.L.U.L.L.L.m.m.m.m.m.d.s.s.+.s.s.s.s.s.s.s.s.s.s.s.s.h.s.+.! s.d.l.m.V.l.h.! W W ! s.m.L.Q.Q.I.K.K.K. .u.f.l.x.l.f.s.f.u. .E t , + + > > , , , , 1 1 b b V | | u.c.c.b.b.b.n.c.u.u.| b y t 5 , > > > > > > 1 w b ..l.+.s.g.l.l.k.f.s.K.K.I.I.Q.W.L.m.s. .W W  .f.l.v.x.l.s. . . .s.f.s.s.h.h.d.h.d.d.s.s.s.+.! s.h.g.F.m.m.m.M.L.L.L.L.L.F.F.F.L.E.Q.Q.].Q.L.m.m.L.U.K.m.g.s.s.s.s.d.+.d.m.L.V.m.m.m.I.Q.oXQ.I.I.K.m.m.L.U.U.U.U.L.m.m.m.m.l.l.g.s.+.W ! s.g.l.g.s.s.! ! ! ! ! ! ! ! s.s.g.K.I.K.h.W s.+.! s.g.V.K.I.L.D.D.l.l.h.s.t.t.t.p.p.a.a.D B 3 , > + O O + + + + > , 3 t N b p.a.a.y.",
"*X$X*X$X*X%X%X%X&X&X&X%X|.).b.c.b b 1 > + > > , u b B | u.u.u.u.y.u.u.s.f.h.+.! s.! ! s.l.m.K.V.s.u. .E E  .u.f.u.u.s.f.s.u. .W s.s.s.d.l.K.I.I._.I.K.V.m.m.l.l.m.m.m.m.C.L.L.C.Q.Q.Q.m.N.m.L.U.l.g.d.h.s.s.s.s.s.s.l.m.K.K.V.m.L.Q.Q.Q.L.M.m.m.m.m.V.m.m.m.m.d.K.K.I.I.T.K.m.l.l.d.s.! W ! ! s.u.u.u.u. . . . .W W W f.K.K.l.! d.s.! ! +.d.l.l.l.f. . .s.f.f.f.f.u.| y 1 > + + + + > 8 V z.b.).%X$X&X&XZXZXZXZX@X@X$X$X&X$X&X&X&X&X&X*X%X%X+X.X+X}.b.y.c 1 > + O O # # 9 v B y.u.y.u.u.s.h.g.l.l.l.s. .W  .s.k.s.l.P.K.f.W W W s.s.s.s.s.+.s.s.s.! ! W ! s.d.l.l.V.K.T.I.I.K.K.d.l.m.m.m.K.D.m.M.C.C.L.Q.Q.Q.L.m.V.K.K.V.g.s.+.+.+.s.s.d.g.g.g.I.L.m.N.M.Q.Q.Q.M.L.L.L.m.m.m.m.m.m.N.m.L.U.Q.Q.I.I.K.l.h.s.s.s.W W s.s.d.d.s.s.f.s. .W W  .t.s.x.v.x.g.s. . .s.s.d.d.d.g.s.s.u.c.k.f.u.s.t.s.s.5 1 > + > , 5 y R  .c.P.(.%X$X$X@X$XVXVXVXCXZXZXVXVXVXVXVXVXVX$XZXZXZX$X#X(.P.x.E i 5 , > > 1 5 L Q W s.f.l.l.f. . .f.g.l.g.d.! s.u.u.s.k.x.v.x.s.u.W E E  .u.f.s.h.d.d.d.s.! W s.s.s.h.l.K.I.I.Q.Q.L.M.m.m.m.N.N.m.M.M.m.m.C.L.Q.Q.Q.M.N.m.L.I.l.g.g.s.+.s.s.s.+.d.N.m.L.L.m.m.I.Q._.Q.L.V.m.m.m.D.K.m.m.m.l.d.K.K.I.I.T.K.V.l.l.d.s.! W ! ! s.s.s.s.s.s.s.s.s.W W W f.K.K.l.t.f.s.W W  .f.l.x.D.j.s.s.h.k.k.p.p.a.S m 9 # O O O + > 0 E p.b.).=X%X*X*X*X*X&XZX&XZXZXZX",
"(.(.oXoX@X$X$X$X@X$X$X$X&X$X@X@X&X%X|.b.| t > + + + > < 8 V | a.u.y.y.r. .u.s.s.d.s.s.l.K.K.K.l.W  . .u.s.u.u.u.u.u.f.f.f.l.f.f.m.m.m.K.I.Q.oXoXT.K.m.g.h.s.! W ! d.m.U.U.L.C.m.m.L.L.M.N.N.d.+.s.h.h.h.s.s.s.s.s.s.d.h.g.g.g.l.C.L.L.M.m.m.L.U.L.L.m.! W W +.+.g.l.K.T.T.T.I.T.T.I.V.g.h.h.d.k.s.f.f.u.u.u.u.s.f. .Q W f.K.K.m.s.s.s.+.s.s. . .W  .u.f.f.u. .E y w > + + > 1 w c.v.).#X%X$X$X$X@XBXOX#X_.Q.Q.I.oX_.oX_.oX#X#XoX#XOX$X$X&XZXZXZX$X$X&XZX&X@XoX).v 0 + O . O < 0 b b | u.s.s. .W W  .u.u. .u.u.f.v.v.x.f. .E  .h.s.s.s.s.s.s.s.s.g.d.h.h.g.V.K.T.T.T.T.T.T.K.l.g.s.+.! W ! m.L.L.L.C.m.m.C.U.U.L.g.g.g.g.d.s.s.s.+.+.s.s.s.s.s.s.d.d.N.N.M.L.L.M.M.C.L.U.L.m.d.! ! ! ! d.N.m.L.W.oXoXQ.T.K.l.m.V.g.g.g.g.d.d.s.s.s.u.f.f.f.u. .W x.v.P.v.k.s.u.f.g.h.s.s.s.f.f.f.u.f.f.f.W 7 , > > > , y  .x.oX$X$X$XZXZXZXZXVXVXBXBXBXBXjX_._._._._.BXBXBXCXCXCXVX$XVXZXVX$X$X@X$X$X(.x. .p , > , , , 5 y R u.l.u.u.s.s.f.g.d.s.l.f.f.c.v.P.v.k. . .u.u.s.f.s.u.s.h.d.g.l.l.g.g.m.l.m.K.I._._._.Q.L.m.d.d.! ! ! ! d.L.U.L.C.m.L.M.L.L.M.N.N.d.d.d.s.s.s.+.s.s.s.s.d.d.d.d.d.d.g.V.I.I.V.m.m.L.U.K.L.m.! W W +.s.g.l.K.T.T.T.T.T.T.I.V.g.h.h.d.g.d.h.d.h.d.f.d.h.s. .E  .f.x.v.v.s.u. . .u.u. . .w.w.t.h.k.h.r.E N 0 > O O + # 0 c.v.).+X$X$X$X$X%X%X+XoX|.(.).P.oXoXoXoX",
"I.I.I.I.I.I.I.I.Q._.#XOXVXCXCXZXVXZXZXZX$X|.v.c.1 > + O O + 8 v | y.u.p.f.u.u. .s. .s.f.l.l.f.t. .u.s.f.f.f.s.u. . .s.f.x.P.Y.|.Q.Q.T.T.I.K.l.g.K.l.d.+.! W W W +.m.L.U.C.m.V.U.m.L.U.L.V.m.d.W s.s.s.s.s.s.s.s.s.s.s. .W  .h.l.L.L.M.L.L.M.M.C.U.L.m.+.R W +.+.s.s.g.x.K.x.K.T.K.T.oX#X#X(.I.x.f.f.f.f.f.s.s.s.g.s.W W s.g.m.K.s.s.s.s.h.s.u. . .f.c.c.y.v , + + + > t  .v.oX$X$X$XVX$XOX_.I.I.Q.!.!.!.!.E.!.E.E.E.E.E.E.E.E.L.L.I.I.I.I.I.T.T.VXCXZXZXZXVXOX#XZX%Xb.| 0 + O O + > 1 b | u.c.x.u.s.f.s.u.u.u.u.K.x.f.u. .u.f.f.f.h.h.f.h.f.h.f.V.P._.#XOXoXT.K.T.K.x.K.x.d.s.s.s.s.W W s.m.K.U.m.m.m.C.C.L.I.I.m.d.! W +.+.s.+.+.+.s.s.s.s.+.+.! d.m.m.L.W.L.m.L.V.m.L.I.U.m.+.W ! ! ! ! +.m.I.g.l.K.P.T.T._.(.oXT.I.x.g.s.+. .s.f.f.k.f.f.u. .u.f.x.x.f.u. .u.s.s.f.k.c.c.k.u. .E 6 , > , , 5 f.x.(.$XZXZXVXOXOXOX_._.I.I.V.m.A.B.A.B.A.A.A.A.S.!.!.S.S.S.!.!._._._.OXVXVXZXZXVXZXZXZX$X(.V.g.5 1 > + > 1 p b ..u.f.l.g.g.g.s.f.s.s.f.x.x.f. . .u.h.f.f.f.s.s. .s.s.l.K.P.T.oXT.T.T.T.T.K.l.g.V.m.d.+.! ! ! R d.m.I.L.L.m.V.L.m.L.E.L.M.m.d.! +.s.s.s.s.s.s.+.+.s.s.! W ! d.m.K.K.V.K.K.V.V.V.I.K.m.s.W W s.s.s.s.g.x.K.x.K.T.K.T.oX#X#X(.I.x.s.s.s.s.s.s.s.s.f.s.u. . .f.l.v.s.u.u.u.f.f.u. .t.p.n.n.t.x , > + + > x r.b..X*X$XVXVX$X@X_.T.K.T.T.T.T.T.P.P.I.M.B.B.M.",
"W.A.L.C.C.C.C.C.M.C.M.C.M.L.E.E.Q.oX@XCXZXZXZX&X(.b.| 8 + O O O + q v | y.y. . .u.u.t.s.f.f. .W f.s.s. . .s.s.f.s.s.s.s.f.l.K.K.K.K.K.K.l.s.W W l.g.s.s.s.s.s.+.m.V.V.g.! ! d.V.L.L.L.C.V.m.g.+.s.s.s.s.s.s.s.s.s.s.s. .W s.x.I.L.M.L.L.L.d.! ! g.V.V.l.s.s.s.+.s.s.h.l.f. . .l.x.K.P.P.P.V.l.f.h.h.s.s.s.s.s.s.! s.d.d.s.s.s.h.g.h.s.s.s.f.f.f.u.| b 1 + + > 3 b  .x.oX$XZX$X@XT.I.U.I.L.L.E.E.M.M.B.A.E.E.!.W.E.A.E.A.E.A.E.A.E.W.W.W.L.L.L.L.m.N.C.W._.BXCXZXZXZXZXZXoXx.V 8 + O O O > 8 B y.k.k.k.s.t.t.s.f.f.u.t.u.f.k.f. .s.s.s.s.s.s.s.s.f.l.K.P.P.P.K.x.l. . .f.l.h.s.s.+.s.s.d.l.K.V.l.! ! N.C.I.V.V.V.I.m.+.W +.+.s.+.+.u.s.s.s.s.+.+.+.m.m.M.M.L.E.L.C.d.! ! m.L.V.m.! d.d.+.! ! g.K.W W s.l.K.P.K.K.K.K.l.f.s.s.s.s.f.f.s.u.s.u.f.f.W u.f.f.s. .s.u.u.u.f.f.r.E t 1 1 > > > 5 s.T.VXVXVXVXVXOX_.Q.I.C.C.C.C.W.W.!.!.S.S.S.S.S.!.qXqXS.S.S.S.S.S.S.A.C.C.C.C.W.W.Q.Q._._.BXVXZXZXVXVX(.P...t > + + + > 5 b  .s.s.f.s.f.s.s.f.f.f.s.W f.h.s.s.s.s.f.f.s.s.s.s.f.l.K.P.K.K.P.K.l.s. .W m.g.s.+.+.+.+.+.V.V.m.g.+.+.g.m.L.E.L.M.M.m.N.s.s.s.s.s.+.u. .s.+.s.s.! ! +.m.I.K.V.K.I.K.d.! W l.V.K.l.d.s.s.+.s.s.h.l.f. . .l.x.K.P.P.P.K.l.f.s.s.s.s.s.s.s.s. .u.f.f.t. .s.f.f.f.s.u.s.f.f.f.u.r.n 4 + + > 3 N t.R.#XAXAXVX@XQ.W.I.C.I.C.L.I.C.Z.C.C.I.I.I.W.!.!.!.!.",
"J.A.B.B.J.!.!.!.!.!.!.J.J.A.E.E.!.!.Q.Q.].oX#X#XZX&X+X).u.v , + O + 2 u b | u.c.f.f.f.f.s.f.u.u.h.s.s.! ! +.s.s.h.s.s.+.! W W W W s.g.g.s. . .s.x.l.s.s.s.h.h.h.K.V.N.+.! ! +.+.V.V.V.m.V.V.m.d.s.s.s.s.s.s.s.s.s.s.s.s.f.l.K.T.C.M.M.M.N.! ~ ! +.l.V.m.g.s.+. .f.s.f.x.f.E Q  .v.l.s.W Q Q W  .s.s.s.s.s.s.s.s.! ! d.d.d.! ! s.h.s.s.u.u. .| b t 1 + O + 0 a.b.%X$XZXZXVX_.K.N.Q.Q.W.C.M.M.E.E.W.A.W.W.W.W.W.W.W.A.W.W.W.W.W.A.A.A.A.A.E.A.E.A.BXjX!.E.A.A.A.E.E.!.BXAXZXZX+X).y.V 8 O O O + , E W  .s.s.s.s.s.s.s.s.s.f.f.s.t.s.s.s.s.s.s.s.s. .W Q Q W s.l.v. .T E f.x.f.s.f.+.s.h.g.m.K.l.s.+.! ! g.V.m.m.V.I.K.l.g.+.+.+.+. ... . .+.+.s.s.d.m.C.M.M.M.M.m.+.! ~ ! d.m.V.V.d.d.d.+.+.@.N.V.s. . .s.k.l.s.W W W W  . .s.s.s.h.s.s.s.s.s.h.f.s.s.h.h.f.f.f.f.c.c.u.| v 0 1 1 + t f.|.ZXZXVX@XBX_.W.C.m.Z.W.W.!.Q.!.E.A.A.B.B.!.S.S.S.A.S.A.S.S.S.S.S.S.S.!.!.!.!.!.!.!.!.!.W.!.!.!._._.OXBXOXZXZX%X).f.b 1 > + > 5 y R  .g.V.g.g.d.d.d.d.s.s.d.d.s.s.s.s.h.g.f.s.s.t. . . .W  .s.k.f.t.W  .h.m.g.s.+.s.s.d.s.K.V.g.+.+.} +.+.m.M.M.M.M.C.m.d.s.s.+.+.+. .+.+.+.+.+.+.g.l.K.I.V.V.V.V.g.W R ! s.l.K.m.g.h.s.+.d.s.f.x.f.E Q  .v.l.s.W Q Q W  .s.s.s.s.s.s.s.s.W  .s.s.s.t. . .h.s.s.s.s. .W E h 2 O O + x p.P.&XVXZXZXAX].H.m.!.!.E.C.M.M.A.A.E.A.E.E.E.E.E.E.E.A.E.A.",
"!.J.A.B.B.B.A.J.B.A.A.A.A.A.A.E.E.E.E.E.E.E.U.I._.#XZXZX&XXXv.u., + + O + , b u.u.u.u.u.r.y.y.f.W +.d.d.d.d.s.! ! +.s.h.h.s.s.W W s.l.f. .W s.f.l.f.s.s.s.s.s.s.K.V.m.m.V.m.s.R g.m.m.V.U.U.m.d.d.h.s.s.s.s.s.s.f.s.s.f.x.K.K.K.L.M.m.g.! ~ d.I.l.V.I.m.s.+.s.s.s.s.g.K.l. .W s.s.s.s.s.s.s.s.s.s.s.s.s.s.s.d.d.d.d.e.e.e.s.d.g. .r.u.k.u.b 1 > + + 1 | b..X*X&X$XOXQ.I.I.L.W.Q.M.M.L.E.!.!.!.E.A.C.C.L.L.I.I.I.I.I.I.L.L.L.C.A.!.!.!.!.!.!.E.E.B.B.B.A.A.J.A.E.J.J.J.!.Q.BXVX$XZX%Xb.| 8 > + + > , Q u.k.f.u. .f.f.f.s.t.+.f.l.u.u.u.s.s.s.s.s.s.s.s.s.s.s.s.s.u.E  .x.K.g.s.s.s.s.s.h.m.K.K.l.I.d.R ! g.V.V.I.V.K.K.m.d.+.+.f.s...u.+.+.s.s.d.+.m.U.E.L.M.m.d.! +.m.V.V.V.m.V.d.+.! ! +.d.N.l.f.t.W  .f.l.s.W  . .s.s.s.s. .+.e.d.g.l.g.f.s. .f.s.u.u.s.f.f.f.| V t > + > t E OX$XVXZXVX@X_.Q.C.A.W.W.!.!.W.E.E.!.!.!.!.!.!.!.A.S.S.S.W.S.!.!.W.S.S.S.S.S.W.!.A.!.!.!.!.!.!.!.E.E.E.E.W.W.W.Q._.+XZXZXZX+Xv.f.1 , > > > 5 T  .f.g.g.h.s.s.h.g.+.s.d.g.l.d.d.s.+.s.s.h.h.s.s. . .h.f.s.W W s.l.l.g.s.+.+.+.s.+.V.V.V.V.x.g.s.! d.m.M.L.E.I.m.+.d.s.s.+. . .u.s.f.+.+.d.m.V.K.V.I.V.m.g.! R g.I.l.K.K.l.d.s.s.s.s.t.l.K.x. .E u.s.s.s.s.s.s.s.u.u.u.u.u.u.u.u.s.s.+.W  .s.f.f.f. .u.f.k.i.T 5 > O + 0 | b.+X&XZXBXOX].U.H.J.!.!.B.B.A.A.!.E.E.E.A.A.A.A.E.E.E.E.W.W.W.W.",
"A.A.A.A.A.A.A.A.A.A.A.A.A.A.A.E.E.E.J.E.E.E.W.W.W.L.I.Q._.OXVXZX$XY.| , + > > , b | y.u.p.u.y.u.+.+.d.d.g.d.d.! s.s.s.t.s.s.i.t.r.E K. .E t.7 K.f.h.s.+.s.l.g.s.l.K.T.P.l.s.t.s.h.d.m.I.U.L.F.L.l.s.+.s.h.s.s.f.s. .s.l.K.L.L.L.U.m.s.+.s.+.s.g.K.I.K.s.d.V.l.! d.d.g.m.d.W W d.W g.s.W s.s. .u.s... .+.d.d.d.d.d.d.e.e.w.t.k.c.r.a.y.M 3 + + + c l.OXZXVXOX_._.W.W.C.C.C.W.W.W.M.C.C.L.L.L.C.C.C.C.C.C.C.C.C.C.A.A.A.A.A.W.W.W.S.A.A.A.A.A.A.A.A.A.A.A.C.C.C.A.B.J.E.E.E.E.W.I.VXVXVXVXOXP.W , > + O > N p.p.r. .u.f.f.s. . . .u.u.u.u.u. .s.h.s.! s.s.W s.g.W f.E E f.x.k.s.s.W l.m.d.d.K.I.T.g.s.+.+.+.s.m.U.L.C.L.L.m.d.+.s.u.u.s.s.s.d.d.N.E.M.L.E.K.m.d.s.d.s.s.l.K.I.K.g.! d.l.s.s.s.d.g.K.7 s.W  .K.W +.s.s.+.W W ! s.d.j.d.e.e.d.s.i.i.r.r.y.u.f.u.| b 1 + + > T P.@XZXCXCXBX_.W.W.L.C.A.S.A.A.A.A.A.A.A.S.W.W.W.!.W.W.!.!.!.!.!.!.!.!.!.!.!.!.!.W.!.!.!.S.!.!.!.!.!.!.E.A.E.A.E.!.!.W.A.C.I._._.@XVXZX$XP.{ 1 + + > 1 |  .l.c.c.f.f.f.u.s.k.g.j.d.d.d.d.d.d.s.s.s.s.s.s.W K. .W s.7 P.h.d.s.+.s.g.g.+.l.K.I.I.l.+.s.s.h.g.m.I.U.L.F.L.m.d.s.s.h. .u.u.s.+.s.l.K.L.L.L.U.m.d.+.s.+.s.g.I.I.K.h.d.m.l.W s.s.k.x.f.E E h.! d.d.! +.s.u. .u.r.r.u.f.k.f.s.+.+.+. . . .u.c.| y.r.m < + + > c l.OXZXZXOXoXoXE.E.E.E.E.E.!.!.M.B.A.A.A.A.A.A.A.A.A.A.A.C.C.C.W.W.W.W.",
"C.C.C.C.C.C.C.C.C.A.A.A.A.A.W.W.E.!.!.E.E.E.E.W.W.W.W.W.W.W.Q._.VXZXVX@XP.W , + > 1 b y.y.y.y.y.x.g.+.+.+.d.g.g.s.h.h.s.h.h.i.i.t.E x.W W s.c P.T.l.+.! s.s.m.Q.d.f.k.f.f.f.u.u.s.h.l.L.L.F.F.L.m.d.s.s.h.s.s.s.s.s.s.m.L.L.L.L.K.l.s.s.s.s.s.d.d.s.h.l.m.l.h.+.d.! d.K.K.+.W s.W g.h. .h.s.s.f.f.u.s.+.+.+.! ! d.d.h.k.k.k.r.M a.m 4 O O < r.v.OX@XBXBX_.W.A.A.A.E.A.C.C.C.L.L.W.I.W.I.I.I.I.I.I.A.A.C.C.C.Z.Z.N.N.N.N.N.N.N.N.C.C.C.C.A.A.W.W.W.W.W.W.W.A.A.W.E.E.E.E.E.A.A.C.M.M.W._.BXCXBX@Xn.r.x + O > N c.c.u. .|  .s.s.s.| |  .r.u.s.h.d.d.d.d.d.! h.g.W u.E  .v.v.s.W f.+.s.l.m.l.d.d.g.f.u.+.s.s.s.m.L.L.C.L.L.m.d.+.s.u.u.s.s.s.d.N.m.H.F.F.L.K.l.h.s.s.s.s.d.g.l.l.g.T.m.s.s.+.s.m.T.P.c s.W W x.Q  .h.s.s.s.s.s.s.s.e.j.j.j.h.s.r.t.p.u.y.y.y.V 1 O < 8 | v.oXVXVXCX_.!.!.!.E.E.!.!.S.S.S.S.!.!.!.W.W.W.W.W.W.W.S.A.A.A.A.C.C.C.C.C.A.A.A.A.A.A.A.W.W.!.!.!.!.!.!.!.!.!.!.!.A.A.A.A.W.I.W.W.W._._.OXCXVXVXOXP.| , O , 5 E  .u.u.u.y.c.k.s.t.s.d.j.N.d.d.d.d.d.d.s.s.s.W x. .W f.Q P.T.m.+.! s.s.m.T.d.g.l.g.d.h.s.s.h.f.l.K.L.F.F.H.M.N.e.s.h.u.u.u.s.s.s.m.L.L.L.L.L.m.s.s.s.s.s.d.l.d.d.l.m.l.s.+.f.W s.v.v. .E t.! d.d.s.s.h.f.u.f.f.u.u.u.u. .} s.+.s.f.c.f.| B a.m # O O 2 y.b.OXBXBXBXOXQ.W.L.W.E.L.L.E.L.E.E.E.E.E.E.E.E.E.W.W.W.C.C.C.C.C.C.N.N.N.N.",
"@.@.@.@.@.@.@.d.N.N.N.N.N.V.Z.Z.W.W.E.E.E.E.W.W.W.L.L.L.C.C.C.I.I._.VXZXZX$X(.x.t , > 1 V z.p.u. .+.+.s.g.g.d.d.s.s.h.h.h.s.s.t.t.T f.Q W s.Q x.T.g.+.h.s.W h.I.g.s.W W u.f.s. .s.s.g.K.L.F.M.L.m.g.s.s.s.s.t.s.s.s.h.m.L.L.F.L.V.g.s.s.s.s.+.s.+.W W K.K.h.W W s. .g.T.K.W Q h.Q s.s.W s.s.u.s. . .+.s.s.+.s.s.d.s.t.s.k.p.r.N + + + 4 M v.@XZXZXVX_.I.A.A.A.C.C.C.W.W.W.W.W.L.W.W.I.I.V.V.V.V.g.g.@.@.@.@.@.+.+.+.@.@.+.@.@.@.@.@.@.d.N.N.N.N.Z.Z.C.C.C.C.I.W.E.E.E.E.E.W.W.W.W.W.W.W.W._.OX@X$X+X}.u.6 > > 1 E u.k.l. .E  .s.u.u.u.s.s.s.s.+.d.s.s.s.W u.u.E f.Q  .K.Y.f.W s.+.W g.K.K.! W +.s. .+.s.s.s.d.m.L.C.C.L.m.d.+.s.u.u.u.s.s.d.N.M.F.F.F.L.K.g.s.s.! s.h.s.W W s.l.T.s.W s.h.+.g.(.x.c s.E T f.T  .s.s.s.s.s.s.s.s.e.d.j.h.s.t.f.p.u.u.y.b > + > 5 ..v.%XZXZXVX_.!.W.!.E.A.A.E.!.!.!.!.!.!.!.W.W.W.S.A.A.C.Z.Z.Z.Z.5.8.5.5.5.5.5.5.5.5.5.5.5.5.5.5.Z.Z.Z.Z.C.C.A.A.W.W.W.S.W.S.S.S.W.W.W.W.W.W.A.A.W._.VXZXZX$X(.x.y 5 > 5 R f.c.u.u.u. .s.g.g.d.e.s.s.s.d.h.h.s.s.t.Q f.T W f.c v.T.g.+.h.s.W h.T.l.s.W W s.h.s.+.s.s.g.K.L.F.F.F.M.N.d.s.s.u.u.s.s.s.h.m.L.L.F.L.m.d.d.s.s.s.+.s.s.W ! K.K.h.W W s. .f.P.K. .Q s.W +.s. .s.s.s.s. .s.s.s.s.s.s.s.s.+. .s.k.u.| v + + + 4 M v.=XZXZXBX_.E.E.E.W.L.L.L.E.E.E.E.E.W.W.W.W.L.C.C.M.Z.d.g.d.d.@.+.+.+.+.+.+.+.",
"~ ~ X.X.+.+.+.+.+.+.+.@.@.@.+.@.N.N.N.m.M.C.C.W.C.L.L.L.L.L.L.C.U.I.I.T.oX@XZXZXY.f.y > > w { u. .s.k.l.f.s.s.s.h.h.h.h.h.s.s.s.s.W s.Q W s.Q f.T.V.g.g.s.W s.K.l.h. . .s.f.u. .s.s.d.m.L.F.M.F.L.l.s.s.s.s. .s.s.s.d.V.K.L.F.L.l.h.s.s.s.s.+.+.s.+.s.V.K.g.+. .W l.T.Y.s.Q W k.Q u. .W u.s. .s.} +.s.f.s.s.f.f.s.s.h.i.E c 3 , + > t.|.&XZXVXOX_.I.V.Z.A.A.A.C.C.W.W.W.W.W.I.I.C.V.N.g.+.+.+.+.@.+.+.@.@.@.@.+.+.+.+.+.+.+.+.+.+.+.+.X.X.X.X.X.+.@.@.@.@.g.g.N.M.M.C.C.W.W.W.Q.W.L.C.M.M.C.W._.OX$X&XZX$Xv.y + > 6  .k.k.u. .u.f.f.h.h.d.d.s.+.d.+.s.u.|  .r.b k.W Q h.T.T.l.W s.s.g.K.V.s.W s. . .+.s.s.+.d.m.L.C.C.L.m.d.+.s.u.u.s.s.s.d.m.F.F.M.F.L.m.d.s.s.s.h.g.s.W W s.l.K.s.W s.g.g.V.T.f.b u.E b u. .u.u.u.u.u.u.u.f.f.s.s.s.s.h.f.k.c.| b t > + , u.|.$XZXZXVX_.L.C.C.!.E.E.E.E.W.W.W.!.!.S.A.C.Z.Z.Z.5.5.5.@.@.@.o.o.X.o.o.o.o.@.@.@.o.o.o.o.@.@.@.o.o.5.5.5.o.5.5.5.Z.Z.Z.Z.C.A.A.A.W.W.W.W.!.E.E.W.!.W.Q.Q.#XVXZXZX_.l.Q 5 , y  .f.u.f.f.k.k.h.s.s.s.s.s.s.s.s.s.s.f. .u.T | u.T k.T.V.g.g.s.W s.K.l.h.W W s.h.s.+.s.s.d.m.L.F.M.F.F.N.d.s.s.u.u.s.s.s.d.m.L.L.F.L.m.d.s.s.s.s. .+.h.s.h.V.K.g.+.W W l.T.T.h.Q W g.T |  . . .h.h.s.! s.d.s.s.s.d.l.s.s.s.u.| y 1 > O > r.}.*XZX&X#XQ.W.M.M.E.W.E.L.L.L.E.W.W.E.I.U.L.V.m.g.d.+.+.+.d.+.s.+.+.+.+.+.+.X.X.+.",
"+.+.+.+.+.f.g.g.+.+.+.+.+.+.+.+.+.+.+.+.+.@.d.d.N.V.C.I.I.W.W.W.L.I.I.I.K.T.oXOXVXZX$Xx.5 + > t u.k.c.k.t. .s.l.f.h.s.s.s.s.s.s.s.s.W Q W s.W s.T._.T.l.f.x.P.P.s.s.s.s.s.s.s.s.s.s.s.m.L.L.F.F.K.l.h.s.s. . .s.s.s.l.K.K.L.F.L.l.s.s.s.h.s. .+.s.f.g.h.g.K.K.x.c.(.|.c.E  . .E c  . .W s.f.u.s.s.g.f.f.+. . . .r.k.k.| 6 > + > s.K.@XZXZXOXQ.I.V.V.C.C.A.A.C.Z.L.L.I.I.C.V.V.N.g.+.+.+.R R W } +.+.+.+.+.+.+.+.@.+.+.+.+.+.+.+.f.f.f.+.+.+.+.+.+.+.+.+.+.+.+.@.@.d.g.N.Z.C.L.W.C.L.W.W.W.A.W.Q.I.I._.BXZXZXoXx.y , > , t.v.c.u.+.s.s.s.d.g.d.d.h.s.f.u.| | r.b W +.W W l.oX_.l.K.K.K.l.h.f.f.t.+.} +.s.s.+.d.N.L.M.C.L.C.g.d.s.u.u.s.s.s.d.m.F.F.F.L.L.m.s.s.s.s.h.f.h.s.s.s.s.P.P.x.f.l.T.(.Y.u.E u. .b  .u.u.u.u.u.r.u.u.f.k.u.i.i.k.k.u.r.b t > + , W T.$XZXCXBX_.C.m.M.W.!.M.A.E.!.Q.Q.!.W.C.C.Z.Z.N.5.@.@.X.X.X.@.@.@.@.@.@.@.@.@.@.@.@.g.@.@.@.@.@.@.@.@.@.@.@.@.@.@.@.@.X.X.@.@.@.@.@.N.Z.C.A.E.!.!.!.!.!.!.E.E.!.Q.OXOXCXSXCXV.7 > , y c.c.c.f.u.u.s.k.f.f.s.s.s.s.f.f.f.u. .T  .u.E u.Y.(.T.l.f.x.P.P.h.s.s.s.h.s.s.s.s.+.s.m.L.F.F.F.F.N.d.s.s.s.u.f.s.d.l.L.L.F.F.L.N.d.s.s.h.s. . .s.g.g.h.g.K.K.l.l._.oXl.W W ! W b |  . .t.h.d.s.N.N.d.d.+.! +.s.t.k.k.E 6 > + + u.P.@XZXZX@XT.I.M.M.L.E.E.E.L.C.E.I.I.I.I.V.m.m.d.+.+.+.W W ! +.+.+.+.+.+.+.+.+.+.+.+.+.",
"+.+.+.+.+.+.+.+.+.+.+.+.+.@.f.f.+.+.+.+.+.+.+.! +.@.g.N.V.C.I.I.C.L.L.U.U.I.T.Q.#X@XZXZX#Xg.7 + , t E u.p.u.u.f.t. . .+.+.+.d.d.! s.W Q ! +.W W +.K.oXT.T.oXT.f.W ! s.f.s.s.s.h.h.s.s.m.L.L.F.L.K.l.h.s.s.s.s.s.s.s.l.K.K.D.M.L.g.s.s.s.h.s. .s.W f.h.W s.T.oXY.(.(.v.| | k.u.y c u.t. .s.f.t.h.s.+.+. . .u.u.y.u.| t > + > E l.VXCXZXBXQ.I.C.L.C.A.W.A.A.C.A.A.C.I.V.m.g.+.+.} } } +.} +.+.+.f.+... ... . ..... . ...............+.+.+.+.f.f.f.f.f.f.f.+.+.+.+.+.+.+.+.g.g.g.N.C.W.Q.!.W.C.M.M.L.L.L.U.Q.OXZXZX#Xf., + > c t.k.s.s.d.s.+.+.s.h.h.t.f.f.| r.y.b y s.l.W ! K.oX_.T.oXT.s.W s.s.W +.+.+.s.s.+.d.N.L.M.m.L.L.l.s.+.s.s.s.+.s.d.m.L.F.F.L.L.m.s.s.h.s.s.s.s.f.f. .W f.T.oXT.T.oXK. .W E  . .b E u. .f.f.u.r.r. . . .u.p.k.c.u.| t > + , T P.VXZXCXOX_.Q.C.C.W.W.!.!.E.E.!.W.W.W.C.M.@.@.@.@.@.@.@.@.@.@.@.@.@.@.g.g.g.g.#.@.@.@.@.@.X.X.....@.@.@.@.@.@.@.@.@.@.g.g.@.@.@.@.@.@.@.@.5.5.N.M.A.A.!.!.E.!.!.!.!.!.!.!.BXCXCXCXOXl.7 > 5 y | f.k.f.k.f.s.t.t.t.s.s.f.k. .f. .T  .u.E  . .P.oXT.T.oXT.f.W  .s.f.s.s.s.h.h.s.s.m.L.L.F.F.L.m.d.s.s. .u.h.s.d.m.L.L.F.M.L.N.d.s.s.h.s. .u.W f.f.W s.P.oXT._.oXK.! W l.s.f b | r.u.s.d.d.! N.e.! ! s.s.s.s.h.t.c > + > T x.&XZXZX@XQ.I.C.C.W.!.!.!.E.L.E.I.L.I.V.m.g.s.+.} ! W }  .+.s.s.f.s.s. . .u.u.u.u. .......",
"y y y y y y y i R E R R  . . . .s.+.+.+.+.+.+.+.+.+.@.+.@.g.l.N.Q.Q.Q.E.C.m.m.C.W.C.I.VXSXZXI.Q + + 2 N u.z.u.|  .s.g.V.C.L.L.L.m.U.m.d.d.s.! W Q +.x.P.P.R.s.c W +.s.h.s.s.s.h.d.s.s.m.L.L.L.L.K.l.s.s.s.s.s.f.s.h.l.K.K.D.M.L.l.s.t.s.s.s.s.s. . . . .s.l.v.K.P.k. .E u.f.f.s.s.K.K.V.K.K.K.K.D.j.s.s.f.f.u.y.b 3 + + 6 k.#XZXBXBXOXQ.L.C.C.W.A.A.A.Z.Z.Z.Z.Z.l.g.g.+.+.} } R } ..+.+.+.+.+. .l.f.f.s..... . .b b b i i y y y y y y T T T T R  . . . . .s.s.s.+.+.+.+.+.+.+.+.~ @.d.N.C.L.W.!.C.W.W.L.C.I._.OXZX$X|. .> + 3 E s.h.f.f.+.s.g.V.K.V.P.P.x.v.v.s.s.d.d.s.! ! l.K.K.V.l.s. . .t. .s.+.+.s.s.+.d.m.L.M.m.L.I.m.d.+.s.s.s.+.s.d.m.L.L.L.L.L.m.s.s.g.s.s.s.s.f.s.t. .Q f.P.Y.P.x. .y W  .s.f.s.l.P.l.P.P.P.P.v.k.u. .u.z.p.y.v 3 > > 5 f.@XSXZXOXQ.Q.W.W.E.!.Q.!.E.A.Q.!.E.C.m.N.+.@.@.X.@.@.@.@.@.@.@.@.@.@.@.@.X.X...} } } ( J L L r i L L I I L L } } } X.X.@.@.@.@.@.@.@.#.#.@.@.@.@.@.5.5.N.Z.M.qXqXqX!.A.B.E.E.!.A.E.BXSXZXI.T > , 5 E u.c.u. .s.f.l.x.K.P.P.P.l.P.l.s.g.s. .W y  .x.P.P.R.s.c W  .s.f.s.s.s.h.g.s.s.m.L.L.L.L.L.m.d.s.s. .u.f.s.d.m.L.L.F.M.L.m.d.s.s.s.s.u.s. . .t. .s.g.V.K.K.l.! ! s.d.d.s.f.c.v.K.K.E.E.M.F.m.e.s.d.k.f.r.E 6 + + 6 k.#XZX@XOX_.W.W.L.E.E.!.!.W.W.E.L.L.I.l.g.g.s. .}  .W  . . . .u.u.u. .f.l.s.s.u... . .i i i i ",
"5 5 5 5 5 5 5 5 1 1 5 5 y p y i { }  . ... .+.+.+.+.+.} R ! +.+.+.N.C.E.W.E.I.W.L.L.U.W._.BXCXZXn.M > + x r.p.u.c.v.(.OXVXCXCXBXBXZXOXQ.Q.K.l.s.g.W Q Q Q Q Q W g.d.h.h.h.h.s.s.g.s.s.m.L.U.L.L.K.l.s.s.s.s.s.f.s.h.m.K.K.D.M.L.l.f.t.s.s.s.s.f.k. . .s.s.Q Q W E c T s.s.W g.#X_.BXBXBXCXAXBXBXAXoXK.f.f.y.B v + O + E |.ZXZXOXBX!.E.M.M.C.A.A.A.C.Z.C.Z.Z.@.X.+.} } } } +.+.@.+.+.+.+.} R T T p p w 5 1 1 , > 5 5 1 1 1 1 1 1 5 5 5 5 5 5 5 5 5 y y T {  .u.s.+.@.+.+.+.+.+.+.d.+.+.! +.N.C.W.E.A.A.A.W.W.W.I._.VXZX$Xv.t > + c E u.f.f.x.|.$X$X@XVXVX@XBXBX_.#Xm.! d.d.Q I W W Q Q s.f. .u.l.s.s.+.s.d.+.d.m.L.m.m.I.I.m.s.+.f.h.s.s.s.d.m.L.L.L.L.L.m.s.s.g.s.s.f.f.s.h.h.s.W E Q Q Q Q W f.s.l.K.I.T.OXZXOX$XVXZXZX@X(.K.k.u.z.r.t + + , y OXVXZXCXOXW.W.W.A.E.E.E.E.!.!.!.A.M.N.N.+.@.d.@.@.@.@.@.@.@.@.@...X.} } L L r r e w e w w w w w w w w w e w e e 7 7 e r I L J P X.....@.@.@.@.@.@.o.o.o.@.@.5.5.@.N.A.!.!.!.Q.!.!.!.!.!._.BXZXZXl.Q , > t | u.f.x.K.oX@XVXCXVXVX@XZXOXT.T.K.l.s.f.W Q Q Q Q Q W f.f.f.f.f.s.s.s.g.s.s.m.L.L.L.L.E.m.d.s.s.+.s.f.s.d.m.L.L.F.M.L.m.d.s.s.s.s.u.f.k. . .f.s.Q Q W W Q Q d.d.! m.#XoX@X$XBXBXAXAXBXAX].L.l.l.u.B v > + > E |.ZXZXOX#XQ.C.M.C.A.A.A.E.E.L.L.L.m.g.+.+.+.} }  . .u.s. .u.u. . .| E T p y w 5 1 , , , 1 1 1 1 ",
"T T T T T T T T T i i y p w w 7 5 1 w y T { ..c...+.+.+.+.+.f.g.~ ! d.m.I.W.L.C.C.C.L.C.C.W.BXZXSX.Xr.+ O > M c.|.ZXZX_.V.L.L.M.L.L.Q.Q.oX#X#X#XK.g.W W s.k.s.W ! l.I.oXOX#XK.! j.! d.U.Q.L.m.K.I.d.W s.f.s.s.s.s.g.m.K.K.L.F.D.K.g. . .l.T.#X@X(.K.h.s.h.g.f.s.h.+.+.l._.BX@X#XQ.E.L.F.L.E.E.E.Q.BXZXoXk.E , O O 8 b.*XZX@XoXoXH.B.B.A.B.C.A.A.C.C.Z.N.X.X.X.+....... . . . . .T L y 7 5 5 5 5 w w 5 5 1 > 1 5 T T b b b b b b T T T T T T T b w w w w 5 5 5 5 R {  .+.f.+.+.+.! +.+.@.@.+.+.! C.A.W.!.E.W.L.I.I.T.#X&XZX+Xt.> + > t b.+X%X+XoXP.I.K.L.F.F.E.Q.BXBXBXQ.m.s.s.s.s.g.g.h.t.s.K.(.@XOXT.l.! ! N.E.m.C.L.V.V.V.g.s.g. .s.g.s.W d.Q.U.m.L.Q.I.d.! d.s.P.OX@XoXP.g.W h.h.h.s. .s.f.l.#X#XoXoXQ.I.K.K.V.I.K.K.oXZXVX).p.V < O + y P.&XZXVX#XQ.W.W.W.E.!.A.B.E.!.!.A.M.d.d.d.@.@.@.d.@.@.....} / L e e 7 w 7 7 w w e e e w e p e e e e e e r e r e e e 5 e r J I r e e e e r J / X.@.#.@.@.@.@.@.@.@.@.@.@.@.N.C.W.!.E.!.S.E.A.A.W.OXBXSX#X ., > 1 V l.OXZXZXoXU.I.U.m.U.U.Q.Q.oXoX#X#XV.s.W W s.g.h. .W f.P.oX@XOXP.s.l.! s.L.Q.L.D.U.U.d.! g.g. . .g.s.l.m.D.F.L.L.F.L.l.! ! l.T.oX$X(.K.f.u.f.g.g.s.s.s.d.m.Q.OXBXBXQ.U.L.F.L.!.!.!.Q.BXZX|.c.V < O O 6 P.&XZX@XoXoXL.C.C.A.A.A.A.A.E.E.C.N.+.! ! s.W W }  .u.u. . .{ b t 1 , 1 1 5 5 5 5 6 y y p p T T T T ",
"T { T { T T T T { { { { R T T T p w w p w w t i ..+.s.f.f.+.+.R g.+.~ R ! g.C.W.L.W.W.W.L.L.W.Q.|.%X*Xb.t + > t b.Y.Y.V.V.I.W.L.M.F.L.U.I.Q.Q.Q.#XoXI.g. .W s.l.s.l.K.I.I.Q.Q.U.d.e.N.L.U.K.m.K.m.l.s.W W s.s.t.Q  .l.K.K.L.F.L.K.l.s.h.K.T.T.P.T.K.l.s.+. .s.h.l.K.oXOXoXQ.U.L.E.E.L.F.F.F.E.Q.U.U.T.P.E > + 1 p.).%X&X@XI.L.C.M.B.A.E.A.A.A.C.Z.N.@.X.X.X.+.+.{ ...... .T e 5 5 5 5 5 y y T T T i i i w 1 5 p T { T { T { T T { { R T T T T T L i L i y p p p 5 5 e L R  .s.g.+.+.+.+.+.+.+.+.+.N.M.A.W.W.L.I.K.I.I.|.@XZX@XY.t + O t n.).).x.P.K.K.F.F.H.E.E.E.U.Q.oX@X#XK.g.h.s.+. .s.l.K.T.I.T.Q.L.d.+.m.E.L.C.V.V.V.l.+.T s.s.s.! W +.d.V.U.m.m.U.K.l.s.s.I.T.T.T.I.K.l.s.+. .+. .h.K.#XVXQ.Q.Q.Q.L.L.F.m.L.K.K.m.K.Q._.P.v , + , | ).@X$X#X_.Q.L.C.A.E.!.!.!.!.!.A.N.N.+.+.+.@.g.g.g.d.+.L { L r e e e w w e e e e e e e e e e e r e r r r e r r r e e e e r J / / / / ( J r I I I I J J X...#.#.@.@...X.@.@.+.@.N.Z.L.W.E.!.!.E.E.W.Q._._.VX$XP.5 + 1 T K.Q.Q.L.D.U.Q.L.L.L.L.U.Q.Q.Q.Q.@X#XT.l.W W +.h.s.x.K.P.T.(.T.I.! ! l.I.Q.L.m.K.D.d.! ! +.s.s.s.Q +.m.D.L.F.L.L.U.m.s.d.K.T.T.P.T.K.l.s. .+.s.h.m.I.Q.#XOXoXE.F.L.E.L.F.F.F.E.Q.U.I.Y.b.V O O < c.Y.@XZXOXI.K.V.M.C.C.E.A.A.A.A.C.m.d.! ! ! +.s.f.+. .| E T y t w w w w p i b T b i T T E R R { T T T T ",
"T { T { T { T { { { { { { } { { { T b y w 1 1 5 p i T {  .+.f.f.+.+.+.R ~ +.d.g.C.L.W.W.W.W.C.m.I.#XZX&X}.E > + b | k.V.K.V.m.C.D.D.D.D.K.L.K.K.Q.oXoXT.V.s.+.W s.l.l.d.s.m.Q.BXd.m.L.L.L.K.I.I.m.I.K.s.W s.f. . .f.K.I.K.L.L.U.I.V.g.l.I.T.m.s.l.l.l.s.! +.l.K.Q.oX#XQ.L.m.M.L.F.L.E.L.M.m.M.L.K.l.t.c > + 6 k.$X*X$X#XT.L.V.C.A.E.E.W.W.C.m.N.g.+.R R +.+.+..... .T p 7 5 5 7 y y L L L T R R { { { L y w w i { { { { { { { { { { { { T { T { { { T { T L T T w w 5 w y y T R f.f.+.+.+.+.+.~ ~ ~ d.N.M.C.L.I.I.K.K.K.I.OXVX&X^.V + + 8 y.c.P.K.V.m.m.F.E.J.H.E.m.m.L.oXOXoXI.K.l.+.W s.l.l.l.+.m.Q.Q.C.m.M.E.I.C.L.I.I.K.f. .s.s.s.W s.K.K.V.L.K.K.L.L.L.m.d.OXT.l.s.h.l.l.s.W s.l.K.T.T.Q._.L.L.F.F.M.m.m.m.U.K.m.K.K.V.s.Q + > t k.#XZXVXoXI.L.C.C.C.A.E.!.E.E.E.M.N.! ! +.+.+.f.f.+.+.R T e w w 5 w w w e r r r r r r r r r r r r r r J r r r r r r r r e e J } X.@.X.X.X.} / / J J I H e r J ( ....#.#.@.f.@.@.X.+.@.N.M.C.A.W.!.W.W.W.W.W.OXZXVXT. ., > Q ! m.L.L.F.F.L.L.F.F.M.F.L.L.L.Q.oXoXT.K.h.s.s.d.l.m.h.s.l.I.#Xd.m.L.U.K.L.K.K.L.K.m.+.! h.h.W ! d.K.I.K.L.L.U.U.m.l.V.I.I.l. .l.l.l.s.W +.l.K.oXoXQ.Q.U.L.F.F.F.H.E.F.M.m.M.K.K.k.| t + . 9 z.$X&X@X#XI.L.m.C.L.L.W.W.W.C.N.N.g.+.W R +.s.s.+.+. .T y y 5 1 , w e i L T T T L T T R R R { R R T { R } ",
"R P } / R P R P L L L L R P R }  .| { E i w 5 w 7 5 7 w y { ..l...+.g.g.+.+.! ! g.N.V.L.W.W.W.L.Q.U.I.#XZX+Xu.< + 1 | v.T.K.m.K.U.K.L.L.L.L.K.K.K.K.K.Q.oXQ.m.! s.s.s.W Q ! L.OXF.Q.Q.U.L.K.K.K.I.oXoXK.f.s.f.f.T.T.I.I.U.L.L.U.U.K.K.I.Q.K.d.W Q ! d.d.g.m.I.oXoXI.K.m.F.L.U.U.L.L.U.U.L.L.F.K.k.i.6 + + T Y.+X#XoXI.K.V.L.W.E.W.W.W.C.m.d.+.+.R R +.@.g.@.} T T y w 1 1 w i R T R R R R T T L } ( { L r 7 e L } } } } } / } / } } } } } P R / } } } P R P T L ..{ T p e 5 5 5 T R +.f.f.@.+.} R +.+.+.d.N.V.I.L.I.I.I.C.I.Q._.&X.Xz.1 + > | ).v.K.K.L.E.E.J.H.E.U.L.m.m.K.I._.oXI.m.g.d.d.! Q W g.I.Q.Q.L.L.U.I.V.L.I.T.T.T.(.h.h.s.l.K.oXQ.I.m.L.U.L.L.U.Q.U.#XK.! Q W s.d.s.l.V.I.Q.Q.K.m.g.L.L.F.F.F.L.L.K.I.V.K.T.I.s.5 + , E T.VXZXOXQ.L.L.C.W.W.E.W.W.W.M.M.N.@.~ ! +.g.f.f.+. .R I 7 5 w w w w w e r i r r r I r I I r r r I r J J J J r r I J J r r e e J / @.@.@.X.@.@.X.X.X./ / P P e e e e L } #.c.f.f.g.@.+.X.@.@.N.Z.A.W.W.W.W.W.W.L.W.@XZX@Xf., > 7 s.U.Q.K.m.L.U.U.L.F.F.F.L.L.m.m.K.T.oX_.K.s.s.d.s.W Q ! K.#XU.Q.Q.L.m.L.K.K.Q.Q.Q.K.g.d.h.h.T.T.T.I.K.L.L.U.L.L.L.Q.Q.I.d.Q Q ! d.d.d.m.I.oXQ.I.U.K.m.m.K.Q.F.H.E.L.L.K.K.K.k.r.1 O O v ^.%XOX_.I.K.V.C.W.E.Q.W.W.C.m.d.+.+.R W +.s.f.s.} Q y y w w w 5 1 1 L L { { R L L y T L R P R P R P R } R } ",
"} } } } } } } } } / } / } / } } R R R R i w 5 5 T i p w 5 w p i ............+.g.X.+.@.N.C.W.W.W.F.F.U.Q.OX@XoX X< > > b v.T.T.K.K.K.m.m.l.m.m.m.U.K.m.m.U.Q.Q.Q.l.d.s.! ! d.F.Q.].].Q.L.L.L.l.s.K.m.K._.P.f.k.P.#XP.l.l.m.m.F.L.D.K.Q.oXQ.L.d.! W ! d.m.L.I.Q.Q.K.V.K.K.K.K.l.d.m.l.l.K.T.T.K.v.x 3 > > E oXZX@XQ.U.C.M.M.L.L.L.W.L.V.g.d.+.W W W +.s.s. .T y y 1 7 p T R R T T L T R R } } W R L J P J e 7 e J } / } / / / } / } } } / } P P P } P P P P P P P }  .R T L y y y 5 7 p T  .+.f.c.f.s.+. .+.+.g.m.N.I.Q.!.W.C.W.W.#X&X$Xx.5 + , b x.R.T.T.K.m.m.m.d.l.K.K.K.V.V.K.Q.Q.U.L.m.d.! W +.g.L.Q.Q.Q.E.L.L.m.m.l.l.l.P.#XK.g.g.T.oXK.m.m.s.m.U.L.L.U.Q.oXQ.m.d.! ! s.d.m.Q.I.U.L.L.K.K.U.m.m.m.m.m.m.V.K.V.K.P.x.E , > , g._.ZXZXOXL.M.C.E.E.!.!.W.A.Z.N.N.+.+.+.+.f.f.f. . .T i e 7 5 5 w w e p i i i i r r r r H I L L I r J I I I I J I J J J J I J H H K ` o.o.o.X.X.` ` ` ` ` ` ` / / P I e e r i ( } ..g.g.@.@.+.@.@.@.Z.Z.C.A.W.!.C.C.W._.VXVX#X_.5 , , W l.I.I.I.K.K.m.m.m.m.m.m.Q.L.m.m.U.Q.I.U.d.d.! ! ! d.K.Q.oX].Q.D.m.K.V.l.m.V.T._.K.h.g.T.#XP.l.l.l.m.D.U.F.U.Q.Q.Q.L.d.s.W ! d.m.L.I.Q.Q.l.K.K.K.K.l.l.m.m.m.m.K.T.Y.b.c.t 1 + + E |.&X@XT.I.C.m.C.C.C.C.E.L.C.N.d.+.W W W +.s.s. .T y y 1 5 w y y p 5 1 i L L L R P R / } } R R R R ~ P R P R P ",
"X./ X./ } / X./ X.X.X./ } / P P { R R { L w 5 5 { { { T i p 5 1 p i { ....+.+.@.X.+.@.@.N.Z.L.W.B.E.!.E.W._.@XZX|.| + + c k.v.h.W W W W W W W W d.m.K.U.m.m.L.Q.K.m.m.m.M.F.F.E.].Q.L.F.m.l.s.W ! Q +.I.T.l.x.oXK.s.Q W ! e.N.L.m.L.Q.Q.Q.F.m.m.m.m.m.L.U.Q.L.m.m.K.K.g.W Q Q W W E E  .k.c.s.E + O 4 n.&X&XoXU.L.H.F.E.!.!.W.L.m.g.s.+.! } +.+.s.u.} T t 5 5 5 y i T { { { T T T T R } } } } R P P } P H 7 H / } / } / } / } / } / } / P / P P } / } / } / P R T R R { R R T T p w 5 5 w i { ..f.f.s. .W W +.s.g.m.L.W.W.A.A.W.m.oXCXVXT.E > + E u.x.l. .W W ! W Q Q W d.K.K.V.m.K.I.U.L.m.m.m.m.m.C.U.Q.Q.E.M.L.g.+.! W T +.K._.m.m.I.K.s.Q W W s.m.K.m.L.Q.].U.L.m.m.m.m.m.U.U.L.L.L.L.D.m.N.W W W W W W W E f.v.x.y + + t v.VXVXoXQ.E.E.E.!.E.E.E.E.C.N.@.X.@.+.@.g.x.c...T p t w 5 5 w p i w p p i i i r p r r r I I L L L I J J J J J J J J J J J J J J H K P o.o.o.o.o.X.o.X.X.X.` ` ` ` X.X.X./ P L e w r L X.@.@.@.@.@.@.@.@.g.N.C.W.!.E.W.!.W.E.!.VXZX|. .> + y k.x.f. .W W W W W W W d.m.L.L.m.m.F.Q.L.m.m.m.D.L.U.Q.Q.Q.L.L.L.m.s.W W Q h.T.K.g.m.oXv.u.T E +.s.l.L.M.U.Q.Q.E.F.m.m.N.m.m.L.U.I.K.m.K.K.l.s.W Q Q Q W Q Q  .k.n.y.V + O , c.$XVXoXU.C.C.C.C.E.!.W.C.m.N.d.+.! }  . .u... .b w 5 5 w y i T { { i 5 , L J L J P P } X.} ~ ~ ~ ~ ~ ~ ~ ~ ~ ~ ~ ",
"X.` X.` X.` X.` ` / ~ / ~ P P P X.} } } R y 5 5 T T { { { b i p 1 8 i { ......{ } +.@.+.+.@.N.C.!.J.J.E.E.T.|.|.ZXXXr.> > 6 E E Q Q Q Q Q Q Q Q ^ e.L.Q.L.m.N.m.I.I.L.U.U.F.L.!.!.F.M.L.m.s.W +.! Q W l.K.K.K.T.s.W W ! ! ! d.F.M.L.U.Q.L.F.F.F.L.L.L.L.U.L.F.m.K.x.f.T 6 t T  .T b b b b v 1 + # g n.*XZX].F.F.H.H.H.E.E.E.A.C.+.+.+.W } }  .u.E R c t 6 6 t c  .{ T i i T R } } } W } W R R R P / X./ H 7 H / X./ X./ X.` X.` X.` X.` X.` ` ` ~ / X.` X.` ` X.R R {  .{ R T T  .{ y w w w w p | | y.u. . .} +.g.@.N.C.A.B.B.A.M.E.].BXZX#X .> > 5 b b b b T T  .W f f Q s.V.K.m.D.L.L.L.L.L.L.L.L.L.L.E.E.L.M.m.d.W +.+.R R +.T.K.K.K.l.W W ! s.! d.m.L.D.F.Q.Q.L.L.L.U.F.L.Q.m.m.L.Q.L.N.~ ^ Q Q Q Q T b b c | | v + + u b.%X@XoXE.M.B.J.!.!.J.E.B.N.5.@.X.X.+.+.@.@...{ i p 8 8 8 8 w p i i p p p r r r r r I I L L L L L L J J K K P P K P K K P P K K J J K P o.O.o.o.O.o.o.o.o.o.o.o.o.o.~ ` o.X.X.} P J H H H P X.@.@.g.@...@.@.@.N.Z.A.!.!.E.A.W.!.OX#XZX.X| > > t b b T T T T Q Q Q Q 7 ! M.Q.L.m.m.F.Q.L.F.L.L.L.L.Q.E.F.D.U.L.d.W W W W W l.K.K.I.T.u.E E  . .W d.F.M.L.E.E.L.F.F.L.L.L.L.L.E.L.D.m.I.m.! Q ^ Q Q W Q c c b V v q # # 8 c.$XZXQ.H.B.Z.Z.Z.A.A.A.A.M.! +.! !  . . .r.| E y w 5 5 p i E R  . . .T 5 , } / P P P P P P P ~ ~ ~ ~ ~ ~ ~ ` ` X.` ",
"` ` ` ` ` ` ` ` ` ` ` o.o.o.o.X.R R R X.R e 7 7 { { T T T T T { i p 1 1 w T ..f.{ ..+.+.R R +.N.B.J.!.E.M.V.K.T.).&X*Xu.> + t E t.u.s.h.k.g.d.d.! ! d.m.L.E.E.L.K.K.D.L.F.m.M.E.F.m.M.Q.K.! W g.K.l.h.d.V.K.K.l.s.s.l.K.l.! ! M.L.F.M.M.L.L.L.L.F.F.L.L.L.L.L.K.V.s.W  .f.x.f. .u.y.y.| v < + O m {.ZX&XK.D.L.E.E.J.J.B.M.m.N.d. . . . . . . .| 6 5 5 6 b E | E y L T {  .{ T T R R R R X.+.+.X./ ` o.` H 7 H P X.X.X.X.X.X.X.X.o.o.o.o.o.` ` ` P P P P ` ` ` ~ R R R R } } } } T T T T T p w 1 t b | u.f.u.} +.+.~ @.Z.E.E.S.!.E.B.M.L.BXCXoXc.+ > 1 b | y.u.u. .g.V.g.W W d.L.U.L.L.L.F.L.L.L.L.I.U.L.L.C.M.C.m.! W g.K.l.s.s.l.K.K.l.s.d.m.K.l.W ! m.Q.L.m.L.Q.F.m.L.L.m.M.L.L.L.F.m.m.j.e.! s.h.h.f.u.u.r.| v < O + B .X&XoXC.E.!.!.J.E.A.A.!.E.N.@.+.+.+.@.f.@...T w 1 5 8 p p p i p p e e i p p e e r I I L L L L L L P P K K K K K K K ( K K K K K K K K K Y ` O.5.O.o.o.o.o.o.o.o.o.o.o.o.o.X.X.` X.X.} J H e 7 I ~ @.@.@.@.@.X.@.@.5.N.C.E.Q.Q.E.A.E.Q._.&X$Xu.> > t b y.y.u.u.f.f.s.h.s.e.d.m.L.U.U.L.U.L.L.L.F.m.m.L.Q.M.m.L.m.! ! l.K.l.s.s.m.I.K.g.u.u.x.K.l.W ! m.F.M.M.L.L.L.L.F.F.F.L.F.L.L.K.K.l.d.s.s.d.d.h.s.u.y.r.B v 2 @ . V ).ZX@XI.M.J.J.A.A.C.C.M.N.N.@.! +.+. . .| | | t 5 5 w i { { { T T T R R L e 7 L J P / ` X.` ~ ` ` X.` X.` o.` ` ` X.X.",
"` ` ` ` ` ` ` ` ` ` ` ` ` ` ` ` X.~ ~ X.P H 7 7 R R } R T T R { R { { y 7 5 5 y f.+.} } }  . .} m.C.L.E.E.W.E.W.L.T.$XZXx.> + 3 u.r.u.k.i.E W g.s.d.g.N.m.L.I.m.K.K.I.I.I.L.L.L.L.L.C.g.+.+.g.K.g.s.s.m.K.l.m.I.m.! Q s.m.m.d.! m.M.L.L.L.F.L.U.m.L.U.U.U.L.K.K.V.l.s.! ! h.h.s.W u.k.| 3 O # B ZX@XQ.U.E.E.H.M.E.E.E.L.m.d.! R E | ....| y 1 > p y y L T T R R R T R R R R R R R R R R X.X.X.X.` / ` ` J 7 e ( ` ` ` ` ` ` ` ` ` ` ` ` ` ` ` ` ` ` ` ` ` ` ` ` ~ ~ ~ P R P R R R P P R R R L L 5 1 t E u.s.s.+.+.+.! ! d.N.C.W.A.C.C.C.W._.OXVXK.5 + 1 y.p.y.p.k.s.s.s.e.e.N.L.F.F.D.L.K.K.K.V.U.L.C.L.L.L.m.m.! d.V.V.g.W +.l.T.g.d.K.K.W W l.K.l.+.+.l.K.K.L.L.L.L.I.L.I.L.L.L.U.U.D.m.j.j.d.N.! ! k.k.y.D a.9 . + f.VXCX!.A.!.A.B.A.E.E.W.W.N.N.g.+.R { +.f...{ y 1 1 w i p p p e e r i r i r r r r L J J J J L J P K K K K K K K K Y K Y K Y K P P P K K K K Y 5.5.5.O.5.5.5.5.5.O.5.O.o.o.O.o.o.o.X.X.X.X.@.X.P I H H I I @.@.@.@.X.~ @.@.N.Z.W.W.W.E.E.E.E.Q.VXZXP.1 + 1 u.y.r.k.k.W e.j.d.d.g.g.m.K.K.K.L.K.K.K.U.L.L.L.L.L.K.g.! ! l.K.d.! s.l.K.l.l.I.l. .Q s.V.V.d.W m.m.L.L.L.L.L.L.M.L.E.E.L.K.K.I.V.l.h.W ! d.d.h.E u.c.y.< O < B *X%X(.I.W.E.B.B.E.E.E.L.m.g.W R R  . . .| y 1 > p p y L T T T T { L L { } L e 5 L P } P P X.X.X.` ` ` ` X.` X.X.X.X.X.X.",
"` ` ` ` ` ` ` ` ` ` ` ` ` ` ` ` X.~ ` X.P H 7 7 P } } R R R R R R } { T y e y y y R s.l.s. . . .s.g.V.L.E.E.!.E.E.E.Q.OXOXv.p O 4 B p.t.| t.k.h.W K.#X_.I.m.d.d.g.l.K.K.L.C.L.L.L.L.L.l.+.+.g.V.K.m.l.K.m.d.d.m.K.m.j.m.K.m.d.d.m.M.L.L.L.F.L.U.L.m.m.d.d.d.l.m.I.I.V.d.+.s.s.s.s.s.E < + 4 a..X@XOXE.L.E.E.E.E.Q.E.M.m.d.+. .| | | b u t w w w y y L L T R R R R R R R R R R R R R R } ` X.X.` X.` X./ J 7 H ( ` ` ` ` ` ` ` ` ` ` ` ` ` ` ` ` ` ` ` ` ` ` ` ` ~ ~ ~ ~ ~ ~ ~ P P P P P R R R T 5 1 1 t c E  .l.+.+.+.! +.g.V.C.A.A.C.C.C.W._.OXOXP.y + > r.z.u.f.s.s.d.N.F.E.Q.L.F.m.l.l.x.K.I.I.L.C.L.L.L.m.m.+.d.l.V.V.l.l.K.m.s.s.K.K.g.g.K.V.g.+.s.l.K.K.L.L.C.L.L.I.L.m.d.d.d.l.L.].].D.! d.d.d. .u.z.S 2 . 9 z.|.OX!.qXS.B.A.S.A.W.A.Z.N.@.+.+.+.f.s.| b p p w 1 1 w w w e e e r r r r L I I I I J J J J J J K K K K K K K Y Y K Y Y ) ) Y Y ) ) Y K K K U Y 5.3.5.5.5.5.5.5.5.5.5.5.5.o.O.o.o.o.X.X.X.X.X.X.X.R P L I I P P X.@.g.@.@.~ @.N.C.W.E.E.W.E.Q.!.!.BX@XP.y + 3 B p.i.t.h.j.d.! K.oXoXK.l.g.d.d.l.K.K.I.K.K.I.K.K.L.l.s.! g.V.K.g.g.V.V.f.h.l.K.l.g.m.K.l.d.s.m.m.L.K.L.L.L.L.L.M.m.d.d.g.l.m.T.T.K.h.+.s.d.s.p.u.M < + 3 p..X%XoXI.C.C.A.A.A.Q.Q.D.l.h.s. .| ..| b t t w t w y y L L T T { { ( L L { } L e 5 J } X.P P X.X.X.` ` ` ` ` ` ` o.o.o.o.o.",
"o.o.o.o.o.o.o.o.o.` ` ` ` ` ` ` X.X.X.X.` J e e } } } } R P R R R R } } R L y y , e R  .s.u. . .W +.g.V.E.!.!.E.E.E.C.I.VXZXb.1 O 3 E t.u.h.s.s.l.T.I.m.~ I I I W +.l.V.V.V.L.L.M.L.L.m.s.+.s.g.K.l.l.m.l.s.! d.K.V.K.K.m.d.d.l.m.F.F.L.L.F.L.L.U.m.! Q Q W ! ! K.Q.I.m.s.+.s.s.k.E , + < p.=XZX_.W.M.M.L.!.!.E.Q.C.d.! W  . . .| b t 1 1 w y T T L L T P R R R R R R R R } } } X.X.~ X.X.X.X.` X.o.X.` J e H ( o.o.o.o.o.o.o.o.o.o.o.o.' ' o.o.o.o.o.' ` ` ` ` X.X.` ` ~ ~ ~ P X.R P P R R R R 5 1 1 1 1 5 b  .s.+.+.} W +.g.Z.A.A.A.C.Z.Z.L.Q.VXZXY.6 + 4 B p.f.f.s.s.V.Q.Q.L.~ ! Q Q Q W f.x.K.L.C.L.L.L.V.m.d.+.+.l.V.V.l.l.s. .s.f.l.l.l.K.g.s.! d.m.L.L.M.L.C.M.M.V.m.d.! W Q Q e.K.].].K.d.s.h.s.u.r.3 . + n.*X$XW.E.!.A.B.A.!.W.W.M.g.+.+.+.+.+...{ p 5 w p i w w w e e e e e r r r r r I I J J L J K K K K K K P K ) ) ) ) Y ) ) ) ` ` ) ` ` ` ) ) Y Y U Y 5.3.5.5.5.3.5.5.5.5.5.5.5.o.o.o.o.o.o.o.X.X.X.X.X.X.X.} P L 7 H P X.g.N.@.X.+.+.g.M.L.W.W.W.E.E.E.Q.VXZXP.1 O 1 | u.f.h.h.d.m.T.T.l.W Q Q Q W s.l.K.K.K.L.L.K.L.L.m.d.! s.g.K.l.g.l.l. . .s.K.V.K.K.l.h.s.l.m.m.L.L.L.L.L.L.U.m.! Q Q W ! ! I._.T.V.s.W +.s.n.M > O 1 c.%XZX(.I.V.m.C.W.E.W.Q.K.d.! W  . . .E b w 1 1 w y T L L L T L T { { ( ( ( / } L e 7 P X.X.X./ X.X.` ` ` ` ` ` ` ' o.o.o.o.o.",
"o.o.o.o.o.o.o.o.o.o.o.o.o.` ` ` o.X.o.o.o.J e e } } } } R R R R R R R } } { L y L e 5 y R u.s. .} +.+.g.m.L.W.E.M.E.L.m._.ZX$XP.t + > t.v.i.W s.@XoXV.s.! d.g.d.W W +.g.m.L.L.C.M.L.L.V.g.+.+.s.g.s.s.d.d.! ! s.s.s.d.g.s.! s.m.M.F.F.L.L.L.L.L.m.d.! ! s.d.s.! d.K.T.K.f.u.u.f.r.1 + 6 v.%X$X|.I.C.M.M.L.E.E.L.m.d.+.W W  .| { 8 8 8 t p y T { T T T T R R R R R R R } } } } } X.X.X.X.X.X.X.X.o.X.X.` J H J ( o.o.o.o.o.o.o.o.o.o.o.o.o.o.o.o.o.o.o.o.o.' o.` ` X.X.X.` ` X.X.X.~ P R } } } { w 1 8 t t 1 1 5 {  .+.+.} W +.@.Z.Z.A.A.C.Z.C.C._.OX$X(.b O > r.u.k.f.f.K.oXU.d.s.d.d.s.W W h.l.V.L.L.L.L.L.V.m.g.+.W +.g.s.+.} W t.s. .s.h.h.s.s.s.s.d.m.L.L.m.m.L.L.m.d.+.! ! d.d.s.W e.x.T.#Xh.W s.v.t.> + 3 b.=X&X_.L.W.!.M.A.W.E.A.M.d.@.X.+.f.+.{ w 1 w y u { { i p p p p e p r r r r L J J J J J J K K K P K P ) ) ` ` ) ` ) ` ` ` ) ` ` ` ) ` ` ` ) ) ) Y _ 5.3.3.5.5.5.5.5.5.5.5.5.5.5.O.o.o.o.o.o.X.X.X.X.X.X.X.X.R P I H H I R @.@.@.+.+.+.g.m.L.W.W.M.!.!.C.Q.VX$X).t > , u.v.t.W g.OXoXK.s.! d.l.g.W ! s.g.V.I.L.L.m.L.L.m.d.s.s.s.d.s.s.s.s. .W s.s.s.d.d.s.! s.l.m.K.L.K.L.L.L.K.m.s.W W s.d.s.! d.K.T.K.f.t.u.u.y.< O 1 v.$X@X(.I.V.V.C.L.W.C.C.m.h.W W W  .| { 1 1 w t y b T T T T T T T T T ( } ( / } } L e 7 P X.X.X.X.X.o.` o.` ` ' ' ' o.o.o.o.o.o.",
"o.o.o.o.O.o.o.o.o.o.o.o.o.o.' o.o.o.o.@.X.J e e / } } } } } R R } P L R } } R L  .L 5 5 t T  . .s.+.+.+.d.m.L.E.!.!.E.C.V.T.@XZX).c + 6 t.u.t.h.I.K.m.g.l.I.I.I.g.+.R +.m.L.L.M.M.C.L.V.l.s.+.+.+.W ! s.s.s.s.h.W W W +.+.+.s.l.L.F.L.L.L.L.K.m.! ! ! l.I.I.K.g.W m.I.P.l.u. .| 1 + 1 v.ZXZXT.l.m.C.L.U.E.L.m.m.+.}  . . .| u 8 1 8 p b T T T i T T L L P R P P } } } } } } X.X.X.X.X.` o.o.o.o.o.O.O.` K K K K O.O.o.o.O.O.O.O.O.o.o.o.o.o.O.O.o.o.o.o.o.o.' o.` o.o.o.` ` X.X.X.X.P } } } } { t 8 8 u u t 1 1 w y | .. . . .R @.5.C.W.W.W.C.C.I.K.OXZX|.t + < | u.k.l.K.T.V.Q l.K.I.I.m.s.W ! m.V.L.L.L.L.K.K.g.s.+.+.+.W W W  .f.u. .W s.+.W +.! d.m.F.L.L.M.m.I.U.m.! R ! d.U.I.K.l.j.l.K.K.f.r.u.u.6 + 3 v.ZX@XT.K.U.W.E.M.W.W.C.N.d.+.+.+.....T e 5 1 i V { { { p 8 w p p p r r r I J J J J J K K K P ( ( ( ) ) ) ) ) ) ) ` ) ` ) ' ) ' ' ' ) ' ' ' ) ) ) Y _ *.3.3.3.3.3.5.5.5.5.5.5.5.5.O.O.O.o.o.o.o.X.X.X.X.X.X.X.X.} } P H e e I X.g.@.@.+.@.g.V.I.W.A.!.!.C.m.I.@XZX).y > 5  . .t.k.P.K.x.g.l.K.T.T.d.! W +.m.U.K.D.M.L.L.L.m.d.! ! ! W W  .s. .u.s.W W W ! +.! s.l.K.K.L.L.L.L.D.m.W W  .l.I.I.K.d.! l.I.P.l.u.r.| , + 1 v.ZXVXI.m.M.C.L.L.I.C.V.l.+.W  . . .| y t , 1 p b T T T L T T L L L T L L { } } } / J e e P X.@.X.o.o.X.` o.o.o.o.o.' ' o.o.o.o.o.",
"O.O.O.O.O.O.O.O.O.O.O.O.o.o.O.o.O.o.o.o.` J e e ( } ....} } } } X.} L L R } } R T {  .T 5 1 y | ..+.} W ! d.m.L.Q.W.E.E.L.C.T.@XZXY.c + ,  .k.s.k.V.x.+.Q W g.I.l.+.R ! m.I.L.M.M.L.L.K.m.d.+.+.s.s.s.s.s.s.h.h.s.+.+.s.s.s.g.l.L.L.F.L.L.L.D.m.! ! s.m.K.I.d.W d.V.I.R.c.y.b t O 1 c.$XZXT.m.L.m.L.U.U.L.m.d.+.W  . ...| u 8 < y b b b b b i i T T R R R R P P } } } } } } X.X.o.o.o.o.o.o.o.o.` O.O.` K K K K O.O.O.O.O.3.3.3.O.O.O.O.O.O.O.O.O.O.O.O.o.' o.o.' o.o.o.o.X.X.X.X.X.} } } } } L p 8 1 8 u u p t > 1 t {  .u...} ~ o.N.C.W.W.W.C.U.C.I.OX&X).c + t | u.k.v.Y.V.s.Q +.m.K.l.+.W W m.m.L.L.C.V.V.I.l.g.d.d.s.+.+.f.u.f.f.u. .s.s.+.! s.d.m.L.L.L.M.M.I.L.m.! R s.m.Q.K.d.w.l.R.R.x.u.n.y.> + 6 v.&X@XQ.K.U.W.L.C.W.W.C.g.+.+.+.+.} } y 5 5 i { { i { { i w 1 w p r r r r r J J L J J K K K ( ( ( ` ` ) ) ) ` ) ) ) ' ) ' ) ' [ ' ] ' [ ' ] ' [ ) ) _ [ *.3.4.4.3.3.5.5.3.3.5.5.5.5.O.O.O.O.O.o.o.o.o.o.X.X.` X.X.X.} } } L e e L R @.@.+.@.+.g.V.C.!.E.E.!.L.V.T.@XZX).y + ,  .k.f.f.x.x. .Q W g.K.l.s.W ! m.K.K.D.F.L.L.L.m.d.s.+.+.+.+.s.u.u.u.s.s.+.! s.s.s.d.m.L.L.L.L.L.L.m.l.W | u.x.K.K.d.! d.m.K.K.c.y.b t O 3 v.&XVXU.m.E.M.E.W.E.I.V.g.+.W t.u.u.| c 1 , y y b T T T L L T T T { T } / / } } } } / J r e P ` X.o.o.X.X.` o.O.O.] O.O.O.O.O.O.O.O.",
"O.O.3.3.3.3.O.O.3.3.O.] O.] O.] O.o.` ` ( J e r ( / } } } } X.X.X.X.R P R R R R L { ..{ p w w p T | ..+.+.! +.N.W.C.L.W.Q.L.L.U.@X&XT.6 > 6 u.s.K.T.T.g.W s.l.I.g.+.+.+.g.V.L.L.C.L.L.K.m.g.s.+.s.s.s.s.s.h.s.s.f.s.s.h.s.s.g.K.U.L.L.L.L.L.m.m.d.s.s.d.l.l.s.W K.K.v.k.u.B 0 + , c.$X$XT.C.L.!.L.I.L.L.m.g.+. . . .| b t 8 8 8 V E b i i i L L R } R } } } } } } } X.X.X.X.X.X.o.o.o.o.o.O.o.O.` ] O.) K K K K O.O.O.O.3.3.3.*.O.O.O.O.O.O.O.O.O.O.O.] O.] O.] o.X.X.X.X.` X.X.` } } X.} } L i p 8 < 8 p p p u 8 1 1 p E  .u.+.X.X.@.N.C.W.W.C.E.W.L.V.OXZXT.6 > 0 B u.c.x.v.P.t.g.m.m.l.d.d.l.m.m.L.L.C.V.L.I.V.g.d.g.d.+.s.f.u.u.u.s.s.s.s.h.s.d.N.m.L.L.F.M.L.L.m.N.+.! s.d.K.l.e.W l.Y.R.x.y.y.t O , l.@XBXU.L.L.E.U.C.C.Q.V.g.+.+.+.+.{ T e w 7 p { ..{ i { { i w w e r r r r r J J J J J K K K K ) ) ` ) ` ) ) ) ' [ [ [ [ [ [ [ _ ] ] ] [ [ ] ] ] [ [ [ _ [ *.*.7.7.7.4.3.3.3.3.3.3.3.3.3.3.3.O.O.O.O.o.o.o.o.o.` X.X.X./ / } } J I r e R X.@.@.+.+.f.N.E.B.A.W.Q.I.K.P.$X$XP.w > y u.u.v.Y.T.l. .s.l.I.d.s.! s.l.K.L.L.F.L.L.L.m.l.d.s.s.s.s.s.u.u.u.u.f.s.s.h.s.s.l.K.K.L.L.L.L.L.m.l.u.y.u.f.l.l.d.! L.L.V.f.y.B 0 + , c.%X$XT.M.E.!.H.J.E.C.m.f. .|  . . .b t 1 5 t { E b i L T T R R R } } } } } } } } } / / J J e J ( o.o.o.O.O.` o.O.O.] ] ] 3.3.O.O.O.O.",
"3.O.3.3.3.3.3.O.3.3.3.] *.] *.] O.' ` ` ) J e r J ( } X.X.X.X.X.X.X.X.X.} } R R ..T y i { { p , w b s.l.+.W ! ! N.M.W.!.W.E.E.L.K.VXZXP.5 + 6 f. .f.K.T.oXoXK.g.W +.s.g.d.m.C.L.L.L.I.K.V.l.s.s.+.s.s.s.s.s.s.s. . .s.s. . .g.K.U.L.L.L.L.L.m.l.s.! ! s.l.K.Q.oXT.K.k. .E n , O | %XZX_.m.E.Q.M.L.I.K.m.g.+.} |  .| b 8 < < u B b i T T T T T L } } } } } } } X.} X.X.X.X.` X.X.o.o.o.o.O.O.O.] ' ] ] Y K K K K O.O.O.3.3.3.*.*.3.O.O.O.O.O.O.O.O.O.O.] ] ] ] ] ] o.X.X.` X.` X.` / X.X.X./ J r 8 8 8 p p 8 w p V p , , t {  ...@.X.~ +.N.C.W.C.M.E.U.L.Q.VX@XT.+ , v | y.u.x.).(.T.K.g.! W W +.m.m.L.L.C.V.L.I.K.g.+.+.+.+.+.+.u. . .s.s.W W s.d.d.m.m.L.L.L.L.L.C.m.d.d.d.s.! j.K.oXoX].K.h.E p.0 O > i.#XBX_.E.L.M.M.C.L.I.V.s.} R } s.+.T y 1 e { { i i { ..{ { p w w e e w r r r I J J J J K K Y U Y ) ) ) ) [ [ [ [ [ [ _ [ [ [ [ _ [ ] [ [ [ ] [ _ [ [ _ _ _ %.*.7.7.7.7.3.3.3.3.3.3.3.3.3.3.3.O.O.O.O.O.o.o.X.o.o.o.` X.} / / / } L r 7 r } @.g.+.} +.@.Z.A.E.W.W.Q.I.I.I.$XZXP.t > t u.E f.v.T.oX|.K.f.! s.d.d.d.m.K.K.L.L.L.L.m.m.d.s.+.s.s. . .u.u. .+.+.s.s.+.! l.K.K.L.L.L.L.L.m.l.u.| | u.l.K.Q.Q.Q.I.g. .E u < O y.%XZX_.V.Q.!.B.J.E.F.m.g. . .|  .| b t , 1 u | b i T T T R R } R } } } } } } } } } } } / J J H H P ` ` o.O.O.] O.] ] ] ] *.3.3.3.] ] ] ",
"*.*.3.3.4.3.3.3.3.3.3.3.3.*.*.3.O.' ` K K J J J J J / X.X.X.o.X.P P } } X.} } } } { L L { { T y 8 t b  .s.f.+.~ ! m.E.!.E.B.A.E.K.I.VXZXK., > c u.|  .l.K.k.W W s.+.+.d.m.I.L.L.m.m.m.K.K.g.+.+.s.s.s.+.s.s.s.h.s.s.s.s.s.f.l.K.m.L.L.m.m.U.K.l.s.s.s.! ! s.g.K.h.W w.i.x O + M &X%X_.I.L.C.B.E.Q.I.l.+.W E  ...| b 1 + + q u b b T T T T T T { } } } } } } } / / ` X.o.o.o.o.` o.O.O.O.O.O.3.3.] ' ) K K K U U U U _ *.3.3.3.*.*.*.*.*.*.3.3.3.' ] 3.3.3.*.] O.O.O.O.O.` ` ` ` o.` ` / P J e e 8 8 8 8 8 8 w w p p y w 1 1 y  .+.+.! R +.C.L.M.W.E.E.I.L.Q.OXZXf., + t y.E | c.x.f.W W s.s.s.! m.L.L.m.N.C.L.m.V.m.g.s.s.s.s.s.s.u.u.u.s.s.s.s.s.s.d.L.U.F.m.M.L.L.L.m.d.+.s.d.W W s.R.l.E E n.v O O r.@XCXQ.M.E.E.W.W.I.C.l.f.}  .s.s. .E e 5 L T L L { ( { { w e e e e r r r r J J J J J J K K ) ` ) ) U ) [ _ _ [ _ [ %.%.%.[ _ [ [ $.%.%.%.*.%.*.%.[ _ _ _ _ _ $.%.=.7.7.9.7.7.4.4.4.4.4.3.3.3.8.3.] ' ' O.O.O.O.o.o.` ` ` X.X.} } } / ( ( , e } +...} ..@.@.N.E.!.W.C.C.I.I.(.$XZXx.> > b f. . .c.K.k.W Q s.s.+.d.m.L.U.L.M.m.F.E.L.d.s.s.s.s.s.t.u.u.u.f.s.s.s.s.s.d.m.K.K.U.L.m.m.U.L.g.| |  . . .s.m.K.s.W  .f.c O + V &X%X(.I.C.M.B.B.J.J.M.d.} R | | | u 1 1 t b b u b b T L T R R } R } } } } } } } X.} / P J H e e H H K K ` ' O.] O.O.3.3.3.*.3.3.*.*.*.3.",
"_ _ _ [ _ _ _ _ -.-.*._ _ [ _ _ _ _ Y K K K K J J J J P ( P K K P P P P P P L L { L i i L i u p 8 1 8 t |  .+.+.! d.M.L.W.E.E.E.U.K.oXVXoX ., > b | t.E E W W W s.+.+.d.m.I.L.L.N.m.C.K.V.g.+.s.W s.f. .W  .s.W  .s.h.s. .s.g.K.L.F.m.m.m.K.K.m.d.d.s.! W Q Q Q W w.t.E > + N ).$XoXT.K.C.E.E.E.I.l.+. . . .| | b t < < < 8 8 t p y y y y L L L H H H L L L L H J J K K P K K K P Y Y ` ` ` ' ' ) U K K K K U U U U U _ _ _ Y U _ _ _ _ _ ] _ ] _ ] 3.*.] _ _ _ ) ) ) ) K K K K K K K J H e e w w 8 8 8 8 8 w w 1 1 w 1 , > 1 t  .+.+.R R +.m.L.L.E.E.L.L.U._.@X@Xy.> > b u.y.b E T Q W +.s.d.d.m.L.L.m.g.m.C.L.V.g.+.! +.d.+.} W u.t.W  .f.s.W d.s.d.F.U.L.m.m.L.L.L.m.d.+.s.d.W W W  .E E E | + + v b.@XOXW.A.E.E.E.W.C.m.f. . . . . .T w 5 , 7 7 w w e e e e w w e e e e e e J J J J K K ) K U ) _ [ _ _ [ [ _ _ _ _ _ _ _ $.%.%.%.%.%.%.*.%.*.%.*.%.%.$.$.$.$.$.$.$.$.%.%.%.$.$.$.$.$._ Y Y U _ _ ) U U U Y K K K P ` ` ` ( / / / / / L J L w 5 5 r } @.+.} X.5.C.W.W.W.W.L.I.I.oXVXoX .1 > E |  .E E  . .W s.s.s.d.m.L.U.L.m.m.F.U.L.d.s.h.W s.f.W W  .u.W  .s.h.s.! +.l.K.L.L.m.m.m.L.L.l.u.y.u. .W Q Q W W W  .E , + b ).%XoXI.V.C.E.E.E.J.M.+.!  . .| | u 8 1 1 t b b u u i i L L L P P H H I I H I I I H H H H J H H H H H H K K U ) ) ) ) ) ) ) _ _ _ _ _ [ [ ",
"U U U U U U U U U U U U U U U U U U K K K K K K J J J J J H H H H H H H H e 7 w e w w w w w 8 8 8 , > 1 p {  .s.W ! d.m.L.E.W.L.E.L.L._.VX#X| + < | k.W Q W s.s.s.+.+.g.m.L.L.L.d.d.m.I.K.g.s.s.s.V.K.g.s.s.s.+.g.l.V.g.s.s.l.K.K.m.d.l.K.K.K.V.s.h.h.s.! W W W E i.t.3 + 3 v.ZXoXT.V.m.C.W.E.L.m.+.R R  .u.| b , < > > > , , 1 5 7 7 7 7 7 7 e 7 e e e e e e e e H H H H H H H K K K K U U U U U U U U U U U U U U U U U U U U _ _ _ _ ) _ ) U U ) ) U U U U ) U K K K K K K J H H H H H H e e w w w w w w 5 5 1 1 5 5 1 1 1 1 i R  .+.R W d.C.L.E.E.W.L.L.E.Q.ZX Xb + > r.u.b E  .s.s.s.s.s.d.m.C.L.m.g.d.m.U.K.l.+.+.g.V.l.g. .s.s.s.l.K.m.s.d.s.l.L.K.m.d.d.L.L.L.m.d.+.s.d.s.h.t.Q E k.t.6 O x b.$XOXQ.W.A.A.E.A.Z.N.+. . .u.u. .b 6 1 , 1 5 5 5 5 5 7 7 7 e e e e e H H H J J J K K K K K U U U ) U U _ _ _ _ _ Y _ _ $.$.$.$.$.$.&.$.$.-.$.$.$.$.$.$.$.$.$.$.$.$.$.$.$.$.$.$.$.Y Y Y Y U U U U U U U U U K K K K K H H H H J e e e e e e e 5 , 5 L ....} X.@.@.Z.W.W.E.A.C.C.I.#XZX#X{ + 1 | u.| T  .f.s.s.s.s.d.m.L.L.L.d.d.m.K.L.l.s.d.s.V.K.g.s.s.s. .g.l.m.g.s.s.l.K.U.m.d.l.L.L.D.m.t.u.s.s. . .W W W s. ., + 1 b.ZX#X(.V.V.L.E.!.E.m.d.W W u.u.| b 1 , > , 1 8 8 8 8 w w w w 7 7 7 7 7 e e e e e H e e H H H J J J H K K K K K K K U U U U U U U U U U U U ",
"U U U _ _ [ -.-._ _ _ _ _ _ _ _ U U U U U K K K K K K K K K K K H H H H H 7 7 7 5 5 w w 1 1 , 1 8 < , , 1 p R  .+.! ! d.M.W.E.L.L.L.M.I.@XZXP.6 + t u.k.k.s.s.h.s.+.+.g.m.L.L.C.! +.N.L.I.V.g.+.l.K.I.T.m.s.s.l.T.K.K.g.h.g.K.I.I.d.! d.K.K.K.K.s.s.h.h.g.d.f.k.p.i.x + > h.#XZXT.I.V.V.L.W.C.m.+. .R  ...| b 8 > < , < 1 1 1 1 7 e 7 e e e e e r r e e e e e e H H H H H J K K K U U U U U ) ) ) ) _ [ [ [ [ [ _ _ _ _ Y Y Y _ _ _ _ _ U U U U U U U K K U U U [ ' ' ) ` ) ` ) K K K K K K K K r r r r r r r r p p y i c y y 5 5 t { l.f.R R @.C.L.E.E.L.L.L.I.oX&X).t + 1 | u.f.k.k.f.s.s.+.+.L.m.C.C.d.! d.I.I.V.g.s.g.V.K.I.l.s.s.m.I.I.K.l.s.g.K.K.K.l.s.! C.L.L.m.d.+.s.h.k.l.f.E t.p.N + > k.*XVX_.C.C.A.A.A.C.N.+.}  . .f. .T y 6 5 w e e e e r r H H H K K K K K K K ) K K K K Y Y ) ) U _ _ _ _ U U U _ _ _ _ $.$.%.-.&.&.&.&.&.:.=.&.&.&.&.&.&.$.$.$.&.&.&.&.&.-.-.-.=.=.&.-.&.&.&.$.$._ U U Y _ Y U U K K K K H H H H H H e H e e e e r r e w e } g.@.X.X.@.Z.W.E.W.!.W.V.V.#XZXP.p + t y.k.f.f.f.f.s.s.s.d.m.L.L.L.! s.l.K.K.K.g.s.m.K.I.T.m.s.s.l.T.K.K.g.s.g.K.I.U.d.! d.L.L.m.K.+.s.h.f.f.l.k.l.f.u.y + > u.@XZX_.I.V.C.L.W.L.m.d.! W E  .| N 0 1 1 1 1 1 , > > , 1 1 5 5 7 7 7 e H H H H H H H J J J K K J J K K U U U Y U ) ) [ [ _ [ [ [ [ [ ) ) ) U ",
"_ _ $.-.*.=.7.7.4.4.4.=.=.=.=.4.=.=.*.*.*.] ] ] ' ' ` ` ` ` ` ` ~ X.` ~ P P L L e e e w w 8 8 8 8 8 8 8 < 1 p E s. .W +.g.V.I.L.M.W.W.m.I.$X%Xb.+ + 3 u.v.i.w.s.s.+.s.g.m.L.L.M.! ! d.m.I.T.l.W l.s.l.I.K.W ! K.K.l.s.W s.l.K.K.L.s.W d.K.K.K.K.l.g.s.s.s.s.s.i.n.N + + E @XCXQ.U.L.L.L.I.C.l.+.R  . . .| u 8 , 8 8 u u y y y y T T L P R R } } } / J r e e e J J K K K K Y Y Y ) ) ' _ ' [ [ _ [ [ [ %.*.*.$.$.*.*.$.$.$.-.*.*.[ [ [ [ _ _ _ ) _ ) U U _ [ *.*.3.*.*.*.*.*.3.O.] ] ' ` ` ` ` ` ` ` / / } } } } } { T R W R Q b t 1 t | l.+.R R N.m.C.W.W.W.C.I.V.@XZXx.> + 6 k.u.u. . .s.h.h.s.I.m.C.m.d.W +.L.I.K.l.+.W +.l.I.K.! ! I.T.g.+.g.W l.I.T.m.s.W W m.C.L.m.d.+.s.s.h.t.u.k.p.N > + k.|.ZXoXI.V.C.C.A.C.N.@.! R  .u.r.M t t y T T L T P R P P } / / ` ` ` ` ` ` o.o.o.' ] ] 3.3.3.*.*.%.=.%.%.%.$._ _ $.$.$.&.&.<.<.0.1.0.1.0.0.0.0.1.1.1.1.1.1.1.1.:.:.<.<.<.<.<.<.0.0.9.9.<.:.:.:.*._ U U ) ) U U K U U ) ` ' ' ' ` ( / / / / / / H / } L w 7 L ..@.X.X.X.5.C.E.E.E.!.W.N.I.$X$XP.+ + t u.c.u. .s.s.s.s.g.m.L.L.D.W W s.V.T.I.l.W l.s.g.I.K.W ! K.K.l.s.W s.l.K.K.L.s.W d.D.K.D.L.d.d.d.s.s.u.y.y.k.b > + W @X$XT.L.C.C.L.I.I.l.s.W  . . .| v 0 < t y b u p 8 , , 1 1 w w e e r H H H H I P P P P / / ( ( ( ( ( K ) ) ) [ [ ' ' [ ] ] ] *.*.*.*.*.[ _ _ _ ",
"_ $.-.=.7.9.9.9.9.9.9.9.7.7.7.7.9.6.9.7.4.3.3.3.3.3.3.3.5.5.5.5.o.o.o.X.X.X.} } L r p w w w p p 8 u V u 8 < 1 p  . .} } +.g.m.L.M.Q.W.m.l.(.$X&XM > + c p.t.w.h.s.+.s.g.V.L.C.m.! ! ! d.I.T.V.s.d.W +.K.K.! s.Q.V.d.! ! l.K.K.K.l.! W s.m.K.K.K.g.g.s.+. .s.s.u.S 2 O 6 ].ZXBXM.E.E.E.W.C.N.+.R R  .y.| b 8 1 1 u b b b b T R R R R R R } } } } X.X.} J e e H J K K K K ) ` ) ) ' ) ' ' _ ] *.*.*.%.*.*.*.*.$.$.*.*.*.*.&.=.=.=.*.*.*.*.[ [ [ [ _ _ ) _ [ *.,.7.3.3.3.3.3.3.3.3.3.3.O.O.o.O.o.O.` ` o.o.X.X.X.} X.R R R W Q W Q V 8 < p { +.+.! +.d.M.C.W.W.W.L.V.Q.@X#X .> > c u.u. . .s.f.g.g.L.L.C.m.+.R ! m.I.I.K.g.! W s.V.Q.d.! K.U.s.W d.s.K.T.K.f.W W W m.C.L.m.d.+.s.s.s. .u.k.| > + 1 #X&XOXI.V.C.A.C.Z.N.@.X.R } +.u.b t 6 t b E R T R R R R } / X.` ` ` o.o.o.O.O.O.3.3.3.3.3.3.3.4.7.7.,.,.,.=.%._ $.$.$.&.<.<.1.q.4X4X3X4X4X4X4X4X3X4X3X3X3X3X3X3X4Xq.4Xq.4Xq.0.0.0.0.0.0.0.9.0.:.7.3.*._ _ ) U U ' _ ' ] O.O.O.O.X.X.o.o.o.o.o.X.X.} / J L r e w } } } X.@.N.M.A.M.!.!.C.V._.$X%XE > + b u.r. .k.s.s.s.g.m.L.L.m.W W W f.K.T.K.s.d.W ! U.L.! d.Q.V.d.W ! l.K.K.K.l.! W s.m.L.L.L.N.d.e.s.s.u.y.| B , + t (.ZX@XN.C.A.W.W.I.m.+.R E  .y.| v 3 3 1 y b E V u p 8 8 1 8 8 p i i L L L L P P P P P ( ( ( ( ` ` ` ` ' ) ) [ ' ' ] ] ] ] ] [ *.*.*.*.%.[ [ _ _ ",
"$.&.=.9.9.9.9.9.9.9.9.9.7.4.4.4.6.6.6.4.4.3.3.3.3.3.3.3.5.5.3.5.O.o.o.X.X.X.X.} L r w 1 8 w p p p u u u 0 8 8 1 y E  . .W +.g.m.A.E.W.L.V.P.|.*XXXM + > E h.h.k.s.+.s.g.V.L.C.m.! ! ! ! g.K.I.K.m.l.m.K.m.d.d.K.K.m.m.m.U.I.K.m.! ! ! s.l.K.K.V.h.s.+.s.s.f.s.i.4 O 3 n.AXAX].M.H.E.!.L.N.@.{ {  .| | b 8 1 8 v u b b b c L T W P P P P P P } } } X.X./ I e H J K K K ) ` ` ' ` ' ' ' [ _ *.*.*.*.*.*.*.*.*.*.*.*.*.&.=.=.=.=.=.%.%.*.*.*.*.*.*._ _ _ _ *.*.,.,.4.4.4.3.*.*.3.3.3.3.O.O.] ] O.O.` ` ` ` ~ P P P R R R R W Q Q Q | V 8 1 t R +.+.R +.N.M.W.W.W.L.U.L.Q.VX(.Q > , u.u.f.f.f.h.d.d.V.L.L.d.! ! ! ! V.I.I.I.V.l.l.V.m.d.d.m.L.m.l.m.K.I.K.k. .W  .W m.C.L.m.d.s.s.s.s.u.k.i.6 + t v.VXOXQ.I.V.C.A.Z.N.@.X.} +.+.} Q 6 t c b T E R R R R P P P ~ ` ` ' o.' o.O.O.O.3.3.*.*.3.3.3.3.4.,.,.,.,.7.,.-.$.$.$.&.<.1.1.q.q.:X3X3X3X3X4X4X4X:X:X3X3X3X3X:X3X4X4X4X4X4X4X3X4X0.0.0.0.0.0.<.9.9.7.7.*.[ _ _ [ 8.8.3.3.O.] ] ` O.o.o.o.o.` X.X.X./ J J } L r 5 r { } X.X.@.N.A.B.A.!.W.L.I._.$X|.B + , b u.f.k.s.s.s.l.m.L.F.m.W  .W  .k.K.I.K.m.l.m.D.m.d.N.D.K.l.l.m.K.I.K.m.! ! ! +.m.L.U.F.d.d.e.d.h.f.u.r.< + 3 x.$XBXQ.M.B.A.E.C.m.+. .R | | r.b 0 3 t N y i i i u p 8 8 < 1 w p p p i I L L P P P P P ( ( ( ( ` ` ` ` ` ' ' ' ' [ ] ] [ ] ] [ *.%.%.%.%.*.%.$._ ",
"&.=.9.q.q.q.9.9.9.9.9.9.9.9.9.9.6.6.9.9.9.7.7.7.3.3.3.3.3.3.-.-.5.O.O.O.o.@.X.X.} L w w w i i u p p 8 p u u 8 1 1 i  .+. .R +.l.W.M.C.W.Q.K.P.|.ZXc.> + 6 p.k.t.s.+.s.g.V.L.m.m.! ! ! R W l.T.oXK.T.U.l.d.d.d.W K.K.I.T.Q.K.m.d.W +.s.+.d.K.I.m.s.s.s.s.s.i.E N O O r.&XZXQ.m.E.H.E.E.C.g.} { { ..| b 0 1 1 v | u b E T T L T R R R R } X.X.X.X.P X.@.o.P J J J K K Y ` ` ' ' ' _ [ _ [ -.*.*.*.*.%.%.%.*.%.=.=.=.&.=.=.=.&.-.-.=.*.=.*.*.%.%.*.%.$.$.%.=.7.7.7.4.4.4.4.4.4.4.3.3.*.] ' ] ] O.3.' ' ' ` ` X.X.X.R ~ +.X.R R W W b | V 8 1 i  .+.W ! d.m.L.W.L.C.L.m.I.CX$Xh., > y E u.f.s.+.s.g.m.U.L.d.! s.+.W h.l.I.T.T.T.K.K.W d.j.d.l.I.T.K.oXT.l.W E  .t.W V.C.L.M.N.d.s.s.t.f.p.N + + | &XOX].E.L.L.C.C.C.@.X.R } +...R y 5 c | | E T Q { R P P P ~ ` ` ` o.O.O.O.O.5.3.3.3.3.4.4.4.4.4.4.9.<.<.0.q.q.<.=.$.&.:.1.1.0.1.1.4X4X6X6X6X6X6X6X6X4X6X6X6X6X6X6X4X4X4X4X4X4X4X4X3X3X3X0.0.0.0.0.9.9.7.*._ _ _ _ *.*.3.*.3.O.] O.O.O.O.o.o.o.` X.P / } } } L i r 1 i ..@.X.~ @.M.!.A.M.W.W.C.I.OXZXc.1 + 0 y.k.u.s.s.d.j.m.L.V.m.W  .t.E  .l.Y.oXT.T.T.l.d.d.d.W K.K.T.T.T.I.m.h.Q ! s.! j.U.U.M.d.d.d.d.f.r.B v O + | @XZXI.m.E.A.A.W.C.g.} | | | | M t 1 1 c | E T T T b u p 8 8 w p i i L L L L J P P P P ( ` ` ` ` ` ' ` ` ' ] ] ] ] [ [ [ [ *.*.*.*.*.&.&.&.=.&.%.$.",
"$.:.0.1.<.1.0.0.0.0.0.0.0.9.9.9.9.9.9.9.9.=.4.4.4.4.4.4.4.4.3.5.3.5.5.O.O.o.o.X.X.J e w e i i p y y y p p p t t 5 1 t  .s. .W  .V.Z.C.L.W.W.L.M.BXoXs., + v a.z.s.s.d.m.L.L.m.j.W s.d.s.Q Q f.v.K.l.k.s.t. .t.t.w.f.v.K.x.s.E Q h.s.t. .s.m.I.C.g.+.g.s.w.p.a.+ + b |.ZX#XK.m.W.L.E.C.d.! } } R u.b 1 1 w b b b b T E T R R R R P P R } ~ X.` ` ` ` ' ' Y K H K ) ` ` ' ' _ _ _ -.$.-.-.%.&.-.-.&.%.=.=.=.=.=.=.,.,.,.,.:.:.:.:.:.=.&.&.=.=.=.&.-.$.$.=.9.7.,.,.9.9.6.4.=.4.4.4.3.3.3.3.3.O.O.O.O.] ] o.' ` ` ` X.X.} } R R R T R T T i w 1 p ..u...} +.m.W.E.M.C.A.C.I.OX$Xk.+ + E t.W f.d.+.l.K.K.D.h.W s.h.h.Q E s.x.R.v.f.W s.s.t.t.s.g.v.R.R.s.E E t.f.t.E g.V.C.L.M.d.e.d.t.p.a.O + v |.$XoXQ.L.L.L.L.V.l.+. .|  ...V t 1 b T E E R R R R R } X.X.X.X.o.o.` o.o.O.5.5.3.3.3.*.=.=.4.4.6.6.:.9.9.9.q.0.<.<.&.&.;.:X4X4X3X5X6X6X6X6X5X5X5X5X5X6X5X6X5X6X5X6X>X>X5X>X6X4X4X4X4X4X3X3X0.0.0.0.0.9.9.:.$.Y $.=.7.7.7.3.3.3.3.3.O.O.] o.' ` ` X.X.X.} } } } R R L 7 7 } g.@.! @.C.C.C.W.W.E.A.C.VXoXu.> + v p.k.h.d.d.M.L.C.l.l.E u.k.u.E E k.v.v.x.k.i.t. .t.t.t.f.v.v.x.i.E Q h.h.s.! d.D.U.L.N.! d.d.E p.r.+ O N |.&XoXC.M.W.C.W.C.f.}  .| V u.V 1 1 t T E Q T T T T { { i w w w p r I I L P L P P K P ( ` ` ` ` ` ' ' ' [ _ ] [ [ [ %.%.%.%.=.=.=.=.=.=.=.=.:.:.&.$.",
"$.:.1.1.1.1.0.1.0.0.0.0.0.0.0.0.<.<.9.<.<.<.:.=.4.4.4.4.4.4.4.3.3.3.3.5.O.o.o.o.o.P e e r L i i y i y p p t y y t 5 5 b  .u. . .g.N.C.W.A.A.B.H.OXBXT.c + < V a.f.s.d.m.K.L.m.d.d.d.l.g. .E T E E E E E W t.s.k.W W w.w.W E W t.t.i.u.s.g.V.I.C.m.d.s.t.i.a.h O , c.$X@XI.K.I.L.L.L.g.! W  . . .b t 1 1 t b b b T T T T R R R R P / P } ~ ` ` ` ` ' ] ] U K K K ) ` ' ' _ _ -.-.-.-.$.%.-.-.-.-.&.&.&.&.=.=.=.=.<.<.;.;.;.;.;.:.;.:.:.:.:.:.&.&.&.$.$.,.0.9.9.9.<.<.9.:.4.=.4.4.4.3.3.3.5.5.O.O.O.] ] ' ' ` ` ` ` ` } } } P R R R L L L e 1 1 b |  . .} s.C.E.L.A.A.C.I.OX$XY.E + 6 E s.f.+.+.m.K.R.K.j.s.s.s.t.w.W W W t.t.E E k.h.t.W E E W E E E E t.k.k.k.i.l.x.L.E.G.d.e.d.t.p.# # + ).oXVXQ.E.W.L.L.L.l.s. . . ...V t 8 1 b T T E T T R R } } X.X.` X.X.X.o.o.o.O.5.3.3.3.*.=.=.=.=.6.6.6.9.9.0.q.q.0.1.1.&.&.>.:X6X4X>X5X5X5X>X5X5X5X5X5X5X5X5X5X5X5X5X5X>X>X>X>X6X6X6X4X4X4X3X3X3X3X0.0.0.1.0.:.&.$.$.=.7.7.7.4.3.3.3.3.] ] ] ] ' ' ` ` X.X.X.} } } R R R f 7 Q +.+.+.+.g.V.I.W.A.A.A.A.OXVX).v O # B p.h.e.N.M.L.I.x.l.i.k.k.k.t.E E E E E E E E r.i.k.E | r.r.E E W t.t.s.d.d.j.D.U.L.m.d.+.s.i.t.x O 2 n.&X@XI.Z.C.C.C.C.g.} {  .| | b u 1 5 y Q Q Q T T T T { { i w w w r I J J P P P K K K K K ` ) ) _ _ _ _ [ [ [ %.[ %.%.%.%.-.&.=.=.=.:.:.:.:.:.6.6.:.&.",
"&.1.0.0.1.1.1.1.0.0.0.0.0.0.0.0.1.1.<.<.<.<.<.9.6.6.4.4.4.4.4.4.3.3.3.3.O.O.o.o.o.P e e r L L i y i p p p p y y y t 5 5 T u.u. .R @.C.L.L.M.B.E.L.BXZXx.> O 9 r.f.s.d.m.U.U.m.d.s.s.s.s.h.s.W E W W W W t.s.s.s.W W W E W W s.l.E i.s.s.d.m.L.L.L.d.W i.p.n O O f.#XZX_.m.K.I.L.I.m.! Q W +. .| 1 1 5 t b b b c T T T T R R R R } / } X.X.` ~ ` ' ' ] ] ) K K K ` ' ' ' _ _ -.-.-.-.-.-.-.&.=.=.&.&.=.=.=.=.<.<.<.<.<.:.:.:.>.>.:.:.:.>.:.:.:.:.&.&.&.<.0.0.9.0.9.<.<.9.6.4.4.4.4.4.3.3.5.5.5.3.O.] ] ] ' ' ` ` ` X.X.} } } P R R P T T p 1 , 8 b |  . .! d.L.E.W.A.C.C.Q.OX#X|.> > 6 k.f.W s.V.K.K.D.j.h.h.s.W g.s.W W W W W W s.s.s.t.W W W W W W s.s.s.s.s.s.s.V.U.E.M.N.d.h.p.x O O y.%XZXQ.M.L.E.E.L.l.+.W W  . .| t , < t b T T R T T R R X.X.X.X.X.o.o.o.o.o.O.O.5.3.3.4.4.=.=.4.6.6.6.6.9.9.0.q.0.0.0.1.;.;.>.:X6X>X>X5X5X>X>X>X5X7X7X7X7X7X7X7X7X7X7X7X>X>X>X>X5X>X6X5X4X4X4X4X3X3X3X3X0.1.0.<.&.$.$.=.9.7.7.4.3.*.3.3.*.*.] ] ' ' o.` X.X.X.} } } } R R L 7 y T +.+.+.} g.C.W.A.A.A.E.E.BXZXc.< O 9 y.h.d.d.m.W.L.x.s.u.u.u.i.f.u. .E E E  . .t.u.i.i. .| | E E W s.g.W s.d.d.j.D.L.L.L.d.W t.k.c + + a.+XZX(.m.Z.W.C.L.m.+.T E ..| | 3 1 w p c Q Q Q L T T T { { i w w e r I J L K P P K K K P ` ` ` ` _ _ _ [ [ -.%.%.$.%.%.-.&.&.&.=.=.:.:.:.:.:.:.0.6.:.:.",
";.1.4X3X1.1.4X4X3X4X3X3X3X0.0.0.1.1.0.0.9.<.<.<.9.9.9.4.4.4.4.4.3.3.3.3.5.O.O.O.o.P H e H L L i i i y p p p y y y y 5 , 6 | u. .T +.N.C.L.E.E.E.m.Q.ZX@X| + + V u.h.g.m.K.U.m.! d.! ! ! s.f.f.f.f.f.j.f.h.s.s.+.s.s.h.f.h.s.h.h.t.h.h.d.h.m.L.L.L.m.W t.t.> O a oXVXVXI.m.L.I.I.m.d.W W  .u.| y 1 1 t c b b T T T T T R R R R R } } X.X.X.X.` ` ' ' ] ] ) K K U ' ' ' _ _ -.-.-.&.&.&.&.&.=.:.:.=.=.<.<.<.<.<.<.<.<.<.<.<.<.1.<.1.<.1.<.:.<.<.:.:.&.&.<.0.0.0.0.9.9.9.<.9.6.6.4.4.4.4.3.5.5.5.5.*.] ] ] ] ' ` ` ` ` } } } } } } R T L T i 1 > 1 w b  . .W ! m.L.E.A.Z.C.I.T.#XZXE + >  .u. .c.V.K.K.m.d.d.d.d.+.d.s.h.h.g.f.s.t.s.s.h.h.h.f.j.f.g.g.g.s.s.W s.s.+.m.E.L.M.N.j.s.r.+ + < =XOX@XC.m.L.E.U.m.d.W R  . .| b 3 + , u T T R T R R R R ~ X.X.X.X.o.o.o.o.O.O.5.3.3.4.4.4.=.4.6.6.6.6.9.9.9.0.q.0.3X0.1.;.>.>.4X5X5X5X7X7X1X7X1X7XrX7XrXyXrXyXrXrXrXyXrX1X1X1X>X>X5X5X5X6X6X6X4X4X3X4X3X0.0.0.<.&.$.$.=.9.9.7.7.4.3.3.3.3.3.] ] ] ' ' o.o.X.X.X.} } } } R R L 7 y R +.f.R @.N.C.W.W.A.E.M.Q.ZX+XB O + B k.h.j.m.L.L.l.+.s. .W  .s.f.k.f.h.f.k.f.f.s.t. .u.s.f.f.s.s.s.h.e.d.j.d.d.m.L.L.K.l.W t.t.> + x .X&X$XP.m.C.W.A.V.d.R R  .y.| u , 1 p i Q Q Q Q T T T T { { i w w e r L L P P P P K K ) ` ` ` ` ' [ [ [ _ [ %.%.%.%.%.&.=.=.=.=.:.:.:.:.:.:.:.>.0.<.:.:.",
">.1.4X3X:X4X4X4X4X4X4X4X3X3X3X3X0.1.0.1.1.<.0.9.9.9.9.9.6.4.6.4.4.3.3.3.3.3.O.O.o.P H e I L L i i i i p y p p p w y y , , y |  .R } +.m.U.!.E.L.L.m.oXZX).0 O 3  .f.l.V.K.K.m.! N.m.m.d.s.s.s.h.W +.s.s.d.s.s.+.+.s.d.g.s.+.+.+.l.l.g.s.s.m.M.L.m.K.h.w.x O + v.ZX#XK.L.L.L.I.U.d.+.W  .s.| y 1 1 t b b b c T T T T T R R R R R } } X.X.X.X.` o.O.] *.*.) K K U ' ' _ _ *.*.*.*.=.&.=.=.:.:.:.:.<.<.<.<.<.<.<.<.1.1.1.1.1.1.1.1.1.1.1.1.1.<.:.:.:.&.&.<.0.0.<.0.0.0.0.9.9.9.9.9.4.4.4.3.3.3.3.3.3.*.*.] ] ' ` o.o.X.X.X.} } } } +.R L T p 1 1 w 1 t |  .W W d.m.A.A.A.W.L.K.oXZX|.5 + 6 E s.x.x.K.V.m.+.e.d.m.l.! +.s.s.g.g.s.+.s.s.s.s.s.s.+.W s.+.+.+.g.l.l.g.! m.L.L.D.m.h.r.0 + O  X+X$Xm.E.L.L.L.m.d.+.} } f.{ t t 1 > < v T Q T R R R R R X.~ X.o.o.o.o.o.O.O.5.3.5.3.4.4.4.4.6.6.6.9.0.0.0.0.0.0.0.4X3X3X>.>.>.>X7X5X5XrX7X7X7XrX7XrXrXrX7XrX7XrX7XrX7XrXrXrXrXrX7X7X7X7X5X5X5X6X6X4X6X4X4X1.0.1.&.$.$.:.9.9.7.7.4.4.4.3.*.*.3.] O.' o.o.o.` X.X.} / } R L } R y 7 y } f.} +.g.V.W.W.!.E.H.M.oXZX).9 O 2 r.k.l.m.L.L.N.! g.l.l.f.s.+.s.s. .} s.s.f.s.s.+. .s.f.f.s.+.! ! l.m.d.! e.N.F.L.l.l.i.E c + > b.ZX+XY.K.C.C.A.A.d.+.W  .u.| u 1 1 t y b Q Q Q R T T { ( { { i w w e I J L P P P P P P ( ` ` ` ' ' [ _ _ -.%.*.%.=.=.&.=.=.=.,.<.<.<.<.>.1.1.1.1.1.<.>.;.",
">.:X5X5X4X4X6X4X6X4X4X4X4X4X4X4X:X:X0.0.0.0.0.0.9.9.9.9.6.6.6.4.4.3.3.3.3.3.3.O.O.P H e I J J L L i i i p p p p 5 y y 5 , 5 b |  .} } d.C.E.E.L.Q.m.K.ZX*Xu.> O b s.l.x.K.K.m.s.d.m.K.L.m.s.! +.+.+.+.s.d.s.+.+.s.s.s.+.! +.d.l.K.K.j.e.d.m.L.L.m.K.h.c > + B %XZXQ.N.C.Q.L.m.V.! W  .u...b 8 > c b b b c T T T T R R R R R R R X.X.X.o.o.o.o.O.O.] *.*._ K K U _ _ _ -.*.*.*.&.=.=.=.:.:.:.:.:.<.<.<.1.1.1.1.1.1.1.1.1.1.1.1.1.1.1.1.2.1.1.1.1.2.&.&.:.1.1.0.0.0.0.0.0.9.9.9.9.9.7.7.4.4.3.3.3.*.*.3.*.O.] o.o.` o.X.X.X.} } } X.R R T p 1 1 y 1 w b W } W ! d.Z.A.W.W.I.V.I.OXZXi.> > t u.x.c.K.C.m.d.! d.m.L.g.d.+.+.+.s.s.s.+.s.s.s.+.+.+.+.+.+.+.l.I.I.l.s.+.m.L.L.D.x.i.N O O V %XZXT.N.Q.L.I.V.g.+.W  .u.s.y 1 1 1 < < u E T R R R R R ~ ~ X.X.o.o.o.o.o.O.3.3.3.3.4.4.4.4.4.6.9.9.9.0.0.0.0.0.0.4X4X4X4X>.>.;X>X7X1X7XrXrXrXtXtXtXtXtXtXtXtXtXtXtXtXtXtXtXrXrXrXrXrX7X7X7X7X7X5X5X6X6X6X4X4X4X1.:.$.&.:.9.9.9.7.4.4.4.4.3.*.3.3.O.O.o.O.` o.X.X.} } } } L } } T e 7 L ..+.+.+.g.C.W.W.E.!.M.L.ZX%Xy.+ . m t.x.D.K.L.m.! s.l.K.K.l.+.+.+.+.+.+.s.s.s.+.+.s.s.s.+.+.+.d.g.L.m.d.! d.m.L.L.l.x.u.c > > E *XZXY.l.V.W.L.M.M.! W } u. .b 1 , u y b b Q T T Q T R { { { { i w w e I J P P P P P P ` ` ` ' ' ' _ _ _ $.%.%.*.%.=.=.=.,.,.<.<.<.<.1.1.1.1.1.1.1.:X1.>.>.",
">.,XuX>X>X>X5X>X6X5X6X6X6X4X6X4X4X3X:X0.0.1.0.0.0.0.9.9.9.9.6.9.4.4.3.3.3.3.3.O.O.( H e I J J L i i i i p p p p t w p t 1 1 w b .. .} +.d.m.U.U.Q.C.V._.$X|.b + 1 E k.x.K.K.K.m.! j.L.L.m.j.d.s.g.g.d.d.d.s.+.+.d.d.s.+.! +.g.m.U.K.j.d.j.K.K.K.D.g.w.6 + x Y.ZX#XE.m.C.W.I.m.s.W W  . .b 8 1 8 b c b b T T T T T R R R R ~ ~ ~ X.X.X.o.o.o.O.O.5.*.3.*.' U K ) _ -.-.*.*.*.=.=.=.=.:.:.:.1.1.1.1.0.1.1.1.1.1.1.1.:X:X:X:X:X:X:X:X:X;X2.1.1.1.1.1.;.;.:.1.0.q.q.0.0.0.0.0.9.9.9.9.9.7.7.4.4.4.3.3.3.*.*.] ] o.o.o.o.X.X.X.X.} } R R { { y 1 1 i y w 5 c }  .W ! d.M.W.W.L.L.I.T.ZX).c + 1 | p.c.V.L.L.d.d.d.V.U.m.g.s.+.+.s.d.d.+.+.+.+.s.d.d.g.s.s.d.m.I.K.g.! N.F.L.V.l.k.| 3 O 9  X XZXg.W.E.U.K.l.s.W W  .u.{ w 1 p t < < u R T R R R R ~ ~ X.X.o.o.o.o.o.O.5.*.3.3.3.4.4.4.4.6.9.<.0.0.0.0.0.0.0.:X3X4X4X5X>.>.;X1XrX7X7XtXwXtXtXtXtXtXtXtXtXtXtXtXtXtXtXtXtXwXtXwXwXrXrXyX7X7X7X5X5X5X5X6X4X4X4X1.:.$.&.<.9.0.9.9.7.4.4.4.3.3.*.*.3.O.O.O.` o.X.X.X.} / } } R R } L 7 e L s.+.+.+.l.C.L.E.!.B.C._.$X Xm . 2 S n.v.m.L.M.N.! g.K.K.m.g.s.s.g.g.g.d.s.s.+.+.g.s.s.+.+.s.g.m.K.m.d.d.N.L.L.V.x.p.r.3 + t Y.ZXoXY.m.V.W.L.N.+.W W  . .E t 1 8 b b y b T T T T T R L L ( } i w e r J J P P P P ` ` ` ` ` ' ] _ _ -.-.-.*.-.&.-.=.=.=.<.<.<.<.<.1.1.1.2.1.;X;X:X;X;X;X>.",
";X>XrX>X>X>X>X>X>X5X5X6X5X6X5X6X4X4X3X1.1.1.1.0.0.0.0.9.9.9.9.6.4.4.4.*.3.3.3.O.O.P H H J P J J L i i i y p p p p w w y t 1 1 t .. .} } +.g.L.Q.L.U.K.V.OXZXx.+ > c k.x.v.K.U.D.j.m.D.m.j.d.d.h.s.+.+.+.+.s.s.s.s.s.s.s.+.+.s.h.K.D.j.d.D.T.T.D.K.s.Q , + r.%X&XU.E.E.C.L.U.g.W  .| | { t , 8 v b y y T T Q T I R R R R ~ ~ ~ ~ X.X.X.X.o.o.O.] 3.3.*.*._ U U ) -.-.-.-.*.&.&.=.:.:.:.<.1.1.1.1.1.1.1.1.1.1.:X:X:X:X:X:X:X:X:X:X;X;X;X;X;X1.;X2.1.>.;.1.0.0.q.4X1.0.0.0.0.0.9.9.9.9.9.7.4.4.4.4.3.*.*.*.] ] ] o.o.o.o.X.X.X.X.} P R { } y 1 1 y | w , 6 W +.W R ~ N.W.C.M.L.U.K.OX$Xf.> > b y.c.m.U.E.m.d.d.m.I.s.+.+.s.s.s.s.+.s.+.+.+.+.+.+.+.s.s.s.g.l.V.l.d.M.U.L.l.x.k.N + O z..X$XV.W.M.M.I.V.g.+.W  . . .y 1 8 b u 1 < u T R R R R R ~ ~ X.X.o.` o.o.o.] *.5.3.3.4.4.4.4.6.6.<.<.0.0.0.0.0.1.1.3X3X4X5X6X9X9X;X1XrX1XrXtXwXwXwXwXwXwXwXwXiXtXiXtXiXtXiXtXwXwXwXwXwXwXtXrXrXrX7X7X7X5X5X5X6X4X4X1.;.&.;.<.0.9.9.9.:.4.=.4.*.3.3.*.3.] O.O.` ` o.X.X.} } } X.L L } { e 5 e +.....+.+.g.I.W.B.!.C.V.OX*Xn.O + m c.v.l.L.L.M.d.l.V.l.g.s.s.s.+.+.+.+.+.s.s.s.s.s.s.s.+.+.s.d.I.m.d.d.m.E.U.m.b.u.N > + | $X&XY.T.K.L.I.L.N.R W | | | t 1 1 b b y y b T R T L L P R L } } L w e e J P P P P ` ` ` ` ) ' ' _ _ -.$.-.%.-.-.-.&.=.=.<.<.<.:.<.1.1.1.2.;X;X;X;X;X,X;X;X9X",
">X>X1X>X>X>X1XrX>X5X5X>X5X5X5X5X5X5X4X4X4X4X4X4X0.q.0.0.0.9.9.9.9.7.4.=.3.3.3.O.' K J J J P J J L L L i i r p e p p p w w 1 1 1 w | s. .W d.V.L.L.Q.I.l._.ZX).y + > E v.x.x.R.T.OXoXU.D.j.h.d.s.s.s.s.s.s.s.s.s.s.s.s.s.s.s.s.s.l.K.].oX|.Y.v.v.h.t., + 6 oXZX(.U.F.L.E.L.g.+.} R ..| u 1 8 u b b T E E T R R R R R R R ~ ~ ~ X.X.o.o.o.o.O.O.] 3.3.3.*.] _ U U [ $.*.=.=.&.=.:.:.:.:.>.>.1.1.1.1.4X1.1.6X>X;X;X;X,X>X;X;X:X>X>X,X,X,X;X;X:X:X:X>.>.;.>.:X4X4X4X:X:X3X0.0.0.0.0.9.9.9.9.4.4.4.4.3.3.*.*.*.] ] ' ' ` o.X.X.X./ } } R T } T 5 5 y b E y , 5  .f.W ! d.m.E.E.M.L.Q.Q.VXoXb + < V u.V.m.L.Q.#XoXK.l.s.s.s.s.s.s.s.s.s.s.s.s.s.s.s.s.s.s.s.h.l.K.T.oXQ.Q.K.l.t.B 9 + x }.ZXoXV.W.!.C.I.g. . .+. . .| 1 1 b | u , < u T R R R R R X.X.X.X.o.` o.O.5.5.3.*.3.*.4.4.4.6.9.<.9.0.0.0.0.0.4X4X4X4X4X>X>X>X;X;X;X,XrXtXtX1XwXiXdXiXiXiXiXiXiXiXiXdXdXdXiXiXiXiXwXwXwXwXwXwXtXtXtXyX7X7X7X5X6XuX5X:X;.&.;.1.0.0.0.<.<.=.=.4.4.3.*.*.*.3.O.O.o.o.o.X.X./ / } P P R } { L e 5 y ..f.} W d.V.L.A.!.W.m._.&X}.v O + B v.l.m.E.Q.OXoXT.m.g.s.s.s.s.s.s.s.s.s.s.s.h.h.h.h.s.s.s.s.l.K._.#XoXI.K.l.k.r.> + t @XZX(.K.V.I.Q.U.N.! ! E u.y.N 1 1 t y b b b E T T T T } P L L } ( r w e e J K P P P Y ) ) ` _ ' _ _ -.%.$.%.-.-.=.=.&.<.:.<.<.<.1.1.1.:X>.>.,X>.;X,X,X,X,X;X9X",
"1XeXrXrX1X>X1X1X7XrX7X7X7X7X7X7X>X4X4X4X4X:X:X:X1.0.0.0.0.9.6.9.9.9.7.4.7.4.3.3.' ) J J J K K J P L L L L i i p y y p p t t 8 1 1 b u.u. .+.g.m.V.I.I.m.T.VXOXc.> > v k.k.h.v.R.x.l.j.d.s.t.s.s.f.f.h.h.h.f.f.f.s.s.s.s.s.s.s.s.h.g.v.v.x.k.k.p.i.c > , k.&X$XK.L.F.L.L.m.s.W } | | b 8 , 8 u b i i b L T T T T T P P R R ~ ~ ~ X.` X.` O.O.] ] 5.3.4.*.-._ ) ) $.-.&.=.=.=.=.:.:.:.>.2.1.1.1.:X:X6X:X;X>X,X;X;X,X,X>X>X,X,X>X>X>X,X>X>X,X,X,X,X;X>.>.2.:X5X5X4X4X4X4X3X3X0.0.0.0.9.9.9.9.9.9.7.4.4.3.*.*.*.] O.o.o.o.o.X.X.X.X.} R T { T 5 5 y b E y 1 5 E  . .! ! N.L.E.L.C.L.C.@X$Xc., + m z.k.d.g.l.D.m.j.+.h.h.h.f.k.f.k.f.f.h.h.h.f.f.h.h.h.s.s.s.k.l.v.K.K.l.g.k.r.h + + k.@XZXQ.M.A.A.Z.V.s.W  .u. .b t 1 8 b V u < < u L L R R R R X.o.` ` ` ` ` ' O.] 3.*.4.4.4.7.9.9.:.<.<.<.1.1.1.1.4X4X4X5X5X5XrXrX;X;X;X<XwXwXtXwXiXiXiXiXiXiXdXiXpXiXiXiXiXiXiXiXiXiXiXiXiXiXtXtXtXtX8X7X7X1X1X7X>X5X5X:X;.&.>.1.q.0.0.0.9.<.9.7.=.*.*.*.*._ ] ] O.O.o.o.X.X.} / } } } } { L i p 5 T s.+.} +.l.V.C.A.A.m.Q.ZX%Xn.+ + v p.k.d.D.L.l.l.h.s.s. .s.s.h.f.h.f.h.h.h.h.s.s.s.s.s.s.s.s.h.g.K.K.l.g.d.s.r.x + > k.&X$XK.K.V.L.U.V.d.! W | r.M 3 , 1 t u b b b L L L L L } P P } } } L e e H J K P P P P ` _ ' [ _ -.-.*.%.-.-.&.=.:.<.<.<.<.<.1.1.1.1.1.:X;X;X>X;X,X,X,X;X,X,X;X",
"1XeXtXtXwXrX1XrXrXrXrXrX7X7X7X7X5X5X5X5X5X4X4X4X3X3X3X0.0.0.0.0.9.9.,.4.7.7.3.3.] ) K H J K ( ( P J L L L r i e i i p p t w 8 1 > t E u.s.W +.g.V.U.I.V.I._.BX@X6 + > E t.E w.w.t.t.t.t.i.i.k.k.t.t.t.t.t.t.t.t.t.t.t.t.t.t.t.t.W t.t.t.r.r.r.r.r.> + b oXVX(.l.L.E.F.M.d.! W  ...{ t < 1 u b b i L L T T L T T R R R R X.X.X.X.o.o.o.O.5.5.3.3.3.3.*.*.-._ _ _ $.&.=.=.=.=.:.<.<.1.1.1.1.:X:X:X:X6X:X;X>X;X;X<X,X<X<X1X>X>X1X1X>X>X>X>X,X,X>X>X;X;X>.>.:X>X>X4X4X4X4X4X3X3X0.0.0.0.9.9.9.9.6.6.4.4.3.*.*.*.] O.' ' ` ` X.X.X.X.} T T { L 5 5 i { { b t 1 w b u.! ! ! m.W.W.C.M.m.#XZX|.t O # y.i.s.s.t.t.t.t. .t.t.t.t.t.r.r.r.t.t.t.t.t.t.t.t.i.u.i.t.t. .t. .s.E t.k.S + + 0 +X@X#XL.Z.C.A.Z.f. .R  .u.{ w > p p b b t < < u L L R R R P } X.X.o.o.O.O.] O.*.*.*.=.4.4.7.9.<.9.0.0.1.0.4X4X4X3X,X4X>X5XrXrXrX,X;X,X<XwXiXiXwXiXpXpXpXpXpXpXpXpXiXpXpXpXpXpXiXpXiXpXiXiXiXiXiXiXdXiXtXtXtX8X7X5X5X6X;X;.;.>.1.0.0.0.0.0.9.9.9.4.4.4.*.3.*.] O.O.O.o.o.X.` X./ } / / ( ( { i i 1 w | s.u.W +.g.Z.A.A.C.U.#X$X=X3 O + B r.W W ! t.t.t.t.i.s.h.k.t.t.t.t.t.t.t.t.t.t.t.t.t.t.t. .w. .t. .W E W r.r.+ O N |.ZXoXm.L.C.C.V.g.! W W u.B x 3 3 v b b b b T T T T T L } P P } } } L e e e J K ( ` ` ` ' _ _ [ _ *.*.-.*.-.-.&.=.:.:.<.<.1.1.1.1.1.1.;X;X,X,X,X,X,X<X,X<X<X<X<X",
"<X1XwXtXtXwXwXwX1XrX8X7X7X7X1X1X7XuX5X5X5X5X6X4X4X4X3X3X3X0.0.q.9.,.=.=.7.,.3.*.] ) K J J K ( ( J J L I r r r e p p p p w 8 8 1 1 < t r.f.W W +.V.I.W.L.C.L._.ZXr.+ + N p.k.i.t.t.t.t.t.t.u.t.t.p.p.p.p.p.u.p.u.p.p.p.p.p.p.p.p.u.u.t.r.r.r.y.y.M O + c.&X#XV.V.L.L.M.N.+.R W  . .b 1 , 0 b V b b b b T L T T L R R } } X.X.X.o.o.o.o.O.5.3.3.5.3.=.=.*.[ _ _ _ $.&.=.=.=.:.:.1.1.1.1.1.:X:X:X:X:X5X,X;X,X,X<XwX<X<X<X1X2X2X1X8X1X1X1X1X>X>X>X>X;X;X;X;X,X>X>X>X6X4X4X3X:X:X1.0.0.0.q.9.9.9.6.4.4.4.4.*.*.*.*.] ' ' ' ` X.` X.} +.{ T T y 5 5 w E b E b p 1 t  .+.W R d.M.W.E.M.Z.W.@X@Xr.O O M r.i.i.t.w.E r.t.k.p.p.p.p.u.a.u.p.p.p.p.p.p.p.p.p.p.p.u.t.r.r.| i.E r.p.v O 3 v.ZX#XL.M.W.A.C.Z. .R E  . .b 1 > b b v v 8 < < t T R } } } P / ` o.o.O.O.O.O.O.*.*.*.=.=.=.=.<.:.0.0.1.1.1.4X4X4X4X,X>X>X>X>X1X1X;X,X,X<XwXiXdXpXpXpXpXpXpXpXpXpXpXpXpXfXfXfXfXfXpXpXpXiXiXiXiXiXdXdXiXiXtXtX8X8XrXuX>X;X>.;.>.1.1.1.0.0.0.<.<.9.7.7.4.4.3.*.3.] ' o.o.` o.` / / } / L L ( ( { i w 5 b  .f. .W s.Z.C.W.W.L.E.#XZXr.+ O m p.k.d.e.t.r.t.i.i.i.i.i.p.p.i.p.i.u.i.u.k.k.i.p.i.u.i.u.t.t.t.r.r.r.t.r.M + + v.&X#XK.L.I.I.V.g.+.W W t.r.m 3 4 0 b b b b T T T T L R P P R } } } / r e e e J P ` ` ` ` _ _ [ [ _ $.-.$.-.-.-.&.:.:.:.:.1.1.1.1.1.;X;X;X;X,X,X,X<X<X<X<XhXiX2X<X",
",X<XwXtXtXwXtXtXwXwXwX8X8XtX8XrX1X>X5X>X5X5X6X6X3X3X3X0.0.0.0.0.9.<.,.,.,.7.*.*.[ ) K J J K ( ( P J L L L i r r p p p p p w 8 8 t 4 1 b u. .W ! g.V.L.W.C.m.W.CX|.x + 3 r.p.k.i.t.i.i.a.y.y.r.r.y.y.a.y.a.y.a.y.y.r.y.r.y.r.r.r.M M M M M V m m # O v +XZXT.m.W.L.E.M.d.! W  . .b t , 1 u b b p y y i i i T L L L L P P } } X.X.o.` ` o.O.O.3.3.4.4.*.*._ _ _ _ $.&.=.=.:.:.<.1.1.1.1.:X:X:X:X,X,X>X,X<X<X<XeXhXwX2X<X2X2X1X8XtXeXeX1X1X<X1X>X>X;X;X;X;X,X>XrXuX5X5X6X4X3X3X3X0.3Xq.q.q.q.9.9.9.4.4.4.4.*.3.3.3.O.o.o.o.o.o.X.X...} T L p 5 5 5 i y { | b 1 0 b u.} W W N.C.A.A.M.m.Q.ZX).x + 2 r.u.p.p.i.t.a.p.a.y.a.y.a.y.y.y.y.y.a.y.a.y.a.y.S S r.r.r.M M M r.N n m + O x @XAX!.G.B.E.C.N.g.{ |  . .b w 1 t V b u t 8 < < 8 i L } } } } } X.o.` ` ` ' ' ] ] *.=.=.=.4.,.<.<.<.<.1.1.1.1.:X:X>X>X>X>X1X1X1X>X,X,X<X2XwXiXiXpXpXpXpXfXfXpXpXfXfXfXfXfXfXfXfXfXfXfXpXpXpXpXiXiXiXiXiXiX8X8X8X1XyX7X>X;X>.;.>.>.1.1.1.1.0.1.<.<.4.4.4.*.*.*.] ] O.O.o.o.o.o.` ` } / ( J ( { { { b p w E f.u. .} g.Z.W.!.E.M.].ZX|.x O 2 S p.k.i.t.u.a.u.i.r.r.r.i.u.i.t.r.r.a.y.r.r.r.r.r.r.r.| M M M M M N N m + O x +XZXI.l.Q.L.C.V.d.W W  .| M 9 < 3 v b b p b b i L L L L L } } } } / J e e e H J K P ` ` ' ' [ _ _ -.*.*.&.-.&.=.:.:.<.<.<.1.1.1.:X:X:X;X;X;X>X<X,X2X<X<XiXmXfX<X,X",
",X<X2XwXwXwXwXtXwXtXtXtXtXtXtXtXrXrXrXrXuX5X5X5X6X6X4X4X3X3X3X0.q.0.9.9.9.7.*.*._ ) K K K K K ( P P P P L L L i i i i p p p p t v 4 > t E u.+.W +.d.M.W.C.M.W.BX&Xr.+ O + > , > , 3 3 2 4 < # # + + + + + + + + + + + + + O O + + O O O O O . . . + z.&X$XV.N.W.L.L.N.+.W }  .| y 8 1 t b b b t b b i V { { { { L L P } } X.X.X.o.o.O.O.3.5.5.4.4.=.*.$._ _ _ _ $.&.=.=.:.:.1.1.1.1.:X:X:X:X,X,X,X1X,X<X2X<XeXgXgXpX2X2XeX2X2XwXwXwXeX1X1X<X1X>X;X;X;X;X,X>X>XrXrXuX5X5X6X4X4X3X4X4Xq.q.q.9.9.9.9.7.7.4.4.3.3.3.O.O.O.o.o.o.X.X.} { L y w 5 5 5 t p b | b 8 3 t  . .W R ! N.A.A.A.M.W.$X@Xy.+ O + < 3 3 3 4 2 3 + + + + + + + + + + + + + + + + O O O + + O O O + + O O . O t.ZXBXJ.G.J.E.Z.@.} { |  .| p 1 1 v b u t 8 < < < < w e L L / } } X.o.o.X.O.O.O.O.3.4.=.4.,.9.9.9.9.0.1.1.1.3X4X4X4X>X>XrXrXrX1X1X<X,X<X<X2X2XwXiXpXpXpXfXgXfXpXfXcXfXfXfXfXfXfXfXfXfXfXfXfXdXdXdXdXdXiXiXiXiXiXiXtXrX1X:X9X>.>.>.;.1.1.0.0.0.0.0.9.9.7.7.4.*.*.*.*.O.O.O.o.o.o.` ` } / ( ( ( { { { { p 1 p | u.u. .} @.Z.!.E.H.!.BXZXr.O O O > , > 3 2 2 2 2 < 4 4 + + + + + + + + + + + + + + + + O O O + + + O O O 4 n.&X&XV.g.W.L.C.N.+.W  .r.r.v 9 2 h M M N y T T T T T { } } X.X.X.} / J r e e H J K K P ` ' _ -.*.*.*.=.=.=.=.:.:.<.<.1.1.1.:X:X:X:X:X,X>X>X,XeX<X<XwX<X<XlXFXgX<X,X",
"<X2X2X2X2X2X1XwXwXwXwXwX8X8X8X1XrXrXrXrX7X5X5X5X6X6X4X4X3X3X3X0.0.0.9.9.7.,.*.[ U ) K K K J K K P P J L L L r r e p p p p p 8 8 0 3 4 < c  .s.W W +.N.C.L.A.W.Q.&Xb.M 4 + + > + + + + O O O O O O O O O O O O O O O O O O O O O + O O O @ @ . . O D  X%X(.V.N.C.M.m.d.W W  . .b w 1 1 t y t p y u p p i u i i L L L L L / } } X.o.o.o.O.3.5.4.4.*.-.$._ _ _ _ %.$.$.&.:.:.:.1.1.1.1.:X:X:X:X>X,X>X1X<X2X2X<XeXlXmXgXeX2XiXiX2XwXwXwXwXeX2X<X<X<X,X,X,X,X,X,X>X>X7X7X5X6X4X4X3X:X0.0.0.<.:.:.=.=.&.*.*.*.-._ _ _ ` ` ` ` P P P / L L y w 7 7 7 5 5 5 t y u t 3 , N |  .W ~ +.M.A.E.C.L.oX#Xb.m + O O O O O O O O + + O O O O O O O O O O O O O O O O O O O O O O O O O O & y.|.AX!.J.J.J.A.N.X.{ | | | b w > 1 u 8 8 1 < < < < < 1 w e i I L J P / ( ` ` ` O.O.*.*.=.=.=.=.<.<.<.0.1.1.1.3X4X4X5X,X>X>X>X>X>X,X<X<X<X<X<X2XeXiXpXpXpXaXfXpXpXgXmXsXfXaXaXpXpXpXpXfXfXpXpXpXiXdXiXdXiXdXiXiXiXiXwX1X,X;X9X>.>.>.;.>.1.1.1.1.1.<.:.=.4.4.*.*.-._ _ ' ` ` ` P P P P J I I r i i p p p t 1 1 c r.i. .{ ..N.A.J.J.!.].AXb.M 2 O + < + + + O O O O O O O O O O O O O O + O O O O O O O + + O O + + O O 4 a..X&X|.V.m.C.C.m.d.R W  .r.B 9 2 2 h n x v b b i L L L L L P P P P J J I J H H H J K K Y ` ` [ [ -.$.*.*.&.&.=.&.:.:.<.<.1.1.1.:X:X:X:X:X,X,X,X<X,X<XwX;X2XmXFXgX2X<X",
"<X2X2X2X<X<X<X1X<X<X<X<X<X<X<X<X,X,X,X;X;X;X;X;X:X1.1.1.>.>.>.:.<.<.:.=.=.-.$._ U U U K K K K K H J H H e e e e w w w 8 8 8 8 8 < 0 3 4 0 E u. .+.+.g.m.C.A.C.C.$X%X*X|.v.v.Y.v.b.b.v.n.n.z.z.z.p.p.a.a.a.a.a.p.a.a.a.r.y.y.y.y.u.r.B B S D D D a..X&XoXV.V.W.L.m.l.+.W E r.| b > + > < 1 > 1 w 1 1 1 1 1 1 1 w w w w e e e H H K K Y Y ' ' _ -.$.$._ Y U _ $.%.$.$.&.:.;.>.2.2.2.;X;X;X;X,X>X,X>X2X<X<X2X<XeXcXFXbXpX2XiXiX2X2XwXeX2X2X2X2X<X<X<X<X<X,X;X;X,X,X>X>X>X,X:X:X1.1.>.>.:.=.&.&.$.$._ _ _ _ U U U U K K K K H H H H H r e 7 5 w w 5 1 1 1 1 t t 3 > t | s.} R ~ N.M.M.Z.V.I.#X&X%X}.b.b.b.b.v.v.b.b.n.z.z.p.p.p.p.p.a.a.a.a.a.a.a.a.p.a.a.a.r.r.r.r.r.u.r.V z.+X&XOXM.H.J.J.C.g...} | | b u 3 > > 1 , < < < < < q 1 1 7 e e e e e e H H H J K U ) ) -.-.*.&.&.=.=.=.:.:.>.>.>.>.2.2.>.;X;X,X,X,X,X,X<X<X<X<X2X2XiXpXpXpXpXpXpXpXcXMXsXaXaXpXpXpXpXpXpXpXpXpXpXiXiXiX0X2X2X2X2X2X<X<X,X;X9X9X;X;X>.;.;.;.>.:.:.:.&.-.$.$._ U U U U K K K K J J H H e e w w w w w 1 1 , 1 1 , 6 | u.| } ..@.M.E.J.E.F.VX&X*X}.v.b.Y.v.b.b.v.n.n.n.n.n.a.a.a.a.a.a.a.a.a.a.i.a.a.a.a.r.p.a.y.r.a.y.a.y.p.+XZXoXK.V.L.V.V.N.+.T E r.r.M + O + 4 4 > < t 1 5 7 w e e e r H H H H e e e H H H K K K Y Y Y U _ _ _ $.$.$.$.&.&.&.&.;.>.>.>.>.>.>.>.;X;X;X;X,X<X;X<XeX9X<XFXFXcXpX2X",
"eX2XpX2X2XiX<XiX2X2X2X2X2X2X2X2X<X,X,X;X;X;X9X9X>.>.>.>.>.;.;.;.&.$.$.$.$.$.$._ U U U U K K K K K J H H e e e w w 5 5 1 1 1 , < q # O # < t V .. . ...g.V.I.C.N.C.T.oXVXVXZXVXVXVXVX$XVX$XVXVXVX$X$X$X$X$X$X$X$X$X$X$X$X$X$X$X$X$X$X$X$X$X$X$X$X$X@X#XT.V.m.C.K.K.w.E E M r.B + + + # # < , , , 1 1 1 5 5 5 5 1 w w w w w e H K K U U Y Y Y Y Y _ $.$.$.$.-.-.&.:.:.;.>.>.>.>.>.;X;X;X;X;X;X;X;X<X2X<X8X<XpXpXmXFXzXpX0X2X0XpX0X0X2X2X2X2X2X2X2X2X2X2X<X<X<X<X,X,X;X;X;X9X9X>.>.>.;.:.:.:.&.&.$.$.$._ _ _ U K K K K K J H H H e e e e w 7 7 5 5 5 1 1 1 1 1 > > > t ..u. .{ +.g.N.V.Z.C.W._.OXVX@X$X@X$XVXVXVXVXVXVXVXVX$X$X$X$XVXVXBXBXVXVXVXVXVXVXBXBXVXVXVXVXVXVXVXVXVX@XoXQ.m.L.I.V.l.+. .| B y.V < + < 3 + < < < < < < < 1 5 5 7 e e e H H K K K K U ) ) ) U U U _ $.$.$.$.$.&.>.2.1.2.1.:X;X;X;X,X,X,X<X<X<X<X2X2X0XiXiXpXaXaXsXaX0XpXcXcXMXmXpXpXaXpXpXpXaXaXpXpXpXpXpXpXiXiX0X0X2X2X2X2X<X<X,X,X;X;X;X2.>.;.;.;.&.$.$.$._ _ _ U U U K K ) J H J J e e e w w w w 8 8 8 8 1 8 1 > , b y.y. .{ ..g.V.I.I.m.Q._.OXVXCXCXBXVXBXVXVXVXVXVXVXVXVXVXBXBXBXBXVXBXVXVXVX&X&X&XVXVXVX&X&X&XVX&XVXVXVXVX#XI.V.V.V.I.V.W E | E r.| + + + + # < < > , , , 1 5 7 7 7 7 H H H H H J K K K K K U Y Y Y _ _ _ _ $.$.$.$.$.&.&.&.&.;.;.>.>.>.>.;X;X;X,X,X,X;X2X<X,X2X<X2XgXFXMXsXpX",
"pX2XpXpXgXgX0XiXiXiXiXiX0X2X2X2X2X<X<X<X,X;X;X;X;X;X;X:X1.1.1.1.1.1.<.:.:.:.=.=.=.*.*.5.O.] ' ' ` ` ( K K J J I r e e e p w 1 , < # # # # q b y. . .} @.V.C.C.C.C.C.W.I.W.L.C.C.W.W.W.W.W.W.W.W.OXOXOXOXOXOXOXOXOXOXOXOXOXOXOXOX#X#XOX#XOX#XOX#X#X_.I.I.I.K.C.K.k.E E r.r.B v + 0 0 0 0 p u u u u y b b y e w 1 w 8 8 w e J P ` O.] O.5.5.3.3.=.4.4.6.9.<.9.0.0.3X3X3X3X4X>X>X>X>X>X>X>X1X1X1X2XiX2X9X8X2X2XsXFXGXsXpXpXdXdXpXpXpXpXpXpXpXiXiXiXdXiXdXiXwXwXwXwX1X1X1X1X>X>X>X>X6X4X1.1.<.:.&.$.$.[ _ _ _ _ ) ) ) ) ( ) K P J J ( J J J L I i i y p p p p t t t , t b | | |  .+.C.C.C.C.C.A.A.A.W.I.W.W.W.W.W.W.Q.W.!.W.Q.W.Q.Q.BXBXBXBXBXBXBXBXBXBXBXBXBXBXBXBXOXOXOXOX_.Q.I.m.V.P.K.x.f. .| | B B v < < 0 v 8 8 8 t t t t t p L L J J ( / ( ` ` ' ' ] ] *.*.*._ _ _ _ $.$.$.$.:.<.1.3X4X4X>X>X5XrXrXrXtXtXtXiXiXiXpXpXpXfXfXfXaXcXmXmXzXsXcXcXMXmXsXsXsXpXaXpXaXaXaXaXaXaXaXaXfXfXdXpXpXiXiXiXiXtXtX7X7X7X5X5X4X4X3X1.1.0.<.<.&.*.*.*._ _ ' ' ) K J J J e e r p p p p p p p p t u u 8 < 0 M |  .{ } @.x.I.I.C.C.C.L.W.W.!.!.!.E.W.W.W.W.W.Q.Q.BXOXBXOXBXOXBXOXBXBXBXBXBX@XBXBXOXOXOXOXOXOXOXOX_.!.W.C.C.V.V.V.f.E E | | | v + # # + + # < 4 3 t y i i L T R R P P } } X.o.o.o.o.] O.*.*.3.3.*.=.=.=.=.<.<.<.2.:.2.>.>.>.>.>.>.;X;X;X,X<X<X<X<X<XwX2X<XeX2X2XfXmXMXbXpX",
"sXpXpXpXmXmXfXpXiXdXiXpXiXiXpXiX2X2X2X<X<X,X;X;X,X,X>X>X4X4X4X4X:X1.1.0.0.<.9.6.4.4.4.3.5.3.5.O.O.O.O.o.X.` / } L L L L T i w 1 < 2 2 < + > t  . . .R +.g.V.L.W.C.Z.M.M.M.M.C.C.M.C.M.C.C.C.L.L.C.L.L.L.L.L.L.L.C.C.C.C.C.C.C.C.V.V.M.V.C.C.C.V.U.L.m.V.L.L.m.l.W E E r.u.n , < v v v v b b b b V { |  .R L p w w 8 w p I ( o.O.O.3.3.5.3.3.4.4.7.9.9.9.0.q.q.0.4X6X6X6X5X5X5X7XrXrXrXwXwXwXtXwXpXpX2XdX0X2XmXFXzXaXaXgXfXfXsXaXaXfXfXfXfXfXpXpXdXdXdXdXdXdXtXtXtXtXtXrX7X7X7X5XuX5X4X3X0.<.:.&.$._ _ _ _ [ *.3.] ] O.` o.` X./ X.X.} } } } } } T T E E E E T b t 1 t E  .W R +.l.V.C.C.C.C.M.C.C.C.C.C.L.C.L.C.L.C.L.C.L.C.L.L.M.M.M.M.M.M.M.M.M.C.F.F.F.L.F.F.!.E.E.E.E.L.m.m.K.K.V.g.+.W W E | v 0 3 t b b b b b b E E E R T ( / / / ` X.o.X.O.O.] O.*.3.3.3.*.-.[ _ $.$.&.&.1.0.4X4X5X5X5XrXrXrXyXyXtXtXdXdXdXdXdXfXfXfXfXgXaXgXmXMXmXzXzXzXMXbXzXxXzXsXcXpXaXaXaXaXsXsXsXsXfXfXfXfXdXdXdXdXiXiXtXtXtX7X7X5X6X4X4X4X3X0.0.0.9.7.7.7.3.*.3.] ' ) J J H e H J ( ( L L L L T T i E | b 6 1 t |  .W R +.g.V.I.I.U.L.C.M.M.M.M.E.F.C.M.L.L.L.L.L.F.L.L.L.L.L.F.L.F.F.F.F.F.F.F.F.F.F.F.F.F.F.F.M.W.C.M.M.C.C.V.l.W E E t.i.c , 4 9 2 # + + < 0 t b b T T R { } } } X.X.X.o.X.o.o.O.O.3.3.3.4.4.4.9.9.9.0.0.0.0.1.0.1.1.2.>.2.>.>.;X,X,X<X<X<X2X2XeXwXeX2XiXeX2XpXsXMXMXaX",
"zXbXsXpXmXMXcX0XpXiXiXpXpXpXpXiXiXiX2X2X<X<X,X;X>X>X>X>X5X4X4X4X1.1.1.1.1.<.:.6.4.4.4.3.3.3.O.O.O.O.O.O.o.X.X.} } } } } { T i p , < 2 < > > 6 E u.} W R +.N.L.E.L.C.C.C.C.L.E.E.M.M.F.M.L.L.L.L.L.L.L.L.L.L.L.L.M.M.M.M.M.M.M.M.L.L.L.L.L.L.L.L.L.m.D.m.D.m.d.s.Q w.E t.u.t + t v v v y b b T T b b R R R R L L w w w e J X.o.5.O.] O.3.3.3.=.4.4.4.:.9.9.9.0.0.3X3X3X6X6X5X>X>XrXrXwXwXtXwXiXiXeXcXlXdX0XpXFXbXsXpXaXgXfXgXcXcXaXfXfXfXfXpXpXpXpXiXdXdXdXwXwXwXwXwX8X1X1X1X>X5X5X6X4X3X3X0.<.:.$.$.$.%.%.,.7.8.3.3.3.O.o.o.o.@.X.X.X.} } } } } } { { R E E E E c 1 , c  .W W W +.d.m.C.W.A.A.A.C.L.L.L.L.L.L.L.M.M.M.M.M.M.F.F.M.M.M.M.M.M.M.M.F.F.F.F.F.F.F.F.M.M.M.M.L.L.L.K.K.V.g.+.W R W  .| t > 3 c b c b E E E R R R R R P P / / / ` ` ` ` ' ] ] ] *.*.*.4.3.*.$.$.$.=.:.1.1.4X4X5X5X5XrXrXrXrXrXtXtXiXiXdXiXpXfXfXfXfXfXsXaXbXMXmXzXzXbXbXvXzXbXzXzXmXsXaXaXsXsXzXgXgXgXfXfXfXpXpXiXiXiXiXtXtX8X7X1X7X5X6X6X4X4X0.0.0.0.9.9.7.7.4.3.3.3.] ' K J H H J ( X.X.X.X.} } } { L T E | c 1 6 E +.+.W W +.g.L.I.Q.W.E.L.F.M.E.E.M.L.L.L.L.L.L.L.L.L.L.L.L.L.L.L.F.F.F.F.F.F.F.F.F.F.F.F.L.L.L.L.M.M.M.M.V.m.d.+.Q W E  .i.6 > t h 0 2 + + 3 t b b b L T T R R } R P } X.X.o.o.o.O.] *.3.*.3.3.4.4.,.9.9.9.<.1.1.4X4X4X:X;X2.>.>.,X,X,X<X2XeXeXeXeXeXeXiXpXpXpXpXpXbXmXaX",
"zXMXbXaXcXMXmXpXaXfXpXpXpXpXpXpXiXiXeX2X<X<X,X,X1X7XuX5X5X4X4X4X4X4X3X0.0.0.0.9.9.7.7.7.3.3.3.3.O.O.o.o.o.o.X.X.X.} R R R { T E 0 2 4 4 < < 1 t u. .W W ! d.m.C.U.L.L.L.F.M.m.m.m.M.M.M.F.C.F.C.L.L.L.L.L.L.L.L.L.L.L.L.L.L.L.L.F.L.F.D.L.L.L.L.L.L.U.L.m.d.! W Q t.E E | 1 > b c b b T T T T R b b L T R R } } w w p r ( o.O.O.5.3.3.3.4.4.4.4.9.9.9.9.q.q.0.0.6X6X6X5X5X7X7XrXrXrXtXwXwXiXiXpXsXmXmXpX0XpXFXsXaXpXfXgXaXgXmXmXsXsXsXfXfXfXfXfXfXfXdXdXdXdXiXdXiXtXtXtXrXrX7XrX6X4X4X4X4Xq.0.1.$.%.=.=.7.,.7.4.3.3.3.3.O.O.o.o.X.X.X.} } } } { T T T T T T b T E 6 , y W  .W W +.d.M.L.L.C.C.L.M.M.F.C.L.L.L.L.F.C.L.C.F.L.F.L.L.L.L.L.L.L.L.L.L.L.L.L.L.L.L.E.M.m.m.M.F.L.L.K.m.g.s.W W W W t.E 1 > 5 c c y y T T T R R R R R R } / } ` X.` ` O.] ] 3.*.3.3.3.7.4.=.-.$.$.=.9.0.1.4X4X6X>X5XrXyXyXyXtXtXdXdXdXdXfXfXfXfXgXgXsXcXsXbXMXMXbXxXbXxXzXzXbXzXxXFXbXaXzXcXzXcXcXcXgXgXfXfXfXfXdXdXdXiXiXtXtXtX7X7X7X5X5X5X4X4X3X0.q.9.9.9.7.4.4.3.3.3.O.` K H J ( o.o.X.X.X.~ ~ R R R L T W T 6 6 y s.+.W W ! +.m.V.L.L.L.L.L.F.F.M.M.m.M.M.M.C.C.C.L.L.L.L.L.L.L.L.L.L.L.L.L.L.L.L.F.F.F.F.F.F.F.F.M.L.E.L.N.d.! W W t.E E E , > M v v 9 + > 0 b b b E T R R R } } X.X.X.o.o.o.O.O.5.3.3.3.4.4.4.4.9.9.9.0.0.q.q.q.4X4X5X5X,X,X;X;X,X<X<X<X1XeXeXeXeXeXiXpXpXpXfXpXpXcXcXaX",
"vXGXMXzXaXbXMXaXaXaXaXpXpXpXpXpXpXiXiX2X2X<X,X,XtXyXyXrXuX5X5X4X4X4X3X3X0.0.0.9.9.9.7.4.4.3.3.3.O.O.O.o.o.o.o.o.X.} P L R { { | v 2 > 4 3 3 1 1 E W t.W W ! s.l.D.L.L.K.U.K.L.L.L.L.L.L.L.K.U.U.L.C.C.C.C.C.C.C.C.C.C.C.C.C.C.L.D.D.D.D.D.D.D.D.D.K.U.D.d.W W Q E t.r.E c , 1 E c c c Q T T Q T R R T P R R } } r e e J / o.O.' 3.3.3.3.4.4.4.4.9.9.9.0.q.q.0.0.6X6X6X5X5X7XyXrXtXtXtXiXiXiXiXpXmXmXcXaXpX0XmXcXsXaXsXgXaXcXmXmXsXsXgXsXgXgXgXgXfXfXfXdXdXdXdXiXiXiXtXtXtXrXrXyXrX5X5X5X4X4X0.0.&.&.:.0.9.7.4.=.*.3.5.3.O.O.o.o.o.X.X.} } } } } R T T T Q T T T E c 6 6 T  .t.W W ! d.m.m.L.L.E.L.I.L.I.U.K.U.U.L.K.K.K.L.K.L.L.L.C.M.C.C.C.C.C.C.C.M.C.C.C.C.L.Q.L.F.L.L.L.K.D.d.+.W W W W t.t.t 1 1 t T c c Q T T R R R R ~ R R / / / / ` ` ` O.' ] ] *.3.*.3.7.7.4.-.$.$.:.0.0.4X4X5X5X>XuXrXyXrXyXtXdXdXdXdXfXfXfXfXfXgXgXsXcXzXbXFXMXbXxXxXxXbXxXbXzXbXGXbXzXzXzXcXcXcXzXsXgXgXfXfXfXdXdXdXiXiXtXtXtX7X7X7X5X5X5X4X4X3X0.0.0.9.9.9.4.4.4.3.3.3.O.K H K ` o.o.o.~ ~ ~ ~ ~ R R T Q Q E c 5 , W W +.W W ! s.l.K.L.K.U.Q.U.L.L.L.L.L.I.L.I.I.I.M.V.C.V.M.V.M.V.L.K.L.K.L.K.L.K.m.m.m.m.m.D.m.m.m.L.L.m.h.W W E W t.w.E c , 1 M n v 0 < , t b b T T T T R R R R X.X.X.o.o.o.O.O.3.3.3.3.4.4.4.4.9.9.0.0.0.0.q.3X3X3X5X>X>X>X;X;X<X<X<XeXeXwXeXeXpXiXpXpXpXaXgXpXfXgXfXaX",
"xXMXMXbXaXxXMXaXaXaXaXaXaXpXpXpXpXiXiX2X2X<X<X,XtXyXyXyXrXuX5X5X:X:X:X1.0.1.9.9.9.7.7.4.3.3.5.3.3.O.O.O.O.o.o.o.X.X.P P R R R E v 2 > < t 0 3 , c E t.t.W W W s.h.h.l.l.K.K.K.K.K.K.K.K.K.K.K.K.K.K.K.K.K.K.K.K.K.K.K.K.K.K.K.K.R.R.R.R.R.R.R.R.l.k.h.s.w.W W W E | r.M < , t b y y y y L L L L R R R R R R } } J r e J ` O.O.' 5.*.3.*.3.4.4.4.6.6.9.9.0.0.q.0.3X4X6X5X7X7XyX7XtXtXtXiXiXpXpXaXFXMXzXsXpXpXaXbXsXaXcXcXsXcXbXbXsXsXsXsXsXsXgXfXfXfXfXdXdXdXiXiXiXiXwXwXtX7X7X7XyXuXuX5X5X4X3X1.&.:.<.<.9.9.9.4.4.3.5.3.5.O.O.o.X.X.o.X.X.} } } R R R T R Q T T T E x 1 6 E i. .Q E W +.s.d.m.K.K.K.D.K.K.K.K.K.K.K.K.K.K.K.K.K.K.K.K.K.K.K.K.K.K.K.K.K.K.K.K.K.K.K.D.x.x.l.h.s.w.W E E w.t.t.E > 1 t b b y Q Q T R R R R R ~ ~ P / / / ` ` ` ` ' ' ' ] *.*.*.*.7.7.4.*.$.$.:.0.4X4X5X5X5X5XrXyXrXrXtXtXiXdXdXdXfXfXfXfXgXgXgXzXzXxXMXFXnXxXvXxXbXnXbXbXbXbXnXxXzXzXcXcXcXcXcXsXsXfXfXfXfXpXpXdXiXiXwXtXtX7X7X7X5X5X4X4X3X0.0.0.0.q.9.9.6.4.4.4.3.3.3.Y H K ` ` o.o.~ ~ ~ ~ ~ R R R T T T T t , y E t.u.W W W s.g.l.D.K.K.K.D.m.V.K.K.K.K.K.K.K.K.K.K.I.K.I.K.I.K.K.K.K.K.K.K.K.K.K.K.K.K.K.K.K.g.j.d.s.w.W W E E w.t.E 3 , x N v v x , < c b b T T T T R R R P X.` X.` X.o.o.O.O.*.5.*.4.4.4.=.9.:.<.<.0.0.1.1.3X5X>XrX>X>X;X;X<X<X2XwXwXwXeXiXpXpXaXaXpXfXcXgXdXhXdXpX",
"nXnXMXMXvXvXMXaXaXaXaXaXaXaXpXpXpXpXiXiX2X2X<X<X1XrXrXrXrXuX5X5X4X4X4X3X3X0.0.0.9.9.9.7.7.3.3.3.] ] O.` ` ` X.X.X.X.~ R } R L i t < < 3 t 0 < 4 3 c | i.t.E E  .W E E E E E E E t.t.t.t.t.t.t.t.s.+.+.s.s.s.s.s.s.s.s.s.s.s.s.s.t.t.t.t.t.t.t.t.t.E E E E t.w.E B M y.M > , b p b b b T T T T T L T R R ~ ~ R / J r r J ` O.3.*.3.3.3.3.4.4.4.9.9.9.0.0.0.0.q.4X6X6X5X7XrXyXtXtXtXtXiXiXpXpXpXpXGXGXbXsXpXcX0XsXcXsXcXcXzXcXbXxXzXzXzXzXzXgXgXgXgXfXfXfXfXfXdXdXdXiXiXiXtXtXtXtXrX5X5X5X6X4X3X0.>.:.:.<.9.9.9.9.4.4.4.5.5.5.5.O.o.X.o.X.X./ } } R R R T Q T T T c E c , 1 E u.| t. .E E Q Q E W w.w.W t.t.t.t.t.s.s.s.s.s.s.s.s.s.s.s.s.s.s.s.s.t.t.t.t. .+. .t.w.w.w.w.t.w.E N E E E E r.r.E M + 3 b b t t y y T T R R R R ~ R X.} X.X.o.o.o.o.O.O.] 3.3.3.3.4.4.7.=.&.$.$.<.q.4X4X5X5X>X5XrXyXyXtXtXdXdXdXdXhXfXfXfXgXgXgXcXcXzXxXMXGXbXzXxXbXbXMXbXxXbXnXbXzXvXzXxXbXbXcXcXcXgXgXgXfXfXfXdXdXdXdXiXtXtXtXrXrX5X5X5X4X4X3X3X0.0.0.9.9.6.=.=.4.*.3.3.U H K ` ` o.o.o.X.~ ~ R R L R R b b { b 1 1 c  .i.t.E E  .E E W W W W W W  . . . . . . . . .u.u.u.u.u.u.u.s.s.s.s.s.s.s.s. . . . . . . .t.t.W Q E E t.t.| E N y.M > 4 n 0 x N v < 1 b E i { R { } } } } X.X.X.o.o.o.O.O.3.3.3.3.4.4.4.7.9.9.9.0.0.0.0.4X4X4X>XuXrXrX,X;X;X<X2XeXeXwXiXiXpXpXpXaXaXpXgXmXmXiXhXfXpX",
"FXnXMXnXvXvXxXzXxXzXaXaXsXpXpXfXpXpXpXpXiX2X2X<XwXtXrXrXrX7X5X5X5X6X4X4X3X0.0.0.9.9.9.7.4.3.3.3.5.5.5.O.O.' ' X.X.X.P P R X.} R u 9 # < 0 0 0 4 > t | y.| | | r.r.r.r.r.E E E E E E E E E E E E E E E E E E E E T T T T T T T T E E E E E E E E E M E E E E E B B B v < < t u t t b b y y i T { L T R R ~ ~ X.} J e e J ` O.O.3.*.*.3.3.4.4.4.9.9.9.0.0.0.3X4X4X6X6X5X5X7X8X8XtXtXiXdXdXpXfXgXpXbXGXFXbXaXpXpXcXaXmXmXcXzXxXxXzXcXcXzXcXmXcXaXcXgXgXgXgXfXfXfXfXdXdXiXiXiXtXtXtXrX7X7X5X6X4X4X4X:.:.:.1.0.<.:.9.4.4.4.3.3.5.5.O.o.o.` ` ` ` } P I +.} L R R L T b b v t 3 t | u.| | | | | | E E E E E E E E E E E E E E E E E E E E E T T T T E E E E E E E E E E E E E E r.r.r.| y.r.B | r.M 3 , 8 t u u u b E y T L L } } R R } } X.X.o.o.o.O.o.O.*.3.3.3.4.4.4.9.9.&.$.-.<.q.4X4X6X5X5X7XrXrXtXwXtXiXdXdXdXfXfXfXgXgXgXcXcXcXzXnXFXMXbXxXbXbXNXMXMXNXxXnXnXvXxXzXxXbXMXmXcXzXcXgXgXgXfXfXdXdXdXdXdXtXtXtX7X7X7X5X5X4X4X4X3X0.q.q.0.9.9.6.4.4.3.3.*.U K K ` o.o.o.` P X.X.} } T T T b b b b b < v r.u.| E | r.| | | | E | E E E E E E E E E E E | | | | | | | b b b b b b b b E E E E E E E E E E E E E | r.r.B r.M < < 0 m 0 N 3 b > + c b E T T T R R } } X.X.` X.o.o.o.O.O.3.3.3.4.4.4.9.9.9.0.0.0.3X4X4X4X5X>X5X7XrX1X>X,X<X2XeXwXwXiXpXpXpXaXpXsXsXaXmXmXgXpXgXcX",
"FXMXnXNXvXvXxXxXnXzXaXcXcXgXaXpXpXpXiXpXiX2X2X<XwXwXtXrXrX7X1X5X6X6X4X4X:X1.0.0.9.9.9.7.4.4.3.3.3.5.5.O.O.' ' ` ` X.P P } } R L u q < < 0 8 0 < > 0 b | | M | r.| | B B M M M M M M M M M M M M | | | | | | | | | | | | | | | | | | M M M N N n M M M B B | | | V B V 8 8 v V b u y b b b b y p T T R R ~ ~ X.X.J e e ( ` O.O.3.3.*.3.4.4.4.9.9.9.9.0.0.0.3X4X4X6X5X5X7X7X8X8XtXdXiXiXdXpXfXgXaXzXnXFXGXbXzXpXcXcXmXMXbXzXvXxXxXzXcXzXcXMXmXcXcXgXgXgXgXfXfXfXfXdXdXdXiXiXtXtXtXrXrX7X5X5X6X4X4X;.:.:.0.0.<.6.9.4.4.4.4.3.5.5.O.o.o.` ` ` ` ` / I X.X.L R R W W b b v t 0 t B y.| B | | B B M M B M M M M M M M M M M M M M M M | | | | | | | | | | | | E | E M M M B M M M M M x M M n M | M 3 8 8 u u u t t p {  .T i T T R } } } X.X.o.o.o.o.O.O.*.3.3.3.4.7.4.9.9.&.$.&.<.0.4X4X>X>X5X7XrXrXtXwXiXiXiXdXfXfXfXfXsXgXgXcXcXcXbXMXFXnXbXxXxXNXNXnXMXnXNXnXNXxXxXxXxXbXMXMXmXcXcXcXgXgXfXfXdXdXdXdXdXiXtXwX1X7X7X5X5X6X4X4X3X0.0.q.0.9.9.6.4.4.*.3.3.U K K ` O.` ` / / } } } L L i i y y u y t 1 t B | B M | | | | | | E E E M M M M M M M M M M M M M M M M M | | | | | | | | | B V b b b b v E E | | | r.r.| M B m 0 0 m V v | c | 5 , E E L T T P P } } } X.X.` X.o.o.O.O.] 3.3.=.4.4.4.9.9.9.0.0.0.3X4X4X6X>X>X>XrXrX1X,X,X<X2XeXiXiXiXpXpXaXaXpXaXaXaXbXMXzXzXbXMX",
"FXFXnXxXvXvXNXMXMXzXzXmXmXcXsXpXaXpXpXpXiX0X2X2XiXtXtXtXrXrX1X>X>X5X4X4X4X0.0.0.9.9.9.7.4.4.3.3.3.3.3.] O.' ' ' ` ` } X.} P L L 8 8 1 1 8 8 1 1 , 3 t v v v v b v v x v x x x x x x x x x x x x 3 3 6 3 6 3 6 3 6 3 6 3 3 3 6 3 3 3 3 3 3 < < < + + + + > > > > 3 0 q + > 1 8 1 w w w i V V { { T L R R ~ ~ X.` J e e K ` ' 5.3.*.*.*.4.4.4.9.9.9.9.0.0.0.4X4X4X5X>X5X7X8X8X8XtXdX8XiXfXpXsXcXcXsXxXMXFXFXmXaXzXbXMXFXnXxXzXxXxXxXxXzXcXMXMXmXzXcXgXgXgXgXfXfXfXdXdXpXiXiXiXtXtXrXrX7X5X5X6X6X4X;.;.>.1.0.<.:.9.4.4.4.4.3.3.5.O.O.` ` ` ` ` ~ ~ P X.I 7 7 7 5 5 t t w 1 > , 1 t v v v v v v v x x x x x x x x x x x x x x x x x 3 3 3 3 3 3 3 3 3 3 3 3 3 3 3 3 > > > > > > > > 4 3 3 4 3 t 3 + 3 8 8 t u y i p T { T L L L { } } X.X.X.o.o.o.o.O.O.*.3.3.4.4.7.4.9.9.&.$.&.1.4X4X4X>X>X5XrXrXrXwXwXiXiXdXdXfXfXfXfXgXcXcXcXcXcXxXMXFXGXMXbXxXNXNXMXFXnXnXNXNXxXxXxXbXxXbXMXmXzXcXcXgXgXfXfXfXdXdXdXdXiXtXwXtXrX7X7X5X6X4X4X3X0.0.0.0.9.9.=.=.4.=.3.*.U K K ' X.` / / / } ( L i e e w w w w 5 5 3 0 t v v v u v t t t t t t t t t t t t t t t t t t t t t t t t 0 0 0 0 8 8 0 0 8 1 3 3 3 1 , < > > + > > > > > 3 9 2 + + q 0 1 5 , 6 , , T Q L T T P P R } } X.` ` ` ` O.O.O.] 3.3.4.4.4.9.9.9.0.0.0.0.3X4X6X6X5X>X1XrXrX1X<X,X2X2XeXiXiXpXpXpXaXaXzXsXaXaXzXnXvXxXNXnX",
"MXFXnXxXxXxXbXFXMXzXbXMXcXaXzXsXaXfXfXpXpXiX2X2XiXiXtXtXrXrX1X1X5X6X6X4X3X1.0.0.0.9.9.9.4.4.4.3.3.3.3.] O.' ' ` ` / ` X.} P H y p p i i p p p p > > > > > > > > > + > + + + + + + + + + + + + + > > > > > > > > > > > > + > > > > > > , < 1 1 1 b b b b b b b b 1 3 1 > > , , > w 5 1 1 1 1 p { L L R P R X.X.} J e r ( ` O.5.3.*.*.*.=.4.7.9.9.9.9.0.0.0.4X4X4X5X>X7X7X8XyX8XtXdXiXiXfXaXsXbXmXzXzXbXGXFXMXzXcXcXmXFXGXnXbXxXxXxXxXxXxXMXFXmXzXcXcXcXgXgXgXfXfXdXdXiXiXiXiXiXtXwXrX7X7X5X>X6X4X>.;.>.1.0.<.<.9.6.4.4.4.3.3.5.5.O.o.o.` ` ` ` ~ ~ P ^ 7 R R I L y p p 5 1 , , 1 > > > > + + + + + + + + + + + + + + + + + + + + + > > > + + > + + + > > > > , , < 3 1 1 t t t t 3 t t 1 3 t 1 > > > > > , , > > w w i } { L { L } X.X.X.o.o.o.o.O.O.*.3.3.4.4.4.=.9.9.&.$.&.1.4X4X4X>X>X1XrXrXrXwXwXiXiXpXpXfXfXfXsXgXzXcXcXcXcXxXMXGXFXFXnXNXnXnXnXGXFXnXnXNXNXxXNXNXxXbXbXbXzXcXcXcXgXgXfXfXhXdXdXdXiXtXtXtXrX7X7X5X5X6X4X4X3X0.0.0.9.9.,.=.4.*.*._ U K K ` ` ` / / } } J r r r y y y p p y y , , > > > > > > > > > > > + + + + + + + + + + + + + + + + + + + > + > + > + > + > > > > 1 1 1 3 b N N N N N N b < 3 , > > , < > y 5 5 , > 5 I R T P P P P } X.X.` ` ` ' O.] ] *.3.*.4.4.4.9.9.9.0.0.0.3X4X6X6X>X5X>X1XrXwXrX<X,X2XeXiXpXpXpXpXaXpXaXbXzXaXxXvXxXxXnXnXGX",
"MXMXNXvXxXxXbXFXMXzXbXMXzXaXzXsXaXaXaXpXpXiX2X2XiXiXtXwXwXrXrX1X>X5X6X4X4X:X0.0.0.9.9.7.4.4.4.3.3.*.*.] O.' ' o.` / / X.} L r H VXCXCXCXVXVXVXVX@X@XoXoXoXoX|.(.|.|.|.|.|.|.|.|.Y.).Y.).Y.).Y.Y.|.|.|.|.|.|.|.|.].].].].].].Y.Y.).(.|.oX@X$X$X$X@XOX@X@X@X@X@X@X%X%X%X+XOX@X@XOXT.T.P.f.i 1 w { L L P R } X./ } J e e ( ` O.] 3.*.*.=.4.4.9.9.9.9.0.0.0.3X4X4X4X5X>X7XrX8XyXtXdXdXiXfXfXpXsXmXFXzXvXxXnXFXnXzXcXvXbXnXGXGXMXnXbXxXbXbXbXbXMXmXzXcXcXcXcXgXgXgXfXfXdXpXpXiXiXiXtXwXrXrX7X5X>X>X>X>.>.<.1.0.9.<.9.6.4.4.4.3.3.5.O.O.O.` ` ` ` ` ` ~ P H X._.CXCXCXCXCXCXVX$X@X@X@XoXoX|.|.|.|.|.|.|.|.|.).).).).).Y.Y.Y.Y.Y.Y.Y.Y.].].].].].].].Y.Y.].].|.|.+X+X+X%X%X$X$X&XZXZXZX&XZX&X$X&X&X&X@X$XOXoX_._._.T.P.e 5 i } L L } L R } X.X.o.o.o.o.O.O.*.3.4.4.4.4.=.9.9.&.$.:.1.4X4X6X6X5XrXrXrXwXwXiXiXiXdXdXfXfXfXsXgXcXcXcXcXcXbXnXnXMXFXGXnXGXMXnXMXFXMXnXNXNXxXxXxXbXbXxXxXcXzXcXcXgXgXfXfXfXdXdXdXiXiXtXtXrX7X7X5X5X6X4X4X3X0.0.9.<.9.7.=.4.*.*.' K K K ' ` ` / / X.` J H J CXCXCXVXVXCXVXVX$X@X#X#XoXoX(.(.(.(.(.(.(.(.).(.Y.).Y.).].}.].}.].Y.].}.Y.).Y.).).).).).).).(.).(.(.|.+X@X%X$X&X+X+X+X+X+X+X@X%X$X$X$X+XOX+X+X#X).Y.P.l.y 5 L R R P P R } } X.X.` ` ` ' O.O.*.*.3.*.=.4.6.9.9.9.0.0.0.3X3X6X6X>X7X1X7XrXtXwX<X<X2XeXiXpXpXpXpXaXsXmXMXzXaXnXxXvXxXnXnXFX",
"FXMXxXxXxXxXbXGXFXxXzXbXzXaXzXaXaXaXaXaXpXiX0X2XiXiXiXtXwXrXrX1X5X5X6X4X:X:X0.0.0.0.9.9.4.4.4.3.*.*.3.] O.] X.` ` / / X.} I H L _.jXjX_._._._.OXVXVXVX@XVXVXVXVX@X@X@X@X@X@X@XOX#X#X#X#X#X#X#X#X|.|.|.|.|.|.|.|.].].].].Y.Y.Y.Y.T.T.Q._._._.oXoXoXoXoXoXoXoXoXoX#X#XOXOXOXBXVXVXCXZXZXVXx.y p ..L { P } / X.X./ J e r ( X.O.] *.*.*.=.4.4.9.9.9.0.0.0.0.3X4X4X4X>XrXrXrXyXyXdXdXdXdXfXaXaXcXMXMXzXzXbXnXGXnXvXvXcXxXNXnXGXGXMXMXbXbXMXbXxXbXbXzXcXcXcXcXcXgXgXgXfXfXpXpXiXiXiXiXwXtXrX7X5X>X>X>X>.:.<.1.0.<.<.9.9.4.4.4.3.3.3.3.O.O.O.` ` ` ` ` X.P 7 X.OXZXVXVX_._.jXBXBXOXOXOXVX@X@X$X@X@X@X@XOXOXOXOXOX#X#X#X#X#X#X#X#XoX#XoX].].].].].].].].].].].].].].].].T.T.T.T.T.T.T.T.oXoXoXoXOXOXOXOXVXBXVXVXVXCXCXVX@.e I } y L ..} } } X.X.o.o.o.O.O.O.*.3.4.4.4.4.=.9.9.-.$.:.1.4X4X4X5X>XrXrXrXwXwXiXpXpXpXfXfXfXsXsXcXzXzXcXcXbXxXxXnXFXFXFXFXMXFXMXMXFXMXnXnXNXxXxXxXnXbXxXxXbXcXcXcXgXgXfXfXfXdXdXdXiXiXtXtXrXrXrX5X5X6X4X4X4X0.0.9.<.9.,.,.,.*.*.' K K ) [ ` ` ( ` X.` K H P _.jXOXOXBXOX_._.CXCXVXVXVXVXVXVX@X@X@X@XOXOXOXOX#X#X#X#X#X#X#X#XoXoX+X+XoXoXoXoXY.T.T.T.T.T.T.T.T.(.(.(.oXoXoXoXoXoXoX#X#X#X#XoXOXOXOXOX@X@X@X@X$XZXZX$Xg.5 T T R R P R } X.X.` X.` ` ' ] O.*.*.3.=.4.4.6.6.9.9.0.0.3X3X3X6X5X5X7X1XrXtXtXwX1X<X2XeXpXpXpXpXaXaXmXMXMXvXvXMXnXvXzXMXnXHX",
"HXMXbXbXbXbXMXGXFXnXxXzXzXzXvXaXaXaXaXaXpXiXiX2XdXdXdXtXtXwXrXrX5X5X6X4X:X:X:X0.0.0.9.9.4.4.4.3.3.3.] ] ] ] X.X.X./ / X.} r r } W.S.S.S.S.S.S.S.C.C.L.C.L.L.L.U.K.L.L.L.L.L.L.L.K.K.K.K.L.L.L.K.K.K.K.K.K.K.K.R.K.K.K.K.K.K.K.K.C.C.M.M.M.M.M.M.C.C.C.C.L.L.L.I.I.L.U.W.W.Q.!.!.W.W._._.@.7 5 L L { ( } } } } } ( r r ( X.O.O.*.3.*.=.4.4.9.9.9.0.0.0.0.4X4X4X5X>XrXrXrXyXyXdXdXdXdXfXaXaXbXmXbXvXzXnXGXGXnXvXvXbXxXNXnXGXGXMXMXbXbXMXMXxXxXbXcXcXcXcXcXcXgXgXgXfXfXfXpXiXiXiXiXwXtXrX7X7X>X>X>X>.:.<.0.q.<.9.9.9.7.4.4.3.3.3.3.O.] O.` ` ` ` ~ X.P H P C.I.V.m.A.A.S.A.A.E.W.W.L.L.L.I.I.K.K.K.L.L.L.L.L.K.K.K.K.K.K.K.K.K.K.D.L.L.L.L.L.L.L.F.L.L.L.F.F.F.D.D.I.I.K.K.C.V.V.V.m.m.V.C.C.L.L.E.M.L.W.W.W.!._.OXN.7 H } H L @./ } X.X.X.o.o.o.O.O.O.*.3.4.4.4.4.=.9.9.&.$.:.0.4X4X>X5X>XrXrXrXwXwXiXiXpXpXfXfXfXsXsXsXzXzXcXcXbXxXzXnXFXFXHXHXFXFXGXMXMXMXnXnXNXxXNXnXnXxXxXxXcXcXcXcXgXgXgXfXfXdXdXdXiXiXtXtXrXrXrX7X5X6X4X4X4X0.0.0.<.<.,.,.,.*.] ) K K ) ` ` X.` ` o.` K I X.W.W.W.W.!.E.E.E.E.W.W.W.L.L.W.W.L.C.C.C.C.C.C.C.K.K.K.K.K.K.D.D.D.D.D.D.D.D.D.D.L.L.L.L.L.L.L.L.K.K.V.K.K.K.D.m.F.F.F.F.L.L.L.L.U.L.L.I.W.W.Q._.T.#XoX$Xg.5 T L R R P R } X.X.o.X.` ` O.] O.3.*.4.4.4.4.6.9.9.0.0.3X3X3X3X6X5X5X7X7XrXtXtXwX1X<XeXiXpXpXpXpXaXaXMXMXbXvXxXMXMXzXcXHXFXKX",
"HXFXnXnXNXnXFXFXGXFXnXxXvXvXvXcXsXaXaXaXpXpXiXiXiXdXiXtXwXwXrXrX5X5X6X4X4X3X:X1.0.0.9.9.7.4.4.3.3.3.] ] ] O.X.X.X./ / X.} r L X.jXqXS.S.S.S.S.!.A.W.W.W.L.C.L.L.L.L.L.L.L.L.L.L.L.L.L.L.L.L.L.L.L.L.L.L.K.K.K.K.K.K.L.L.L.L.L.L.L.L.L.L.L.L.L.L.F.C.L.L.L.L.L.E.E.L.L.E.E.E.A.E.E.W.W.W.@.e e } { { ( } } } } } J e e ( ` O.O.3.3.=.=.4.6.9.9.9.0.0.0.0.4X4X4X5XuXrXrXrXtXtXdXdXdXdXfXpXgXmXmXaXzXbXMXGXGXnXxXxXxXbXnXFXFXGXMXMXnXbXGXGXxXxXbXcXcXcXcXcXcXcXgXgXfXfXfXpXiXiXiXiXwXwXrX7X7X>X>X>X>.:.<.1.q.<.<.0.9.7.4.4.3.3.3.3.5.] O.' ` ` ` X.P P H X.W._.W.!.!.S.S.S.!.S.A.A.A.C.L.L.L.L.L.L.L.L.L.L.L.L.L.L.L.L.L.L.L.L.L.L.F.F.F.F.F.F.F.F.F.F.F.F.U.U.U.L.M.C.C.C.L.L.L.L.E.L.L.L.L.M.L.E.E.!.!.W.W.C.L.W.g.7 7 X.L P @.L R ~ X.X.o.o.o.O.] 5.*.*.4.4.4.4.=.9.9.&.$.:.1.4X4X5X>X>XrXrXrXtXwXiXiXpXdXfXfXfXsXsXsXzXzXcXbXbXMXxXbXbXnXHXKXHXFXFXFXMXnXnXnXnXxXnXnXnXxXxXxXzXcXcXcXgXgXgXgXfXdXdXdXiXiXtXtXtXrXrX7X5X6X4X4X4X0.0.0.<.<.,.,.,.,.] ) K J ) [ ` o.` ` o.` I P o.W.W.!.!.!.!.!.!.E.!.!.!.E.C.A.W.C.C.L.L.L.C.C.L.L.L.L.L.F.L.F.L.U.L.U.L.U.L.U.L.F.L.L.L.L.L.L.L.L.L.L.L.L.L.L.L.F.F.F.F.F.L.L.L.E.A.C.A.C.C.C.W.I.I.K._.+.5 T T R P P P } X.X.X.X.` o.O.O.O.3.3.4.4.4.4.6.9.9.0.0.0.3X3X3X6X6X>X7X7XrXtXtXwX1X<XeXiXpXpXpXpXaXaXmXmXaXzXnXMXMXxXgXHXHXKX",
"KXHXMXFXnXnXFXHXHXFXFXnXvXvXxXaXzXsXaXaXpXpXpX0XpXiXdXdXtXwXrX1XrXuX5X5X4X4X4Xq.0.0.0.9.7.7.=.3.*.] O.] O.] ` ` ` X.} X...r r @.S.qXqXqXS.A.J.S.J.E.E.W.L.L.L.L.L.E.H.H.F.F.F.F.H.H.F.F.F.M.M.M.F.F.F.F.F.F.F.F.F.F.F.F.F.L.L.L.F.F.F.M.F.M.F.M.F.F.F.L.L.L.E.E.M.M.H.E.!.!.E.B.E.W._.W.P 5 e { L L { } } } } } e e H K ` ] O.' 3.*.=.4.7.9.9.9.1.1.1.0.4X3X3X,X>X1XrXrXtXtXiXdXdXdXfXgXcXcXcXcXzXMXFXnXGXnXNXNXxXMXmXFXHXFXnXnXnXxXnXFXnXxXxXbXcXcXcXcXcXzXsXsXaXfXfXfXpXpXiXiXwXwXtXrXyXrX5X4X;.>.>.1.1.0.<.=.9.7.7.7.3.3.3.3.' o.o.o.o.X.X.} @.I e @.I.W.W.E.S.S.S.S.!.!.E.B.A.A.H.H.H.M.M.M.L.L.L.L.L.L.L.L.L.L.F.F.F.F.F.M.F.F.F.F.F.F.F.F.F.F.F.F.F.L.L.L.L.L.L.L.L.L.F.M.L.L.L.L.L.L.L.L.E.E.E.L.L.L.Q._.I I I P T L L } P ~ ` X.X.o.O.O.O.5.3.3.4.4.4.4.0.<.=.&.$.&.1.4X5X>X>XrXrXrXrXwXiXiXiXdXdXfXfXfXfXgXgXcXcXcXbXbXMXMXNXnXFXFXHXKXHXFXFXnXnXnXnXNXNXnXGXnXvXxXbXcXcXcXcXgXgXsXsXfXfXdXiXiXiXiXtXtXtXrX7X5X6X4X:X:X0.0.0.<.<.<.,.7.7.] ) J J J ` O.` o.` o.o.H e X._._.W.A.A.A.E.!.E.E.E.E.E.E.E.L.L.L.L.L.L.L.F.F.F.F.F.F.F.F.F.L.F.L.F.L.F.L.F.F.F.F.F.F.F.L.L.L.F.F.F.F.F.F.F.F.F.F.H.H.H.E.E.E.M.M.M.E.E.E.A.C.E.L._.T.R 5 e } L ( ( / / ` ` ` O.O.o.o.o.5.5.3.4.4.4.6.6.0.0.0.0.1.0.3X4X4X6X>X5X1XtXtXtX8X<X<XeXwXiXpXpXpXaXsXsXmXaXzXnXFXNXxXbXmXHXKX",
"PXKXFXnXGXnXHXKXHXHXMXnXNXxXvXzXzXzXaXaXpXpXpXpXiXiXiXwXtXwXrXrXrX>X5X>X4X3X:X0.0.<.0.<.7.4.=.*.3.3.3.O.O.O.O.X.X.X.} } } r e X.S.qXjXjXqX!.!.J.E.E.W.W.L.L.L.L.E.E.E.E.E.E.E.E.E.E.E.E.L.L.L.L.F.L.L.L.L.L.L.L.F.F.F.L.L.L.L.L.L.L.F.F.L.F.L.L.L.L.L.L.L.L.L.L.Q.Q.!.!.E.E.E.!.!.W._.C.L 5 e ( L L { } } } / P H H H K ' O.3.3.*.*.=.=.7.<.<.<.1.1.1.0.4X4X5X,XrXrXrXrXtXiXiXiXpXpXfXfXgXgXcXcXxXMXFXMXFXGXnXnXnXMXHXHXKXHXnXnXnXnXGXGXGXnXbXxXcXcXcXcXcXzXsXsXsXgXfXaXpXiXpXiXiXtXtXyXyX7X>X:X;.>.>.1.1.1.<.<.9.7.4.3.3.*.3.*.o.' o.` ` / } } ..r e @.I._.Q.!.!.S.S.A.A.A.!.!.!.E.!.!.!.!.E.E.E.U.U.U.U.U.U.U.L.L.L.L.L.F.F.F.L.L.L.L.L.L.F.F.F.F.L.L.L.L.L.L.L.L.L.L.L.L.L.L.L.L.L.L.U.U.E.U.E.E.Q.Q.W.L.C.V.e 7 e L L L L } P P ~ ` X.o.o.O.] *.*.*.*.4.4.4.<.,.-.$.$.&.1.:X5X5X>XrXrXrXrXrXwXiXiXiXdXhXhXfXfXgXgXcXcXcXbXbXMXMXxXNXFXFXHXLXKXHXFXnXnXnXMXMXNXNXnXGXnXxXxXcXcXcXcXcXgXsXaXaXdXdXiXiXiXwXwXwXrXrX7X>X>X4X:X:X1.1.<.<.<.,.=.*.,.] ) J J J / X.o.o.X.X.X.H e } _._._._._.W.!.!.E.E.E.W.E.W.W.W.E.E.E.U.U.U.L.L.L.L.L.L.L.L.L.L.L.L.L.L.L.L.L.L.F.F.F.L.L.L.L.L.L.L.L.L.L.L.L.F.L.L.L.L.L.L.E.E.W.!.W.W.A.W.W.W.W.W.Q.I.R 5 p { i { ( / / ` ` ~ o.o.o.o.o.O.O.5.*.*.=.:.:.0.0.0.0.1.0.4X4X4X5X>X7XrXrXrXwX1X<X<X2XiXiXpXpXaXaXsXaXzXzXMXnXFXnXxXxXmXHXKX",
"PXLXHXmXFXFXHXLXKXHXMXGXNXxXzXcXsXsXaXaXpXpXpXpX2XiXwXwXtXwXrXrXrXrX>X>X4X3X3X0.0.0.0.9.7.4.=.3.*.3.3.O.O.] ` ` X.X.} } } r e } Z.A.S.!.A.A.C.C.W.W.I.I.I.I.I.I.K.m.m.m.m.m.m.m.m.m.m.m.m.m.m.m.K.K.K.K.K.K.K.K.D.D.K.K.K.K.K.K.K.K.K.K.K.K.K.K.K.K.K.K.K.K.K.K.L.I.L.L.C.C.E.Q.C.V.K.c.y 1 p i L { } } } ( L I H H H K Y ' O.3.3.4.4.7.9.9.0.<.0.1.0.q.4X5X5X>XrXrXrXwXtXdXdXiXdXfXfXfXsXsXsXzXnXGXFXFXFXGXnXnXGXGXHXKXKXHXGXNXbXbXnXGXGXGXnXxXbXcXcXcXcXzXsXsXsXgXfXfXfXiXpXiXiXtXtXrX7X>X:X2.;.;.;.;.<.<.<.<.9.7.7.7.3.3.3.3.O.o.o.o.X./ } } } r e } V.L.W.W.!.!.!.W.A.A.W.Q.L.L.C.C.C.C.m.V.m.m.m.m.m.m.m.m.K.K.K.K.K.K.K.K.K.K.K.K.K.K.K.K.K.K.K.K.K.K.K.K.K.K.K.K.K.K.K.K.K.K.K.K.K.K.K.K.L.U.U.I.W.I.I.P.7 7 y T { { { } } X.X.o.o.O.O.O.3.3.3.3.7.7.7.9.=.&.%.$.$.&.:.2.5X5XuXrXrXrXtXtXtXiXiXdXdXhXhXfXfXsXcXcXcXcXcXxXnXnXxXNXFXFXHXLXLXHXFXnXnXnXnXMXNXNXnXFXMXbXxXxXzXcXcXgXgXsXsXfXfXdXdXiXiXiXiXtXrXrX5X>X>X4X:X:X1.1.<.<.<.,.,.,.] [ ( K J J ( ( o.@.X.X.X.H e } N.Z.C.W.A.A.A.A.W.W.W.L.E.L.L.L.V.V.V.V.m.m.m.m.K.K.m.m.m.m.m.m.K.K.K.K.K.K.K.K.D.D.K.K.K.K.K.K.D.D.K.K.K.D.K.K.L.L.L.L.K.K.C.V.V.C.I.I.V.C.I.Q.L.m.I.m.y , w i i { ( / / X.` X.o.o.o.o.O.5.5.3.3.*.=.:.6.0.0.0.0.q.4X4X4X4X5X5XyXrXrX1X1X1X<X<XiXpXiXpXpXpXaXsXsXzXbXFXnXnXbXzXxXbXFXKX",
"LXLXKXHXFXFXJXLXLXHXFXGXnXxXzXgXsXsXaXaXpXpXpXpXpXeXwXwXwXwXrXrX>X>X>X>X4X3X:X1.0.0.0.9.7.7.7.4.*.] O.] ] ' ` ` X.X.} / } L r } N.Z.Z.Z.Z.C.I.Q.C.C.V.V.V.V.V.V.K.K.K.K.K.K.K.K.K.K.K.K.K.K.V.x.l.l.l.l.l.l.l.l.l.l.l.l.l.l.l.l.l.l.l.l.l.l.l.l.l.l.l.l.l.l.l.l.s.g.V.V.l.g.g.l.l.f.c...w 1 p p i L L L L L H e H H H H K ) ' ] 3.4.7.7.9.9.0.0.1.1.1.1.3X4X5X>XrXrXrXrXtXwXiXiXfXfXfXfXgXgXsXvXGXnXFXHXFXMXGXnXGXFXKXLXKXHXFXnXMXMXMXFXFXGXGXbXbXbXbXbXcXcXsXsXsXfXfXaXpXpXiXiXwXwX1X>X>X:X;X>.;.;.&.&.&.&.=.=.,.7.4.3.3.*.] ] O.o.o.` / / / / { e e L @.N.m.m.Z.C.C.A.C.C.V.V.I.I.I.I.K.K.K.K.K.K.K.K.K.K.K.K.l.l.l.l.l.l.l.l.l.x.l.x.x.x.x.v.l.l.l.l.l.l.l.l.l.l.l.l.l.l.l.l.l.l.l.l.l.x.x.V.g.d.s.s.s.g.g.g.5 7 y L { L L ( P P / / ` o.` ' ' O.] *.3.3.4.7.%.%.$.$.$.$.&.:.3X:X>XrXrXrXyXtXtXiXdXdXdXhXfXfXfXgXcXcXcXcXcXxXNXNXNXnXFXFXHXLXKXHXFXnXnXNXNXNXxXNXnXFXMXMXnXxXvXvXzXzXgXaXaXfXhXdXiXiXiXwXwXwX1X>X>X>X4X:X:X1.0.q.0.0.0.<.,.7._ ) K K J J J J ( X./ / } I e / g.N.Z.Z.Z.Z.W._.C.V.V.V.V.V.V.V.K.K.K.K.K.K.K.K.R.K.K.K.v.x.x.x.l.l.l.l.l.l.l.l.l.l.l.l.l.l.l.l.l.l.l.l.g.g.g.g.l.l.l.l.l.l.g.g.s.g.x.x.g.g.g.x.m.d.g.+.5 > 1 w i { ( ( / } X.X.o.o.o.o.5.3.8.3.7.7.7.9.9.0.0.0.1.1.1.1.4X4X6X>X7X1X1X1X2X<X2X2X0XiXpXpXpXpXaXsXzXbXnXFXFXMXbXbXNXnXMXHX",
"PXPXLXJXHXJXKXLXLXHXFXGXNXxXcXfXaXsXaXaXpXpXpXpX2XeX2XeX1X<X>X>X>X,X:X;X1.2.1.<.<.<.<.=.=.=.*.*.] _ ' ' ' ` ` ( J P J J J r e L } +.+...+...+.+.} }  . . .{ R R E E E E E E E E E E E E E E E E T E E E E E E E E E E E E N E T T T T T T T T T E E T E T E T T E  . .W Q T T R f.....V 8 < 8 8 w w w w e e e e H H H H K K ` ' _ -.-.*.=.=.=.,.<.;.;.2.2.2.2.;X>X,X,X<X1X2XwX2XpXpXpXaXaXsXsXvXGXnXFXKXHXFXGXGXGXHXLXLXKXHXGXnXMXMXFXHXHXFXGXnXxXxXxXcXzXzXsXsXaXaXpXpXiX2X2X2X<X<X,X;X;X;X>.>.>.>.&.&.$.&.&.$.$.[ _ _ ) U U U Y P P P J J J r L e e L @.g.N.N.+.} R } +.+.}  . . .W E E E E E T E T E T T T E T T T T T T T T E E E E E E E E E E E E E E E E T E T E T T T E T T T E E E E W f.h.s.+.s.+.}  .1 1 5 w p w w w e e e e H J K K K K K U ) _ _ _ _ $.$.$.$.$.&.;.2.2.;X,X>XrXrXrXtXwXtXiXiXpXpXaXaXaXzXzXzXzXzXxXNXxXnXFXmXHXKXLXKXHXFXMXnXNXNXxXbXbXGXFXFXFXnXvXvXvXvXaXpXpXpXiXiXwX2X2X<X<X,X,X,X,X:X:X:X2.1.2.<.<.<.:.=.=.*.*.U U K K J J H H H J H e L e e L } +.@.@.@.+.+.+.+.} } } R R R R E E E E E E E E E E E E T T T T T T T T T T T T E E E E E E E E E E E N E E E E E E E E E E E T E |  .{ E T T R l.+.+.R 5 , 1 8 i i i L J P P P ` X.` X.o.o.O.] 3.*.*.=.=.:.:.:.:.:.:.>.1.1.:X;X,X;X,X,X,X<X<X2X0X0XiXpXpXpXaXaXvXnXnXGXHXHXmXGXGXGXFXHX",
"PXPXLXLXKXKXPXLXLXHXFXnXNXxXcXfXaXaXaXaXpXpXpXpX2X2X<X<X<X,X,X;X;X;X>.>.>.>.;.;.&.-.-.%.$.$._ _ U U U K K K H H 7 H e 7 e e 5 e ..f.c.f.....{ { T T R E T T b b t t t t t t t t t t t t t t t t c c c c c c c c c c c c c c c c N c b b b b c c b b b b b b b b | E E E |  .u.f.{ b b t < < < < 5 5 5 5 5 7 e e H H H H H H K U U U Y _ $.$.$.$.&.&.&.&.;.;.>.>.;X;X;X,X,X<X<X2X2X0X0XpXpXaXaXaXnXGXHXKXKXHXGXMXGXHXLXLXUXHXGXnXmXFXHXKXKXFXGXnXxXxXxXvXvXaXaXaXpXpXpXpXpX2X2X<X<X,X;X;X;X;X2.>.2.>.&.$.$.$.$.$._ _ _ U U K K K K K H H e e e w w w 7 r R +.+.+.V.c...} { { { E y y y y t t t t t t t t 6 6 t 6 t y t y y c c c c c c c c c c c N N N b b N N N b b b b b b b b b b b b E E E | T Q Q W  . .R T 1 1 1 1 1 1 1 8 w 7 w e e e H H J J K K K ) ) ) _ $.$.%.&.&.&.;.>.>.2.>.;X;X,X,X1X1X1X1XeXiXiXpXpXpXaXaXaXvXzXvXxXvXnXFXFXHXLXLXJXHXFXFXFXnXnXnXmXmXFXHXFXMXNXxXvXvXvXaXpXpXiXiXiX2X2X<X<X,X;X;X;X9X>.>.>.;.;.;.&.&.$.$.$._ _ _ U U K K K J H H 7 e 7 7 e w 5 w @.g.x.x.@.+.R P R T R R T T b b y y t t t t t t t t t t t t t t c c c c c c c c c c c c c c c c N c N N N N N N N N b N b b b b E b b b { | u.c. .T T y 1 1 8 1 w w w e e e H H H I K K K K K K ) ) _ _ $.$.$.$.&.&.;.;.;.>.>.>.9X;X;X;X,X<X<X2X0X0XpXpXiXpXaXaXvXnXnXGXKXHXHXHXFXFXFXHX",
"PXPXPXPXPXPXPXLXLXHXFXnXNXxXcXfXsXsXaXaXaXpXpXpXpX2X2X<X<X<X,X,X;X>.>.>.>.>.;.;.$.$.$.$._ _ U U U U U K K K K H H P H e I H 7 r 1 1 1 1 1 1 5 w > > > > > > > > > + + + + + + + + + + + + + + + + + + + + + + + + + + + + + + + + + + + + + + + + + + + + + > > > + + > > > > + w 1 p 8 , 8 p , e e e e e e H H H H K K K K K Y _ _ $.$.$.-.-.-.:.&.&.&.;.;.>.>.;X;X;X,X<X2X2X2XiXiXpXpXaXaXsXsXbXFXHXKXLXUXHXmXHXHXLXLXKXHXFXFXHXHXKXKXKXFXMXNXxXxXxXvXvXaXaXpXaXpXpXpXpX2X2X<X<X,X,X;X:X;X;X2.2.>.;.&.&.&.$.$.$.[ _ [ _ ) ) U J J J e e w w w 5 w 5 w r I I 7 , 5 5 5 , > > > , > > > > > > > + + + + > + + + + + + + + + + + + + + + + + + + + + + + + + + + + + + + + + + + + + > > > > > > 6 , , , 1 5 1 1 w 1 1 8 8 1 1 p w w e e r r J J J K K ) ) ) ' [ _ _ %.-.&.&.&.;.>.>.>.>.;X;X;X;X,X,X<X<X2X0X0XpXpXpXaXaXaXaXzXzXxXnXFXFXHXKXLXLXJXJXFXHXHXGXFXGXFXHXHXHXFXMXbXxXvXvXvXaXaXiXiXiXiXiX2X<X<X<X,X,X9X9X>.>.>.;.;.;.&.&.$.$.$._ _ ) _ ) ) K K K K J e J e 7 e w 1 w 1 1 5 1 5 5 7 7 , , , > > > > > > > > > > > + + + + + > > > > > + + + + + + + + + + + + + + + + + + + + + + + + O O + + + + + + + + + + , , > + 5 1 5 w 1 1 t 8 8 w w e e e e H H H H J J J J J K K U _ $.$.-.&.:.:.:.1.1.1.:X;X;X,X>X,X2X1XwXiX0XpXpXfXhXfXsXzXxXnXGXGXKXKXJXJXHXHXHXKX",
"PXPXPXPXPXPXPXPXLXHXMXnXNXxXcXgXzXzXsXaXaXaXpXpXpXiXwXwX1X<X1X>X;X;X;X2.2.2.>.>.&.%.$.$.$._ _ _ *.*.3.] O.' ' ' ` o.X.P } } L L i p 5 1 p } x.(.(.(.(.(.T.P.P.P.b.v.v.v.c.c.c.n.c.c.c.n.v.v.v.v.Y.Y.Y.Y.Y.Y.Y.Y.P.b.b.b.b.b.v.b.v.c.c.c.c.c.c.c.v.v.v.v.b.b.P.Y.}.).).|.).c.y > 1 1 w t p { ..T L L L T / P P P K P ` ' ' ' O.3.4.4.4.7.9.9.0.<.1.2.:.;.>.2.2.2.;X,X,X<XeXwXiXpXdXfXfXfXgXcXcXcXzXFXHXKXLXLXKXHXJXJXLXPXLXUXHXHXKXLXLXLXKXmXmXvXxXxXxXvXvXaXaXaXaXaXpXpXiXeX2X2X1X1X>X>X,X,X:X2.2.:.;.;.:.&.-.%.$.[ _ [ ) ) ) ( K J J J r e p w p p r e e e 5 5 5  .P.#X(.).(.XXP.P.b.v.b.b.b.v.c.c.c.c.c.c.c.c.b.b.b.b.b.b.P.b.Y.Y.Y.Y.Y.Y.P.Y.b.b.v.v.v.n.n.n.v.v.v.v.x.c.v.v.P.b.Y.Y.Y.).).).b.u.t > > > 1 1 8 1 , < 1 < 1 w w w w e e r J J J J K ) ) ) ) ) _ $.%.&.&.-.&.;.:.2.2.2.;X,X,X,X>X,X1X1X2XiXpXpXpXpXpXaXaXsXcXcXxXFXFXHXKXLXLXLXJXJXHXHXKXFXFXFXHXKXKXHXFXMXnXvXxXvXvXzXgXfXhXhXwXeX<X<X<X,X,X;X;X;X;X1.1.2.>.:.:.&.=.-.-.%.-._ _ ' ` ` P K P P J } L e i p w w p w 5 5 e ..V._.(.(.(.(.T.P.P.P.v.v.v.v.n.v.v.n.c.c.c.c.v.v.v.v.Y.Y.Y.Y.Y.Y.Y.Y.b.b.b.b.b.b.v.b.v.n.n.n.v.n.v.n.n.n.v.b.b.b.b.^.).).).).).c.y > , , 1 w 1 u V t p p p p r r I J P P P P K K K K K U _ [ =.,.9.0.0.0.4X4X4X6X5X5X7X7XrXtXtXiXdXiXpXaXfXfXhXgXgXzXxXnXGXFXKXLXLXKXUXKXKXLX",
"PXPXPXPXPXPXPXPXUXHXMXxXNXxXvXcXzXzXsXaXaXaXpXpXpXiXwXwXwX1X1X>X,X,X:X;X1.1.1.<.&.$.$.$.$.*.*.3.*.3.3.3.O.' o.o.o.o.X.} } / P P i { i 5 L x.(.(.P.P.x.x.K.K.K.x.c.v.v.n.k.k.c.v.v.c.p.p.p.k.k.p.k.k.k.k.k.k.k.k.c.c.v.n.v.v.v.v.v.v.v.v.v.v.v.b.P.v.v.b.P.P.P.Y.P.Y.b.b.Y.Y.u.1 t y i b T T T T T L R R } } X.X.o.` o.o.] O.3.3.3.4.4.4.9.9.0.<.0.0.0.1.2.>.2.2.;X>XrXrXtXwXiXiXdXfXfXfXgXgXcXzXzXbXFXHXKXLXLXLXLXLXPXPXPXPXPXLXLXLXLXKXHXlXcXbXxXxXvXxXvXaXgXaXaXpXpXpXiXiXeXeX2X1X>X>X,X:X1.2.2.:.>.;.&.&.-.%.$.[ [ [ ) ) U ( ( J J r e w w w i { { { T T y 5 T P.(.P.P.P.v.v.x.x.x.c.c.c.c.c.k.k.k.k.k.k.k.k.k.k.k.k.k.k.k.k.v.v.v.v.v.v.v.n.v.v.v.b.v.v.v.v.v.v.v.v.v.b.P.b.v.b.Y.Y.P.v.v.P.).).r., , 0 0 8 8 8 t 8 8 8 8 8 p p p p r r J J J J ( ( ) ` ` ' [ _ $.%.-.-.&.;.<.2.2.2.;X,X>X>X>X>X1X1XeXpXpXpX0XpXaXaXsXcXcXcXbXFXHXKXLXPXPXPXLXUXUXLXKXHXHXHXKXLXJXHXmXmXcXvXvXvXvXzXgXhXhXhXdXiXwX<X<X,X;X;X;X;X:X1.1.>.>.>.:.=.=.-.&.*.-._ ' ' ' ` ` P P P L L L i i i i i p i p 1 L x.(.P.T.P.P.K.K.v.x.k.v.x.v.c.c.c.n.n.v.k.k.k.k.k.k.k.k.k.k.k.k.k.k.k.x.c.v.n.v.v.v.v.v.v.v.b.v.v.v.v.b.b.b.b.b.b.b.Y.b.b.b.b.).).| > 1 1 1 8 t t t p p p p p r I I L P P P ( ( ( ) ( K ) [ *.7.9.9.<.0.1.4X4X4X4X5X5XrXrXtXtXtXiXdXpXpXaXfXfXfXgXgXzXzXnXMXFXHXLXLXLXPXPXPXPX",
"PXPXPXPXPXPXPXIXJXDXmXzXxXxXvXcXzXzXsXaXaXaXpXpXpXiXwXwXwXeX1X>X>X,X,X;X1.1.1.<.&.&.$.$.$.*.=.4.*.3.3.3.3.] o.o.o.o.X.} } / P R T T y 5 y f.P.V.l.f.s.s.f.f.h.s.i.p.p.p.u.t.u.p.r.r.r.r.t.u.p.p.t.t.t.i.i.h.k.k.i.i.i.i.i.i.k.k.i.i.i.i.i.i.i.i.i.i.k.k.k.k.k.k.k.k.k.u.k.c.E , t y b T T T R R T L R R } } X.X.o.` o.o.] O.O.3.3.4.4.4.9.9.0.<.0.0.0.1.2.>.2.2.,X>XrXwXtXwXdXiXdXfXfXfXgXgXgXcXgXcXmXHXHXKXPXPXPXPXPXPXPXPXPXPXPXLXKXJXDXDXlXcXcXxXvXvXzXaXcXaXaXpXpXpXiXiXeXeX2X<X>X,X,X:X1.2.2.:.;.&.&.&.-.%.[ [ [ ) ) ) ( ( ( J J J r w w e L ( { { T T y 5 5 +.x.g.l.l.s.f.l.f.f.u.u.i.r.u.i.i.i.t.i.i.i.s.i.i.i.i.i.i.i.i.t.t.i.i.i.i.t.t.i.i.i.i.i.i.i.i.i.i.i.i.i.i.i.i.i.k.k.k.k.k.k.n.v.n.B , 4 0 8 0 8 8 8 8 8 8 8 8 p p p p r i J J J ( ( ( / ` ` ' [ [ $.%.%.-.&.&.<.2.2.2.;X,X,X>X>X>X<X1XeXpXpXpXpXpXpXpXfXcXcXcXmXHXJXLXPXPXPXPXPXPXPXLXKXJXHXKXLXLXJXJXlXgXgXcXzXzXvXsXfXfXhXhXdXiXwX1X<X,X,X;X:X:X:X1.1.1.:.:.:.=.=.%.*.*.-._ ' ' ` ` Y P P P J L L i i i i i p i w 1 p f.P.c.l.f.s.s.f.f.s. .f.f.k.k.i.i.i.i.t.t.t.t.u.f.k.k.t.t.i.i.i.i.k.k.h.h.h.i.i.i.k.k.i.i.i.t.t.i.i.i.t.u.p.k.k.k.k.k.p.k.f.u.c.c.b > 3 3 1 0 0 t t t t p e e r i I L P P P ( ( ( ( ( K ) [ *.7.9.0.<.0.1.4X4X4X4X5X5XrXrXtXtXtXiXdXiXaXaXfXfXfXgXgXsXaXcXmXHXJXKXPXPXPXPXPXPX",
"PXPXPXPXPXIXIXUXSXDXlXgXbXbXzXzXzXsXsXaXaXaXpXpXpXiXwXwXwX1X1X>X>X,X,X;X1.2.1.<.:.&.$.$.$.&.=.4.*.3.3.3.3.] o.o.o.o.X.X.} P P R R R L 5 7  .l.g.V.x.l.l.l.l.l.l.k.k.k.k.k.p.p.p.p.p.p.p.p.p.p.p.i.i.i.p.k.k.p.i.i.i.i.i.i.i.i.i.k.k.p.i.p.k.k.k.i.p.k.k.k.p.i.i.k.k.i.t.u.f.E 1 y y Q T Q Q Q R T L R R R } X.X.X.` o.o.] O.3.3.3.4.4.4.7.9.0.<.0.0.q.1.2.2.2.2.>X1XrXtXtXwXiXiXdXpXfXfXsXsXgXgXlXlXlXlXJXUXIXIXPXPXPXPXPXPXPXPXPXIXJXSXSXSXlXlXgXcXaXvXzXaXgXaXpXpXpXpXiXeXeXeX<X>X>X,X,X;X1.2.:.:.;.&.&.&.-.%.[ [ [ [ ) ) ) ( ( J J J r e e J ( } } { T T y 5 y f.x.c.x.x.k.c.x.c.k.k.k.k.k.k.k.k.p.i.p.k.k.k.k.p.p.i.i.i.i.i.i.i.i.i.i.i.i.i.i.i.i.i.i.i.i.i.t.i.p.k.k.p.i.i.i.i.i.i.i.i.k.k.r.y.n < < 0 q 8 8 8 8 8 8 8 8 8 p p p p p i J J J ( K ( ) / ` ' [ [ $.$.%.&.&.&.<.:.2.2.2.;X,X,X>X>X<X2XeXeXpXpXpXpXpXpXgXgXhXdXkXDXJXIXPXPXPXPXLXLXLXLXUXJXJXKXLXLXUXJXlXkXdXmXgXgXsXgXfXfXhXhXdXdXwX1X<X,X,X,X;X:X:X1.1.1.:.:.=.=.=.%.*.-._ _ ' ' ` ` ~ P P P P L L i y i p p t p w 1 w ..c.f.c.l.k.l.l.l.k.k.k.k.k.k.k.k.p.i.k.k.k.k.i.i.p.k.t.i.i.p.k.k.p.p.i.i.i.i.i.i.i.i.p.p.i.i.i.k.k.k.u.p.p.p.p.p.u.r.u.u.r.| u.u.E 1 3 3 3 0 t t t p p p e r r L L L P P P ( ( ( K K K ) ] ,.9.9.0.9.0.0.0.4X4X4X5X5XrXrXtXtXtXiXdXdXpXaXfXfXfXgXgXgXlXlXlXDXDXJXIXLXPXPXPXPX",
"F F F F F F C 9 p H U $.2XzXaXvXzXsXaXaXaXaXpXpXpXiXwXwXeX1X>X>X,X,X:X;X1.2.>.<.:.&.$.$.*.=.7.7.*.3.3.3.3.] O.o.o.o.X.X.X.P P R R R L 5 7 W f.f.f.f.s.s.s.u.u.u.r.r.r.r.r.| | | r.r.r.| M N M M M M E M M M N N M M M M N N N N E E E E r.r.r.r.r.r.r.E E M N N E E N b E E t > y y Q T Q Q R R T L R R } } X.X.X.` o.o.] O.3.3.3.4.4.4.7.9.0.<.0.0.q.1.2.>.2.2.rXrXtXtXtXwXiXiXdXpXfXfXsXsXsXhXY K H K H y F -X-X-XF F F -X-X-X/.z.V V p J K U wXgXsXzXzXsXsXpXpXpXpXpXpXeXeXeX<X>X>X,X,X;X2.2.:.:.:.&.&.&.%.%.$.[ [ [ ) ( ) ( ( J J J r e r ( ( } } T T T y 7 5 }  . .s.s. .f.u.u.r.r.r.r.r.r.r.r.E E E E E E w.| E E E M N N M M M M E M M M E M E M E w.w.w.N M E | E r.r.r.E M E M N N N N M B 0 > < 0 9 0 8 0 8 8 8 8 8 8 p p p i p i L J J J K ( ( ` ` ' [ [ $.$.%.-.=.&.:.:.2.2.2.2.,X,X>X>X<X2X2XeXpXpXpXpXpXhXlXkX>X$.H ( q F F G A : D C l C C q w ( q C # w e H $.hXhXgXgXfXfXfXdXdXdXdXtX1X,X,X;X,X:X:X1.1.1.>.:.:.=.=.=.*.*.-._ _ ' ' ` ` ~ P P P L L L i y e p p t p 8 1 w | f.s.u.u.u.u.u.u.u.r.r.r.r.r.r.r.E | r.r.r.| E N N M N M E M N N N c M M M M N N N N M M w.w.w.r.r.r.r.r.r.E E M N N b b b b b b p > 3 3 3 0 t t t t p p e r i L L L P P P ( ( ( K K K ) *.7.9.9.0.0.0.1.0.4X4X4X5X>X7XrXrXtXtXiXiXdXpXfXfXfXsXgXgXhX$.H 7 r V C V D F F F F ",
"; ; ; : : : = 9 + > 7 ^ ,XcXcXbXzXsXaXaXaXaXpXpXpXiXwXeX1X<X>X>X,X;X:X;X2.2.>.:.:.-.$.$.*.4.7.4.*.3.3.3.O.] o.o.o.o.X.X.X.P P R R R Q 5 7 T  . .| E E E T b b M M M n x v x x n x x x x x x n n v v v v v v x x x v x v x v x v x x x n n v x 0 N m n n n n M M N N N M M b 0 > t c T T Q Q Q W R P R R } } X.X.X.` o.O.] 3.3.3.3.3.4.7.7.9.9.<.1.0.q.1.2.>.2.>.rXrXtXwXwXwXiXiXdXpXfXfXsXsXgXkXw # # # = % - ; - - % # # % ; ;   X = g = < 1 7 >.hXsXsXzXaXaXaXpXpXpXpXiXeXeXeX<X>X>X,X,X;X2.2.:.;.;.&.&.&.%.$._ [ [ ) ) ) ) ( ( ( J J H e I / } } } R R R L e 5 T E E | | E | | | M M M M N N x v n n n n x x x n n n N m n n v v v v v v v v x x x v x n x m x n n n v v N M n n N M M M N n n m 0 + 2 0 < 0 8 t t 8 8 3 3 8 p e e p r i L I J J J ( ( ` ` ` [ [ [ $.%.%.&.&.;.>.2.2.>.2.;X,X,X>X>X2X2X2X2XeX2XiXdXhXlXkX;.7 , + X - ; ; G G @ % ; ; ; X @ # : : = u w 7 ^ jXkXhXhXfXfXfXfXpXdXdXiX1X,X,X;X;X;X:X1.1.1.<.:.:.=.=.=.%.%.$._ _ ' ' ` Y P P P P P L L y y p p p t p w 1 1 b | | | | | { M b b N M M n n x v x m x x x v x n n n x x x v x x x x x v x v x v x v v v x m m v v x M N n x n n M M b b b b b b 0 > 3 3 3 0 t t p y y y y r I I L L P P P P ( K K K K _ *.7.9.9.9.0.1.1.0.4X4X4X5X>X7XrXrXtXtXiXiXdXdXhXfXaXsXgXhXyX7 > O @ = = @   @ % % % ",
"; : : : o   . @ & # < , &.kXaXaXzXsXaXaXaXpXpXpXpXiXwXeX1X<X,X,X;X;X;X;X2.2.>.:.<.-.$.$.*.7.7.4.*.3.3.3.O.] o.o.o.o.X.X.X.R P R R R T 7 5 w t t c b b t t t t x h 9 2 2 2 2 2 4 0 9 3 0 9 9 2 < 3 3 2 3 3 9 g g 3 9 g g g g h g 9 9 9 9 9 2 < < 2 9 2 9 9 g v v v x n n v v 8 3 t b b T T Q Q W R P R R } X.X.X.X.' o.O.] 3.3.5.3.3.4.7.7.9.9.<.1.1.q.1.2.>.2.2.rXrXrXrXwXwXiXiXdXpXfXaXsXsXgXkX8 : - ; : : ; : : : = = = = % ; % - - ; : & 1 5 U hXgXsXsXaXaXaXpXpXpXpXpXeX2X2X<X>X>X,X;X2.2.2.;.;.&.&.&.%.%.$._ [ [ ) ) ) ) ( ( ( J J e e H / P } R L R } T p 5 y t t b b t b t t 0 0 3 3 3 2 < 2 2 9 9 9 2 2 + # < 2 0 9 0 9 3 3 3 9 3 9 3 9 2 2 3 3 3 9 9 9 2 9 9 2 < # 2 9 9 0 0 j v m m v h x < + 2 0 < 0 8 t t 0 8 3 3 8 p p e p r r I I J J K K ) ( ` ) [ [ [ $.%.%.&.-.:.;.:.2.2.2.;X;X,X,X<X<X2X2X2X2XeXwXdXhXkXkX;.7 1 # : - G - ; X % = ; ; - ; @ @ o - o % O + , jXkXkXhXdXpXpXpXpXiXiXtX1X,X;X;X:X:X1.1.1.1.<.:.:.=.=.=.%.*.$._ _ ' ` ` P ~ P P P P L I I y p p p p p t 1 1 5 t t v v v u t 0 0 0 0 9 2 2 2 2 2 2 9 9 2 9 9 9 2 # 2 2 2 2 2 9 9 0 9 9 9 9 g g g g g g g g 9 3 2 < 9 3 3 3 9 h v v v v v v v u 8 < 3 3 3 0 t t y y y y y I I I L L P P P P ` K K U K _ *.7.9.9.<.0.0.1.1.4X4X4X6X>X7XrXrXwXtXtXiXiXdXhXfXaXzXgXhXjX> # : ; - % # # % ; : : ",
"o o o o o X % %     . + 3.lXcXzXzXsXaXaXaXaXpXpXiXiXwXeX1X<X,X,X;X;X;X;X2.2.>.>.<.&.$.$.&.7.4.=.*.3.3.3.O.] O.o.o.o.X.X.X.P P R T R R y 5 1 1 1 > , , > + + + # # + + + + + O . + O O O # # O O O O O . . . . . . . O . O O O O O . O . O O O # O O # # # O O O + + + + # # # # v n b b T Q Q R L P R R R X.X.X.X.' o.O.] 5.5.5.3.4.4.7.9.9.9.<.<.1.0.1.2.>.2.2.>X1XrXrXwXwXiXiXdXpXfXaXgXsXgXkX> o o o - - -         o o o o o ; - o   o o O > U kXhXpXsXaXaXaXpXpXpXpXpXeX2X<X>X>X,X,X;X2.2.2.;.;.&.&.&.%.%.$._ [ [ ) ) ) ) ( J ( ( J e 7 H / P } R L T { R y 1 3 , > 3 , + < + + O + + + + + O @ O . . . . . O O O O O . . . O . O O O O O . O O O O O . O . . O # # O @ O @ # O O O O O # + < 3 < < 9 0 < 0 0 t t t 8 3 8 8 p p e e r i L J J J K K ( ` ` ) [ [ [ %.%.%.&.-.&.;.:.2.2.2.2.;X,X,X<X<X2X2X2X2X2XwXtXyXkXjX&.7 > . ; - ; - o   @ .   o - ; o   ; - - ; . + , jXjXkXkXdXdXpXpXpXiXiXtX1X;X9X;X:X:X1.1.1.1.<.:.=.=.=.*.%.*.[ _ _ ' ` Y P Y Y P P P L L I y p p p p t p 1 1 1 1 1 + # # # + O + + + + # # + @ . . O O . O # # O . O O O . . . O . O . O . O O O O O O O . O @ * # O + # # # + O O + O O + + O O O 3 3 3 0 t t y y y y y I I I I L P P P P ` Y Y U K _ *.=.=.:.:.0.1.1.1.0.4X4X6X>X7XrXrXrXtXtXiXtXhXhXaXaXvXsXhXjX+ o ; - o     @   o o o ",
"; - - o . X .   - - X O ] kXgXvXzXsXaXaXaXpXpXpXiXiXwXeX1X<X,X,X:X:X:X;X2.2.>.:.:.&.$.$.*.7.7.*.*.3.3.3.O.] o.o.o.o.X.X.X.P P R L T R T y t w t 1 0 0 0 < < 3 0 v v n M M n 9 < O O O 2 m D S M h 9 2 + O O O O + + * # # 2 2 2 O O O O # 9 j V m V V V m 9 # + 2 # + # 2 9 j v v n b T T Q Q R R P R P R X.X.X.X.' ' O.] 5.5.5.3.4.4.4.9.9.9.0.<.1.0.0.2.>.>.2.>X>XrXrXwXwXiXdXdXpXfXfXaXsXgXkX> @ - - - ; o   X X X - - - ; ; o - - - - o O > ) kXhXpXsXsXaXaXpXpXpXpXeXeX2X<X>X>X,X,X;X2.2.2.;.;.&.&.&.%.%.$._ [ [ ) ) ( ) ) J J J J e 7 H P P R R T R } R T y u 8 8 t 8 < 0 < 4 3 0 t v b M B m 9 # O O @ # D S V V j 9 # + + + + + O O O O 2 2 2 # * O O @ # 9 m B B V V V m g # O O # # # + < + 4 h 0 < 0 0 t t t 8 1 1 8 p p e e i r L L L J K K ( ` ` ) ) [ [ %.*.*.%.&.&.;.:.2.2.2.2.2.,X,X<X<X2X2X2X2X<XwXtXyXkXjX$., >   ; - ; - - X . X ; - - o o - o - - ; . # > _.jXkXkXhXdXpXpXpXwXtXtX1X;X9X;X:X;X1.1.1.<.:.:.=.=.=.*.*.-._ _ ' ' ` Y P P P P P P L L I y y p p t p p t w 6 1 3 < < 2 < < < < 3 0 v v V m j 9 2 O . O # m S S V j 9 # + O O O O + + + # # 2 2 2 O O O O # 9 m V m m B B m 0 # + 2 # # # # # 2 0 3 3 3 0 t t y y y y y I I I I L P P P ( ` Y K U K _ *.=.=.=.:.9.1.1.1.0.4X4X6X6X7XrXrXtXtXtXiXtXhXdXaXaXzXgXhXjX< o - ; - - X X o ; - - ",
"- - - $ $ $ o o - o   > %.hXcXvXaXaXaXaXpXpXpXpXeXeXeX1X1X>X>X>X:X:X:X:X1.>.:.:.<.$.$.$.*.=.7.=.3.3.3.3.O.O.o.o.o.o.X.X.} R R R T T R Q Q Q Q c c N b 3 + l.(.VXVX$XOX@XZX&X|.v.O O 0 b. X X|.+X).).).).).).).).|.|.|.|.|.|.|.}.b.a.O O a.}.XX}.XX}. X X X}.y.O 0 2 + + < v v v c c Q Q Q Q W Q R R P P R } ` ` o.` ' ' ] 5.5.3.3.3.4.4.7.9.9.0.q.0.0.q.1.>.>.>.,XrXrXrXrXtXiXiXdXpXpXfXfXfXfXkX5 *   o o - o o X @ @ X o - - - o o - - o o # > [ rXgXaXaXsXaXpXpXpXiXiXeXeXeXeX,X,X,X,X;X2.>.2.2.;.;.&.&.%.%.$._ _ ) ) ) ( K ( J J J J e 7 e } } R R R R W R W c T b c b N v 0 O c.|.$X$X$XCX$XVXoX&X^.O O 2 b. X}.|.XX|.|.XX.X).).).}.).).}.}.%X|.|.}.{.a.. . z.b.|..X|.).|..X.X^.y.+ O 9 # 2 < 3 3 3 3 3 0 0 t t t p w 1 1 w w p p e p i L I J J K K K ( ( ) ) [ [ [ *.*.*.=.=.&.&.<.<.1.1.1.;X,X,X,X<X<X2X2X<X<X1XyXkXkX&., +   o ; - - - o X X X o - - - - - - - % @ . w `.jXkXkXdXdXdXpXiXrXrXrX>X;X>.>.2.2.2.1.:.;.&.&.&.-.*.*.*.[ _ ' ' ` ` ` ( P P J J L I L I L y y y y t t 6 t t t 0 + + x 3 + f.|.$XVX$X#X#X$XZX|.c.O . g b.|.|.oX+X).).).).).|.|.|.|.}.|.|.|.|.}.}.^.a.. . p.}..XY.|.|.|. X}.).r.O < 2 9 9 9 2 9 0 3 3 3 3 t t t t y y y y I I L L P K K K ( ( K K K ) *.7.4.4.9.q.0.0.0.0.3X4X6X6X7XrXrXtXtXtXdXiXiXiXaXaXaXfXhXjX> O - ; - o   X o - - - ",
"- - o $ $ $ o o o   . w 2.hXcXvXaXaXaXpXpXpXpXiXeXwXeX1X1X>X>X>X:X:X:X1.1.>.:.:.<.&.$.$.*.=.4.*.3.3.3.3.O.O.o.o.X.X.X.} } R R R T T R Q Q Q Q c c b b t , T._.VXVXBXBXBXBXVX#X|.> O 0 n.b.v.K.K.(.(.(.(.(.(.(.T.P.P.K.K.K.x.l.x.^.b.4 4 p.b.Y.v.k.k.n.b.b.}.k.> 9 2 + + 4 v N v c c Q Q Q Q W W R R P P P } ` ` o.` ` ' ] 5.5.3.3.3.4.4.4.7.9.9.q.0.0.q.1.>.>.>.4X5XrXrXrXtXtXtXdXdXdXfXfXfXfXkX7 + . % ; o o o X . O @ X o - - - o - -     O > <.tXgXaXaXaXaXpXpXiXiXeXeXeXeXeX,X,X,X,X2.2.>.2.:.;.;.&.&.%.$.%._ [ ) ) ) ( K K J J ( L e e r } R R R R R R Q W Q T T c c b v 3 1 ).$XVXVXBXCXBXBXQ.$X).+ + 9 b.b.b.v.K.R.P.P.P.|.|.).).).).).Y.l.s.l.v.}.b.g 3 b.P.T.P.x.f.k.k.P.b.a.> + 9 # 9 < 3 3 3 3 3 0 3 t t t t w 1 1 w w w p p p i i I L J J K K K ( ) ) ) [ ] *.*.*.%.=.=.=.<.<.1.1.1.2.2.,X,X<X<X<X2X<X2XwXyXkXkX;.7 O   o - o - ; o o X X X o - - - - - o X . O J jXkXkXkXdXdXiXiXwXrXrXrX>X;X2.2.2.1.2.2.:.;.:.&.&.&.*.*.-._ [ ' ' ` ` ( ( ( J J J L L I L L y y y y t t t t 0 0 0 < < t t > P.OXVXBXBXBXOXVXVXOXY.+ . g n.R.K.K.K.T.(.(.(.(.T.].|.P.P.R.R.K.v.v.n.^.b.2 < z.Y.Y.R.g.f.l.x.b.).p.< < 2 9 9 2 2 2 0 3 3 3 0 t t t t y y p y y I L L P K K K ( ( K K K ) *.7.7.4.9.9.0.0.0.0.4X4X6X6X5X7XrXrXtXtXiXiXiXpXaXaXaXhXkXjX5 + . o - - o - o o o o ",
"o o o o o o o o     # ) uXgXvXvXaXaXpXpXpXpXpXiXeXwX1X1X1X,X>X>X:X:X:X1.>.:.:.:.:.-._ _ *.*.4.3.3.3.3.3.O.O.o.o.X.X.X.} } } R R T T R Q Q Q Q Q c v t 5 1 T.Q.W.C.C.E.L.F.m.K.Y.< + 9 p.k.i.s.s.s.s.s.s.s.s.s.s.k.f.f.h.s.s.s. .n.b.0 0 p.p.k.h.k.i.i.i.p.v.t.> 9 # + + < x N v c c Q Q Q Q Q Q R P P P P } ~ ` o.` ` ` ] O.*.3.3.3.4.4.4.7.9.9.q.0.0.q.1.;.;.>.,X>XrXrXrXtXtXwXdXiXpXdXfXfXfXkX7.5 .   o   o ;     . .   o o o -   o -   . < e yXhXaXaXpXaXpXpXiXiXeXeXeX2X2X<X,X,X;X,X2.>.2.2.;.;.&.&.&.%.$.%._ [ ) ) ) ( ( J ( ( ( L r e r P } R R R R R W W Q T T c c N v 3 , v.).T.C.N.A.Z.L.V.(.P.+ + 3 z.a.p.h.f.f.f.l.l.h.k.f.u.u.y... .t.W s.t.b.b.k 2 c.k.l.f.u.u.i.k.i.k.a.< + 9 # 9 < < < 2 3 8 0 0 t 0 w t 8 1 1 w w w p p i y i r L J J J K K ( ) ) ) [ [ [ *.%.%.=.=.&.<.<.<.1.1.2.2.;X,X,X<X2X2X<X2XwXtXkXkX6X$.+ X X o o - - o o     o o o - - - - o   # w [ jXkXkXdXdXdXiXiXwXrXrXuX>X2.>.2.2.2.2.:.:.;.&.&.&.*.*.*._ [ [ ' ' ` ) ( ( J J J L L L L I I y y p y t t t t 0 0 0 < + 3 3 , P._.Q.Z.A.L.Z.m.V.K.P.# O g p.k.h.d.s.s.s.s.u.s.s.h.s.k.k.k.h.h.s.t.t.c.b.h 9 u.p.k.h.h.s.s.u.u.b.y.> < 2 2 2 2 2 2 0 3 3 0 0 t t t t y p p y y y I J P K K K ( ) K K K ) *.4.4.4.6.9.0.0.q.0.3X4X6X6X5X7X7XrXtXtXtXiXiXpXpXaXfXfXhXjX` t O   o - o o o o o o ",
"- - - - - - - X X # / '.kXgXvXvXaXaXpXpXpXiXiXiXwX1X1X<X>X,X,X>X:X1.1.1.>.:.:.=.=.$._ _ %.*.3.3.3.3.3.O.O.o.o.o.X.X.X.} } P R R T T R Q Q Q Q Q N t 0 1 , V.V.N.Z.C.E.L.m.m.K.Y.> + 3 r.r.t.s.+.s.s.s.s.s.s.s.s. . .s.+.s.+.s.u.r.p.3 3 r.r.t.t.k.k.h.i.t.p.E + 2 # + + < x n v c c Q Q Q Q Q W R R P P P P ~ ~ X.` ` ` ] O.*.*.3.3.4.4.4.7.9.9.0.0.0.q.1.;.;.>.:X>XrXrX7XrXtXtXiXiXiXpXpXfXfXhXSXZ.p @ o o - ; - % X X % - - - ; o - : % q #.'.kXhXaXaXaXpXpXpXiXiXeXeX2X2X<X>X,X,X;X;X2.2.2.:.;.&.&.&.%.$.$.[ ) ) ) ) ) ( ( ( ( ( ( L r e r L { R R R W W W Q L T b c b N v 3 > x.P.K.V.N.A.M.M.N.V.x.+ + 0 y.t.i.s.s.s.s.s.s.s.s.u. .r.y.u.u.s.h.h.E p.n.s + t. . . .t.f.k.k.t.p.r.> + 9 + 9 < 2 2 2 3 0 0 0 8 0 8 t 0 1 1 8 w t p p e i i r L I J J K P ( ) ) ) ) [ [ %.%.%.%.&.&.:.:.<.1.1.2.2.2.,X,X<X<X2X<X<X1XwXdXkXyXuX{ = @ : ; - ; - - - o - - ; - ; - ; - # i 8.'.kXhXdXdXdXdXiXwXtXrXrXuX,X>.>.2.2.2.:.:.;.:.&.&.&.*.-._ [ [ [ ' ` ) ( ( ( J L J J L L L I y y p p t t t t 0 0 3 3 # + < 3 > x.K.l.Z.C.C.M.m.m.C.P.+ O g r.s.s.e.! +.+. . .s.s.s.s.t.t.t.s.s.s.i.t.B p.9 3 r.r.t.s.l.f.f.u. .z.| + > 2 2 2 2 2 2 0 3 3 0 0 t t t t y p p y y y I H L J K P ( ( K K K ) ] 3.4.4.9.9.9.0.0.0.3X4X4X6X5X5X7XrXtXtXtXtXwXiXpXpXaXfXhXkXjXx.j % - ; ; - - - - - ",
"G G G G G G G z z ..`.kXlXfXaXaXaXpXpXpXpXiXiXeX2X1X1X1X>X,X,X,X1.1.1.1.:.:.:.=.=.$._ _ [ *.*.*.3.3.3.O.O.o.o.o.X.X.X.X.R R R L T T T T Q Q Q c M N u 1 > x.V.C.A.W.E.E.E.L.U.P.> + 0 r.u.t.d.s.h.f.f.f.f.f.f.f.s.s.s.s.s.s.s.s.r.p.4 < i.k.k.i.s.i.k.i.i.k.t.> # # # + 2 v n v b c b b T Q Q Q T L P P P P / ~ X.` ` ' ] ] O.3.3.3.3.4.4.7.7.9.0.<.0.0.1.;.;.>.;X>XrXrXrXtXtXwXiXiXiXpXpXfXfXhXlXjXx.V z A A ; G G G G G G G G G : A A 9 b `.lXhXaXpXaXaXpXiXpXiXeXeX2X2X<X<X,X,X,X;X2.2.2.2.2.&.&.&.%.%.$.[ [ _ ) ) ) ) ( K ( ( ( L L r w e L { R R R R T T Q y T b c b N v 3 > x.P.I.I.C.W.C.E.C.V.K.> + n a.t.i.s.s.s.s.s.s.d.h.h.s.f.f.f.f.W h.l.W t.a.s 2 p.s.u.u.s.s.s.u.i.p.r.+ + 9 + 2 2 2 < 9 q 0 0 0 8 0 8 8 8 1 1 8 p p p p p p p r r I J J ( ( ( ) ) ) ) [ [ [ %.%.%.&.&.&.:.<.<.1.2.2.2.2.,X,X<X<X<X<X<X1XtXkXkXjX`.v = C A G G A G G A A A A A A A A : z x.jXkXkXdXdXdXdXdXtXrXrXrXrXuX,X>.>.>.2.:.:.:.;.&.&.-.-.-.-._ [ ' _ ` ) ) ) K K J J J J r i y i y p p p t t t 8 0 0 3 2 # # 0 0 > x.P.V.C.C.L.W.W.L.L.K.+ O g r.t.s.d.s.s.f.s.s.f.h.h.h.t.t.s.s.d.d.s.i.| p.3 3 r.i.h.h.s.s.f.u.y.p.r.< + < 2 2 2 2 2 9 3 3 0 0 t t t t t y p y y y y H L L J P ( ( K K K Y _ *.4.6.6.6.9.9.0.0.0.4X4X4X5X5X7X7XrXtXtXtXtXwXpXpXaXaXfXhXlX`.u.z : A A G G G G G ",
"A A A A A A A C 8 #.jXkXhXpXpXaXpXpXpXpXiXiXeXeX1X1X1X>X>X,X,X,X1.1.1.<.<.:.=.=.%.$._ _ [ [ ] *.3.3.O.O.o.o.o.o.X.X.X.} R P L T T T T T Q Q Q c b v u 1 > x.I.W.Z.M.M.M.F.F.D.l.> > x t.u.s.d.s.+.+.+.+. . . . .f.h.h.s.s.s.s.u.u.p., , i.k.k.s.t.s.k.s.t.k.t., # # # # 2 h n v v b b b b T Q Q T L L R R P P P X.X.` ` O.] O.O.3.3.3.4.4.7.9.9.9.<.1.1.<.;.;.>.2.>X5X7XrXyXyXtXtXiXiXiXiXpXdXdXkXjXS.i 9 F F G A A A A A A A A A A A C q } jXlXfXpXpXaXaXpXpXiXeXeXeX2X<X<X,X,X,X;X;X2.2.2.2.;.&.&.&.%.%.[ [ [ ) ) ) ) ( ( J ( ( r r r p w e r { { R T T T T T c b b c v N v 3 + k.K.V.C.Z.A.N.E.L.l.K.> + N a.i.s.h.s.s.s.s.s.s.d.s. . . . . .! s.l.w.i.r.s 3 i.u.u.s.s.s.u.t.k.k.r.+ + 9 + # 2 2 9 9 q 0 0 0 8 0 8 8 8 < < 8 8 p p p p p p p i r I J J ( ( ) ) ) ) ) [ [ [ %.%.-.&.&.:.:.<.<.2.2.2.2.;X,X,X<X<X2X<X2XtXdXhXjXjXV 2 C F G A A A A A A A A A A A A = p 8.jXhXiXiXiXdXiXtXtXyXrXrXrXrX:X2.>.>.1.:.:.;.:.&.&.&.-.$._ _ [ _ ) ) ` ( ( ( ( J J J J i r i y i i p p t t t 8 0 0 < 2 O @ 0 0 > x.T.I.Z.N.N.M.L.M.m.g.+ # m u.s.s.d.s.+. . . .t.t.s.e.h.h.h.d.d.d.t.t.t.p.4 4 t.k.j.s.s.s.f.f.r.u.| < + < 2 2 2 2 2 9 9 3 0 0 t t t t t t p y y y r r L J J J ( ( K J K K ' 3.4.7.4.4.9.9.0.0.0.4X4X4X5X5X5X7XrXtXtXyXyXtXiXpXpXaXaXdXkXjX#.u z A A A A A A A ",
"l A A G G G G z e ,.yXhXpXaXpXpXpXpXpXpXiXeXeXeX2X2X1X>X>X,X;X:X1.1.1.<.<.=.=.=.%.[ _ ) ) ] ] 3.3.5.O.O.o.o.o.X.X.X.} } R R T T T T T T Q Q Q c v x t 1 > x.V.L.A.E.E.E.E.E.U.R., , N p.u.s.d.! h.f.f.f.f.f.f.f.s.s.s.s.s.s. . .r.p.< , t.i.s.t.h.k.l.h.t.h.t.< + @ O O # 0 v x v v b b b b T T T T T L R P P P X.` ` ` ' o.O.] 3.3.3.3.4.4.7.9.9.<.<.<.<.&.&.;.>.4X5XuXrXyXyXtXtXwXiXiXdXpXdXdXhXkXq.J < G A A A A A G G G G G G G A z p 8.yXhXpXaX0X0XpXpXiX2XeXeX2X<X<X,X,X,X;X;X2.2.2.:.>.;.&.&.%.%.%.[ [ [ ) ) ) ) ( K J J ( r e r e w w e { { R T E T T T c T b b v N v 3 1 v.T.I.I.A.!.A.M.L.g.P.> + N t.i.s.d.s.s.+.+.+.j.j.d.f.f.s.s.s.j.s.j.s.k.r.4 2 t. .u.u.s.s.f.k.k.k.u.> + 9 + 9 2 9 9 9 q 9 9 9 0 0 8 8 8 < < 8 w w p p p p p p i r J J J ( ( ( ) ) ) ) [ [ [ %.%.-.-.&.&.:.<.<.2.2.2.2.2.,X,X<X<X<X<X2XwXtXtXyXjX@.p j z G G G G G G G G G G G A G g i q.yXwXiXpXpXiXiXtXyXrXuXuXuX5X2.>.&.>.2.:.<.;.:.&.-.-.%.-._ _ [ _ ) ) ` ( ( ( J J J J J r r r p i p p p t t t 8 0 0 < # @ . 2 q + x.T.I.W.C.C.E.!.L.F.K.+ & m a.s.s.d.! s.f.s.s.f.h.h.h.h.h.d.d.d.e.e.t.t.p.4 > t.s.d.! h.f.l.u.| u.| < + # < 2 2 2 9 9 9 9 9 9 0 t t t t t p p p y i r L J J J P ( J J K K ) *.4.7.4.4.9.0.0.0.0.q.4X4X6X6X>X1X7XrXrXyXyXyXtXpXpXpXaXpXtXuX8.{ q : G G G G G G ",
"k G G G G G : q #.uXkXfXaXaXpXeXpXpXpXiXeXeXeX1X1X1X1X>X,X,X:X:X1.1.<.<.<.,.=.=.%.[ _ ) ) [ ] O.O.5.O.O.o.o.o.X.X.X.} } R R T T b V T T Q Q c N N v u 8 , x.V.m.M.A.E.H.F.F.U.T.> < N p.u.s.d.! s.s.s.s.s.s.+.+. .+.s.s.s.s.s.s.r.p.3 3 t.t.s.s.s.h.l.s.t.l.k.c O @ O @ # 9 g h v v b b N b b E T L T T R R } P X.X.` ` ' ' O.O.O.3.5.3.4.4.7.7.9.<.<.<.<.&.&.;.2.:X5XuXuXyXyXrXtXwXwXiXdXdXdXdXfXhXjX8.B z G G A A G G G G G G G G G z ( jXlXfXpXaX0X0X0XpXiX1X1XeX2X<X>X>X,X,X;X;X2.2.:.:.>.;.&.&.&.%.[ [ [ [ ) ) ) ) K K J J J r e e e w 5 w { { { T E T T T b b b v v N v 3 > c.K.V.C.C.W.M.M.E.m.T., + E p.i.s.d.s.s.+.+.+.e.e.s.s.s.+.+.s.l.! e.s.x.t.4 2 k.f.f.u. . .u.f.t.c.p.3 + 2 + 9 2 2 2 9 q 9 9 9 0 0 8 8 8 < < 8 w w p p p p p p r r J J J ( ( ( ) ) ) ) [ ' _ %.%.%.-.-.=.:.:.<.;.2.2.2.2.;X,X,X,X;X,X2XwXwXwXyXjXZ...u @ : A : G G G : G G G G ; G V #.jXkXiXpXpXpXpXiXtXrXuXuX5X5X4X2.;.&.;.:.<.<.<.=.-.-.%.%.-._ [ [ _ ) ` ) ( ( P J J J J L r r p e p p p t t t 8 8 0 8 2 # # @ = < + x.P.V.C.M.M.A.E.M.M.T.+ & m a.s.s.d.! +. . . .t.s.s.s.w.t.s.d.d.h.d.h.r.p.< < i.s.d.s.s.s.f.u.| z.p.v + + < 2 2 2 0 9 9 9 9 9 0 t t t t t t p p y i r L J J J P P J J J K ` *.4.7.4.4.9.9.9.q.q.q.4X4X4X5X5X5XrXrXrXyXyXyXyXwXpXpXpXpXhXkXjX#.u z G G G G G G ",
"$ o ; ; o o X O jXkXfXaXaXpXpXpXpXpXiXiXiXwX2X<X1X>X>X>X,X:X:X1.1.1.1.<.<.=.=.%._ _ _ ) ) ) ) ' O.O.O.o.o.o.X.X.X.X.R R R T R T V V b i b T E E n B t 8 > g.I.m.M.C.E.E.E.L.U.R.6 > E p.u.h.s.m.s.s.s.s.s.s.s.s.s.s.s.s.s.s.s.u.t.t., 6 i.t.t.h.j.s.s.s.t.k.h.c O @ O O # # 9 0 v n v b b b b b T T T { { R P P ` ` ` ` o.O.O.O.O.3.3.3.3.4.7.7.9.9.:.&.&.&.&.;.>.1.:X5XuXrXyXyXtXtXwXwXiXiXiXpXpXfXkXjX..@   - - - - - o o   o o ;   + `.kXhXpXpX0X0X0X0X2X1X1XeXeX1X<X,X,X,X,X2.2.2.2.:.:.;.&.,.,.&.%.[ [ [ _ ) ) ) ) K K J J r r e e w w w w e p i T E E E b E b b b N v t 0 > f.T.V.C.W.A.M.A.M.V.x.6 + r.p.t.s.d.s.s.+.+.+.d.d.h.s.s.s.s.s.s.! d.s.k.r.4 3 i.s.s.s.s.s.s.i.i.u.p.9 + # # g 2 2 2 2 2 2 q q q q < < , < < < 8 8 8 p w p p r r r I J J J K ( ) ) ) ) ) [ [ %.%.%.-.-.=.=.:.&.<.;.;.:.2.2.;X;X;X;X;X,X<X2XeXtXjXjX`.> . :   ; - - o o o o - o : . y `.jX1XpXaXpXpXiXwXyXrX5XuX4X4X:X2.>.;.;.&.&.&.&.-.-.&.%.*._ _ _ ' ' ) ` ( K K J J L L r r r r p e p p p p t 8 0 8 q < 2 # @ # @ + + c.P.V.Z.C.A.A.E.E.L.K.3 @ S p.s.h.e.d.s.s.s.u.s.s.h.h.s.s.d.d.e.d.s.t.t.y.> 3 t.W e.j.s. .f.k.u.c.y.0 + # 2 2 2 2 2 2 9 9 9 0 0 0 t t t p p p p i L L J J J J J J J J J K K _ *.4.6.6.9.9.9.0.0.q.q.3X4X4X>X>X>XrXrXrXrXyXyXwXpXpXaXaXfXhXkXjXi @ o o o o o o ",
"$ o - - o o X + jXtXpXpXpXpXeXeXwXeX2X2X2X2X<X<X1X>X>X,X:X:X1.1.1.1.<.<.=.=.%.*.[ _ ) ) ) ) ) ' ' o.o.` X.` X.X.} P L L T T T T u u b y b y c v < 0 , , > c.I.C.C.A.H.H.H.L.K.R.6 > M p.u.h.! d.s.s.s.s.s.s.s.s.s.s.s.s.s.s.s.u.t.t.> 6 k.i.h.l.l.h.k.s.t.k.h.x O O @ O O + # < 0 x t u t b b y y i i y i L L J L P P P P P ` ` O.O.O.3.3.3.4.4.&.&.$.$.$.$.$.&.;.>.1.:X4X5X5X>XyXtXtXwXtXiXiXpXpXpXhXjXO.+   ; - - - - - - o o o o . > uXhXpXpX0X0X0X0X0X2X2X1X<X<X<X,X,X,X;X;X2.2.2.:.:.&.&.&.$.%.[ [ [ [ _ ) ) ( K K K K J J r r e e e w w w w e p i b b y y y p t t t 0 3 < > f.T.V.C.W.A.B.M.M.V.V.3 + | a.i.s.d.s.s.+.+.+.d.d.d.s.s.s.s.s.s.+.h.s.k.r.4 3 i.u.u.u.s.s.i.u.i.u.p.0 + # O # # # 2 2 < 2 2 2 q q < < < < < < 8 8 w w w e p r r r J J J J K K ) ( ) ( ) ) [ [ [ $.%.-.=.=.:.&.<.<.<.:.2.2.;X;X;X;X;X,X<X<X2XeX>XuX`.5 O %   - - - - o o o - o % O L `.uX<X0X0X0X2X1X1X>X6X6X4X1.2.>.;.&.&.$.$.&.&.-.-.-.$.$.$._ ' _ ) ) Y K K K J J J r r p e e e w w w w w 8 3 3 3 < < < # # @ @ O # + c.I.V.Z.C.C.A.L.C.F.K.3 O S p.s.h.! h.s.s.s.u.s.s.h.h.s.s.s.d.d.d.s.i.r.r.> 3 i.t.d.l.h.s.f.f.u.p.y.0 + + # 2 # # < < 2 2 2 3 3 0 1 8 t p p p p i i L r I I I I I J J H H K U Y -.*.*.4.4.,.9.<.<.1.1.1.:X3X4X>X>X1X>X5XuXrXeX2X0XpXpXpXwXkXjX( # % ; o o o o ",
"$ o o - -   . 1 uXwX0X0X0XpXeXeXeX2X<X<X<X<X<X,X;X;X;X>.2.>.>.>.:.&.&.&.$.$.$._ _ ) U K K K K K K K K K I H H H e e 7 7 e e 5 5 8 8 p 8 1 , , , + < + > > g.I.L.C.A.A.M.F.F.K.R., + M u.u.h.! d.s.s.s.s.s.s.s.s.s.s.t.s.s.s.s.u.p.u.> 1 k.s.s.k.s.i.k.h.i.k.i.x O O O O O O + + + > > , , , 1 1 5 1 1 1 1 5 e e e e H H H H J K P Y Y ` ' _ -.-.$.$.$.$.$.$.&.&.$.&.;.>.1.2.2.;X>X,X,X<X<X<X2X2XpX0XwXjX3.> . - - - - - - o o o o   O 1 uXtXpXpX0X0X0X0X2X<X<X<X<X,X<X,X,X;X;X2.>.:.>.:.&.&.&.%._ [ [ [ [ ) ) ) K K K K K H H H e e w w 7 5 5 5 5 5 5 5 5 5 5 1 1 , > > > > + + > f.T.V.C.A.A.B.M.M.K.x.1 O B p.i.s.s.s.s.+.+.+.d.d.h.s.s.s.s.s.s.+.j.s.k.r.4 2 u.s.s.s.s.s.s.i.i.u.p.0 + + O O + + + + + + + + < < > > > > < , 1 1 1 5 w w w e e e e H H H H J K K K ( ) ) ) _ _ U _ $.$.-.-.&.&.&.;.;.>.>.>.>.;X9X9X9X;X;X;X,X>X3Xq.H O . o o - - - - o o o X . > ( q.>X9X2X<X<X,X;X;X1.1.1.1.>.>.;.&.&.&.$.$.$.$.$.$.$._ Y U U U Y U K K K J H J J r e e w w w 5 5 5 5 1 1 1 > > > + + + + + @ # O # + f.P.V.C.C.C.M.M.M.M.K.2 O m a.s.h.! s.s.s.s.u.s.s.h.h.t.t.s.d.d.d.h.i.u.r.> < u.i.s.h.h.s.s.u. .u.u.0 + + # # + + + + + # < < , , , , 1 1 1 1 w w w w e e e e e r H J J K K U U Y U Y $.$.$.$.-.-.&.;.>.>.>.>.>.;X;X;X;X:X>X>X<X<X2X0X2X<XtXuX) + @ % X o o o ",
"$ - o o -   O ( yXiXpXpXpXpXwXtXwX2X<X,X,X,X,X;X;X>.>.2.>.>.>.>.:.:.&.&.$.$.$.$._ _ ) U U K K K K K K H H H 7 7 7 5 5 5 5 , , > # < < , > > > > < 9 + , > f.V.Z.C.C.L.M.F.F.K.R.3 + M u.u.f.! s.s.s.s.s.s.s.s.s. . .t.s.s.s.s.u.p.y.+ , i.i.t.t.t.w.s.h.i.k.i.t + + + + + + + < + + + > > , 1 1 1 1 1 1 1 1 5 5 5 7 e e 7 7 H K K U U Y ' ' _ _ *.%.%.-.-.=.<.<.:.:.:.1.1.1.2.>.;X;X;X;X,X,X<X<X0X2X<XuX7.7 O   o o o o o - o o o   + J yXwXpX0X0X0X0X2X2X<X<X<X<X<X,X,X;X;X;X2.2.>.;.&.&.&.&.%.%.[ [ _ ) ) U U K K K K K K H H H e e e e e 7 7 5 5 5 5 5 1 1 1 1 > > > > > + + > f.T.I.C.A.B.B.M.C.K.v.1 O M a.t.t.s.s.s.+.+.+.d.h.s.s.u.u.s.s.s.+.g.s.k.r.+ 2 u.u.u.u.s.s.i.i.k.u.a.3 + # O # # # + + # # < < < , < < , , , 1 1 5 5 w w e e e I H J K K K K K K K K K K ) U ) ) _ _ $.%.-.-.-.&.:.;.>.>.>.>.>.;X;X;X;X;X;X;X;X8X>Xq.` O . ; - - - - - o o o X . 1 ] 0.>X<X2X<X<X,X:X0.1.1.:X9X:X1.>.>.>.:.:.:.-.-.$.$.$._ Y U U U U K K K H H H e e e w w w w 5 5 5 5 5 1 1 1 1 1 1 < < < 4 < # 9 # < > s.P.C.C.C.Z.Z.M.C.C.K.2 O m a.h.g.e.s.s.s.s.u.s.s.h.h.t.t.s.s.d.d.h.i.p.y.+ 4 u.i.w.W s. .s.u. .u.u.0 + + # # # + + + + + > < < < < < , 1 1 1 1 5 7 7 e e e r r I I I ( K ) Y Y Y Y Y _ _ _ $.$.$.$.$.&.;.;.;.;.>.>.>.9X;X;X,X,X<X<X2X0X<XeXuX*.1 O   X o o o ",
"  - o o o . w q.yXiXpXaXpXpXdXyXiXwX2X<X,X;X;X;X;X;X:X:X:X4X0.1.1.0.0.<.<.<.=.=.=.*.*.*.] ] ' ' ` ` ` P P P P L L I y y y w 5 1 < < < , > 1 3 t v j q 8 > s.V.V.C.C.L.C.L.L.R.P.3 + n y.u.k.+.s.s.s.s.s.s.s.s.s. . . .s.s.s.s.s.y.r.+ > t.i.i.i.i.i.k.k.i.p.r.3 + # 2 2 2 2 0 0 0 t t t t b b b y y b i y p e w 5 7 e e H H P ` ` ` O.O.3.3.3.*.4.,.,.<.<.<.0.0.q.q.4X4X4X4X5X>X>X>X>X1X1X1X1X2XpX<X,XuXS./ , @ X o o o - o - $ X O w *.kXwX0X0X0XiXiX1X1X2X2X<X,X,X,X,X;X;X2.2.2.:.:.<.=.=.&.%.%.$._ _ ) ) _ [ _ ` ' Y P P P P ( ( P P P J L L L L L y y y y y p t 0 0 0 0 3 3 > u.I.I.W.A.B.B.C.C.K.x.< O M y.t.i.s.s.s.+.+.+.d.d.s.u.u.u.u.u.s.s.g.t.i.M + 2 t.u.u.u.s.s.u.u.k.t.r.2 + 9 2 9 0 0 0 0 0 0 t t t t t t t p p y i i L L L L P P } X.` o.o.o.o.O.) ( K K K K ) ) *.%.=.,.9.9.0.0.0.1.3X4X4X4X4X4X4X>X>X>X>X1X1X1XwX1XuX8.w @ : o - - - o o o o   + J 7.4X7X8X8X8XrXuXuXuX4X6X5X>X:X:X0.1.0.0.0.0.9.9.9.4.4.*.*.*._ ' ` ) ) ) K K J H e w w w w w e e e e 7 7 w 5 y y v v v v n v 0 j 0 0 >  .V.C.C.C.C.C.I.I.L.K.2 O m y.h.g.s.d.s.s.s.u.s.s.h.h.t.i.t.s.d.s.s.u.u.r.+ 4 p.p.s.s.s.t.f.f.y.u.r.3 + + < 2 < # < < + + # # # < , , 8 w w w p p p i r r r r L L J P ( ( ` ` ' _ _ -.-.*.*.*.-.=.=.:.:.>.>.>.>.>.>.>.>.9X;X>X>X1X2X2XpX2XeXyX'./ # . X o o o ",
"  o - - $ 2 @.jXyXiXpXpXpXdXdXyXdXiXwX<X,X;X;X;X;X:X3X4X4X4X4X4X3X0.0.0.0.9.9.9.7.7.7.3.3.] ] O.O.o.o.o.o.X.X.} } { R T T b y w < # < < , 0 v v v V 8 u >  .V.L.Z.C.L.L.L.L.K.v.3 O x r.r.k.s.d.s.s.s.s.s.s.s.s.s.s.s.s.s.s.s.u.M M + < u.u.p.k.k.k.k.k.r.t.E > < 2 9 h h h x n v v v b b b b b b b { | { i p e w w e e J ( X.@.o.o.O.5.5.3.3.4.7.7.9.9.0.0.<.0.q.q.q.4X4X4X4X5XuXrXrXrXtXtXtXiXpX2X<XrXjX8.i # X X o o o - - $ @ # X.q.kXeXiX0XiXiXwXrXrX1X2X<X>X>X,X,X,X;X2.2.2.<.<.<.,.=.&.%.$.[ _ _ _ [ *.*.*.3.5.O.O.O.o.X.` ` X.X.} } R P R R T T T b c b b v v v n v x t >  .K.I.W.A.B.B.C.V.x.c.< O m B t.i.t.s.s.+. . .h.s.i.u.u.y.u.u.s.s.h.w.r.m O 2 p.f.f.f.f.f.f.f.i.| M > + g 0 j v v v v v v n v v v b b b b b b T T T T R R } } X.` ` ` o.o.o.O.` ) ) K K K ) ) 3.,.7.9.0.q.9.q.3X3X3X4X4X4X4X4X6X6X5X5XuXrXrX1X2XwXuXjXf.9 : o - - - o o o o X 8 #.q.6X8X8X8XyXuXuX'.'.4X6X>X>X:X3X0.0.0.0.0.0.9.9.9.7.4.4.4.3.3.3.O.] O.o.o.o.( J e w w w w e L L L L L L L i b b b b N N N n v m 0 t >  .x.C.C.Z.Z.C.I.I.V.x.2 . j r.t.g.s.d.s.s.s.u.s.s.h.s.i.i.s.s.s.s.i.t.B B + 2 p.k.k.g.h.s.l.k.r.y.M + + < 2 2 2 2 2 2 < # # # # < < 8 t t w p p i p i r i L L L ( ( ( P P ` ` ' _ _ _ *.*.*.*.=.=.=.<.:.>.>.>.>.>.>.>.9X;X,X5X7X8XtXiXiXiXwXyXjX`.i # X o o o ",
"; ; : : s w.W.jXyXwXpXpXpXiXyXyXtXwXwX2X,X;X9X;X;X:X3X3X4X3X1.1.0.0.0.<.<.<.:.4.=.=.*.3.3.] ] ' o.o.o.o.X.X.X.} } } R R R T y t < # + < 3 t v v 0 v u u > R l.I.Z.Z.L.L.F.m.l.k.< O 9 M | f.s.g.s.s.s.s.s.s.s.s.s.s.s.s.s.s. . .v v + > r.r.r.t.t.t.t.r.M | c + 4 3 h v v v n n t t t t y y c y b b b { T i i r e e e e J / X.o.` ` o.O.3.3.3.*.=.=.=.<.<.0.<.<.9.<.1.1.1.4X4X4X5X>X1XrXrXwXwXwXpXpXwXrXuXS...< @ X o o ; ; ; : = p Z.uXyX<XpX0X0XwXrXrX1X<X<X<X>X>X,X,X;X;X2.2.1.2.2.<.,.=.&.%._ _ $.%.%.%.*.3.3.3.5.5.O.o.o.o.` ` ~ P P P P P R T T L y y y y u u t u v v t 0 + E V.C.W.A.B.B.C.l.f.f., O v n y.t.t.s.s.+... .s.s.i.u.y.y.u.u.f.t.s.E M v O 2 t.u.u.u. . .t.t.E N n + + h 0 j h x x x t v v v v u y y b b b T T T L T P P P P P P P ~ ` ` ` ' O.X.) K K ( ) [ *.*.=.,.<.<.<.<.1.1.1.1.0.3X3X3X3X3X4X6X6X6X6X1X2XiX>XjX(.j : ; ; ; ; ; ; : ; # ( 9.q.6X8X8X>XyX4Xq.q.q.q.:X9X9X:X0.0.1.0.1.9.9.:.=.=.=.=.*.*.*.3.3.O.O.O.O.X.X.X./ r e w w i L } } R R R T T T i y b y v v x x v m t t > R l.I.C.Z.Z.C.I.V.l.i.2 . g M W h.s.d.s.s.s.u.s.s.h.s.i.i.i.s.s.t.t.r.n m O < r.r.t.s.t. .t. .E | v + + < 2 2 2 2 < 2 2 2 # + + < 8 8 8 8 w w p p p e i L i L L L ( ( P P P P ` Y _ _ [ [ [ $.%.%.-.-.:.;.>.>.>.>.>.>.9X<X1X7XyXyXyXtX2XdXwXrXjX`.} 9 % ; ; ; ",
"A : A l a s.jXjXyXwXiXiXiXiXyXyX1XwXwX1X,X9X>.>.>X5X5X5X4X4X0.1.0.0.0.0.9.9.9.9.=.4.4.3.3.3.] O.' X.X.X.X.X.X.} R R R { { { T y 8 < < 1 t b N v 0 v 0 u + y s.P.V.K.K.K.K.l.i.r.> O 2 v B u.r.k.s.s.s.i.i.u.u.u.f.f.s.i.u.t.t.r.x v O + B v v c c c c c v N x + 4 3 x x x x x x N N b b b b b b b b b b T T L { r w 5 w J / o.` o.o.O.O.5.3.5.4.*.=.=.,.9.0.0.0.0.0.0.0.4X4X5X5X5X>X1X7XrXtXtXwX2XiXdX7X6XS.#.8 z z G G A A A A z ( `.uXyX,XiX2X1XrXrX>X>X>X<X<X>X>X>X,X;X2.2.2.1.<.<.<.,.=.-.%._ $.%.=.,.*.*.*.*.*.o.o.o.` ~ X.` ` ` X.} R R R R T T T T T b b b u t u v v x 0 + b x.V.L.L.M.L.K.l.u.y.+ O g h y.y.t.u.u.u...y.u.a.u.u.u.y.y.u.f.r.i.N m g O 2 n c c c c c c c N t x + + h 9 0 x x x v v v v c b b b b b b E { T T T T R R R R X.` X.X.o.o.O.o.O.` / K K U [ ] 3.4.7.7.9.<.9.<.1.1.1.1.0.0.3X3X4X6X4X5X5X6X6X,X<XtX>.'.`.b z A A G G G A G A j ( 9.q.3XyX8X:XyX6Xq.'.q.q.:X,X;X3X0.0.0.0.9.<.9.=.=.4.4.4.3.*.3.*.] O.' ` ` ` ` @.} L e w w i { R P L T L L L T T T b b b b c v x v 0 t + T l.P.I.V.V.V.K.x.s.| & . 2 n M i. .k.s.u.u.u.u.i.h.i.p.p.p.i.i.r.r.r.h v O + M v x b c c N c t v v + + # < 2 < < < < 9 2 # + + < 8 t t t p p p i i i r i i i i L L J / ( P ` ` ' ' _ _ _ -.*.*.*.-.&.<.:.:.:.2.>.>.>.,X1X8XyXyX7XyXtX2XdXwX>XjX`.} q z G A A ",
"A G A C 8 K q.uXrXrXeXwXtXtXtX8XtX7XrXrX>X;X>.2.4X4X4X4X3X3X3X0.0.0.9.<.6.:.4.4.=.4.3.*.5.] ] O.o.o.X.X.X.X.X.} R R R T T T T b t < + < t n v n v b x u < < | B r.r.r.r.| B B B O O # 9 v m M M t.i.t.r.S D S V B B B M M v h g j 3 O * g l m m x r.N 3 v m 9 O 2 0 v x x v x x c c y y c c c b b b T T T T { { p w w r } X.X.X.o.o.O.O.5.3.3.3.4.4.4.4.6.9.9.9.0.0.0.0.3X3X4X4X6X5X5X7X1X1X1X1XwX1X1XrXuX9.( w j C A A A A A C 8 ) ,.q.uX1X<XwX<X>X>X>X>X>X>X,X;X;X;X;X:X2.1.1.>.<.<.:.=.=.=.&.[ _ -.3.4.3.3.5.5.5.5.o.o.o.X.o.X.X.} R P R R R L T T T T i b i y y y u u u v v > 3 y.| b i.W E E r.r.v + O # 9 h v M r.r.r.B V S D D S B S M m t x v v j 9 @ @ j j j j j j h g g v v + + n 0 4 x x v v v c y c c y y b b b T T T T T R R R R P R ~ ~ ~ X.X.o.o.` X.` K H K ` *.3.3.4.=.4.6.6.9.0.0.0.0.0.0.0.0.0.3X3X4X4X4X4X4X3X:Xq.q.] H 0 C A A A A A G z V ) ;.4X3X:X5X5X4X4X4X3X0.0.3X3X0.0.0.0.9.9.9.9.9.=.4.=.=.3.3.*.*.*.3.O.O.o.o.o.X./ X.} e 5 e T { T T T T L T T T b i b y c y y v 9 m v 0 + 4 r.M r.r.r.| | B M B . . # 9 v m M M r.y.y.r.r.y.r.M D S B M m v v x v 2 + + 9 v m n v M h 9 m j 2 # # # 2 2 2 4 2 2 2 9 2 # # q 0 8 t t t p p p p p i i i L L L J J P K K K ` ` ` ' _ -.-.-.*.*.*.&.=.=.:.<.;.:.:.;.4X>X5X7X7X1X1X1XwXrX>XuXuXq.) w C A A A ",
"A ; : q w [ uX5XrXrXrXrXtXtXtX8X7X7X7XrX>X2.>.2.4X4X4X4X3X3X3X0.0.9.9.<.:.=.4.4.4.*.3.*.5.] O.O.o.o.X.X.X.X.~ ~ R R R R T T T T t < + 4 x n v v b n 3 0 < 2 D D S S B m v h 9 9 O O + # 2 0 h x c c x 0 g j j j x x v n v m j m g 2 @ O & g g g 4 d x n Z h @ O 2 t v x 6 x c x c c y c c c b b b b L T R T T { p 8 8 p } X.X.o.o.o.O.O.5.5.3.3.4.4.4.4.6.9.9.9.0.0.0.0.3X3X3X4X6X5X5X5X7X7X7X1XtX1X>X>X4X<.] { 2 = G : ; ; ; = 8 [ 9.q.5X>X,X1X<X>X,X,X>X>X>X>X:X:X;X:X1.1.1.1.1.:.:.:.=.=.=.&._ [ -.3.4.3.3.5.5.5.o.O.o.o.o.X.} } } R R P R L L T T T T i b i y y y y u u v v + + M r.r.p.r.M h j v 9 + O + 2 h g h 0 9 g h j g k l l j m m m m v m j 9 @ . . 9 g g j j j j j C 9 2 + > x t n x x t t c c y y y y y b b b T T T T T T R R P P R R ~ X.X.X.X.o.X.X.o.K H K ` 3.3.3.4.4.4.4.6.6.9.9.9.0.0.0.0.0.0.0.3X3X4X4X4X4Xq.0.9.q.7.` p 9 : : ; ; : : = V _ :.4X0.:X5X5X:X4X3X4X3X3X0.q.q.9.9.9.9.9.9.9.9.4.4.4.=.3.*.*.5.5.O.O.O.o.o.o.o.} X.} e 5 e T { T T T T T L T b b b y y c y y v v m 9 9 # 2 y.B S S M m v h h 9 . . @ # 9 0 g h v v h g h m l h j j j v v m m m g 2 + + < 9 g 9 # g g j C j # O # # 2 2 2 4 4 3 2 9 2 # # < 8 8 t t t p p p p p i i i L L L L J P P K ( ` ` ` ) _ -.-.-.-.*.*.*.=.=.=.<.<.&.&.&.4X4X5X5X1X1X1XeXrXrX>XuXuX'.*.J = : : : ",
"; - o # e 8.uX:X>X1XrXrXyXtX8X8X7X7X7X5X4X2.>.:.4X4X4X3X3X0.0.0.0.9.<.<.:.=.=.4.=.*.*.5.5.] ] O.o.X.X.X.X.X.~ R R R R T T T T b t < + 4 x n n v v x t V h + 2 O < < < + + + + + + O + + + + + + > > + O O O + # > > > > < 4 2 2 4 + O O O O + + 4 + + , 2 O O & 3 x v x 6 x v x c c y y c b c b b b L L R R P { p w 8 p } X.X.o.o.o.o.O.5.5.5.3.4.4.4.4.6.9.9.9.9.0.0.0.0.3X3X3X6X6X5X5X5X7X1X1XtX1X,X;X:X0.8.#.# X - - - - - X p ,.'.q.4X>X,X<X>X>X,X,X:X,X>X>X:X:X:X;X1.2.1.1.:.:.:.=.=.&.&.&._ [ _ 3.4.*.5.3.5.5.O.O.o.o.X.X.} } } R R P T T T T T T T b i i y y y t u t x x x O + + + < > + + + + + O O + + + + + + + + + + @ O O O + + + > < 4 3 2 < # + O O O O O O O O O # O O 4 x N 3 n x x t t v v t t y y y y i b T T L T L L T R P P R ~ ~ X.X.X.X.X.X.@.` K H K ` ] 3.3.4.4.4.4.4.=.9.9.9.9.0.0.0.0.0.0.0.0.3X4X4X4Xq.<.:.q.S.8.e O X - ; - ; o & V *.:.1.1.1.4X6X:X4X4X4X3X0.0.0.q.9.9.9.9.9.9.4.4.4.4.3.3.*.*.*.*.5.O.O.O.o.` o.X.} X.} w 5 p T T T T T T T T i b b y c c c y c v 0 h 9 m 9 + 2 O > > 4 + > + + + O O O O O + + + + O O O O O * # + > > > < 4 3 3 > + + + + + + + + + + + + O O O # # 2 2 2 < 4 2 9 9 2 # # < 8 0 t t t t p t y p i i y i L L L L P P K P ` ` ` ` ' _ _ -.-.*.*.*.&.=.=.,.=.&.&.&.3X4X5X5X>X>X1X1X1X1X5X4XuX'.9.X.@ o o - ",
"- - o O r '.uX:X>X>X>XrXyX7X8X7X7X>X5X5X3X>.;.:.4Xq.q.0.0.0.0.0.6.9.<.<.=.=.4.=.*.3.3.*.O.] ' ' X.X.X.X.X.~ R R R R R T L L T b t < + 4 x n n v v x t | 0 O + O O + + + + + O O + + + + + + + + d 6 t 3 O . . O O + + + > > 4 3 | r.S B B B M E t.f d c x < + + 0 x x x 6 x v x v c y y c c c b b i L L P R L { p 8 8 p / X.X.~ o.o.O.o.O.5.5.5.3.4.4.4.4.6.6.9.6.0.0.0.0.0.3X3X3X3X6X6X5X5X5X1XtX1X>X;X1.0.8.Z.# X o - - - o . e 9.uX1.:X>X1X,X<X,X,X,X:X:X:X:X:X2.2.2.2.>.:.<.:.:.=.=.&.&.&.*._ _ [ *.3.5.5.3.5.O.O.o.o.X.X.X.} } R R R P T T T T T L T b b y y y y t t t x x v + > > + > + > + O O O O O O O O O + > 4 4 > + * . . O + > > , + > , 3 x n v M r.B S M M M m m x + > < 0 n 3 0 x x t t t t t t y y y y i b b T L I L L T R P P R R R ~ X.X.X.X.X.@.o.K H K ` O.3.3.3.=.4.4.4.=.6.:.6.9.9.0.0.0.0.0.0.0.3X3X3X4Xq.<.:.9.S.Z.i O   - - - o   # { ,.:.1.1.1.4X4X:X3X3X3X0.0.0.0.0.9.9.9.9.7.4.4.4.=.*.3.*.*.*.*.*.] O.O.' ' X.X.X.P } L w 5 p T T T T T T T T i b y y c y c y c v x 0 0 B 9 O > + + O + + + + O O + O O O O + + + x h h 3 + . . O O + + + > > , , | | | E E M E E r.c x x 3 < + O + # 2 2 2 2 4 2 2 9 < # + < 0 0 8 t t t p t t y y y y y L L L L J P P K P ` ` ` ' _ _ _ -.-.-.*.&.&.=.=.=.&.&.&.1.4X4X>X>X>X>X1X1X1X>X4X4XuXq.8.@ o o o ",
"- - X + J q.uX,X>X>X7X7X8X7X8X7X>X>X6X5X:X>.;.;.q.q.q.0.0.0.0.0.6.6.:.=.=.=.=.=.*.*.3.O.O.' ` ' X.X.X.~ ~ ~ R R R R T L T T T b 0 < + < x x v v M n 3 t > + a.b. X}.}.b.b.n.n.z.z.z.n.n.b.^.}.XXY.].}.b.m . . + b.v.R.Y.].+X%X*X%X&X*X*X*X*X%X*X+X#X&X&X+X}.r.O 3 x v x t x v x t t t y y c b b b i L T P R R L p w 1 p } X.X.o.o.X.o.o.O.O.O.5.3.3.4.4.4.4.6.6.6.:.:.0.0.0.0.3X3X:X3X>X6X>X5X>X7X1X>X>X:X0.8.Z.< @ X o - - o . r 9.uX1.;X1X1X,X,X,X;X;X:X:X:X:X1.1.>.>.>.>.:.:.:.=.=.&.&.*.-.*._ ) ' 3.3.*.] 5.O.o.o.o.X.X.X.X.} } R R R T T T T L T T b i y y c c y t t t t t + + a.).Y.b.c.b.b.n.n.n.b.b.v.n.b.b.}. X.X.X.XXXh O . 3 p.b.v.v.oXoX+X&X&XZX&XZX&X&X&X&X&X%X%X%X*XY.a.+ + x x x x x t x t v v t t y y y y b b b L L L T L T R P R R P R R X.X.X.X.X.X.K H K ` O.3.*.*.*.=.=.=.=.4.:.:.9.9.9.9.9.0.0.0.0.0.0.0.0.0.1.:.:.q.8.L O X - - - o   # ..,.;.<.<.0.4X3X0.3X3X0.0.0.9.9.9.9.9.9.4.4.4.4.4.3.3.3.3.3.*.*.O.o.O.o.` o.` X.X./ } L w 5 p T T T T T T T b i i c c y y v v v v M v 3 0 > > p.b.}.}.^.b.b.v.c.z.z.z.c.v.b.Y.}.XX^.}.}.b.m O . + b.v.P.Y.|.+X+X$X+X&X&X&X&X$X&X&X&X+X%X&X.Xb.r.O + # 2 2 < < < 2 2 9 # # # < 0 0 0 0 t t t t t y y y y i i L L L L P K K P P ` ` ) _ _ _ _ -.-.$.%.%.=.&.&.&.&.&.1.1.4X4X>X>X>X>X>X>X>X:X3X4X0.8.O o o o ",
"- ; X + / q.4X4X>X>X7X7X8X7X7X7X>X4X4X4X1.>.&.&.q.q.q.0.0.0.0.0.6.:.=.=.=.=.*.3.*.3.3.] O.' ' ` X.X.~ ~ ~ R R R R R T L T T T b 0 # + < x x v v v N t t > 0 ^.=X^.Y.b.b.b.n.n.k.k.k.k.c.n.v.b.b.P.Y..X XD + + x |.|.].].].oXoXoX@X@X&X&X%X%X&X&X@X@XZXCX@XZX.X3 < 3 x x x v x t t t t y c c c y b i L T R R T T e 8 1 e } X.~ o.X.X.X.o.o.O.O.O.5.3.3.4.4.4.4.6.6.:.6.:.0.0.0.0.0.:X:X:X:X>X>X>X>X5X1X>X:X<.8.Z.< @ o o o - o . J <.q.1.;X>X,X>X,X;X;X2.1.1.:X:X1.2.>.>.>.:.:.:.=.=.&.&.*.-.-._ ) ) ' 3.3.*.] O.o.o.o.` X.X.X.} R R R R R T T T L L T b i y y y c c t t t t t t + 3 b..X|.|.Y.].v.n.c.n.v.v.n.c.b.b.b.b.b.b.Y.}.D # O M }.+X+XoXoXoXoXoX#X#X#X#X@X@X@X@X@X&X&X&XZXZX|.3 + x x 0 t x t t x t v v v t y y y b c b b L L L T T T R R R P P R R X.X.} X.X.J H J ` O.O.*.3.*.*.*.=.=.4.=.4.:.9.9.9.9.9.<.0.0.0.0.0.0.1.0.1.:.6.8.L + X o o o X   # ..*.&.<.1.0.0.0.0.0.0.0.0.9.9.<.9.4.4.4.4.4.4.4.4.3.*.3.5.*.O.] ] ` ' ` ` ` ` X.} P } L 5 5 i T b T T T T T b b y c c c t v t v v v x 3 t > 3 b.+Xb.b.b.b.v.x.k.k.c.k.k.k.n.v.v.b.b.Y..X Xy.+ + v |.(._.(._._.oXoXOX@X@X$X@X$XVXVXZX@XZXZX&X&X}.h + # < 2 < < < 2 2 2 # + # 2 0 0 0 0 0 t t t t t p p y y i L L L L J K K K P P ` Y Y Y _ _ _ _ -.*.%.*.&.=.-.%.$.<.1.3X4X:X:X>X>X>X5X5X:X3X3X3XZ.O o o o ",
"- ; . + X.q.1.:X>X5X7X7X7X7X5X5X>X:X4X4X1.;.&.-.q.9.0.9.9.9.6.6.6.6.4.4.=.=.*.*.5.5.O.O.o.' ` ` X.X.~ ~ ~ R R R R T T T T T b b 0 # + < 0 v v x < N n v 4 9 z.p.p.p.p.k.k.k.k.k.k.k.k.p.i.i.t.t.t.r.p.n.B + + M |.].].U.U.K.K.D.K.K.K.K.v.K.K.K.U.F.U.F.l.@X+XN > 3 x x x v v t t t t y y c c y i i T L T R T T e w 1 e } X.X.~ X.X.X.o.o.o.O.O.3.5.*.3.4.4.4.4.=.6.6.6.9.9.0.0.0.1.1.:X:X:X:X:X:X>X>X4X1.<.7.Z.< @   o o - o O ) <.1.1.5X>X;X,X;X;X2.2.1.1.1.1.>.>.>.:.:.:.:.=.=.&.&.*.-.-.-._ ) ) ' O.3.O.O.O.o.o.o.X.X.X.} } R } R R T L T T T T T b b y y y c v v v t t t t 4 0 n.k.| i.t.i.k.p.u.u.p.k.k.k.k.p.i.r.r.i.k.k.a.# O N Y.].R.U.F.F.F.F.L.L.K.K.U.U.U.U.U.T.T.].R.+X+Xc > N v 3 x x x t x x x t v t y y c y c y b b T L T T T T T P P R R } } } } X.} J H J ` O.o.O.*.*.*.*.3.*.4.4.4.4.6.9.9.9.9.<.9.9.0.0.0.0.1.3X0.:.:.8./ + X X o o X . < ..[ -.<.q.0.0.0.0.0.0.0.9.9.9.9.9.4.4.4.4.4.4.3.3.3.3.3.5.O.O.O.o.o.` ` ` ` ` ` } P ( i 5 1 y b i T T T b b b b y c c v v t t v v 3 v v x < 3 k.k.i.i.i.f.f.k.k.k.k.l.f.s.s.u.u.u.t.r.p.v.B + + M (.Q.Q.I.L.V.m.m.V.V.V.V.L.K.L.V.Q.D.T.K.v.+X%XM + > < < # # & 2 2 2 # + # 2 0 0 0 0 t 0 t t p p p p p i i i L L L J K K K P ( P Y Y ` ' ' ' [ [ -.*.*.%.%.%.$.$.<.1.0.3X:X:X>X>X>X5X5X6X3X4X3XZ.O o o X ",
"- - . + O.q.1.:X>X5X5X7X5X6X5X6X4X3X3X4X1.&.%.-.q.9.9.9.9.9.6.6.6.4.4.4.4.3.*.3.5.O.O.o.o.X.X.X.X.X.~ ~ R R R R T T T T T T b b 0 # + < 0 x x v 3 M x 4 + 0 z.r.k.k.h.i.i.i.i.i.t.t.t.i.i.i.i.i.k.t.t.z.B + + v v.D.D.F.L.L.L.L.Q.L.L.K.K.I.K.L.F.m.!.E.l.(.).6 + 4 0 x x v x 0 t t t y y c c c b b T T T R T T e 5 1 e { } X.~ X.X.X.X.o.o.o.O.O.3.3.3.4.4.4.4.4.=.4.6.9.9.9.0.0.0.1.1.:X:X:X:X:X4X>X:X2.:.7.Z.1 # .   o - o O ] :.>.:X5X,X9X;X:X2.1.1.1.1.>.1.:.:.:.:.:.&.=.=.&.*.*.*.*._ _ _ ) ) ` O.5.] ' O.o.o.X.X.X.} } } } } R R T L T T T T b b b y y c v v v v t t t t + < k.k.t.k.k.i.i.t.t.t.t.i.h.k.w.t.i.k.s.s.i.t.r.+ O N P.Y.K.L.L.H.H.F.F.F.L.L.L.F.F.F.D.F.F.L.D.|.+Xc + 3 0 x h x x x x x x x t v y y c c b b c b b T T T T T T T P P R R } } } ..} J e J ` O.o.o.O.*.5.*.*.3.4.4.4.4.4.6.9.9.9.9.9.9.9.0.0.0.<.3X1.:.6.8./ + @ X   o % @ < @.[ -.<.q.q.<.0.0.0.0.9.9.9.9.9.7.4.4.4.4.4.3.3.3.3.3.5.O.O.O.O.o.` ` ` ` ` X.} } L { i 1 1 u V i T T T b b b y y b c v v t t v v 3 n 0 3 > 3 k.i.i.i.i.s.s.s.s.s.+.+.s.s.s.s.s.s.k.t.t.z.B + O x V.M.M.M.M.C.L.L.E.L.L.L.L.L.L.L.m.D.].L.h.oX|.3 > + < < # # & & 2 2 # + # 2 0 0 0 0 0 t t t p p p p p p i i L L L L J K P K P P P Y ` ` ` ' _ [ _ *.*.*.*.%.$.$.<.<.0.0.1.:X:X>X:X5X7X6X3X6X6XS.+ X o o ",
"- o O > 8.9.4X:X6X5X6X6X6X6X6X6X:X4X4Xq.<.=.%._ 7.7.7.9.4.6.6.6.4.4.4.4.3.*.3.3.] o.o.o.X.X.X.X.X.X.~ R R R R R T T T b T b b v 0 # O + 9 n v t N N t n + x B p.i.s.s.s.s.s.s.s.s.s.s.s.s.s.s.s.s.f.r.y.r.+ + b R.L.F.F.F.F.F.F.F.F.L.L.K.K.V.C.F.E.E.M.m.I.l., < 3 h x x 0 t t v v c c b b b b y y i T T T T T p 1 1 i } R ~ o.~ X.X.X.X.o.o.' O.O.*.*.3.4.4.4.7.7.9.9.9.9.9.9.0.0.0.1.0.1.:X:X4X4X5X4X>.&.%.8.i O @ X o -   O ] :.>.:X;X9X9X9X1.1.2.2.<.<.1.>.<.:.:.=.=.=.&.&.%.*.*.*.] _ _ ' K ( ` ] O.O.o.' o.o.X.X.X.} } } } { { R R T E E T b b b b b b c c c x x v v t 0 + N u.r.f.s.s.f.s.s.s.s.s.s.s.i.s.s.s.s.s.s.s.u.r.+ + N R.R.D.F.F.H.H.H.H.H.F.F.F.F.H.H.H.F.F.L.L.].k.3 > 0 h h h h h h x x x x v v c c c c c y b b b b b T L L T T R R } } } } { } } r e J X.@.o.o.O.O.O.3.3.3.*.=.=.4.4.4.4.=.6.:.6.6.9.<.9.:.:.0.:.:.=.5.@.+ .   o o   O 8 X.[ &.<.0.<.=.:.9.9.9.9.9.9.7.7.7.4.7.4.3.3.3.3.5.3.O.O.O.o.o.o.o.o.o.` ` / / } } { ( i 1 1 p b b E E T T b b b c v v v v v x x x 3 x 3 6 + c t.k.u.f.s.s.s.s.s.s.s.s.s.d.s.s.h.h.h.k.r.r.r.+ O M K.C.C.C.C.C.C.C.C.C.C.C.C.C.C.F.F.E.U.D.m.T.k., > + + # & & & # & # # + + # 2 9 0 0 0 0 t t t t p p p p p y i L L L L J P P P P P P ` ` ` ' ' [ _ [ ] *.*.%.%.$.<.0.0.0.1.1.1.:X:X3X6X3X4X3X:X7.0 X X X ",
"- o @ > 8.7.0.2.>X>X3X4X4X3X3X3X1.1.q.0.<.=.$._ 7.7.7.7.7.4.4.4.4.4.*.*.*.] ] O.O.o.o.o.X.X.X.X.R R R R R R T L R T T b T T b b 0 # O # 0 n v t v c 0 v + n r.p.i.s.s.s.s.s.s.s.s.s.s.s.s.s.s.s.s.f.r.u.r.> O b K.L.F.F.F.F.F.F.F.F.L.L.L.L.C.C.M.E.E.M.m.I.s.> 4 3 0 h 0 0 0 t t t t t t t y t b b b T T T T T p < 1 i { R P X.X.X.X.X.X.X.o.o.' ' ] ] *.*.*.3.4.4.4.4.4.7.9.9.:.<.<.<.1.1.1.1.1.4X4X1.>.&.%.8.i O @ X   -   O ] :.>.1.:X:X:X1.1.<.<.<.<.:.:.:.:.=.&.&.-.-.%.%.$.-.] ] ] ' ' ) K K ) [ ] o.o.` ` X.X.} } } ( { R T T T T T b b y y y y c y y c b c c v x v x 0 + N u.u.f.s.s.h.s.s.s.s.s.s.s.s.s.s.s.s.s.s.s.i.r.> + E R.R.F.L.H.H.H.H.H.H.H.H.H.H.H.H.H.H.H.F.D.T.s., > h h g h x v x x x v v v v v c v y y y b b b b b b T L L L L L T L L T } ..} r e L } @.o.o.o.O.O.O.5.5.*.*.3.*.=.=.4.=.6.6.9.9.9.9.9.9.:.0.:.:.=.5.@.+ .   o o   O 8 X.) %.,.9.<.:.9.9.6.4.4.4.4.4.4.3.3.3.3.3.3.3.O.O.O.o.o.o.` ` X.` o.X.` / / } } } { { i 1 1 t b b b i i y y y t t v t x x x x x x x n t x + c t.f.f.s.s.s.s.s.s.s.s.d.d.d.d.d.h.h.s.k.r.y.r.+ O M K.C.C.C.C.C.C.C.C.C.C.C.C.C.C.B.F.H.U.F.D.T.h.> > > < 2 2 2 & & & # + O + # 2 9 0 0 0 0 t t t t t p p y p y y i L L L J P K K P ` ` ` ` ` ' ' ' _ [ _ ] *.%.[ _ =.<.0.0.0.1.3X4X1.:X3X3X3X1.1.7.0 $ X X ",
"- o @ , 8.,.1.2.4X3X3X3X3X3X3X3X1.1.0.<.<.=.$._ 7.7.7.7.7.4.*.*.4.4.4.3.3.3.3.O.o.o.o.X.X.X.X.X.X.X.R R R R R T R T b b T b b b 9 # + # 0 v v t t x 3 x + N y.k.s.s.s.s.s.s.s.s.s.s.s.s.s.s.s.s.s.f. .y.r.> + T K.L.F.F.F.F.L.L.H.H.F.L.L.L.L.C.M.H.E.M.m.K. .+ 3 9 x x x x x x t t t t t b b b v b y b T T T b 8 < < p T L R ~ X.} } X.X.o.o.o.o.o.] ] 3.3.3.3.3.3.4.4.7.7.7.9.9.9.<.<.1.0.0.0.<.1.1.2.;.&.%.#.i + @ X   o o + ] &.>.1.1.>.>.>.:.&.,.,.=.:.:.:.=.=.-.-.-.%.%.%.[ [ _ ' ' ' ` ) K K ) ' ` ' ` X.X.X.X.X.} } { { T R R T E T T T b b b b b b b b c x v v x x x 0 + b u.u.s.s.s.h.s.s.s.s.s.s.s.s.s.s.s.s.s.s.s.i.r.> + N R.K.F.E.H.H.H.H.H.H.H.M.F.M.M.M.B.H.H.F.D.K.W > < j j 9 j h x x v x x x v v v v c b c b b b b b b b T L T T T T T T T T  ...{ e e L } @.X.o.o.o.O.O.O.] 3.*.3.*.*.*.*.*.4.4.4.7.7.9.9.9.<.0.:.6.4.5.@.> . X o o   @ 8 } ) [ ,.7.7.4.4.7.4.4.4.4.4.3.3.3.3.3.5.5.3.O.O.O.O.O.o.o.o.o.X.` X.X.` / / / } { { { p 1 1 t b V b b b b c c v v v v v x x x x x x x d x + b t.f.f.s.s.+.s.+.s.s.+.+.d.d.d.d.s.s.t.s.t.u.r.> O b L.M.F.F.M.B.B.B.M.M.M.M.B.B.M.B.M.H.E.F.D.K.t.> > > < 2 2 2 & & & # @ O O # 2 9 0 0 0 0 0 t t t t t p p p y y y r r I I J J K K ` ` ` ` ` ` ' ' ` ' _ [ [ [ _ _ *.=.9.0.0.0.0.0.0.0.3X3X3X0.1.7.t @ X % ",
"-   @ < 8.,.1.1.:X:X3X3Xq.q.0.q.0.0.0.<.,.%.[ _ *.*.3.7.4.4.*.-.4.3.3.3.3.O.O.O.o.o.X.X.X.} } } X.X.R R R R R R T T b b b b b u 2 # O + 9 x v v t c 3 x + M u.p.f.s.s.s.s.s.s.s.s.s.s.s.s.s.s.s.s.f. .y.y.> + T K.L.L.F.F.F.L.L.F.H.F.L.L.L.L.C.F.M.E.L.K.V.E + 0 h x x x x x x t t t t t b b b 8 t t y b b b b 8 < < t i L R X.R } } } X.X.X.o.o.o.' O.] 3.*.*.3.3.3.4.7.7.7.7.9.9.9.9.0.0.0.0.0.<.<.:.&.&.%.O.L O @ X   o o # ] &.>.>.>.>.:.:.,.,.,.,.=.=.:.:.=.&.-.%.%.%.%.%._ _ ' ' ' ) ) ) J J K ` ` ` o.o.X.X.X.} } } { { R R R T E T T T b b b b b b b c x x x x x x t 3 + b s.u.h.s.s.h.s.s.s.s.s.s.s.s.s.s.s.s.s.s.s.s.u.4 + b K.K.D.E.H.H.H.H.H.F.C.C.C.C.C.M.M.M.F.L.D.K.E > 4 v j g g h h h h h x x x x x v v v v v b b y b y b i i T T T T T T T { ..{ T e w r P X.X.X.o.o.o.O.O.' 3.3.3.3.3.*.3.*.=.4.4.=.4.=.4.4.:.9.:.6.4.5.@.< X X o o   O t } ) [ ,.8.7.=.=.=.4.4.4.4.3.3.3.3.3.3.3.5.5.O.O.O.O.O.o.o.o.X.X.X.X./ / / / / ( { { i t 1 < 8 v V b b b b b b b v v v x x x x x h 3 x 3 3 + N u.k.s.s.+.+.+.+.+.+.+.+.d.d.d.d.s.s.s.s.u.u.u.> O b L.M.F.F.F.M.H.B.F.M.F.B.H.B.F.F.M.F.E.L.D.K.E + > 4 4 & & & & & & & O @ O # 9 9 2 0 0 0 0 0 t t t t t p p p p p i r I I J J J K P P P P ~ ` ` ` ` ' ' [ [ _ _ U $.&.:.9.9.<.:.:.q.0.0.0.0.0.1.7.v @ . % ",
"-   @ 1 8.,.1.3X1.1.q.q.9.9.0.9.q.0.<.,.&.$._ ) ] ] *.7.4.4.3.3.3.*.5.O.O.O.O.o.o.X.X.X.X.} X.} R R R R R T T T Q T b E b b b t + O O + < 0 x n v N 6 t + M u.u.s.s.s.s.s.s.s.s.s.s.s.s.s.s.s.s.s.h. .u.y.> + E K.K.L.F.F.L.L.L.F.F.F.L.L.L.L.F.F.F.L.L.K.x.E O 3 9 h h 0 0 0 0 0 0 t t t t t t u v v b y y u u < < < q u b } } } } } } } X.X.X.` ` ` ' ' ' ] ] 3.3.3.3.3.3.=.=.4.=.=.,.<.<.9.<.9.9.<.&.&.%.[ ] { O @ X o o o # ] &.;.:.:.:.:.:.,.,.,.,.=.=.:.:.=.&.-.%.%.*.%.] _ [ ' ' ' ` ) ) J J K ) ` ` o.o.X.X.} } } { { { T T T T T i i i c c y y c v v v x x x x v x t 3 + b s.u.s.s.+.s.s.s.s.s.s.s.s.s.s.s.s.s.s.s.s.s.a.4 + b K.K.D.E.F.F.H.F.L.L.L.C.Z.Z.Z.C.C.C.F.L.L.K.Q > 2 j h g j h h h x x x h x x t x x x t t t t t v y y y y b b T T T T T { | { y w w e L / X.o.o.o.o.o.O.` 3.3.3.3.3.*.*.3.3.*.=.=.=.=.4.4.=.6.=.6.4.o.+.< . o o o   @ t } ( _ *.*.4.=.4.=.=.*.3.3.*.*.3.O.3.5.O.O.o.o.o.o.X.o.X.X.X.} } / X.X.} / / / ( { { i 8 1 < 8 0 v b c b c c c v v t t x t h h h h h v 3 0 + M r.u.s.s.+.+.+.@.@.@.+.+.+.+.s.s.s.s.+.h.u.f.u.> O b L.F.F.F.F.F.F.F.F.F.F.F.F.F.F.F.M.M.L.L.K.v.E + > 4 2 2 & & & & & # O @ O # 2 9 2 2 3 0 0 0 0 0 t t t t p p p p i r I I J J L P P P P P P ` ` ) ` ' [ [ ) ) ) ) _ -.=.9.9.9.9.9.<.<.9.<.1.<.<.7.b % . % ",
"-   @ 8 8.,.2.0.1.1.q.9.9.9.9.9.0.<.,.&.$._ _ ) [ ] *.3.3.4.4.5.3.3.3.3.O.O.O.o.X.X.X.X.X.} } } +.X.W W R R R R R T T b b b t 8 O @ @ O # < 0 x x N 6 6 + | a.u.s.s.s.s.s.s.s.s.s.s.s.s.s.s.s.s.s.h. .u.y.> + E K.K.L.F.L.L.L.L.F.F.F.L.L.K.L.L.L.F.L.U.K.x.b O 0 h x h h h x x t t t t t t t t V V b b u t 8 8 # # < < t y T { } } } } } } X.X.o.o.o.' ] ] ] ] 3.3.3.3.3.3.4.4.7.7.7.<.9.9.0.0.7.,.&.&.%.$.[ [ { O . X o o o = ] %.&.&.:.:.=.=.=.,.,.%.&.=.:.=.-.%.%.%.[ [ [ [ [ ) ' ` ` ) K K J J J J K ( ` X.X.X.} } } { { { R R R E T T T b b b b b N N v n N c x x x x x 0 > T f.s.s.s.+.s.s.s.s.s.s.s.s.s.s.s.s.s.s.s.s.s.u.4 + E R.K.D.L.F.F.F.F.C.L.L.C.Z.Z.Z.Z.C.C.L.L.U.K.c > 4 g g g j j j j x x x x x x x x n n N N b b b b b b b b b b T T T R { { b p w w w 7 e L } } X.o.o.o.o.` O.] O.O.*.*.*.*.3.3.=.4.=.4.4.4.=.4.*.6.4.o.s.9 X o - o   # p ( K K ) [ *.*.=.4.4.4.3.3.3.3.3.3.5.5.O.O.O.o.o.o.o.o.o.X.X.X.X.X./ / / / ( ( { i i w 1 < < < < 0 b b b b N N N v n n x x x v v v v m 3 0 + M r.u.s.s.s.+.+.@.@.+.+.+.+.s.s.s.s.s.s.h.u.f.u.> + E L.F.F.F.F.F.F.F.F.F.F.F.F.F.F.F.L.M.L.I.K.x.E + < 2 2 2 2 & & & & @ O @ O + # 2 2 2 2 3 3 0 0 0 0 t w t t p p e r r H I L J L L P P P P ~ ` ` ` ` ` ) ) ) ) ) ) U $.&.4.9.9.9.q.7.9.0.0.0.2.<.8.B % . % ",
"-   @ 8 8.%.&.2.1.<.0.9.6.6.6.9.=.-.$.$._ _ ) ) ) ) ' _ ] ] 5.5.] ] ] ] O.o.o.o.X.X.X.} } R R R R R R W R T Q T b y y y t t 1 , + O O O + + 4 3 3 v 3 3 + | p.u.s.s.s.s.s.s.s.s.s.s.s.s.s.s.s.s.+.h. .u.y., + E K.K.L.F.L.L.K.L.F.F.F.K.K.K.K.L.U.F.F.U.K.v.M + h h h h 0 9 0 x t t t t t t t 0 0 q 0 8 8 1 < < # # # < 8 t i L T T / } } } } ` ` ` ` ' ' ' ' ' O.O.] 3.*.*.*.*.=.=.=.=.,.<.<.<.%.%.[ $._ _ _ [ } O . X X o o q [ %.%.&.&.$.-.&.%.*.*.*.*.-.&.&.$.$._ _ _ _ _ ) ) ) ) ) K K J J J J e e H H K K P P P L L L L i T T T T b b b y c c b c v v x x x x x x x x 0 3 > T s.s.s.s.! +.s.s.s.s.s.s.s.s.s.s.s.s.s.s.s.u.u.4 > E P.K.D.L.C.L.L.C.C.C.K.V.Z.Z.Z.Z.C.C.L.L.U.K.c > + 2 2 g h j h h h h h 0 0 0 t t t t t t t t t u u u y y y y i i i i L L p 1 1 5 7 5 7 e L P ~ ` X.o.` ` ` ` ` ' ] ] ' ' *.*.*.*.*.*.*.*.*.*.-.4.5.X.u.9   - - o   # u ( K K K U _ [ -.-.*.*.*.] ] ] ] ] o.o.' ` ` ` ` ` ~ P } } X.X.X.X.P P P / L L L i w 1 , < < # < 8 t t t t t t x x x x x t h h h h a g < 3 + N r.u.u.s.s.+.+.@.@.+.@.s.s.s.s.s.s.s.s.f.t.u.r.> + E K.F.F.F.F.F.F.F.F.F.F.F.F.F.F.F.L.M.C.I.K.x.E + > + + * & * * * O @ @ @ O + + # 2 2 2 3 3 0 0 0 t 0 t t t p p e e r r H H H J J P P P P P P K K K K K K U U U U U Y $.-.*.*.4.7.=.,.,.,.<.,.&.3.| % . % ",
"-   @ 1 #._ %.:.$.&.-.-.*.*.-.-.$.$._ U U U U ) U U U U U Y Y Y U K K K K K K P P P P L L L L L y y y y y y t t t t 5 1 1 , > + # # @ O O + + 4 4 0 < 4 + | p.r.u.s.s.s.s.s.s.s.s.s.s.s.s.s.s.s.+.s. .f.u., > W K.L.F.L.L.L.L.L.F.F.F.L.L.L.L.F.U.D.F.L.K.x.E + < 2 2 2 # # < 2 4 < < < < > > + # # # < < < < # # # # # < 8 w e i L L L L L L J J J J K K K K K K K Y Y Y U ) _ _ _ _ [ $.$.$.$.[ ) _ _ _ _ [ ` ..O . X X o X q [ [ $.%.$.$.$.%.*.] ] *.-.$.&.$._ _ _ _ ) U ) U U U K K K J H H J J e e 7 e e H e 7 7 7 7 5 5 1 t w t w 5 1 1 3 1 1 3 3 3 3 < 3 d a 3 3 3 3 3 4 + M u.u.s.s.+.+.s.s.s.s.s.s.s.s.s.s.s.s.s.s.s.u.u.4 > E Y.K.m.F.C.F.F.C.C.C.L.C.V.Z.Z.Z.C.C.L.L.U.K.c > + # # 9 3 3 3 3 2 2 2 2 + + + + + + + + > > > > > < , , 1 1 1 1 1 1 5 5 w 1 1 5 5 5 5 w H L P / X.X.` ` ` ` ` ` ` ' ' ' ' ' ' ' _ _ _ _ 5.5._ 4.5.X.u.9   - - o   # u ( ) ( K K K U U U U U K K K K K K J J K H H H H H H H H H H H I I J L L L L i i i 8 , < < < + + < > > > > > > > > > + + + + + + + + * O + O M t.u.u.s.s.s.s.+.@.s.s.s.s.s.s.s.s.s.s.f.t.i.r.> + r.L.L.F.F.F.F.F.F.F.F.H.H.F.F.F.F.E.m.V.I.K.l.E + + + + O O O O O O O O O O O + + < 2 < 3 3 3 0 0 3 0 0 t t t p p p p e e r H H H H H H H H J K K K K K K K K K U U U U U U U _ _ _ _ _ $.$.$.$.) | # . % ",
"-   @ p X._ _ $.$.$.$._ _ _ U U U U ) U U U U U K K K K K K K K K K K H H H e e e e w w w 1 1 1 1 1 1 1 , , , , > > + + + + + # @ @ O + + + O O . O @ . + n p.c.u. .+.+.+.+.+.+.+.s.g.s.s.+.s.f.+.+.s.g.R > , d.L.L.L.L.L.E.E.L.F.F.F.F.F.H.H.E.F.F.M.L.Q.K.W > O . O O . . O O O O O @ @ O O O + + + # # # # # # # < < < < 8 8 8 8 w w w w w w w w w e e e r J J J J J K K K K K K U U ) ) _ _ ) _ _ _ _ _ [ X.{ q .   %     z ` _ _ _ _ _ _ ) ) [ [ ) U ) _ U U U U U U U U U K K K K K H H H H H e e e e e e e w 7 7 7 5 5 1 1 < , < < < < + + + + + + + + + + + + + O O O O > M p.k.u.u.s.s.d.d.s.s.s.s.s.s.d.d.d.d.d.s.f.f.| > , k.T.D.m.F.E.H.B.B.B.B.A.C.W.W.L.L.L.L.L.I.K.v.b + O O . O O O O O + + + + O O O . O # @ O + + + + > > > < , , , , 1 1 1 1 1 1 1 5 5 5 5 7 w w 7 7 e e e e e H J H e e H H J H H H J K K ) K K U Y Y P i j X o o o   # y J K K K K K K K K K J J J J J J J H H H e e e e e e e w e w w 7 5 1 1 1 1 1 1 1 1 , , < < < < < < > > > + + + + + O O O O O @ . . . $ O . + M a.t.i.u.s.s.d.d.d.s.+.+.d.d.d.d.s.d.s.s.i.k.M + > k.L.L.H.E.H.E.E.E.H.B.H.H.H.J.J.J.F.D.m.K.T.P.E + + O O O O + + + + O + + + + + + > > > > > > > > > , , , , < < 8 8 8 8 8 w w e e H H H H H H J J J J K K K K K K U U U U U U Y Y _ Y Y Y $.$.$.' { # . @ ",
"-   @ u @.] -.-.=.=.=.*.*.*.*.%._ ) ) ) U ) U U U U Y K K K K K P K P L J H e e w w w 8 1 1 8 8 8 8 8 8 1 < < < < < # < # # # # # @ # # + * * @ % = % . + v r.u. . .u. .u.s.s.s.W  .s.s.s.s.f.l.f.u.s.s.T > , g.m.m.m.M.F.M.F.L.L.L.F.F.H.E.H.E.F.M.m.m.K.g.f + O . . . . . . . @ @ @ @ @ @ @ @ # # # # # # # # < < < < < < 8 8 8 8 8 8 w w w w w w w w e e e r J J J K K K ) ) ` ) ) ' ' ' ] ] 3.3.*.%.=.*.3.#.{ q .   %     u X.$.$.[ [ [ ) ) ) ) ) ) ) ) [ ) _ _ _ _ ] ' ' ' ` ` ` ` ` ` P P P P P J L L L L L L L L L i i y t 0 < < # # # # O # 2 9 9 9 9 9 3 2 2 2 2 # + + O 0 r.u.r.u.f.k.s.+.s. . . . .+.d.d.e.! +. . . .N + > k.Y.K.L.Q.L.E.L.A.A.A.B.A.M.M.M.M.M.D.K.K.Y.v.N > < 2 = 9 & 2 2 2 2 2 2 2 + * O O . @ @ . O + < 0 0 0 t t 8 t 8 8 t t t p y y y i i i i i i i L L L L L L J ( ( J J r r r J J J J J J J ( J K K Y Y P b j X   o o   # y J J K K K K J J J J J J J J I I I H e e e e e e e w w w e e e w w p p p p p p t w t t 8 8 8 8 0 0 3 3 < 4 < < < # # # O @ @ @ . . . $ . . O v y.r.r.r.t.s.h.h.h.h.W ! +.s.s.s.h.g.f.s.i.u.N + > k.D.M.M.M.F.M.F.F.H.H.H.H.J.J.J.H.L.D.m.l.R.k.x + 4 4 2 2 3 3 a a g g g h h h x x x x v v v v c y t p t 0 8 < < < < < 8 w p r I L J K P P P ( ( ( ( ` ` ` ) ) ) ) ' ' _ _ _ *.*.*.=.=.=.=.4.4.=.3.{ # . @ ",
"o   @ b #.8.=.=.9.9.7.4.4.4.=.*.*.*.*.] ] ] ] ] ] ] ] ] o.o.` ` o.X.X.X.} P L J e w w 1 1 1 8 8 p 8 8 8 8 8 8 8 q q q q 2 2 2 2 # # # < 2 2 & & % = = . O 9 N M r.y.y.y.u.u.u.u.u.f.k.f.i.r.r.y.r.| M b 6 + > s.K.K.K.K.K.K.U.I.K.K.K.K.K.K.K.K.Q.K.K.K.R.k.c + O . . . . . @ @ @ @ @ @ @ @ @ # # # # # # # 2 2 2 2 < < q q q 8 8 8 8 8 w w w w w p p w w w e e J J K ( ` ` ` ' ' ' ] ] O.3.3.3.8.8.7.,.=.,.7.8...q .   %   X v O.*.*.*.*.] ) ) ) ) ) ) ) ] *._ 3.3.3.3.3.3.3.3.O.O.O.O.o.o.` X.X.X.X.} } } } } R { T T T T T b b v 0 < # + # # # 2 0 j m v n v x h h g g 9 2 2 + x r.r.| | r.u.s.s.i.y.y.y.y.u.s.s.s.+.W E M M 0 O + r.n.x.v.K.K.L.L.C.C.C.C.C.L.U.L.L.K.K.U.T.x.k.x + 2 g g j g g h h h h h h 2 2 # O . @ @ @ # < 0 v b b b b v b b b b b b b b T T T T T T T T T } } } } } } / / / / ( J r r e H H J J J J ( J J K Y Y P L j X   o o   # u J J K K K J J J J J J J L J J L L r r e e e e e e e r r L L ( L { i b b b b b b b b b N b b b n n t t t t 0 0 0 9 9 9 2 & & @ O . . X . . @ g V B y.r.t.i.i.h.i.i.s.s.f.f.s.s.u.i.t.E M M h O + y.v.K.K.K.K.K.U.I.L.F.L.L.F.F.F.F.Q.K.K.K.v.k.c + 0 0 h h x x v x v v v v v n x x n n N N N b b b b b b b p 8 < < < < 8 p i T R } / / ` ` X.` ` o.o.o.` ` ] ] O.O.O.5.3.3.3.3.4.4.4.4.4.4.4.4.4.8.{ # . @ ",
"o o # V #.8.4.9.4.4.4.4.3.3.=.*.4.3.3.3.3.3.3.3.3.3.3.O.O.O.O.o.o.o.o.o.X.X.} } e w 5 1 1 8 w p p p t t 8 8 8 q 8 8 9 q 9 q 9 9 2 2 2 < 2 2 2 & % % @ . O 2 x n n n n v v v v v b b b N v v v v m v 0 0 3 O > | y.r.u.f.k.k.k.k.P.P.P.R.R.R.R.R.f.u.u.i.u.B 3 O O . . . . @ @ @ @ @ @ @ @ @ @ @ # # # # # # 2 2 2 q < < q 8 q q 8 8 8 w p p p w p p w p w w w e K K ( ` o.O.O.o.O.O.O.O.3.3.3.3.3.3.=.=.=.=.3.#...u .   X   X V O.4.7.7.4.*.] [ U ) ) ) [ *.*.*.3.3.3.3.3.3.O.O.O.O.O.o.o.` ` X.X.X.X.X.} } } } R L T T L L L b E b u 0 < + + # 0 0 h v n n x x n x v h g g 9 9 + < x n t t t c c N b v n m v v c c c c t t 0 9 9 . + M y.u.p.k.P.R.K.K.K.K.K.K.l.l.l.j.d.h.s.s.i.E < + 2 g g g g h h h h h x h g g 9 # @ . @ @ 9 0 u v N N v t b b b b b b b b b b b b T T T T } { } } } } } } } } / } } ( J r e e H J J J J J J J K K Y P T j X   o o   # u L J K K J J J J J J J J J J J L L r I e e w w w e L L ( } } } } } T b T b T b b b b b b b b b N N b v v v x x 0 h h g g g 9 & @ .     . . @ = j V n n n x n x n x b b b b N c v v v n h h 9 . O B t.u.i.s.k.k.l.l.K.K.K.K.K.K.K.K.h.s.u.i.i.E 3 + 0 0 g h h x x h g g g h h h x h x x x v v v v c c y b b u t < < < 8 p i T T } X./ / / ` ` X.o.` o.` o.` ] ] ] O.O.O.3.3.3.3.3.3.3.*.=.4.4.4.4.3...# . @ ",
"o o # V #.3.=.=.4.4.3.3.3.*.*.*.*.*.*.*.5.*.5.O.] ' o.o.o.o.' ` o.o.X.X.X.} } P L e 5 1 w p p p t t 8 8 8 8 0 0 0 0 q q 9 9 9 2 2 2 2 4 2 2 2 & & & % @ @ 2 x n v j j j j v v v h h h j v v v m j j 0 9 9 O + m B B B r.r.r.r.y.B B | B E M M M M M B r.B v < O # @ . . . @ @ @ @ @ @ @ @ @ @ @ # # # # # # # # 2 2 2 2 q q 8 8 8 8 8 8 p p p w p p p w w w w w P ` o.o.O.O.o.' O.O.O.O.3.3.3.3.3.4.4.4.=.=.8.#...u O . X   X V O.4.4.7.7.3.3.] U U U ) _ *.3.3.*.] O.O.O.' o.o.o.' o.` X.` ` ` X.X.X.} R P P R R R R R T T T T b b b v 3 + + < v v x x x x x x v x x h h h 9 9 O + 3 x v v N b v v v j j j j j x v v v x v j j = . @ j V S y.r.M E E E E E E E u.t.t.w.W E E E r.M < + g h g h g h h h h h h h v j g 2 O . @ # v v x x t t v t b b y y y b b b T T E E E R T T R R R R R R R } } / / } } } ( I e e e r I I J J L J K K P P b v @   o o   < i L J J J J J J J J L J L L L i i i r r r e w 5 w e L L ( ( ( L L L L T T b b b b b b b b v b v c b c c c v v x x h h h j j j g 2 %       X @ @ 9 j j v x v v v m v 0 0 u j v v v v h j j z g . . j B B B r.r.r.t.t.| | | E E E E E E E E | | x 4 + h h h h v v x v h h h h v v x x x x v v c b b c y y c b b u 8 < < 8 p i L T R } P P / / / ` ` ` ` ` ` ` ` ` o.o.O.] ] O.O.*.5.*.3.3.4.4.4.4.4.8...2 . X ",
"X . 2 { #.3.*.=.4.3.3.3.3.3.*.*.*.*.3.*.*.*.O.O.' ` ` ' ' ` ` X.X.X.X.X.X.X.R P L r w 5 w p p p t 8 8 8 8 8 8 8 q < q q 2 2 2 2 2 2 < 4 4 4 2 & & = = @ O + 4 3 9 9 9 0 g j j j m j j j j j g 9 9 z 9 # # . . # j j j v v v m m S S S S S B B B M m B B V j & # = @ . . . @ @ @ @ @ @ @ @ @ @ @ # # # # # # # # 2 2 2 2 q q 8 8 8 8 8 8 8 p p p p p p p w w w w X.o.o.o.o.o.o.` o.O.O.] ] O.O.O.5.5.4.=.=.=.3.#...u @ . X   @ V O.=.4.4.4.3.3.3.) K U ) _ *.*.3.*.O.O.O.' o.o.o.o.' o.o.X.` ` X.X.X.X.X.R P R R R R R T T T L T y y b b 0 + > 0 n n x x x x v c x v v x h h g 0 # # 2 9 0 0 3 t v x j j j z j j h h x t h g j z @   . = 9 j m v S | | B B B B B M N N E E E M M N x 4 + h h g z h h h d x x x h v v j 9 + . @ 2 v v x x x v N b c c c i i b b b T T T T E R T T R R R R R R R } / ( ( / } } ( J e e e r I r I I I I J J P J i j @ X o X . 2 i L I J J I J I I I J L r r r r r r p r r w 5 5 w e { ( { ( { L L L T T T T T T T b b b c b c c b v c v v t x x x x x 0 h j j g g &     X = @ @ # 0 9 0 9 0 h h j j m j j j j j g g 9 g g & %     @ j v v v m v m m r.r.r.r.r.| S | b T E | M t 4 > 9 0 h h h h x x x h h j v v x x v v v x c b b c b c c b b u 8 < , 8 i T T L R R P / / / / } X.` o.` ` ` o.o.o.o.o.O.O.] O.O.5.*.3.*.3.3.3.*.=.8...9 . X ",
"o . < { #.3.*.=.3.3.5.3.3.3.*.*.3.3.3.3.5.5.5.5.O.O.O.O.O.o.o.o.X.o.o.X.X.X.} } } i 7 1 w p p p p 8 0 0 0 0 0 0 < 9 9 2 2 2 2 2 2 < 4 < 4 4 4 & & & @ @ @ O + + + + + O O O O O & # + # + + + O O # O . @ . . O O O O O O + + O O O O O O + + + 4 + + # # O O @ g & . . . @ @ @ @ @ @ @ @ @ @ @ # # # # # # # # 2 2 2 2 2 q q q < < 8 8 8 8 8 8 p p p w w w w e X.o.o.o.o.o.o.o.O.O.o.o.O.O.O.5.o.5.*.-.-.-.*.o...u O . @ . @ B O.3.3.3.3.3.3.3.' U K ) ] ] *.3.O.O.O.o.o.o.o.o.o.o.o.X.X.X.X.X.X.X.~ X.~ R R R R T T T T Q Q y i c b N 1 + > u v v x x x x x c x v x x h h g g + O O + + O O + + + + O @ @ O O + + + + O O . . .   . @ O + 2 + O O O O O O O O + > > > > > < 4 4 4 + * h g = h h x x x x x x x x x v h # O O 9 x x x x v c c N c c b c c b T T c y Q Q T T Q T R R R R R R R P } L L ( } } ( L w e e r r r i r r r H H I J i u @ X X X . q b L r r J r I I r r r r r p p p p p p p p w 5 5 w i { { { { { T T L T T T T T b c b b b c c c c c c v t t t x t x x x 0 h h h h g g     X z = O + < + + + + + O + O # # + # # + O O * & O . O .   . O O O O O + + + O O + + + + + + > > > , > + O + 9 9 3 3 a a a a h h h h x x x x x x x v t v v c T c c b b b t 1 , 8 i T T T R R R P } } } } X.X.o.X.o.o.o.o.o.o.o.o.o.o.o.O.O.O.] ] *.*.*.*.*.O.u.9 @ X ",
". O < { #.3.*.4.3.3.5.O.O.O.*.*.] -.*.] ' ' ' ` ` ` o.o.` ` X.X.~ ~ ~ ~ R P P P } i 5 1 1 w p t t 8 8 0 0 0 0 0 2 2 9 2 2 2 2 2 2 < 4 < 4 4 4 & = & & # @ + + > x 6 3 3 2 + + + O O O + 2 g h h O O O . O O O + O O O + + + + O O O O O + + + + + O O O O O + 9 z = @ . . @ @ @ @ @ @ @ @ @ @ @ # # # # & # # # # # # 2 2 q q q < < 3 3 8 8 8 8 p p p p w w p w X.X.X.X.X.o.o.o.o.O.O.O.5.5.5.5.5.5.3.*.-.=.*.O...u # @ @ . @ B O.3.3.*.5.*.O.O.' U K ` O.] ] O.O.o.o.o.o.` ` o.o.X.X.X.X.} } } X.~ ~ R R R R R R R R T T T T T T b b b 1 + > v x x x x x t 6 6 x x x h h h 9 9 9 < < 2 0 3 3 t > > + + + @ @ + j h 3 3 4 + O O O . . O . O O O + + + + + O O O + + + + + + + + + + + 2 l k g m h x d d d d x x 3 h v j 2 O O 9 t x x v v x x t c c c c c b b T T T T T Q T Q Q T T R P R R R P } ( L J } } ( L w e e r r r r i r r e e r r p u #   X X @ q b i r r r r r r r r r p p p p p e p p p p w 1 1 w i L L T T L L i y Q Q i i y y y y c c c c c c v v c c t t v x x v x 0 0 0 h h a 9 .   % z 9 + + < t t 3 1 4 > > + O O O * 3 g j g O + O . O O . # O O + + + + + + O + + + + + + + + + O + + O + 9 h h h h x x x x h h h h v v x x x v x v v c c c c y 7 y b b t 8 > w b { T R R R P L P R } } } / X.X.X.X.o.` o.o.X.` ' ' o.' O.O.O.3.3.3.3.3.3.O.u.9 @ @ ",
". + t L o.*.*.*.5.O.o.o.o.O.] ] *.o.o.o.' o.` o.o.o.~ X.~ ~ ~ ~ ~ ~ ~ ~ ~ R R R R y 5 1 5 p p 8 8 0 0 8 0 3 3 3 < < 2 2 2 2 2 2 2 2 < 4 4 4 2 & @ & = @ . v }.*X&X&X%X%X*X*X{.a.O O h b.XXXX.X}.{.^.b.z.a.a.a.a.z.n.n.n.b.b.b.b.z.m O O h a.b.n.p.z.r.y.S B j . & = @ . @ @ @ @ @ @ @ @ @ @ @ @ @ @ # # # # # # # # # 2 2 2 2 < 8 8 8 8 8 8 8 8 8 8 p p 8 8 w w } X.X.X.~ ~ X.o.o.o.o.o.O.O.o.o.5.o.5.*.-.-.*.o.@.b < O . O 9 V O.3.3.5.O.O.O.O.' K K Y o.3.O.' ` o.' X.o.X.X.X.` X.X.` } R R R R R R R R R P P L I Q Q Q Q c y c b c t t > > x x x v v x c c x x x h h h h 9 2 O S  X=X*X*X*X*X+X&X.Xp.O . 9 b.XX.X.X.X|.b.v.n.a.a.a.a.z.z.n.n.b.b.}.b.n.m O O h B z.n.p.a.a.p.r.M k O O Z l h h d x d d d d x 6 x h 9 2 O O 9 x x x x x v v v c c c c y y c c c c c b T T Q T T T T T R R R P R L R } } ( { ( w w w w e p e p p i r r r p p u = @ . . # q u i r r r r r r r p i i p i p p p p p p p w 1 1 w i T T T T T T L L L Q Q L c c c c c c c c c c c c v v v t x x x x x x x h a h a g O   O j O N Y.&X$X$X@X+X&X*XY.a.O . k b. XXX.X}.}.[.b.n.z.a.a.a.p.z.n.n.b.b.b.b.z.m O O x a.b.n.p.p.| r.B V h O < 9 j g 3 3 d h h h h h h h x x x x v v v v v c c c c c b b t , > 1 y E Q Q R R L T R R } P } / } / / / ` ` X.` X.o.o.o.o.o.o.o.o.O.O.O.O.3.5.o...u # . ",
"O + w L o.3.3.3.O.o.@.@.o.o.o.] o.o.o.o.o.` o.o.o.X.X.X.~ ~ ~ ~ ~ ~ ~ ~ R R R P T p 5 1 1 p t 8 0 0 8 8 0 3 3 3 < < 2 2 2 2 2 2 2 2 < 4 4 4 2 & & = = @ + S }.+XoX].].]..X&X=X.X< > M Y.|.].}.}..X X}.}.}.}.XX|..X.X.X.XXX|.XXXX.X^.v n v.Y.}.Y.b.Y.b.b.b.b.b.g & = @ . @ @ @ @ @ @ @ @ @ @ @ @ @ @ @ # # # # # # # # # 2 2 2 2 0 8 0 8 8 0 0 8 8 8 t p 8 8 1 w } X.X.X.~ ~ X.o.o.o.o.o.o.O.o.o.@.o.o.5.-.-.] o.@.b , O O + 8 { @.5.5.3.O.O.O.O.` K H K o.O.o.' o.o.o.o.X.X.X.X.X.X.X.~ } R R R R R R P R L P L I L Q T Q T y y c b c t t > > x x x v x x x c x x d h h h h 9 3 + a. X X|.|.|.|.OX#X&Xb.3 + S }.[.].|.|.|.|.}.Y.}.}.}. X|..X.X.X.X}..X}.}.n.3 3 b.^.{.}.}.b.b.b.}.[.b.a + k g s h d d d d d d d 6 x h 9 2 O O 9 x x x x x v x v c c c c c y c c c c b b T T Q Q T T T T T R R R T T } R } } { L w w w w p p p p p y i r e p p 0 2 # O O # 8 p p p e r p p p p p p i i p p p t p p p t w 1 1 w i E T T T T T T T Q Q Q L c c c c c c c c c c c v v v v t x x x x x t d x h h a a * . O h > r.Y.@X_._.Q.T.#X@X@X|.> * Z [.}.XXXX}.XXXXXX}.}.}.}.}..XXX.XXX.X X.XXX.X).x n v.^.}.^.b.).v.b.b.^.b.9 < 9 j g 3 3 x h h h h h h h x x x x v v v v v c c c c c N b 0 , > 1 y T T T R R T L R R } } R } } } } / ` X.X.X.X.X.o.o.o.o.o.o.o.o.O.O.O.O.O.O.} p < O ",
"+ < p P o.O.5.] o.o.@.@.X.o.o.O.' o.o.o.o.X.o.X.X.X.~ X.~ X.X.~ ~ R R R R P R T T p 1 1 1 8 8 8 0 0 0 0 3 3 2 2 2 2 2 2 2 2 2 & # # < < 4 4 4 & & & & + < r.Y.Y.U.U.U.K.K.Y.|.|.3 , E v.v.k.x.x.v.v.P.P.Y.].|.|.|.}.].Y.Y.P.P.b.b.^.x t n.c.k.k.i.k.t.k.k.b.b.0 # = @   @ @ @ @ @ @ @ @ @ @ @ @ @ % @ @ % @ # # # # # # # # 2 2 9 q 9 0 0 0 0 0 8 8 t t 8 1 8 w R R X.X.~ ~ X.X.X.X.X.o.o.o.o.o.@.@.o.5.-.-._ o.X.T 1 > > , p { o.O.O.O.O.O.O.O.` K H K ` o.o.` X.o.X.X.X.X.X.X.R R } R R R R R R R R T T T T T T T Q c Q c c b c b y t t > + t x x x x x x x t d d a h h h 3 3 > p.).b.P.P.K.K.].F.#X].3 > r.v.k.k.x.K.K.R.Y.P.).).}.).].].|.|.Y.P.Y.v.}.}.N a b.n.p.a.k.c.p.i.b.b.b.v + g s h h d d x d d d d 6 v h 9 2 O O 9 h x x x x x v v v v v c c c c c c c b b b T T T T T T T T T T L T R R R T T T T w w w p p p p p p y i p p p p 0 q # + + < 8 p p e e e e e e e p p p p p p t t t t t t 8 1 , 5 b b T T T T T T T Q T c c c c c c c c c v x v x x v v t t t t t t x x x x a a a a O O O 3 > h.I.U.C.E.L.M.D.U.].oX4 4 M b.b.n.v.v.v.R.R.P.Y.].|.|.|.).].Y.Y.P.P.b.Y.).x t v.c.p.p.i.k.r.p.c.b.b.0 < 9 j h 3 h x h h h h h h h x x x x x v t c v c c c c c N N 0 , > 3 y T T Q Q R T T T T T T R R R / } } } } X.X.X.X.X.o.o.X.X.o.o.o.o.o.o.O.O.o.} i 8 < ",
"0 u T } ' ' ' Y o.o.@.@.@.X.o.o.` o.o.X.` ` X.X.X.X.~ ~ ~ ~ ~ ~ P P R R R L T T T w 1 , 1 8 8 8 8 0 0 3 3 3 2 2 2 < 2 2 2 2 2 & # # # < 4 4 4 * & * * O 4 r.P.D.D.F.U.L.D.v.v.v., > c k.s.W w.d.t.t.s.h.h.h.h.h.s.s.s.s.s.s.s.i.p.b.3 < c.k.W s.t.h.W t.i.k.k.3 + & .   @ @ . @ @ @ @ @ @ @ @ @ @ % @ @ @ @ # # # # # # # # 2 2 9 2 9 9 3 0 0 8 3 0 0 0 1 1 1 5 R R } } } R X.X.X.X.X.X.X.X.X.X.@.@.o.o.' _ ' o.X.T y t t p T } o.O.O.o.X.X.X.X./ J e J ` o.` ` X.X.X.X.X.X.X.X.R R R R R R R R R T T T T T T T T T c b i i c c y b y t t > + 0 x x x x x x 6 6 d d a h h h 3 3 + t.P.v.K.K.D.L.U.e.T.Y.> + M | t.t.e.e.d.d.h.h.s.s.s.h.h.h.h.h.h.h.k.t.c.b.x < c.u.E E t.u.i.t.E i.p.3 + g g n h d d x d d d d 3 v h 9 2 O . 9 h x x x x x x x v v v c c c c c c b b b b b b T b T T T T T T T T T T R T T T T w w w w p p p p p y p p p 8 8 p 8 0 3 3 0 p p p p w e e e p p p p p t t t t t t 0 0 8 8 1 , 5 b b b T T T Q Q Q c i c c c c c c c c v v x v v v x t t t t t t t t x x x a a a a . O O < + s.K.m.m.M.E.F.D.m.D.K.> + n p.i.w.i.s.s.s.s.s.s.s.h.h.s.s.s.i.i.i.i.i.k.v.3 , n.p.E u.t.s.E r.t.p.z.3 > 9 j h 3 h x h h h h h h h x x t t x x t t v c c c c c c v 0 < + 3 t b T Q Q R Q T T T T T T R R R R R } } } X.X.X.X.X.X.X.X.o.X.X.X.o.o.o.o.o.` P p 8 ",
"v b { X.' ' ` Y o.X.+.+.X.X.o.o.` X.X.X.X.` X.X.X.} R } } R R R R R R L T L L L i w , < 1 q q 8 8 0 3 3 3 3 2 2 2 2 2 2 2 2 & & # # # # 2 2 * * & 2 2 + 4 r.Y.U.D.F.F.U.T.T.P.P., > c f.s.W s.j.s.h.h.h.h.s.s.W t.t.s.t.s.s.s.u.r.n., > k.k.t.l.h.l.t.s.s.k.k.3 O % @ . @ @ . @ @ @ @ @ @ @ @ @ % % % % @ @ # # # # # # # # # 2 2 2 2 9 9 9 3 3 3 3 0 8 8 1 1 1 T R R } R R } } ~ ~ X.X.X.X.X.X.+.+.X.' ' _ ` ` X.R E | | T T R o.o.o.o.o.X.X.X./ J e J / X.` ` X.X.X.X.X.~ R R R R R R R R R R L L T T T T T b b b b b b c c c y b y t t > + 0 x x x x x x d x x h a h x x 3 3 + t.Y.K.K.L.F.L.!.d.I.R.> + M | i.s.s.s.e.s.s.s.+.+.+.+.+.+.+.s.W s.k.E i.p.3 > f.u.u.u.s.s.k.k.t.i.p.3 + h 9 g h h x d d d x x 3 v h g 2 O . 9 h x x x x x v x x x x x v c c c b b b b b b b b b b T T T T L L T T T T T T T T w w 8 8 p t t t p p p p p p q q 8 0 0 0 t u p p w p p p p p p p t t t t 8 8 0 0 0 0 8 0 1 > 3 b b b T b Q Q Q Q b b c c c c c c v v x x v x x x x t t t x 0 t t 0 x h h h h a g . @ & 9 + f.I.m.M.M.H.E.Q.U.U.R.< 4 n a.t.t.i.h.s.h.h.h.s.s.s. .t.t.t.t.t.u.u.u.t.x., , c.k.| k.f.l.t.i.i.p.p.3 > 3 j h h h h h h h h h h h x x x x x v t t t t c c c v v v 0 # + < t b T y Q T T T T T T T T T R R R P R R } } } } } X.} X.X.X.X.X.X.X.o.' o.' ) K J e ",
"u i ( X.' ] ' o.X.X.+.} X.X.` X.X.X.~ ~ ~ / } P R } } } R R R R P L L L T L L i y 8 , < < q q 8 3 3 3 3 3 < 2 2 2 2 2 2 2 2 & # # # # # 2 4 * * & & 2 + > E R.U.!.H.D.F.U.P.P.P., > 6 f.s. .h.g.h.d.g.g.g.d.h.s.h.h.h.s.h.s.s.u.| y.+ >  . . .s.t.h.W  .W  .s., O % . . @ @ . @ @ @ @ @ @ @ @ @ @ @ @ @ @ @ @ # # # # # # # # # 2 2 2 2 2 2 2 3 3 0 0 0 1 1 1 1 c T R { { R R } R R } R X.X.X.X.} } X.` ' ' ' ` P R R  . .T L P X.X.o.X.} } } } / r w e ( / / / X.~ ~ ~ R R P P R R R R R R T T L L T T L i b b b b b b b v b y t b y t t > + 0 h h x x x x 6 6 x h a h x x 6 3 > t.T.U.U.L.F.F.U.N.T.K., + M y.f.h.h.s.d.h.h.d.f.f.s.f.s.s.d.h.s.h.l.t.i.r.< >  .s.s.s.+.W s.s.h.k.p.3 > x 0 3 h h h h x x d h 3 v h 9 2 . . 9 g h h x x x x v x x x v v c v v v v b b b b b b b b b b b b i L T T T T T T L b w 1 8 8 8 p p t t t p 8 q q q q q 0 3 3 0 8 8 8 w w w w w p p p t t 8 8 0 8 8 8 8 8 0 8 , > 3 v b b T c c c Q c b c c c c c v v v v x x x x x x x 0 t t t 0 0 0 0 h h h a h a g   X = 9 O  .K.M.E.M.G.M.E.L.L.U.< + v y.t.r.k.f.h.g.g.g.g.h.s.s.f.h.h.s.s.u.s.u. .u.+ + | | | u.s.h.W t.w.r.u.< > 3 j h h h x h h h h h h h x x t x x x t t t t x x v x v v 0 + + < t b b y Q T T T T T T T T L R R R R P P R R R } } } } } X.X.X.X.` ` ` X.` ` U K J e ",
"t y L P ` ' ` o.X.X.} } +.X.X.` ~ ` ~ P P P R P R } } } R R R R L L T T L L b i u 8 < < < q q q 3 3 3 3 3 3 2 2 2 2 2 2 2 & & # @ @ # # # # * * * * & + > E K.F.!.H.M.M.K.x.x.v.> + 1  .f. .s.s.s.+.s.s.s.s.s.+.s.s.s.+.s. . . .u.| + >  .s.k.+.s.g.s.f.s.s.k.1 O @ . . @ @ . @ @ . @ @ @ @ @ @ @ @ @ @ @ % @ @ # # # # # # # # 2 2 2 2 2 < 2 2 < 3 0 8 3 < < 1 y T R { R R R } R R R R } } } }  . .} ` ` _ ' ~ X.R T R T I I P X.X.X.X.} } } } / e w e J / / / X.P ~ ~ P P R R R R R R T T T T L L T i i i b b y b b u v v u u t b y t t > + 0 h h x x t t 6 t x h h h x x 6 6 > t.U.L.F.F.F.H.M.m.U.l.1 O 0 u.r. .s.s.s.s.s.s.+.+.+.+.+.+.s.s.h.s.k.t.t.N + > s.d.g.g.d.s.s.h.W t.i., > x 0 x h h h h h h h h 3 v g 9 2 . . 9 h g g h h h x x x x x x v v t v n v v v v n v b u y b b b b b b T T T T T T T b w 1 1 8 8 8 t 8 t t 8 8 q q q q 8 1 3 3 3 8 8 8 w w w w w 8 w 8 8 0 8 8 8 8 0 0 8 q 8 8 , > 3 v b b c c c c y y c b b c c v v v x x x x v v x h h 0 0 0 0 0 0 0 h h h h h h a g   X @ 9 O | K.V.W.M.M.M.M.m.m.D.> O 9 y.u.t.f.u.t.s.s.s.s.+.+.+.s.s.s.+.t. . . .f.| + > | u.c.u.s.j.s.h.s.k.k.3 > 3 h h h h j h h h h h h h x x t t x x t t t t t x x x v j 9 + + < t b b y Q Q T T T T T T T T T T P R R R R R R R } } } } } } ` ` ` X.` ` ` ` U U H e ",
"y i L P K P Y ~ X.X.} } X.X.X.X.~ R R P P P P P } } } R R R R T T T T T T b b b u 8 < # < q 9 q 9 3 2 2 2 2 2 < 2 2 < 2 2 & & # @ @ # # # # + + * # & + > w.U.F.F.M.F.Q.I.K.v.P.1 + 8 y.f.u.s.+.s.s.s.s.s.s.+.+.+.+.+.+.+.s.s. .| u O > E u.c.W  .f. .s. . .u.> O @ . . @ @ . . . . @ . @ @ @ @ @ @ @ @ @ @ @ @ @ @ # # # # # # 2 2 2 2 2 2 < 2 < q 8 8 < < < 1 y i R { T T R R R R R R R } } }  . .} X.` ` ~ X.X.R T T L I I R X.X.} } } } } } ( e 5 e L { } } P R R P P R R R R R R T T T T T T T i b b b b b y b b v v v v v t v v v t > + 0 0 h h h x t t x h h g h h x 6 6 > w.K.D.F.F.H.J.M.L.I.k.1 O < y.|  .+.s.s.+.+.} +.+.+.+.+.s.s.s.d.W u.u.p.N O +  .! +.+.s.s.s.s.t.f.k., + 0 9 h h h h h h h h h 3 v g 9 2 . . 9 g h h h h h x x x x x x v v v x v n n v v v v b v u y b b b b b T T T T T T b b 8 8 1 < 8 8 8 8 0 0 8 8 q q q 8 8 8 0 3 8 8 p p 8 8 8 8 8 0 0 0 8 8 8 8 8 8 8 8 8 q q 8 < # 3 v b b b c c c y y c b c c v v v v x x x x v v x h h h 0 0 h 0 0 0 h h h h h h a g X X @ j + r.K.U.M.M.M.!.E.F.F.R.< O 9 y.p.p.k.u.u.s.h.f.s.s.+. .+.+.+.+.+.u.u.u. .u O > V u.c.| s.g.s.s.t.t.t.> > 3 x x h x x h h h h h h h x x t t x x x x x x t x x x j j 9 # + < 0 v b b c b b b b T T T T T T R R R R R R R R R P } } } } } } X.X.X.X.X.X.` ' K H e ",
"e i L / } X.X.P R R R R P P ~ ~ ~ P P P P T L L L L L L R R } } T T b b b b b b u q + O < 9 9 2 9 2 2 2 2 2 2 2 2 2 2 2 2 # # # & & & + 4 4 2 # * & 2 + > E U.L.L.L.L.L.K.K.v.v., O q | y. .s.s.u.u.u.u.u.u.u.u.s.s.s.s.s.s.s.u.y.u O + b u.u.k.s.f. .s.u.u.s.< O X . . . . @ % @ X @ X @ @ @ @ O @ O @ @ @ @ @ % % % @ # # & & 2 2 2 2 2 2 2 2 q q q < < < < , 5 y T R T T R } R R R R R R R R } } ~ ~ X.X.X.X.} T L L L y L } +.} } } } { { { i p w w i { { L R R R R R R R R R T T R T T T T T E E E T b b b b N b b v x n n 0 n M x 4 + + < x h h 0 h x x v h g g h h x x x > E L.E.F.B.J.E.F.L.K.P.1 O < y.y.u.s.s.s.s.s.s.+. .+.+.+.s.s.s.d.h.t.r.r.h + +  .s.f.s.t.s.s.s.u.r.r.4 + 0 9 h h d d d h h h h g j m h # O @ # g 0 h 0 0 x x x x x x x x x x x x x x v v v v t b b b y b b b b E T b y y y b b , < < < q < q q 8 8 8 8 q q q q < < q q q q q z q q q q q q 8 8 8 1 8 0 8 8 q q < q q < # # q 8 v v v u v v b b t t t t t t x x n v x x v v v v h h h h x h x x x h a h h x a 3   X = & > E K.L.L.E.E.E.L.L.V.v.> O 9 r.u.r.u.i.u.s.s.s.s.s.s.s.s.s.s.s.s.s.u.u.u.u O + V z.u.s.s.k.t.f.i.t.u.< > 3 x x 6 d f x x h h h h h h h h 0 x t t t 6 6 N c x h j j 9 @ @ # 9 j M M b c b y b b T T T T R R T T T T T T T L L T R } R P } } } } R R R } } L w 8 ",
"w e i L } } } } } R R R P P P P R R P P L L { { } { { T L L L L i b b b b b b v u q # + # 9 9 9 9 9 9 3 3 2 2 2 2 2 2 < # # # # & & & * 4 4 < # # # # + > E T.K.F.F.F.F.L.K.K.v.< O < | y. .s.s.u.u.u.u.u.u.u.u. . . .+.s.s.s.u.y.u O + M u.i.f.s.f.t.h.s.u.s.3 * @ X . X @ % % @ @ @ @ @ @ @ @ @ @ @ @ @ @ @ @ @ @ @ @ # & & # # # # # # # # # 2 2 < < < < < < 5 y T T L L L T R R R W R W R R R R R R R R R R } T L i i y L T { { { { { }  . .p w 5 w i { { { R R R R R R T T T T T T T T T T y b b y c y y y v c v v x x x x x v n 0 4 + + + x h x h h 0 0 h g g g g g 0 3 6 > E K.E.M.M.J.J.F.L.K.P., + < y.y.u.s.s.s.s.s.s. . .+.+.+.+.s.s.d.k.i.t.u.x + + | s.s.u. .s.s.u.f.u.u.3 + 0 9 h a a d d h a g g g h j 9 @ . . O h x x x x x 0 0 x x h h x x x x x x v v v x v v b b b b y y b b c b b b b b b v < < < 2 q q q 0 8 8 8 8 8 8 8 8 < < < < < < q q 2 2 q 9 9 q 0 0 1 1 3 3 8 q q q < 2 2 # # # < 0 V V b v v v t t v v v u v v v v t t 0 0 h h h 0 a g a a a g a g x j x j v g 2 * .   % + > T K.L.C.M.B.M.L.L.V.K.> O < r.u.r.i.i.s.s.s.s.s.s.s.s.t. .s.+.s.+.u...u.u O O V u.y.u.s.k.t.f.u.u.p.< > 3 x x 6 d x x h h h h h h h h h h x x x x a d 6 6 0 h j 9 # @ @ # 9 j v n c v b b b b b T T T Q Q L Q T T Q T L L L ( { } } } } } } } } } } { { u 8 8 ",
"5 w e L { } { } } R R R R R R R R R R R T { { { { { { T L L L i p y b b b b v u q < # O # # # 2 9 9 2 2 2 2 2 2 # # 2 2 & & 2 & @ % & & 2 2 < # & # # + > | R.L.F.F.F.F.F.K.K.v.> + < | y. .s.s.s.s.s.s.s.s.s.s.s.s.s.s.s.h.h.s.u.t O + E p.t.s.s.k.t.h.h.s.h.3 O . . . . . X @ . X X X X X X @ & # @ @ @ @ @ @ @ @ @ @ & & & # # # # # < < 2 2 2 2 < < < < < < 1 e i T L L T T T T T T R R R W R R R R R R R R { L y y y e p L T T { { { { { { w w 5 w p u { { L L T T T L T T E E E T E b b b b b b b b b b b N N N n n n n n v j h 2 + + + + 3 g h h j h h h h h h g g 9 3 3 > E K.U.M.M.H.H.F.L.K.K., + , y.u.s.s.s.d.d.s.s.+.+.+.s.s.s.e.e.s.h.s.i.a.v + +  .s.f.s.s.s.h.s.k.p.u.3 + h 9 h h h d x h h h g h g 9 & O . . O 9 0 h x x h h h x x x v v v v v x x x x x v v v v v u u u t t t t y b b b v t 0 < < # # < 2 q q 8 8 8 8 8 8 8 8 8 < < < < < < < q 2 q q q q 0 0 1 1 8 3 < q q q < < < # # + < q u u v v v v t t u t x v x t x x x x x h x h h h h j h h h j h j h j j j h 3 + O . . @ + > E K.M.M.B.B.M.M.M.L.K.> O < y.u.r.i.s.s.s.s.s.s.s.s.s.s.s.d.s.d.h.h.u.y.u O + M u.u.s.d.j.s.k.h.u.p.3 > 3 v h h v n v h h h h h h h h h h x h h h h d 3 0 x v g 9 # @ @ @ # 9 h x n n v u b b b b T T T T T Q T T E E T L { { { { { { { { { { { { R R b p 8 1 ",
"5 w e i L { { { L L L L P P P P T T T T T { { { i i i L L L L T b b b { b b u u < < # + + # # 2 9 9 2 2 2 2 2 2 # # # & & & 2 & % % & 2 2 2 # # & # # O > E R.D.L.F.F.F.F.L.K.P., + 3 y.u.u.s.d.s.s.s.s.s.s.s.s.s.s.s.s.h.d.d.k.p.x + + E k.t.t.s.h.e.j.h.s.h.3 O . . . . . . X @ X @ @ @ @ @ @ # * * O O @ @ @ @ @ @ & & & & # 2 2 2 2 2 2 2 2 < < < < < # < < 1 5 p i i T R { T T T T R R R R } } } } { { { { { L i i i p i T { { { { { L i e 1 5 w 5 1 p i { { { { { T { T T { R E b b b y y b y b b v v v v n n v v v v x x g 3 # + O O O O + # 3 g j j j j l k k h g g h 3 > E K.K.F.M.F.M.H.L.L.K., > 1 r.u.s.d.d.d.d.s.s.s.s.s.d.e.e.e.d.e.h.s.i.a.x O O W +.h.s.s.s.h.s.s.i.t.< + 0 9 h h h h h h h g g g 2 & O O . . O + 4 2 3 g h g 9 h h h v v v m m v v v v v v n n v n b b b b u u y c b b t t 1 < # # # # # # < < 8 8 8 8 8 8 8 8 < < < < < < < q 9 9 q q q 8 8 8 1 1 3 3 < < < < < < < # + + # < < 8 0 t v v v v t t t t 0 0 0 0 h h h h h g g h g g g g g g g g 3 3 9 3 2 * O O . . O O > W L.L.H.B.B.M.M.F.L.K., O 3 u.u.u.s.h.s.s.s.s.e.s.s.s.s.d.d.d.d.d.h.k.y.x O + M u.t.h.d.d.e.j.h.s.p.< < 9 j g g j j j g g g g g g g h h h x x x v x x x x n v 9 # O @ O O # 2 9 x x N b b b b b b T T R R Q T T T E b b i { { { { { { T T T T T T T L p 8 1 1 ",
"1 1 w w p p p p y y y y y y y y y y p p p i p p p p i y i i L L b b b b b t t 8 < < < # + + # 2 & & & # & # # # + + + + + + + @ % % & & + * + O @ @ O O + M v.K.L.L.H.H.L.L.K.R., + 3 y.u.s.d.d.s.s.s.s.s.s.s.s.s.s.s.s.s.s.s.s.a.x + > w.k.i.s.h.h.s.j.h.s.h., O . . . O . O @ @ @ @ @ @ @ @ @ O O O O O . @ @ @ @ @ @ @ # * + # + + < < < < < # # # # # # < < > , 1 5 t y p y y y i T T T R T T T T T L T T T R i y i i i y T { { { R T y w 5 1 1 1 1 1 1 p i L T T L T L T b p p p t t 0 6 1 3 3 3 3 3 3 < < < 4 < < < < # # # + O O O O O O O O # 2 9 9 9 9 g g g & 2 2 2 < > E v.K.K.L.L.M.E.E.L.K., > 5 u.s.s.s.d.d.d.s.s.h.h.h.d.d.d.d.d.h.l.h.i.a.h O O E s.h.s.s.h.h.s.s.t.t., + 2 < 2 2 2 2 2 2 & & & & O . . . . . . . O + + < < 4 4 2 2 2 3 3 9 9 g h h h h h v v v 0 x v v v u t t t t t t 1 1 > > + # # # # # # < < 1 < < , , < < < < < < < < < < q # < < < < , , , , , , < < < < # # # + + + + + < < 3 0 8 8 8 8 0 0 0 3 2 2 2 < < # # # # # * * * * * * * * * * * * * O O O O . O . O O > W U.E.E.J.H.H.E.L.L.K.1 + 3 u.k.i.h.h.d.d.d.d.d.d.d.s.t.s.d.d.d.d.s.i.t.x + + M p.t.h.e.N.e.j.h.i.u.4 + 2 9 = & = = % & 2 2 2 2 2 2 2 3 3 3 3 0 9 h h 3 0 0 2 + O O O O @ + + < 3 3 0 u u u u t p t y y y p t t t y y y i i i p p p p p p y y y y e e 8 1 < , ",
"1 1 1 1 1 1 1 1 w w 5 5 5 5 5 5 5 5 1 1 1 1 1 1 1 1 1 1 1 5 5 5 5 5 1 1 1 > > + + + + + + O O + O O O O O O O O O O O O O O O . X . . O O O O O O . @ O + N v.T.L.L.L.L.L.L.K.v., + 3 y.u.u.s.d.s.s.s.s.s.s.s.s.h.f.h.h.f.f.s.f.r.x + > B i.i.h.h.j.t.j.h.t.t.> O . . . . . . . . . . . . . O O O O O O O . . . @ . O O O O O O + + + + + + + + + + # # # # # < > > > 1 1 1 1 1 1 1 1 1 5 5 5 5 5 7 5 5 5 5 5 5 w 5 1 w w 1 w p w y e e w 5 5 1 1 1 1 1 , , 1 w w w w w 5 5 5 1 > > > > , , > > > + + + + + + + + + O O O O O O O O . . O O O O . O O O O @ @ O @ @ @ @ O O O O + N c.v.K.I.L.C.L.E.K.x., > 6  .s.s.d.d.d.s.s.s.s.h.h.h.h.h.h.h.j.k.i.a.a.g O O E +.s.s.s.h.h.s.k.i.t.> O + + + O O O O O O O O O . . . . . . . . . O O O O O O O O + + + + + + # # # # # # # < + > < < < < , > , , > > > > > > + + + # # # # # < < > > > > > > < # # # # # # # # # # # + + , , , , , , > < < # # # + + + + + + + + > > > > + + + + + + + O O O O O O O O O O O . . . . . . . O O O O . . . . O . . O O > E K.U.L.E.E.E.L.L.K.K., + 3 u.k.i.k.h.s.s.d.s.s.s.s.s.h.k.h.j.j.h.h.p.r.h O + M u.t.h.e.d.e.j.s.t.r.+ O + @ @ @ @ . . @ O O O O O O + + + + + + + + > > > > + O O O # # # # + > > > > < < < < < > > > > , , , 1 1 1 8 8 8 8 8 1 1 1 1 1 1 1 1 1 1 1 1 1 1 , , ",
"1 1 1 1 1 1 1 1 1 1 5 1 8 8 5 5 1 1 1 , , < < < < < , , 1 1 1 1 1 1 1 1 > > > > > + + + + # + + O O O O O O O O O O O O O O O .     . . O O O + # @ # # + x n.Y.K.K.L.L.L.K.l.k.> O < r.y. .s.h.s.s.s.s.s.s.s.u.f.s.s.i.i.u.u.r.M g O + M r.r.p.i.k.i.k.i.r.w.+ O O O O O O O O O O O O O O O O + * * # @ @ . . O . . . O O * < 2 < < 4 < 2 < < < < < q 8 8 8 8 8 8 1 1 1 1 1 1 > , , , , , , , 1 1 1 1 1 1 1 1 1 > > 1 1 1 1 w 5 7 5 7 7 5 w w w w w w w w p p 5 5 5 1 1 1 1 1 1 1 1 , > > > > # # # + # + + + # # + O O O O @ O @ @ @ O O O @ O O O O . . . . . . . . . . O O O n c.v.x.K.K.m.L.U.v.k.> > 3 | u.s.h.h.h.s.s.i.i.t.t.t.h.h.h.h.i.i.w.B S g . O E  .s.s.s.s.s.t.k.t.r.> O + O O O O O O O O O O O O @ @ . . . . O O O O O O O O O O O O + O * O . . O O O O O O + + # < < < , > > > > > > > , < , < < < < < < < 3 3 1 1 3 3 3 3 < < < < # # # # # # + # # < 3 0 3 3 3 3 3 < < < 3 < < < < < < < < < < > + + + + + + + + O O O O O O O O O O O . O O O O O O O O . . O O . . . @ . . @ O + c l.V.V.L.L.L.L.K.m.l.> O 3 y.p.t.i.s.i.i.s.t.t.i.t.i.p.p.h.h.h.i.i.r.M 9 O O m y.t.h.d.d.s.h.i.r.| + + # # # @ # @ . O O O O O O O O O O O + + + + + > > > > > # 2 9 9 9 2 2 2 4 < 4 < < < < > > > > > > > > > > < , , , , , < < < < 1 1 1 1 1 1 1 1 1 1 1 , ",
"8 8 8 8 w p t p t p t p t p t t 8 8 3 1 < < < < < < 1 8 t t b b b y c y t t v v v x t h v v x 0 9 9 9 9 9 9 9 9 & # # # + O O @     . . O + # 2 z g z 9 + 3 u.v.v.v.R.K.K.l.k.u.+ . # B r.| t.t.u.u.u.u.u.u.u.r.| E E E M b b b v 2 O + m S r.p.i.p.a.p.a.r.B O & & 2 2 2 2 2 2 g g g g g z g g 3 g g g 9 # O . @ O . O O + 3 9 j x x x v v n v u u u u v v v v v v v v b b b b t t t t p p y p 1 1 1 1 1 1 1 1 w 1 8 t p p p b T T T T i T T T i i b b b b b i b b b b b b b b V b v t 8 < < + + # + + + O O @ @ @ @ @ O @ @ @ @ @ @ @ @ . . @ @ . . . . . @ @ X X @ @ @ @ O O . h p.c.x.K.K.m.K.K.x.p.+ + < B u.u.s.s.s.u.u.u.r.r.r.r.i.i.i.i.w.B m l l & . . M  .u.i.i.f.u.r.r.r.B + . # O # & & & & & & & & @ & & & @ @ @ @ # # * * # & & 2 2 & & & & & & & O O O O O # # + 9 0 h v v v v u v b b N v v v x v v v v v v v v v v v u u u v v t 8 8 < < < # # # # # < < 0 v b v v v v v v v v v v v v v v v v v u t t 0 0 t t 0 0 9 2 2 < # # O O O O . . . . . . . . . . @ . . . @ @ @ . X @ . X % O O 0 p.k.x.V.K.K.K.l.g.f.> O < r.y.r.t.t.t.t.t.t.t.r.r.r.r.S w.E E M N M m & . O m y.r.i.s.f.t.f.r.| M O 2 9 g g g h g 2 O O O O O O O O 9 9 9 g g h h j 0 0 0 h h h g 0 0 g h x x x x n v u u u t t t t t t 0 3 , < + # < < < < < 8 8 8 8 8 8 8 8 8 w 8 8 8 8 1 ",
"t p 8 t t p t p t 8 t 8 t t t 8 8 8 8 8 < # # # < q u b b y y y c c t t v v v v x x x x x h v j h j g g g g g g g g j j g 3 # @       . O 2 g g g g z # + 3 M N M E E E E E M M O + = z m v N N N t n N t t n n n n x x x 0 h h j & O O 2 m Z M Z m M Z m m h O 2 g g h g g h h g g g g g g g g g g j h h g & # O O O O + g j h x x x x x x x x t t t u v u t v u u u v v b b b b b b b b b b b b b t 1 1 1 , , u u u u y y y y T T T T T T T T b b b b b b b b y y b b b b b v b v u v v v 3 + + # + @ # # # # # @ @ @ @ @ @ @ @ @ @ @ @ @ @ @ @ @ @ @ @ @ @ @ @ $ $ @ @ @ @ O O 9 M M b E W W E i.r.n # O 2 v x v c c c N v m m k m M x x x a x n m l z = X . 9 t n M M M N n M M 3 O @ % @ % & & & & & & & & & & & & & & % & & & & & & & & & & & & & & & & & % @ @ @ . O + # h j h h x t t t x x x v v v v x v v v v x v x v v v v v v v v v v 0 0 0 0 q + O + # 2 0 n n v x c v x n n n n n x x v x x x x x x x x x x x x x 0 0 h h g g h j 9 # @ . . . . X @ @ @ @ @ @ @ @ @ @ @ @ @ % @ X   X = % O 2 B M b E E E E E E M O + 9 g v m N n m h v M x v v g m v v v x x h g j = . @ 2 m M M E N b M b m 0 + 2 3 h h h x x x 9 O O O O O + 9 g g g g g g h h x x x x h h h h h h h h x x v x 0 0 t t v v v v v N v t < < # # # < q q 0 8 8 8 8 8 8 8 t t t t 8 8 8 8 ",
"8 8 8 8 0 0 8 8 8 8 8 8 8 8 8 8 8 0 0 q < # # # q 0 v b b y y b c c t t v v v v x x x x x x x x h h h h h h h h 9 g h h h 9 2 &       . * g h 9 9 g C 0 O + N u.B r.r.r.E M N v O @ # 9 z j x x m v v v 0 h j 9 9 0 0 h h v v v 9 # O O * 3 g g g j n j g 2 O . 3 g j h g g g h h g h g g g h h g g h j h g 2 & O O O O 2 g h x x x x x x x x x t t t t v t t t u u u v b b b b b b b b b b b b b b u 8 1 , 1 1 b b b b b b b b T T b T T T T b b b b b b b b b b y b b b b b v b v u u n v 0 < O @ @ @ # # # # @ @ @ @ @ @ @ @ @ @ @ @ @ @ @ @ @ @ @ @ @ @ @ @ $ $ $ $ @ @ @ @ . + h B r.r.W E c M M 9 O . @ 9 x x v x t 9 9 9 2 g k n v n m M n m m j = @     2 3 0 x x x x 0 m j # O @ @ @ = & & & & & & & & & & & & & & & & & & & & & & & & & & & & & & & * & @ @ . . @ # 2 h h h h x x t t x x x v v v v v v v v v x x x x v v v v v v v v v v v v v 0 < + + # 9 h n N v x v v c v x n n n v v v v v x x x x x x x x x x x t 0 h h h g h j g & @ . . . . @ @ @ @ @ @ @ @ @ @ @ % @ @ @ @ X % o o   . & V S | | | | B M N v O O # 9 g j h h m h h j g j j = 9 0 h h v n m j 9 @ . . O 2 h 0 0 0 v j 0 2 + O 2 9 x x d d d x 9 & O O O O 2 9 g g g g g g h h x x x x x h x h x h x x x x v x h 0 t t v v v v v n N v 0 < # # # < q 8 0 0 8 0 0 0 0 0 t t t t 0 8 8 8 ",
"t t t t 0 0 0 0 0 0 8 8 8 8 8 8 0 0 0 9 < # # # 0 v v v v v c N c v v v v v v v v v x x x x x x x h h h h h h h 3 9 g h h h h g X   . . & h j 9 g 2 j j 2 > > + + + + + > + + O O @ @ # = 9 0 9 + # + O + # # + + + < 2 3 3 3 9 & # O O O + < 2 + 2 2 2 9 # + 9 9 g h h h 9 g g h g g g h h h h h h h h h g g g * O O + 2 h x v x x x x x x v v t t t t t v t t v v v v v b b b b b c c b b b y b b b t 1 > 1 8 b b b E b b b E T Q T T T T b b b b b b b b b b y b b b b v v v b v t v n n t 0 + @ @ @ @ # # # @ @ @ @ @ @ @ @ @ @ @ @ @ @ @ @ @ @ @ @ @ @ @ @ % % $ $ @ @ @ @ O O O + > > > > > < < + . . O 2 2 3 3 3 2 # # O O & & O * + + 2 3 2 3 2 # @ . . + + > < 4 4 4 < < # . . & % X = & & & & & & & & & & & & & & & & & & & & & & & & & & & & & & & * & % @ @ O @ # 2 j h h x x x x v x v v v v v v v v v v v x x x v v c v v v v v v v v v v v t 3 # + # 9 x n N x v x x x v v v x x v v v v v x x x x x x x h h h x h h 0 0 h g h h z g & @ . . X @ % % % % % % % % % % % % % % % X ;   X % . . O O + + + + + + + O O @ + & 2 9 9 g * + O O # & # @ O # < < 3 3 9 9 # @ @ . O + < 4 + 2 2 2 9 # + 0 3 3 x d d f f d g g 2 O O 2 g g h h g h h g h h x x x x x h h h x x x x x x x x x t t t t v v v v v b v 0 < # # 2 2 0 0 0 0 0 0 0 0 0 0 0 0 t t 0 0 0 0 ",
"t 0 0 0 0 0 0 0 0 0 0 0 0 0 0 0 0 0 0 q < # # # m n v v v c c c c v v v v v v v x x x x x x x x x x x x x x x x x h h a h x x j % X   O 3 v v 3 v 2 9 v 3 > > O + + + + + + O O . . . . O O + + O # # O O . . O O O O + + + + O O O O O O O + + + + O O + O O 2 9 h x h h g 0 g h h h g h h h h h h h h g h h h # O O + 3 h x v x x x x x x x x t t t t t t t t t t v u u v v b b b c c c c c c b b b u 1 > 1 t b b b b b b b b c Q b b b b b b b b b b b b b b y y y y y y b v b v x v n n x h + @ @ @ @ # @ # @ @ @ @ @ @ @ @ @ @ @ @ @ @ @ @ @ @ @ @ @ @ @ @ % % $ $ % @ @ @ & O O + > + > > + + O . . . O + O + > + + + O O . . . . O O O + + + + O O O O O O O O O O + + + + O . O = = X % & & & & & & & & & & & & & & & & & & & & & & & & & & & & & & & * & & @ @ O O & 9 h h x x x x x x v v v x v v v v v v v v x x x x c c v v v v v v v v v t v t 3 + + 2 9 v n n c x x x x v v v v v x x x v v v v x x x x x h h h x x x x h h h h h h z = @ . X X X % % % % % % % % % % % % % % % X % o % = . . O + + > > + + + + O . . O O O + + + O + + O . .   . . O + + + + O O O . . . O O + + O + O O # + O < 3 t x x d f f d 0 j 9 O O 9 j 9 h h h h h h h h x x x x x x h h x x x x x x x x x t t t t t v v v v b b v 0 # # q q 0 0 0 0 3 3 0 0 0 0 0 0 0 0 0 0 0 0 ",
"6 6 6 6 6 3 3 0 0 0 0 0 0 0 0 0 0 0 0 9 2 # # # m n x v c c c c v v v v v v x v x x x x x x x x x x x x x x x x x x x d a x x h =   . O 3 v x 3 x h v 9 O > t.}.b.b.b.v.k.p.t.y.B V V V B S r.r.D z.z.V 9 O O 2 r.r.r.t.t.r.E E N M M B E M E E i.i.E E r.M 4 + 3 h x x h h a h h h h h h h h h x x h g g h h j & O O + a h x x x x x x x x x x t t t t t t t t v v v v c v v c c c c c c c c c b b b b 1 > 1 y y y y y y y y y y c y c b c b i y y b b y y y y y y b b c c c v b v v x v v n v + @ # # @ @ @ @ @ @ @ @ @ @ X X @ @ % % $ $ @ @ @ % @ % @ @ @ @ % $ $ % % % @ @ . 2 y.b.}.b.b.b.k.p.y.S B V m M B w.t.t.u.y.a.D @ . . & r.a.t.i.i.u.t.| | b b b | r.w.E E w.r.r.S B g + & & @ & & & & & & & & & & & & & & & & & & & & & & & & & & & & & & & & & & & % @ . @ 2 g h h x x x x x x x x x x x x v x v c x x v v v v x v v v v v v x x v x t x x 2 + + 2 0 v n x c c c c x x v v v v x x x x x x x x x x x x h h h x x x x x h h h h z z g @ . . X X % % % % % % % % % % % % % % % % : o X @ . & a.^.^.b.b.v.k.p.t.r.M M B B S r.r.y.y.n.z.V 9 . . & B | r.r.t.| | M v V V V M E W W i.r.B M r.M 4 + 3 t x x d 6 d d 3 m 9 O O 9 m 3 h h h h h h h h t t x x x x x x x x x x x x x x x x x v x c c x x x N b v 9 # + 2 2 9 9 3 3 3 3 0 0 0 0 3 3 3 3 0 0 0 0 ",
"6 6 6 6 3 3 6 3 3 3 0 0 0 0 0 0 9 0 9 9 # # # # m n v c c c c c v v v v v x x v x x x x x d d d d x d x x x d x x x d d d d d h =   . @ a x x d x x x 2 + n b.+X}.}.}.}.].].].]..XXX X X.X.X.X.X^. X X^.p.4 > z.+X%X&X&X&X&X&X&X+X%X&X&X&X&X&XVX&X@X&X&X+X=Xn.> 3 a x x x a h x h h h h h h h h x x x h h h j h 2 O O 4 h x a x d 6 x x x x x x t t t t t t t t t t v v v v c c c c c c c c c c b v b b 1 > 1 y b b y y y y L Q y y y y y y y y y y y y y y y y y y y y c c c y b v v v v v x v # # # # @ @ @ @ @ @ @ @ @ @ X X @ @ % @ $ $ @ @ % @ @ @ $ $ @ % $ $ $ $ % % @ @ O m b. X}.}.|.|.|.|.}.}. X X X|..X+X+X+X+X.X.X XS O + z.XX+X&X@X&XVXVX$X$X$X$X$X&X&X&X&X&X&X&X&X=X=Xz.2 O * & 2 & & & & & & & & & & 2 2 2 2 2 2 2 & & & & & & 2 & & & & & & 2 & & & % @ . O 2 j h h x x x x t t x x v v x x v x v c c x v v v v x x v v v v v v x n n x x n 9 + + 2 0 n x x x v c x v x v v v v x x x x x x x x 0 t 0 0 h h h h x x x x h h h g g k g @ . . $ X % % % % % % % $ % % $ $ % % % $ $ $ $ $ O m {..X}.}.}.).}.}.].]..X.X.X.X.X.X.X.X[..XXX^.a.+ O z.=X%X$X$X$X$X$X%X%X%X*X*X&X$XVXAXVX@X&X&X%X=Xc.+ 3 0 x x x 6 d d 3 j 3 O O 3 v 3 h h h h h h h h 0 0 0 0 t t t t t t x x x x x x x x x x x x x x x v v n v 9 # + < < 2 2 2 2 3 3 3 3 3 3 3 3 3 3 0 0 0 0 ",
"6 6 6 6 6 3 3 3 3 3 3 3 3 3 3 3 2 9 9 2 2 + + + v v v x c c c c v t v v x x x x x x x x d d d d d d d d d d d d d x d x d d 6 h =   . * 3 d d x x h 2 < 3 u.v.r.r.r.i.h.l.l.D.v.v.b.b.b.b.P.P.P.n.b.b.^.b.3 , |.|.|.oXoXoX#X#X#XOX#XOXOX@X@XOXOXoXI.#XOXY.$X|.> 3 3 x x t 0 t x t t t t t t x d d x x h h g g g 2 O O 4 h h a a x 6 6 t d x x x t t t t t t t t t t t t t t c c c c c c c c c c b u v v 6 > , c c c c c Q Q Q Q c c c c c c c c y y c c b b b c y y y y y y c v t t v v v x x x # @ # # # # @ @ @ @ @ @ @ @ @ @ @ @ @ @ $ @ @ @ @ @ @ @ $ $ $ $ $ $ $ $ $ $ $ @ # D n.a.M r.p.i.h.h.k.n.v.b.b.Y.R.K.K.D.v.b.b.b.b.O 3 }..XoX@X].].Q.oXoXOXOX@X@X#X+X+X#X+X+XoX+X+X&X[.3 O + 2 * & & & & 2 2 2 2 2 2 4 4 4 2 4 2 2 2 2 2 4 4 4 4 2 2 2 2 4 4 4 & & & % @ . O 2 j h h x x x d d 6 x x x x x x x x x x x x x x x x x x x x x x x x t b n t x n 0 + + < 0 n v x x c x x x x x x x x x c x x x x x x x x h h h h h x x d d x x h h g s k g @ . . % $ $ $ $ $ $ $ $ $ $ $ $ $ $ $ $ $ . $ & * 4 S n.u.r.r.i.h.k.l.x.v.v.b.Y.Y.[.[.Y.Y.n.b.b.[.b.2 2  X).(._._.oX_.oXoX#X+X+XOXOXBXBXBX#XU.OXOXY.&X}.+ 3 0 h h h h h x g h 2 + + 3 x h x h x x d d d d 0 0 0 0 t t t 6 t t 0 t x x x x t t x x y c c c v v v v x 9 # + 2 < < 2 3 3 3 3 3 3 3 3 3 3 3 3 3 3 3 3 ",
"3 3 6 6 3 3 3 3 3 3 3 3 2 3 3 3 2 9 9 9 2 # + + x h x x c c c c x t v v x x x x x x x x d d d x x x d d x x x x 3 6 x x x x d h &   . * 3 a 6 x d v x + + M c.r.p.p.h.s.s.d.d.s.t.i.i.p.k.k.s.i.t.r.r.n.n.> > |.R.K.L.L.F.U.U.U.U.L.F.L.L.L.L.M.Q.N.U.L.W _.oX> 3 3 t x t t x x t t t t t t x d a x x h h g g g 2 O O 2 h h a a x t t t x x x x t x t t t t t t t t t t t t t c c c c c c c c c b t t v 0 > , t c c c c c c c c c c c c c c c c c c c c b b b c y y y y y c v v t t v v x x x h # @ # # # @ @ @ @ % @ @ @ @ @ @ @ @ @ @ $ @ @ @ @ @ @ @ $ $ $ $ $ $ $ $ $ $ $ @ . m n.y.r.k.k. .s.h.h.k.i.i.h.h.h.h.d.e.s.h.k.k.b.O < |.R.j.U.m.E.E.E.E.L.L.L.L.K.R.R.R.R.K.D.D.h.+XY.3 + 2 2 + 2 & & & 2 2 2 2 4 2 4 2 2 2 4 4 2 2 2 2 4 4 4 4 2 2 2 2 4 4 4 & & % % O . O 2 j h x x x d d d 6 x x x x x x x x x x x x x x x x x x x x x x v x t n N 0 x n 0 + O 2 0 v x t x x x x x x x x x x x x x x x x x x x x x h h h h x d d d d d x a h s l z @ . . % % $ $ $ $ $ $ $ $ $ $ $ $ $ $ $ $ * * * O + S c.E u.u.s.t.s.s.t.s.t.i.h.j.j.j.h.i.i.i.r.n.n.+ +  XR.K.L.C.L.L.U.I.K.K.K.K.K.L.F.M.Q.N.U.K.W |.|.+ 3 3 0 h h g h j x h 2 + + 3 h x x x h h h h d d 0 0 0 0 t t 6 6 t t t t x x x x t t x x x x c x v x x x h 0 # + < < < < 3 3 3 0 3 3 3 3 3 3 3 3 3 3 1 3 ",
"3 3 3 3 3 3 3 3 3 3 3 3 3 3 3 0 9 9 9 9 # # + O j j v x t t c c x x x x x x x x t t x x x x x x h h h h h h h h h h h h h h h g & O . O 2 h h 3 3 v 3 3 + M u.u.u.s.s.s.s.s.h.h.h.h.i.i.s.s.s.s.k.w.i.k.t., + v.K.L.F.F.F.F.F.F.F.F.F.F.H.H.H.H.F.H.F.U.D.L.K., , 3 x x 6 d x d d d h h h h h h x x h h g h h h & O O & g h g a x x x x x x x x x x x x x x x x x x x h x x x x x v v v v v x x v t v v 2 O + 0 v v n v v c c c y y y y y y x x x y y y v c c v t t t t t x x x v x x t t 0 t h * @ @ @ @ @ @ @ @ @ @ @ @ @ @ @ $ $ $ $ $ $ $ $ $ $ $ $ $ $ $ $ $ $ $ $ @ @ @ O O m u.y.f.s.+.s.h.h.h.h.s.s.h.h.h.h.h.h.h.h.s.h.t., + R.U.D.F.H.H.H.H.H.H.F.F.L.K.K.K.V.C.C.L.L.K.K.R.> + * & & & & & & 2 & & & 2 2 2 & 4 & 4 4 4 2 4 2 2 2 2 2 4 2 4 2 2 2 2 & & & # O O * 3 h h x x x d d d x x t x x x x x x x x x x x x x x x x x x f x x x x x x t x x 3 + O # g j h h h x x x x x x h h x x t t t t t t x t t t 0 0 0 0 x d d d d d d d h h j 9 @ . . @ @ @ $ $ $ $ $ $ $ $ $ $ $ $ $ $ $ $ O * O + n p.r.u.s.s.s.s.s.s.s.f.i.s.s.s.s.s.s.k.r.t.p.a.4 O b.K.F.F.F.F.F.F.F.F.L.F.L.F.F.H.F.L.L.L.K.x.v.v.> > 3 0 0 0 h x h 3 x 2 + + 3 v x h h h h h h h h h h x x d d d d d x x x x h x h x h x x x x x x v x h h j 0 # O < 2 3 3 2 2 2 3 3 3 3 3 3 3 3 3 3 0 3 0 ",
"3 2 3 2 3 2 3 2 3 3 3 2 3 2 3 3 2 9 9 2 # # O O 0 j x x t t c c x x x x x x x x t t t t x x t 0 h h h h h h h h h h h h h h h g & O O O 2 j h 3 3 v 3 3 + M u.u.s.s.s.s.s.s.h.i.h.h.s.s.s.s.s.s.j.w.h.k.t., > v.K.L.F.H.F.F.L.L.F.H.H.H.H.H.H.H.F.H.F.U.D.K.K., , 3 x x 6 x x d d d h x h h x h x x h h h h h h & O O & g h h g h x x x x x x x x x x x x x x x x x x x h h x x x v v v v v v v x 0 v v < O + 0 v v v v v v v c y y t t c c x x t t y y v v c v v x x x x x x x x t x t t t x h @ @ @ @ @ $ @ @ @ @ @ @ @ @ @ @ $ $ $ $ $ $ $ $ $ $ $ $ $ $ $ $ $ $ $ $ @ @ @ O O m u.r.s.+.+.d.h.h.h.h.h.h.h.h.h.h.h.h.h.h.h.s.t., + K.U.D.D.H.H.H.H.H.H.F.F.L.V.V.V.C.C.C.C.C.M.V.K.> + # % & & & & & 2 & & 2 2 2 & & & & 2 2 4 2 2 2 2 2 2 2 2 2 2 2 2 2 2 & # & & O O * 3 h h x x d d d d x x 0 x x x x x c f x x x x x h x x x f x f x x x x x x d x x 3 + O # g j j h h x x x x x x x h x x t t t t t x x t t t t 0 0 t x x d d d d d d x x h 3 O . . @ @ @ $ $ $ $ $ $ $ $ $ $ $ $ $ $ $ @ @ * O + n u. ...+.s.s.s.s.s.s.s.s.s.s.s.s.s.s.k.t.t.p.r.< + v.L.F.F.F.F.F.H.H.H.F.F.F.F.F.F.F.L.L.L.I.V.v.v.> > 3 t 0 0 x x 0 3 d 4 + + 3 x h h h h h h h h h h h h x d d d x d x x x x x x h x h x x x x x x v x h j j g # O < 2 3 3 2 2 2 2 3 2 3 3 3 3 3 2 2 2 2 3 ",
"2 2 2 2 2 9 2 9 2 2 2 2 2 2 2 9 2 < 2 2 # # + O 0 0 x x t 6 f c t t t t t t t t t t t t t t t t h h h h h h h h h h h h h h h h & @ O O 2 h g g 3 v 3 3 + M u.u.s.s.h.s.s.s.s.s.s.s.s.s.h.s.h.h.h.w.i.p.y.4 + x.K.L.L.F.F.L.L.L.L.F.F.F.H.H.H.F.F.L.F.U.V.K.K., > 3 x x 3 x x x d a h h x x h d d d d d h h h g & O + 2 h h h h x x x x x x x x x x x x x x x x x x x x x x v v v v v v c c c v v x x x 4 + + 9 v x v v v c c c t t v v v v v v v v t t t v t t x x x x x x x x t t t t t x x h @ @ X @ @ % @ @ @ @ @ @ @ @ @ @ $ $ $ $ $ $ $ $ $ $ $ $ $ $ $ $ $ $ X X @ @ @ O O m u.u.f.s.+.s.s.s.s.s.s.s.s.s.s.s.s.s.s.s.s.s.t.3 + v.R.D.F.L.F.H.F.F.F.L.L.L.V.V.C.C.C.C.C.C.M.V.K.> + # % & & & & & & & & & & & & & & & & & 2 & & & & & & & & & & & & & & & & & & O O * g j h h x d x d d x t 0 0 t t t t t 6 6 t t t t 0 t x x d x x x x x x x x x x v 3 4 + # g v v x x x d d x x x x x x x t t t t t x x t t t t 0 0 t x h d d d d d d x h j 2 O . . @ @ @ $ $ $ $ $ $ $ $ $ $ $ $ $ $ $ @ @ * O + v u. ...+.+.+.s.s.s.s.s.s.s.s.s.s.s.s.f. .p.p.y.4 + n.L.F.F.F.F.F.F.F.F.F.F.F.F.F.F.F.L.L.L.K.m.K.v.> > 3 0 0 0 h h 9 3 3 4 O O 2 h h h h h h h h h h h h h h d x x x x x x x x h x x x x x x x x x x x x x v j 9 + O + 2 2 2 2 2 2 3 2 3 3 3 3 3 3 2 2 2 2 2 ",
"< 2 < 2 < 2 < 2 < 2 < 2 < 2 < < < < < 2 < + + + 0 0 x x t 6 f c t t t t t t t t t t t t t t t x x x d x d d x x x x x d d x x h & @ . @ & h j g 9 v 3 3 + M u.u.s.s.h.s.h.s.h.s.h.s.h.s.h.s.h.h.h.t.p.p.y.3 + k.K.K.L.L.L.L.L.L.L.L.L.F.F.F.F.F.F.L.K.K.V.K.K., > 3 x x 3 x x x x x h h h h h d d d d d x h h h 4 + + 4 h x x x x x x x x x x x x x x x x x x x x x x x t t t t c c c c c c c c c x v t 4 + + 3 x x v v c c c c v v v v v v v v v v v t t t t t x t t t x x x x 6 t t t x x x h @ X . X @ % @ @ $ @ @ @ @ @ @ % $ $ $ $ $ $ $ $ $ $ $ $ $ $ $ $ $ $ X X @ @ @ O O M u.u.f.s.+.s.s.s.s.s.s.s.s.s.s.s.s.s.s.s.s.s.r.3 + v.K.K.L.L.F.F.F.L.L.L.L.L.C.C.C.C.C.A.B.M.M.V.K.> + * % & & & & & & & & & & & & & & & & & & & & & & & & & & & & & & & & & & & & O . # g h j h x x d d x x 0 0 0 t t t t t 6 t t t t t 0 t x x x x x x x x d x x x v v 3 4 + < h v x x x x d d d x d x x x x t t t t x x x t t t t 0 0 t x x h x a d d x x h g & O . . @ @ @ $ $ $ $ $ $ $ $ $ $ $ $ $ $ $ @ @ $ O + n p.r.s.+.+.+.s.s.s.s.s.s.s.s.s.s.s.s.h.t.k.p.t.3 + k.K.L.L.L.L.L.L.L.L.L.L.L.L.L.L.L.F.E.F.U.m.K.v.> > 3 0 0 0 h h 9 9 3 4 O O < g h h h h h h h h h h h h h d d x x x x x x h h x x x x x x x d d d x x x x x 3 + O + # 2 2 2 2 2 2 2 2 2 2 2 2 2 2 2 < < 2 ",
"2 2 2 2 2 2 2 2 2 2 2 2 2 2 2 2 4 4 4 < < + + + 3 0 x x d 6 f c t x x x x x x x x x x x x x x x d d d d d d d d d d d d d d d h & . . . & g j j 9 v 3 3 + M a.u.s.s.s.s.s.s.s.s.s.s.s.s.s.s.s.s.h.t.f.u.y.3 + u.K.K.L.C.C.C.V.V.C.C.L.C.F.M.L.C.C.L.V.I.x.K.x.> > 3 v x 3 h x h x x h h h h h d d d d d x h h h 4 + + 4 h x x x x x x x x x x x x x x x x x x x x x x x x x x c c c f f f f f c c x v t < + > 3 x x x x c c f c x x x x x v x x v x x x x x x x x x c x f x d x 6 6 d x x x 6 h @ .   . @ @ @ X @ @ @ @ @ @ @ % % % $ % $ % $ $ $ % $ % $ % $ % $ o X X X @ @ O O M u.u.s.s.+.s.s.u.s.u.s.u.s.u.s.u.s.u.s.u.s.u.r.3 + k.v.K.L.L.L.L.L.C.C.C.V.V.L.L.C.B.B.B.B.M.M.L.R.> + * & & & & & & & & & & & & & & & & & & & & & & & & & & & & & & & & & & % = % O . @ g h h j h h x x d x h h h x x x x x x x x x x x h h x x x x x x x h h x h h j v 3 4 + 4 h v x x x c d d f d d x x x x x x x h h h 0 0 0 0 0 t 0 0 0 h h h h x x x h g g & . . X X X @ % $ % $ % $ $ $ % $ % $ % $ $ @ @ # O + b p.r.s.s.s.s.s.s.s.s.s.s.+.+.+.s.d.s.h. .s.i.r.3 + k.K.C.L.C.L.C.L.C.L.C.L.C.L.C.L.L.M.H.F.U.D.K.v.> > 3 x 0 9 h h g g 9 # O O # g j g h h h h h h h h h h h h x x h x x x x x x x x x x x x d d d d d x x x h 2 + O + # 2 2 2 # 2 2 2 2 2 2 2 2 2 2 2 2 2 2 ",
"2 2 2 2 2 2 2 2 2 2 2 2 2 2 2 2 < 4 4 < < + + O 2 3 x x t 6 6 d t 0 0 0 0 0 0 0 x h x h h h h x d d d d d d d d d d d d d d d x @     . % g z j 9 v 9 3 + M a.u.s.s.s.s.s.s.s.s.s.s.s.s.s.s.s.s.h.u.f.u.y.0 + y.K.K.C.C.C.C.C.V.C.C.L.L.M.C.C.C.C.L.V.I.x.K.x.> > 3 v h 0 h x h h x x h h h h d d d d d x h h h + O O 4 h x x x x h x x x x x h x h x h h h h h x d d x d d d d f c f f c f f c x x x 3 > + > 4 x x x x x x f f x x x x x x x v x x x x x x x x x x t x x d d d 6 6 x x x 6 6 3 @   . . @ @ @ X @ @ @ @ @ @ @ @ @ % % % % % % % % % % % % % % % X o X X X @ @ O O M u.u.h.s.! s.s.s.s.s.s.s.s.s.s.s.s.s.s.s.s.u.u.0 + k.l.K.K.L.L.L.C.C.C.C.V.V.L.F.H.B.B.B.B.B.M.L.R.> > * & & & & & & & & & & & & & & & & & & & & & & & & & & & & & & & & & & @ % @ . . @ = z h h j h h x x x h 0 0 0 t t t t t t t 0 0 0 0 0 x x h h h h h h h h h g h j 3 + O + 3 v v x x x d d d d d d x x x h x h h h t 0 0 0 0 0 t 0 0 h h h h h h h h h g g # . . . X X @ % % % % % % % % % % % $ $ $ $ @ $ % O + b k.r.s.s.s.s.s.s.d.s.s.s.+.+.d.@.d.d.d.s.h.u.u.6 + u.K.C.C.C.C.C.C.C.C.C.C.C.C.C.C.C.F.H.F.E.D.K.R.> > 3 h 0 9 h h g g = @ O O # 9 j g h h h h h h h h h x h x h h h h h h x x x x x d x x x d d d d d x x x 3 2 + O + # & 2 # # # & 2 2 2 2 2 2 & 2 2 2 2 2 ",
"# # # & & & & # & & # # # # # # < 2 < # # + O O 2 9 h x x x d x h h h h h h h h h h h h h h h h x d d d d d d d d d d d d d d h @       @ = z z 9 j 9 3 + M a.u.s.d.d.d.s.d.s.s.s.s.s.s.d.d.d.s.h.s.f.y.y.0 +  .K.C.C.C.C.C.C.C.C.C.C.C.M.C.M.C.M.L.V.I.V.K.V.> > 3 j h 9 h h h h h h h h h h h d d x x h g g g + O O + g j h h h h h h h h h h h h h h h h h h x x x x x x x x d d d d f f f c x v h 2 + + + + h h h x x x d d x x t t x x x x x x x t x x x t x x x x x x x x x x x x x a 3 2 O   . . @ @ @ . @ @ @ @ @ @ @ @ @ @ @ @ @ % @ @ @ @ @ @ @ @ @ $ X o X X X @ @ O O M u.u.h.s.+.d.s.s.s.s.s.s.s.s.s.s.s.s.s.s.s.s.u.t + f.l.K.K.L.F.C.C.C.C.C.V.C.F.H.H.B.B.B.B.B.M.K.R.> > + & & & & & & & & & & & & & & & & & & & & & & & & & & & & & & & & & & @ % @ . . @ = g h h h j h h h h h h h h h h h h h h h h h h h h h h h h h h h g h g g 9 g g 2 O O + 3 h h h x x x x x x h h h h h h h h h h h h h h h h h h h h g g g g h g h g g 9 # . . X X . @ @ @ @ @ % @ @ @ @ @ @ @ @ @ @ @ $ % O O m k.r.s.s.s.s.d.d.d.d.s.+.+.+.d.d.d.d.s.+.h.s.u.6 + u.K.C.C.C.C.C.C.C.C.C.C.C.C.C.C.C.F.H.F.U.D.K.R., > 3 x 0 g g g g g & @ . . O 2 g g h h h h h d d x x h h h h h g h h h h h h x x h h x x x d d x a x v h 3 # O O + # # # # # # # # # # & & & & & & & & # ",
"# # # # & & & # & & # # # # # & # # # # # O O . & 9 g h h h h h h h h h h h h h h h h h h h h h h h x h x h x x d h d h x h x h .     . @ = g z 9 j 9 3 + M u.u.s.s.s.s.s.s.s.s.s.s.s.s.s.s.s.s.d.h.k.u.y.t >  .K.C.C.M.M.C.C.C.C.C.C.B.B.B.M.M.M.L.C.L.m.K.V., > 3 j h 9 g h h h h h h h h h h h h h h g g g g O . . * g g g g h h h h h h h h h h g g g g g g h h x h h h x x x x x x x x x x h g 9 # O O O O g g g h h x x x x t t t t t x x x x t t x x x x h h h h h h h h h h v v h 9 2 2 O . . . @ @ @ X @ @ @ @ @ @ @ @ @ @ @ @ @ @ @ @ @ @ @ @ @ @ @ @ X X X X X @ @ O O M u.u.s.s.+.d.s.s.s.s.s.s.s.s.s.s.s.s.s.s.s.s.u.t > f.g.K.L.L.F.M.M.C.C.C.C.C.H.H.H.H.H.B.B.F.F.K.v.> > * & & * & & & & & & & & & & & & & & & & & & & & & & & & & & & & & & & @ @ @ . . @ & g h h h h g h h h h h h h h h h h h h h h h h h h h h h h h g g g g g g 9 g g & O . O 2 g g g h x h h h h h g g g h h h h h h h h h h h h h h h g g g g g g g g h g 9 @ . . X X   @ @ @ @ @ @ @ @ @ @ @ @ @ @ @ @ X $ % O O m p.u.s.s.s.d.d.d.d.s.s.+.+.+.s.s.d.s.s.+.f.u.u.t +  .L.C.C.C.C.C.C.C.C.C.C.C.C.C.C.F.F.H.F.U.D.K.R., > 3 x 0 g h g g 9 @ . . . @ # g g g h h x x d d x x h h h g g g g g h h h h x h g g h h h h h h 0 h j g 9 # O . + # # # # # # # & & # & & & & & & & & # ",
"# # & & & & & & & & & & # # # # # # # O @ . . . . @ = g j j g g h h h h g g 9 9 g g h h h h h h g g g g g g h g g h j j h 9 2 # .       . @ = g g g h 3 + 0 r.r.s.s.s.s.s.s.s.s.s.s.s.s.s.s.s.s.! d.W u.u.> + f.I.L.H.B.M.M.M.L.L.E.E.E.E.H.E.E.!.M.M.m.m.I.l.6 + 2 9 g g g g 9 h h h h h h h h j h h j g & @ . . . . @ @ = z l g h h h g g h g h g g g g g g j j g g g g g j j h h h h x h h h j g & O O . . . @ & 9 j j j j h h h x h h h x x x h 0 9 0 0 h h g g g g g g g g g g g g 9 & + O . . . . . . @ @ @ @ @ @ @ @ @ @ % % @ @ . @ @ @ @ @ % % @ @ @ . @ @ X @ @ @ @ O O x y.u.t.t.s.s.d.s.s.s.s.s.s.s.d.d.h.s.s.s.s.s.u.1 , W R.K.m.E.M.B.B.M.M.M.C.C.M.F.F.M.M.H.F.L.m.U.v.x + * & % * * * * & & & & * * & & & & * & & & & & & & & & & & & & & & & & @ @ . . . O O # g g g h h g 3 3 g h h g 3 3 g j 9 g g g 9 9 h v h h h h g g g g 9 g g g 9 2 + O . . @ @ & 9 g g g g g g g g g g 9 9 h h h g g 9 h h j j h h g 9 g g g g g g g g & * O . . . .   @ @ @ @ @ @ @ @ . @ @ @ @ @ @ @ $ % % O * h r.u.u.s.s.s.d.d.d.h.s.s.s.s.s.s.s.s.W s.W u.u.> + f.L.C.M.M.M.M.M.C.E.E.E.L.E.L.E.E.!.F.D.D.K.T.k.3 > 3 j j h h g 2 @ @ . . . @ # # 9 g h h h h a 3 x 3 3 g j j g 9 g g g g h h x h g g g g g g g g j j g 9 # @ . . O + + # # & & & # # # # # # # # & & & & ",
"& # # # # # # # & & 2 # & # # # # @ @ @ .         . @ & = = = 2 9 9 g g g g g g h g h h h g h g g g g g g g g g g g g g 9 2 # O .   . . @ @ & 9 g 9 h 2 > t y.p.t.t.t.s.s.s.s.s.u.s.s.s.u.s.u.s.j.l.s.s.k.> +  .K.L.E.E.E.E.E.E.M.M.M.M.M.M.M.M.M.M.L.L.I.I.l.6 < 9 g j g g g g g 9 9 9 3 3 3 3 2 & = = & @ X     .   . @ % = 9 h h h h h h h g g g 9 9 9 9 2 & = = = 9 9 9 9 g g g g g g g g g 9 & @ @ .   . . @ @ & 9 9 g g 9 3 3 3 3 9 9 9 0 0 h h x h h h g g g g 9 9 9 9 & & & = = & # O O . . O O @ @ O O O @ @ @ @ @ O O @ @ @ @ @ @ @ @ % @ @ @ @ @ @ @ $ $ $ @ @ @ @ + O 0 r.p.i.f.k.g.s.s.s.s.s.s.s.s.! ! e.s.d.h.d.h.r.> > E R.U.L.!.F.M.H.M.M.M.C.C.L.L.L.L.L.L.L.V.T.Y.k.3 O * = = * * * * & & & & $ $ @ @ @ @ $ * & # # @ @ @ # & & & # # # # # # O @ O . . O @ O 2 2 g h j j j j h h j g g g j l g g j j g 9 h h h h h h h h h g g g g g 9 # O O .   . @ @ # & 2 2 2 2 9 9 = = = & 2 2 2 2 2 2 # 2 2 2 2 3 9 g g h h j j j j g g * * O O . . . . @ @ O . @ @ @ @ @ @ @ @ @ @ O . . X @ . O h r.p.r.u.t.s.s.s.h.s. . . . .+.+.+. .f.k.r.u.p.> O r.K.L.L.L.L.E.E.E.M.M.M.M.M.M.M.M.F.F.U.U.U.Y.k.6 > 2 9 3 2 2 2 & @ . . . . O O + g h j v v x x x x h g g g j j j g g g g h h h 9 g g g g g g 9 9 & # # @ @ .   . @ O O + + # # # # # # # # # # # @ # # # ",
"O O O O O O O O + O O O O O O O O O . . . . .       . . . @ @ O O + * + # # & * # & 2 & 2 & & & + + + + + + + + # # + + O O O . . . . . . . O O # + < + O 4 B r.t.t.t.u.i.i.s.s.p.u.i.s.k.f.k.h.s.h.w.t.E > + c K.L.L.E.E.E.L.L.L.E.L.L.H.F.F.M.L.M.L.V.m.x. .> + # # & # # # # + + + + + + + + O O O O . . .           . . @ O < < < < < < < < # + O O # O O . @ @ @ @ @ @ @ # O O * * * # & & O . . . . . .   . . . @ O O + + + + + + + < < 2 + < 2 3 2 < < # * @ O @ O . . . . O . O . . . . . . . . . O O O O O . . . . O O O . . O @ @ O . @ O . . . . O O O O O O O O . O O 2 B r.t.i.i.s.h.h.j.h.j.g.j.g.j.h.h.h.d.s.s.t.N + + c x.U.L.Q.L.L.F.L.L.L.L.L.K.L.K.L.L.V.K.K.l.v.r.4 . O * $ $ $ $ $ @ @ $ $ O O O . . O O O O O O O O O O O O O O O O O O O . . . . . . O O O O * & 2 3 3 3 2 2 2 2 & & 2 9 & & 2 2 & # + * 4 < < < 4 < < < 2 2 2 # + O O . .       . . @ O O O O O @ @ . @ O O O O O O O O O O O O O * & 2 2 2 2 2 2 2 4 + O O O O . . . . O . . . O . . . O O O . . . O . . . . . O 3 M y.| r.u.u.i.i.s.f.u.s.f.f.f.f.f.f.u.p.| r.B + O x K.M.L.L.E.E.L.L.L.L.L.L.L.L.L.L.L.L.T.R.x.k.r.3 O + + O O O O O . . . . . O O O # < < 2 2 4 < < < 2 2 2 # # & = # # # # 2 < 4 + O @ @ @ @ @ @ O O O . . .     . . . O O O O O O O O O O O O O O O O @ @ ",
"O O O O O O O O O O O O O O O O O . . . . .       . . . . . O O . O O O O O O O O O O O O O O O O . . . . O O O O O O O O O O O O O O O O . O O + O + + O + v M M E E E E | r.r.t.r.t.r.t.t.t.t.E w.N N x + O 6 k.g.m.D.F.M.m.m.L.L.K.D.D.D.m.m.D.j.h.s.W  .E 4 O . O . . . O O O O O O O + + O O O O . . . . .     . . . . . O + + + + + + + O O O . . . . O . . . . . . . . . . . . . O O O O . . O . @ . . . @ @ O O O O O O O O O O O O O O O O + + O O O + O @ O O O . . . O O O O O O O O O O O O O O O O O O O O O O O O O O . . O O O . O . O O O O O * O O O O O O O O . 4 h M M N N E t.t.t.t.t.t.s.i.h.i.t.w.w.E E E x + O 3 i.x.D.D.D.D.D.D.D.V.K.v.l.l.l.l.l.g.f.f.E r.N 2 O O $ . O O O O O O O O O O . . . . . . . O O O O O O O O O O O O O O O O O O O O O O O O O O + + + O O O + O O O O . . O O O O O O O + + + + + + + + + O O O O O O O O .   . . . . O O O O O O O O . . O O O O O O O O O O O O O O O O O O O + + + + O + + O O O @ O O O O O O O O O . O . . . . . O . . $ . . O 4 x B b M E E | | | r.u.y.u.u.u.u.u.t.E B N m v O . 9 k.l.m.D.L.K.D.m.K.K.D.D.D.D.D.D.D.j.k.s.E | N 4 O O O O O O O O O O + + + + + + + + + + + + + + > 4 4 + O . . @ . . . O O + + + O . . . . . . . O O O . . . X . O O O O O O O O + O + O + O + O O . . O ",
"O O + + 4 2 s s 2 2 2 2 2 2 2 2 + * * @ @ @ % % % % @ @ @ * * * & & & & & * O O O O O O O O O O + + + + + + + + # # # # # & 2 2 & 2 2 2 2 2 # < 3 < 2 < + + h v x x v v x n m n N M N N N M N N M N n m h O O 2 r.t.s.h.j.h.s.t.s.t.t.w.w.w.W W t.E E E M B V 9 O . . . . O O + 2 2 2 2 2 2 4 < 4 + * * O @ @ @ @ @ @ @ @ @ # # 2 2 2 2 2 2 2 2 9 # O . . . @ @ . . . O @ @ @ @ * * * & & & & & 2 2 g g g g s = g g s & & * 4 4 + + + + O O O O O O O O O O + 2 9 s g g s g g s g s s 2 2 2 2 2 2 2 3 3 3 9 9 9 9 9 9 9 9 9 9 9 2 # O O O O O O O O + 2 9 g g g 3 2 3 2 2 & # # O + 9 v n x v x x v x x c x N n x x x x c n N m h @ O 3 r.k.k.h.s.s.s.s.i.u.i.i.r.t. . .| | E | M B n 2 * $ $ . O @ O O O O O O O O . . . . . . O * & 9 g g 3 2 3 3 3 2 3 2 3 2 2 3 9 g g 9 3 3 2 2 2 2 4 4 4 + 4 4 & & & @ . . O . . . O + * 2 2 2 2 2 2 2 2 2 + + + O + + + # @ @ @ @ + # + + 2 2 2 2 2 2 & & O O O O . . O O O O O @ * * @ O + * + + 4 4 4 4 2 2 3 3 g 9 9 2 & & & & + # * * * * O O O O O O $ $ . . O * g n t t x v n n n n n n n n n n n n M m m l h O . 2 r.t.s.h.k.k.h.s.t.t.t.t.t.t.t.w.w.c E E M B m 2 + 2 9 9 s g g 3 g g h h h g g 9 3 3 3 3 0 0 3 3 3 3 9 2 O . . . . . . O O + 2 2 9 9 9 2 2 2 2 2 < # # # & & & & 2 2 2 2 2 3 3 9 3 9 3 9 3 9 3 9 @ @ . . ",
"O + + 2 a g g g h h h g h g g h a a s s s s g g z z g g s a a a h h h z g g 2 2 O O O O O @ & & g 9 9 9 9 9 9 9 j h h h g g g g g a h h h h h h j 3 h h # + 0 h j j j j m j m v j j j j j h j j n h g g % . . O m N N E E E N N M M N N N N N N M n M S m j 0 O . . . . . @ # = g g h h h h h h x h a a g 3 3 g 9 9 g g g g g g h x h h h g g g j g # @ . . . @ . O * & g g g g g g g h h h k k j j j h k h g g g g a a a a a h 3 2 2 2 2 + + + O O O O O + 2 g h h h j n k n k n n n h h h h h h g h g h h h h h h h h h h h h h 9 & O O O O O + & 3 g j h h g x x x h g g 9 9 # # 2 h v x x m v j j j j j j v j h j h h g h g %   . @ h m M N M M M M M M M M M M M b b v b v B m g * O $ $ $ $ % @ @ @ @ $ $ @ @ O . . . . O * & g h l j h g h h h h h h h h h h j j j j h h g h h h h h h h g g g g g & @ . @ . . . O 2 s g h x x x x h h h h h 9 9 3 3 3 9 9 9 9 9 9 g h h h h h h h g g g 2 & * O O O O O @ & & g z g g 2 2 3 a g h h h x a h h h h h g g g g g g g g g g h g g 2 & * O O . . . O O * 3 v h t x x v v j j h j h h h j j v j g g z & . . @ m N N M E M M N M M N N N N N N N x N B M m g O & g j j k l n k x v v v v x h h x x v v v v x x h h h g & @ .   . . @ O # 2 h x v j j v x x x x h h g g g 9 g 9 g g h g h h h h h h h h h h h g & % . . ",
"O + 4 a h h a a h h h h h h h h x x d x h h h h h h j j h x x h h h h h h g g g @ O O O O * & 3 h h x h h h h h v v x x h a 3 3 a a a h h h x h h 2 h j # O # < g g g g g g g g s 3 s 3 s 3 s s 2 * & % X     . & 2 3 3 3 3 3 2 h h h h h h h h h 3 g j = @ @   . . . . . @ & g g g h h h h h h x x x x x h h j g h j h h x x x x x h h h g g g g g 9 @ .     . * * 2 g h k n n h h x x x x x x x h a h a g g g a a a a d d d x h h h h g 9 2 & O O . O # 2 g g a a a a a a a a d d d x d a d a h 9 0 9 0 9 0 0 0 9 0 9 0 9 0 g j h g & + O O * 2 2 g g j g g a a d h h 9 9 9 9 9 # # 3 9 3 3 h g g z g z g z g z g g 9 & & & &       . $ & & + a a a 3 9 9 9 9 9 9 0 0 8 8 0 0 0 2 + O . O $ X $ @ @ @ @ $ @ $ @ @ @ O O O O O 2 3 g g h h j g g g g g g g h g g g g g g g g g g h h h h h x j h h h h z g % . . . . @ & s a a x x x x x x x h v v j j j h g g h h h h x x x x 6 6 d d d a 6 h g g & @ O O O O 2 g g k k k k h g g h h h h a a x h h g g g g g j j j h j j j j j j j h g 2 + O . . . $ * O # 9 9 9 9 9 9 9 9 9 9 9 9 9 9 g g g 2 * & & X     . 2 2 2 2 2 2 2 2 h h h g g g g 9 x 3 0 h 2 # # O 2 h k h g h k h h x h 3 3 3 3 3 3 3 h h h g 9 0 h h g g 9 & .     . @ & 9 9 0 3 h x 3 d 6 6 6 6 x x x x h h h h 9 9 h g h h h h h h h g h g h g z & X . ",
"O + 3 j n n h a n x n h h h h h x x d d a a a a a a h h a a a 3 g g h j h g g g & * O O O & g j h x x x x d x x a d x x x x x x x x x a h h x v h 2 h v < + + > + + + + + O O O O O + + + + + + + O * & @ @ & O O + + + + + + + O O O O O O + + O . . O . . @ X . . . . @ # g l g h h h h h h h 3 d d d x h h a a a h h a a a a h h h h h g g g 9 j j 9 @ . . @ 2 2 a h h h h a h h h h d d a d n x h a a h h h n v n x n c d x h h j j j g a 3 O O O * g l v h x x x x x x d d d d d x n x d d x x x x x x 0 t t 0 0 0 0 0 0 h h j j 3 * O O + j j j j h h j h a a a a 0 g g g 9 + + + > + + > O O O O O O O O O O O + + + + # % = = @ @ * + O + + + O O O . . O O O O O O O O O O O O @ % % $ @ @ @ @ O O O O $ @ @ O O O O O j j h h h h j v j j h h h h h h h h a a a g h h h h h a a a a a h h h j k g * @ . . @ & h j h a a a a a h h a a 3 3 h h h h h h h x x h a d 6 6 d d d d d d d h v g & + O O O O k h h h h h g g j j h x h a 3 3 x x x h g h h j g g g g g g j j 3 a g j g 3 2 * $ . $ * @ O O > + + + + + + O O O O O + + + + + + O * & O # & * O + + + O + + O + O O O O O O O + O + + O O # 9 h l l g s g h h x x x x a a h x x x v v v j x x h h h j j 9 @ . . @ & g j h h 3 x x x x x d d d d d d x h h h h h h h h h h x x h h h h h h h g l s @ . ",
"O # g h h h h 3 h h h h h h h h h d d d x x x x h h h h h h h h h h d d d d h h g # . O & g x h x x h h h h h x x x h h h h x d d x d d h h h h h h 3 x O 3 a..X).).).). X Xz.j O O 3 n.|.$X|.|.&X&X$X$X$X%X%X%X+XOXoXT.K.x.k.k.E 3 . . 2 > x c h m v x 6 0 9   . .   . % g h g h h h h h h t t d d a a h h h h x x h h h h x x h h h h x x x h h h g 9 # . . O 9 0 h h h x h h x h h h h h x x h h h h x x x x h h h d d d d x h h h d d x h h 2 O . # g g 3 3 x d d x x x x d d d d d d d x x x d h h h x x x h h h x x x a h 3 x g 9 9 . . g g h h x h h h h h d x x h h 9 3 O v p.b.|.|.Y.Y.}. Xb.9 O . + v..X+X#X#X@X@X%X%X%X%X*X*X=X.X|.(.K.l.f.k.n 2 . O + < v b b u t v v 9 9 . @ : % o $ @ @ @ $ @ $ $ @ O @ @ . . @ & g h h h h h h h h h h h h h h h h h h h h h h h h h h h h x h h h h h x x h 3 2 O O # 9 h h d x d h h h h h h x x x h h h h h h h x x h h d d d d d d d x h x x x h h 3 O . O 9 g h x x d h h h h h h h x x x x h h h h h h h h h h h h h h h h h h h h h g 3 g . X . & . g a.).).).).Y.|.|.c.x O . 9 n.|.@XoXoX@X@X%X%X$X&X&X&X%X+X|.T.K.x.k.p.n 0 O O < 3 N x t T c c 0 3 0 O 4 g h g g h h a h h h h x x x x x h h h h h x x d x x h h g & O . + 9 h h 3 d x d d d x d d d d d d d x h h h h h h x x h h h h h h x x h h h h h h 2 O ",
"O & g h h h h 3 x x d h h h h h h h h h h x x x h h h h h h h x x x d d d d x h g # . O # g x x x x h h h h x x x x h h h h x x x x d h h h h h v j 3 m > w.b.+X).(.(.(..X.X}.b.4 > p.|.@XVXOXVX@X@X@X@X@X@X@X@XVXVXVXVXVXVXVXVX#Xn.O # z.^.|.).}. X}.|.].Y.z.@ X X . . & g h g h x x h h h 0 0 x x h h h h x x x x h h h h x x h h h h x x d x x h g 9 # . . O 3 3 h h x x x x x x h h h h x x h h h h x x x x h x h h h h h h h x d d d d x h 2 O . # g h 3 6 d h h h h h h x h h h h h h h h d d x d x x x x x x x x d d d d 3 x g 9 = . . g h h x x x h h h h d x x h h 0 3 > r.b.Y.|.|.T.oX|..X Xy.< + M |.@X@XVXBXVXVXVXVXBXVXVXVX$X$X@XOXCXVX@XZX.Xb.# # ^.}.|.|.(.).).).).b.n.O @ X   o $ @ $ @ @ @ @ $ @ O @ @ . . @ & h h h h h h h h x x h h h h x x h h h h x x h h h h x x x x h h h h d d d d 3 2 O O # 9 h h d x d h h h h h x x x x h h h h x x x x h h h h x h h x h h h h h d d x h 3 O . O 9 h x d d d d h h h h h h x h x x h h h h x x x x h h h h h h h h h h h h h g 9 g X X . & O r.b.|.T.oXoX(.oX#X|.v.2 + p.|.@XCXBXCXOXOX@X@X@XBXAXBXVX$XVXVXBXBXBX$X|.n.+ < z.}..XY.).oX).|.}.b.n.> 4 9 h g h h h a h h h h h h x x h h h h x x x d d x x a h h 2 O O + 3 h h 6 d d d h h h h h h x h x x x h h h h x x x x x x h h h h x x h h h h h g 2 + ",
"O & g h h h h 3 x x x h h h h h h h h h h h h h x h x x h x x x x x d d d d x h g # . . # g x x x h h h h h x x x x h h h h h x x x d h h h h h g h 2 h > a.b.Y.x.K.P.v.b.b.}.}.+ + p.Y.P.I.K._._._._._._._._._.Q.Q.Q.Q.Q.Q.Q.Q.ZX+X9 # b.XX|.Y.b.b.n.P.T.Y.b.= . X . . & g h g h x h h h h 0 t x h h h h h x x h x h h h h h x h h h h d d d h x h h 9 # . . @ 3 3 h h x x h h x x h h h h h x h h h h h h h h x x x h h h h h h h d d d d x h 2 O . # g h 6 d d h h h h h h h h h x x h h h h d d d d d d x x x x d d d d d d 6 x h 9 = . . g h h x x d d h h h d h h h h 0 3 > t.b.P.R.K.K.Y.v.b. Xn.4 > p.|.P.K.U.U.I.I.I.T.Q.].oXoXoX_._._.I.W.T.@X%X.X9 O b.b.Y.b.x.x.v.v.).}.{.2 % . . % $ @ @ @ @ $ @ @ @ O @ @ . . @ & h h h h h h h h x h h h h h x x h h h h x h h h h x x x x x h h h h d d d d 3 2 O O # 9 g h d x x h h h h h h h h h h h h h x x h x h h h h h h h h h h h h h d d x h 3 O . O 9 h x d d d d h h x x h h h h h h h h h h h h x h h h h h h h h h h h h h h h 0 g X o . & + p.b.Y.l.P.T.K.K.T.|.).O O a.Y.U.U.L.Q.Q.Q.(._._.oX].oX_.(.Q.Q.Q.Q.Q.(.ZX.X3 4 b.XX}.Y.v.R.l.b.Y.^.b.4 4 9 h g h h x h x h h x h h h h h h h h h h h d d x x h h h 2 O O + 3 h h 6 d d d h h h h h x x h h h x h h x x h x x x x x x h h h h x h h h h h h 2 O ",
"O 2 h h h h x 6 x x x x d h h h h h h h h h h h x x x h h x x x h x d d d d x h g # . . # g x x h h h h h h x x h h h h h h h h x x d h h h h h 3 j 2 2 + r.n.p.s.s.s. .r.y.p.c.+ > k.P.K.V.m.I.L.L.L.L.L.L.L.L.I.U.I.L.V.m.m.m.T.+Xj @ a.p.W t.r.y.E t.h.v.n.9 . X . . & g h g h h h h h h 0 0 x h h h h x x x h h h h h h h h h h h h d d d h x h h 9 # . . @ 3 3 h h x x h h x h h h h h h x h h h h h h h h x x x h h h x h h h d d d d x h 9 @ . # g h d x d h h h h h h h h h x h h h h h d d d d d d d x x x d d d d d d 6 x h 9 = . . g h h x d d d h h h a h h h h 3 3 + M k.k.s.u.t.h.i.r.n.z.+ O k.v.K.K.L.L.L.I.K.K.m.D.K.K.K.K.V.C.N.m.g.K.Y..Xj # y.u.y. . . .u.f.| p.b.2 & . . % $ @ @ @ @ $ @ @ @ . @ @ . . @ & h h h h h h h h x h h h h h x x h h h x x x h h h x x x x x h h h h d d d x 3 3 O O @ 9 g h d x x h h h h h h h h h h h h h h x h h h h h h h h h h h h h h h d d x h 3 O . O 9 h x d d d d h h x x x h h h h h h h h h h h h h h h h h h h h h h h x h h h 3 g . .   @ O r.k.k. .f.g. .W s.k.k.+ + p.Y.K.M.m.E.C.V.V.V.K.L.L.L.I.I.I.L.M.M.m.V.Y.XX0 < p.t.E s.t.u.E  .u.c.v.0 < 3 h g 3 h x h x h h h h h h h h h h h h h h d d x x 0 h g 2 O O + 9 h h 3 d d d h h h h h x x h h h h h h x x h h x x x x x h h h h x h h h h h g 2 O ",
"+ 2 h h h x x 6 d d d x d h h h h h h h h h h h h h h h x x h h x x d d d d d h g # . . # g x x h h h h h h h h h h h h h h h h d d x h h h h h 3 m v 3 + r.p.t.s.+. . .t.| r.r.> > k.P.K.I.m.C.L.L.L.L.L.L.L.L.L.L.L.L.L.L.U.Q.d.Y.0 @ y.i.W s.p.n.i.h.e.s.a.= X X . . & g k g h h h h x h 0 0 h h h h h h h h h h h h h h h h h h h h a h x h h g g g # O . O 3 3 a h x x h h h h h h h h h h h h h h h h h h h h h h h h h h h x d d d d h h 9 O . # g h d x d h h h h h h h h x x h x x h h d d x x d a d d d d d d d d x x 6 x h 9 2 O . g h d d d d x h h x x x h h h 0 3 + N t.t.i.s.W t.k.E r.p.+ + v.x.K.L.L.L.L.I.I.I.D.F.K.V.V.V.V.V.E.E.m.K.v.b.9 < u.u.f.f.f.f.f.f. .p.n.+ & . . X $ $ @ @ @ @ $ @ @ . @ @ . . @ & h h h h h h x h h h h h h h h h x x x x x x x x h h x x x x h h h h a d d x h 3 O O @ 9 g h d x x h h h h h h h h h h h h h h h h h h h h h h h h h h h h h x d x x h 3 O . O 9 h h d d d x h h x x h h h h h h h h h h h h h h h h x h x h x h x h x x d a 3 g . X . & O B u.u.s.s.s.W W  .t.r.+ 4 k.Y.D.L.M.L.C.C.V.V.L.L.L.L.K.V.L.L.L.L.U.T.f.b.3 > p.r.E k.k.l.u.i.r.u.p.4 < 3 h h 3 h x h x x h h h h h h h h h h h h h d d x x h h g 2 O O + 9 h h 3 d x d h h h h h h h h h h h h h h x h h x x x x h h x x x x x x x h h g 2 O ",
"+ 3 h h h x d d d d d d d d d h h h h h h h h h h h h h x x h h d x d d d d d h g # . . # g x x h h h h h h h h h h h h h h h h d d x h h h h h 2 v x h + M p.k.f.+.+.s.k.u.t.t.+ > s.K.m.I.m.m.L.L.L.L.L.L.L.L.M.m.m.m.M.C.L.L.L.R.+ O y.k.h.d.r.p.h.l.e.w.B . . X . . & g k g h h h h x h 0 0 h h h h h h h h h h h h h h h h h h h h a a x h h g h g & O . O 3 3 a x x x h h h h h h h h h h h h h h h h h h h h h h x x h h h h d d d d h g 9 @ . # g h a x d h h h h h x h h h x x h x x h d d x x d d d d d x d d x d x x 6 x h 9 2 O O g h d d d d x x h x x x x h h 0 3 > N r.t.f.k.s.s.l.t.t.p.> + P.v.m.m.M.M.M.m.m.m.U.U.U.I.I.L.C.C.M.E.F.K.l.c.+ + t.i.s.s.s.s. . .k.p.u.O O @ $ % $ $ @ @ $ @ @ @ @ . @ @ . . @ & h x h h h h x x h h h h h h h h h h x x h x x h h h h h x x h h x h a d x x h 9 O O @ 9 g h a x d x h h h h h x h h h h h h h h h h h h h h h h h h h h h h x d x h h 9 O . O 9 g h d d x x h h h h h h x x h h h h h h h h h h x h x x d x x x x x x x a a 3 g . X X & O M p.u.s.s.s.s.f.f.i.t.+ + i.K.m.L.M.M.L.L.I.I.L.L.L.L.m.m.m.M.M.M.L.K.R.v.> > u.k.s.k.W f.s.k.r.| M O 4 9 h h 3 h x a x x h h x h h h h h h h h h h d d x x h h g 2 O O + 9 h h 3 d x d h h h h h h h h h h h h h h x h h h h h x h h x x x h x x h h h g 2 O ",
"+ 3 j h 3 d d d d d d d d d x x x x h h h h x x h h h h h x h h h x d d d d d g g # . . # g x h h h x h x x h h h h x x h h h h d d x h h h h h 2 h 3 3 + N t.p.s.! +.s.k.i.i.i.> , v.I.L.Q.L.W.M.M.M.M.M.M.M.M.!.E.E.L.E.L.L.L.Q.k.O + | i.d.W E p.s.l.m.j.y.. . X . . $ g k a h h x x h h 0 0 h h x x x x h h x h x x h h h h h h h h x x x h 3 g h g & O . O 3 3 a h x x h h h h x x h x h h h x h h h x x x h h h x x x h h h h x d d x h g 9 @ . @ 9 9 3 x d h h h h x x x h h h h h h h h h h h h h h h h h h h h h h h x 6 x h 9 2 O O g h x d d d d x h d x x x h h 3 3 + N t.i.s.s.s.h.d.k.W k.> + P.K.U.E.E.E.E.L.L.L.L.L.L.L.L.C.C.L.M.B.L.].R.n.+ 4 p.f.s.h.s.s.s. .f.r.| O O @ $ % $ @ @ @ @ @ $ $ @ O @ @ . . @ & h x h h h x x x h h x h x x h h h h h h h h h h h h h h h h h h x h 3 d x x x g O O @ 9 g h a x d h h h h x x x h h h h x x h h x h x x h h h h h x x x h h h d d d h 2 O . @ 9 g h d d x h h h h h h h x x x h h h h h x x x x a h a a d d x x x x x x a a 3 a . X . @ . B p.i.s. .+.s.f.s.u.t.> 3 v.T.L.!.E.E.M.M.C.C.F.F.F.F.W.I.E.E.E.E.L.L.T.f.+ > E k.h.W W s.u.k.k.p.r.+ 4 9 h 0 3 h h a h h h h x x x h x x h h h h h d d x x h h g & O . + 9 h h 3 d x x h h h h h h h x x h h h h h h h h h h h h h h x h h h h h h h j g 2 O ",
"+ 9 j h 3 d d d d d d d d d x x x x h h h x x x h h h x x x h h h h x d d x h g g @ . . # g x h h h x x x x h h x x x x x x h h d d d h h h h h j j 2 h + N r.k.s.+.+.s.s.t.t.k.+ , l.K.l.M.M.M.F.F.F.F.F.F.F.M.M.M.M.M.M.M.L.L.F.W + 0 | t.j.j.k.k.W d.e.h.y.. . X . . $ g h a h x x x x x 0 0 h h x x x h h h x x x x x x h h h h h h x x h h 3 9 h g & O . O 3 3 a h x x h h h x x x x x h h x x h h h x x x h h h x h x h h h h h x x x h g 9 O . @ 9 9 3 x d x h h h x x x h h h x h h h h h h h h h h h h h h h h h h h x 6 x h 9 2 O O g h x d d d d x h x x x x h h 3 3 + M k.k.f.s.s.g.W l.t.k., + v.K.L.F.B.M.M.M.V.m.L.L.L.L.L.L.L.E.E.M.m.Q.x.t.O + p.s.s.s.s.s.s.s.s.r.u.+ * * O @ $ @ @ @ @ @ $ $ @ O @ @ . . @ & h x h h h h x x h h x x x x h h h h h h h h h h h h h h h h h h j h 3 a x x x h O O @ 9 g h h x d h h h h x x x h h x x x x x x x x x x x h h h h x x x h h h h d h g 9 O . @ 9 g h d x x h h h h h h h x x h h h h h h x x x x d a a a d d x x x x x x a a 3 a @ % X $ O r.k.u.s.s.s.s.s. .u.u.O < c.K.N.M.M.M.E.L.L.C.L.F.H.F.M.V.M.M.B.M.L.L.l. .> 1 E i.x.s.s.f.E r.t.u.r.O 4 0 h 0 3 h h a h h h h x x x h x x h h h x x h d x x h h g & O . + 9 h h 3 a x x h h h h h h x x x x h h h h h h h h h h h h h h h h h h h h h j g & O ",
"+ 9 j h 3 3 6 3 x x x x x x x x 3 a a a a a h h x x x x h h h h 3 3 x x x x h g 9 @   . # g h 3 3 a a a h h h a x x x x x x x x x x x x x h h h h v 3 3 + M t.t.d.d.s.s.s.u.i.i., , K.K.U.m.C.E.F.F.M.M.M.M.M.F.L.L.L.L.L.L.F.L.L.w.O < r.i.j.j.k.i.h.j.d.j.M O @   . @ & h k k h h h h h h 0 0 x x x x x x x x x x x x x x x x h h x x d d d h x 3 9 h 9 @ . O < 3 3 3 a x h 3 a h h h h h h h x x h h h h h h h h h h x h h h 3 h v x x x x v 2 @ . . 2 j v 3 d h h h h h h h x x x x h h a a h h h h h h h h h h h h h a a a d 3 h j 9 O O 9 x x d d d d h h d a 3 h h h 3 3 + N u.i.s.s.s.h.d.h.h.t.> > l.K.L.F.B.B.B.F.C.L.F.F.F.L.L.C.C.C.E.M.E.U.R.w.+ + i.t.s.s.s.s.s.s.w.k.N + O * $ $ $ @ @ @ @ @ @ @ % . @ % @ . O g h x h h h h h x h h x a a h h h h h h x x x h h h h h h h h h h g g x d d d h g + . . = l j h x d h h x h h h h h h h h h h h h x x x x x x x x h h h h a a a a 6 x j 2 O . O 9 g h x x x 3 3 3 0 3 3 a h h x x x x h h h h h h d d a a a a a a x x a d x x x g . X . & O M p.k.f.s.s.s.s.s.u.i.> > v.K.U.M.H.E.B.C.C.C.L.F.H.F.L.L.L.E.H.H.F.L.K.t.+ > i.s.s.g.s.i.f.u.r.a.M + 3 h j h 0 x v x x x x x x x x x x x x x x x x x d a a v m g & @ . + 9 g h x x x x x x x x x x x a a a a a a h h x x x x x x x x h h h h h h h h h 9 # O ",
"# 9 j h 3 x x x d d d d d h h h 3 3 3 3 3 3 3 3 h x x h h h h 3 h x x x d x h g 9 @   . # 9 h 3 x x x x x x x x h h h h h h x h x d x h h h h h h v 3 3 + M a.i.s.d.s.s.s.i.i.i., , v.K.U.m.C.E.F.F.F.F.F.M.F.F.M.M.M.F.F.F.F.L.L.w.O # r.i.j.d.k.i.h.j.d.j.M O @   . @ & g g h h x x x x x x x 3 3 a a h h h h h h a h h h h h h h h h d d d h v 3 9 j 9 . . O 2 3 x h h x x 3 h h h h h h h h x x h h h h h h h h x x h h h h g h v x x 3 h h 9 @ . . & h x 3 x h h h h h h h 3 3 3 3 3 3 3 3 3 3 3 3 3 3 3 3 h h h h h h h x 6 3 0 g 2 O @ 9 h h d d d d x h x x h x v v 0 3 + N u.i.s.s.s.h.s.d.s.t.> > l.K.L.F.B.B.H.F.C.L.F.F.F.L.L.C.C.C.E.M.H.F.K.w.+ + i.s.s.s.s.s.s.s.w.k.N + O * $ $ $ @ @ @ @ @ @ @ % . @ % @ . O g g h 3 3 3 3 3 3 x h x x x x x x h h x x x x h h h h h h h h h h 9 g a d d d 0 9 # . . = j h 3 x 3 3 3 3 3 3 3 3 3 3 3 3 3 3 3 3 h h h h h h a a x x x x x x x x a v h 2 . . @ 9 g h x x x x h h 3 3 3 3 3 h h h 3 3 3 3 3 3 3 3 x x x h x h x h x v d h x x x g . X . * O M t.i.s.s.s.s.s.s.u.i.> > v.K.U.M.H.E.B.C.C.C.L.F.H.F.C.C.M.H.H.H.F.L.K.t.+ > i.s.s.h.s.i.f.u.r.a.M + 3 0 h g 3 h x h h h h h h h h h x x x x x x x x x a 3 h j g & O . O 9 g h h a a x x h h h h h h x x x x x x x x h h h h h h h h 3 3 3 3 3 3 3 0 j 9 # @ ",
"2 g j h 3 h x x d x d x h h h h x x x x x x x x h h h h h a h 3 v v x d d a h g g @ . . @ 9 h h x x x x x x x x h h a a h h h h d d a h h h g g g v 3 3 + M i.i.s.+.s.s.s.i.i.i., , v.K.U.m.M.L.M.F.F.F.M.M.M.F.M.M.M.M.F.F.L.L.L.w.O + r.s.d.e.k.t.h.j.e.j.M @ @   . . & g g g h x x x x x x x h h x x h h h h h h h h h h h h h h h h x x x h x 9 g g 2 . . . 4 3 v x a h x h x x x x x x x x h h h h h h x x h h x x h x x h h j x h 3 3 9 g & @ . . & g x 3 h h h h h h h h h a x x x h h h x x h h x x x x x x x x x x h x x 3 9 g & . @ 2 9 0 d d x x x h x x h h v h 0 3 + N t.i.s.s.s.h.e.s.i.t.> , l.K.L.F.H.H.H.F.C.L.F.F.L.L.L.C.C.C.E.M.H.F.D.w.+ + u.s.s.s.s.s.s.s.t.k.N + O @ $ $ $ @ @ @ @ @ @ @ $ . O @ @ . . & h x x x h h 0 0 3 a x x x x x v h h h h x h h h h h h h h h h h 9 9 h x x h 9 9 # . . & g g 3 a h h x x h h h h x x x x x x x x h h h x h h h h x x x x x x x x x x g & . . @ 9 g h a a d h h h h h x x x x x x x x x x x x x x x x x x x x x x v x a 3 h h h g . X . * O M t.i.s.s.s.s.s.s.i.i.> > v.K.E.M.B.H.M.C.C.C.L.F.H.F.M.V.M.M.H.H.L.L.K.u.+ > i.h.t.s.s.u.f.u.r.p.M + 2 9 h g 3 h x h x x x x x x x x h h h h h h h h x h 0 g g 9 # @ . O 2 g h h 3 3 a a a a a a h a x x x x x x x x x x x x x x x x x x x x x x x h j g # O ",
"# 9 j g 9 g 3 3 x x x x h h h h h x x x x x x x x x h h h h h h v x x d d x h g 9 @ . . @ 9 h x h a a a h a h a h h h h h h h h d x x h h h h h 3 j 2 3 + M i.t.+.+.+.s.s.u.i.i., , v.K.U.m.M.L.F.L.F.L.M.C.M.L.M.M.M.L.L.L.L.L.U.t.O # r.h.j.e.k.t.s.d.d.j.M @ .   . @ & s g h a h h h h h 0 3 x x x x x x x x x x x x x x x x h h h h x x x h x g g g 2 O . . + 3 v h 3 3 a h x x x x x x x x h h h h x x x x h h h h h x x h j h h h 3 h h g # @ . . # g x x h h h h h h h x h h h x x x x x x x x x v x x x h h x x h h h h x h g 9 # . @ # g g x x x x h h h a 3 3 h h 3 2 + M p.i.s.s.s.h.e.s.i.t.> , x.K.L.F.H.H.F.L.C.L.F.F.L.L.L.C.C.C.E.M.E.D.K.t.+ + u.s.s.h.s.s.s.s.t.k.N + O * $ $ $ @ @ @ @ @ @ @ @ . . @ . . . & j x x x x x h 0 3 a a a h h a h h h h h h h h h h h x x x x h h g g x x x h 9 9 @ . . & g g h x h h x x x x h h x x x x x x x x x x x x x x x x h h h a a a h h v v 9 # . . @ = g 9 3 3 3 3 g g h x x x x x x x x x x x x x x x h h h h h h h h 3 3 3 g h h 9 2 . X . * O B p.f. .+.s.s.s.s.i.i.< > v.K.Q.M.M.H.M.C.C.C.L.F.H.F.m.V.M.F.H.H.L.L.K.s.+ > i.h.s.t.s.u.f.u.r.a.M + 2 0 v h 0 x x h x h x x x x x x h h h h h h h h x x h h g 9 # O . @ & g j v h a h h h h h h h h a h h h h h h h x h x x x x x x x x x x x x x h j 9 # O ",
"O & g g g j h 3 0 0 0 9 9 9 9 9 0 3 3 3 3 3 3 3 x x x h x x x x h h a a x x h h # @ . . @ 2 g v h h h h h h h h x x x x h x h h x x x x x h h h 3 j 3 3 + M a.i.+.+.+.s.i.i.i.t., , v.K.I.m.L.L.L.L.L.C.C.C.L.L.L.L.L.L.L.L.L.L.L.s.+ # r.k.l.e.k.t.s.h.e.h.B @ .   . @ & s g k h h h h h h 0 0 3 3 3 a a a 3 3 3 3 3 3 a a 3 3 h h h h d d x h x h g 9 & @ . . + 3 x h 3 3 h h x x x x x x x x h h h h h h x x h h x x x h h h h h h x x x h g @ . . . # 9 x x h h h h h h x x 3 3 3 3 a a h h h h h h h h h h 3 3 9 9 9 3 3 3 x v g 9 @ . . O g g x x x h g g x x h h h h 3 2 > E k.k.f.s.s.h.s.s.p.t.> > v.R.L.L.F.H.F.L.V.K.L.F.L.L.L.C.C.C.M.M.Q.L.K.t.+ + t.i.s.s.h.s.s.s.u.k.M + O $ $ % $ @ @ @ @ @ O O @ @ . O . . . @ a 3 h a h 3 3 3 x x x h h a a 3 x x x h h x h h h x x x x x x h h h h x x h 3 9 @ . . @ 9 g x x a h h h 0 0 0 0 x x h h h h h h a a a a 3 3 3 3 h h h h h h h x v h 3 @ .   @ # g h h 3 3 3 9 9 0 3 3 3 3 3 3 3 x h h h h h h h 9 9 9 9 9 9 9 9 9 9 h j j h 2 # . o . & O r.k.k. .s.s.s.s.s.i.t.< > v.K.Q.M.H.E.C.C.C.C.L.L.F.F.L.C.L.L.E.E.L.K.K.f.> > i.k.h.s.s.u.s.u.r.p.M + 2 0 v h h x h a 3 3 3 3 3 3 3 3 h h h h a a a a 3 h v v j 9 @ . . @ # 9 j v v x h x x x x x x x h h h x h h h h 3 3 3 3 3 3 3 3 x x x h h h h h g 2 O . ",
". @ = 9 j j v 9 h h h h h g g h h h h h h h h x h h h x x x x x 3 3 a d x x h g @ . . . @ # 3 g x x x x x x x x x x x x x x h h x x x x h h h h g v 3 3 + r.p.p.+.+.s.s.i.u.r.r., > x.x.I.L.L.L.L.L.L.C.L.C.L.L.L.L.L.L.L.L.L.L.m.s.+ # r.i.l.d.k.t.i.s.e.h.B @ .   . @ @ 2 g h x x x x x x x x x x x x x x x x x x x x x x x x h h h h d d x h h h 9 2 + @ O O + 3 h h 3 x v x a a h h h h h a h h h h h h x x h h x x h h h h h g h h x x g 9 . . . . O 2 h v x x h h h h x x v v x x x x h h h h h h h h h h j j j j v v v v x h 9 # @   . . 9 9 h h h g g 9 v x x x h h 3 2 > E k.k.f.s.s.h.s.h.k.t.> > c.R.K.L.F.F.L.L.C.K.L.F.L.L.K.V.C.C.M.M.Q.D.v.t.+ + r.t.u.s.s.s.s.s.u.c.M + O $ $ % $ @ @ @ @ @ @ O @ @ . . . . . O 3 3 h x x x x h v v v x x x x x h h h h h h h h x x x x x h x h g h h x a 3 2 # O .   @ # 9 h x x x x x x x x x x x x x x x x x x x x x x x x x x x x x x x x x h 3 # O . . . @ g h x x x h g g h x x h h h h h x x x x x x x h j j j j j j j j g j j j j 3 + O . o . & O r.p.f.t.s.s.s.s.s.t.t.4 + c.v.Q.L.E.E.C.C.L.L.L.L.F.L.L.I.L.L.E.L.L.K.g.f.> > t.h.h.s.s.u.s.r.r.p.B + 4 9 j h h h h a x x x x x x x x h h h h a a a a 3 h j j g & @ . . . O & 9 h x x h x x x x x x x x x x x x x x x x x x x x x x x x x x x x x x h 2 # O . ",
". . @ # 2 g g 3 9 9 9 9 9 g g 9 h h a h h 0 h h 3 3 3 3 h h h h 3 h x x x 3 2 2 @ . . . . O + 2 h h h h h h h h 3 3 3 3 a 3 3 3 6 6 3 3 a 0 9 9 3 h 2 3 + M a.i.s.+.s.s.i.r.r.| > > k.l.T.V.L.L.L.C.C.C.L.L.L.L.L.L.C.C.m.m.m.m.e.t.+ # M t.g.d.p.t.i.s.e.h.B @ .   . . O * & 3 h h h h h h 0 0 3 3 3 3 a a a 3 3 3 3 3 a a a 3 h h x x d d d h 3 3 2 + O . O O + > 2 3 3 x x 3 3 3 3 3 a 3 3 3 x x x x h h h x h h h x h h h h h g g h x 3 2 + . . . . O # 3 h x x x h h h h x x x x x h 3 3 3 0 9 9 9 g 9 9 9 g g g g h h h h 2 2 # @       . @ # 2 3 9 g 9 9 x x 3 3 h 3 2 4 + N u.i.s.s.s.h.s.s.u.r.> > k.v.K.L.L.M.L.L.V.K.L.L.L.L.V.V.C.C.M.M.L.j.k.r.+ + | |  .u.s.s.s.u.t.k.M + O @ $ $ @ @ . X . . . . @ @ . . . . . . 4 < 3 3 a a a 3 3 3 3 h h x x x x x x x h h h h h h x h x h x h 9 g g 3 3 < + O . . . . O # 3 3 a a h h h h h h a a 3 3 3 3 3 3 3 3 a 3 3 3 3 3 h h h h h h h h 2 4 + O .   . . # 2 3 x x h g g h h h h h 3 3 3 a a 3 3 3 3 3 0 g g g g g g g g 9 9 2 2 2 # O . . .   @ O B t.t.s.s.s.s.s. . .E + + k.x.U.M.L.L.C.C.C.C.L.F.F.L.L.V.C.M.M.M.m.m.t.r.> > | t.s.k.t.t.s.r.r.p.B + > 3 h 3 3 3 a 3 x x x x x x x x a 3 3 3 3 3 3 3 0 h g 9 2 O O . . . O + # 3 3 3 a a 3 3 3 3 3 3 h h h h h h h h x x x x x x x x a a 3 3 3 3 3 9 * @ O . ",
". @ O . O + # + + * + + # # # # < 4 4 4 4 < < 2 3 3 3 3 3 a a g g h j x h 3 & * . .   . . . O + 3 3 3 3 2 2 2 2 3 3 3 3 a a 3 3 3 3 3 3 3 3 3 9 # 9 + 4 O m y.r.u.s.f.u.u.r.r.B + + p.k.P.K.K.K.K.K.K.K.K.K.K.K.K.K.K.V.m.l.l.l.W | + # v | k.s.p.r.t.i.s.k.V @ . . . . . O * * 2 3 2 3 2 3 2 2 + + + + + + + + + + + + 4 4 + + h h h h h h h h 2 2 # O . . O O O + + + 2 3 3 2 3 3 3 3 3 3 3 3 h h h h g g g g h h h h h h h g g g g h h 3 + O @ . . . O O < 3 h h h h h h h h 2 2 2 4 4 + + + + + + + + + + + + + + + + + + + + + O .   .   . . O + 2 3 9 9 9 a 3 3 2 2 2 + + O v r.r.i.i.t.k.i.u.t.r.+ + u.c.v.K.K.K.K.K.K.K.K.K.K.R.K.K.K.K.L.K.V.t.r.B + + M | | r.i.u.i.r.r.p.m O . O . O O @ O O O O O O O @ O . . O . . O O + + 4 4 4 4 4 4 2 2 3 3 h h h h h h g g g h h h h h h h h g 9 9 3 3 2 + O . . . . . . + 4 4 4 4 4 4 4 4 4 4 > 4 + + + + + + + + + + + + 4 4 3 3 3 3 3 2 2 2 + + O . . . . . O + < 3 g g 9 3 2 2 < < 4 4 4 4 + + + + + + + + + + + + + + + + + O O O O O O . . .   @ O m r.E i.i.f.f.i.t.E E + O a.k.Y.K.K.V.K.K.K.K.K.K.K.K.K.V.K.V.m.l.l.k.E r.+ + M | u.k.t.r.u.t.r.p.B + + 2 9 3 3 3 3 2 2 2 2 2 2 2 2 2 9 9 9 9 9 9 9 3 h g 3 & O O . . @ . . O + & 2 4 s s 3 3 3 3 3 3 2 2 2 2 2 3 3 3 2 2 2 2 2 2 2 2 + + + + + + + + O O . . ",
"O O O O O O O O O O O O O O O O O O O O O @ . . . . . . O O O O O O O O O O O O . . . . . . . . O O O O O O O O . . . . . . . . .   . O O O O . . . @ . . 9 v v S r.y.y.y.B m v + 2 h m B S M M p.r.M B S S B M E t.w.t.r.E B M a.x # # g B S N r.p.z.r.M j 9 = . . . . . . . . O . O . O O O O . . . . . . . . . . O O O O O O O O O O O O O O O O O O O O O O O O O O O O O O O O O O O O O O O O O O @ @ . . * * + + O O * & O O O O O O O O O O O O O O O O + O O O O O O O O O O O O O O O . . . . . . . O O O O O O O @ O O O O O . . . . . O O O O O O O O O O O O O . . O 9 m B n B p.B B r.B 0 + + h y.B B | | | | B B r.M r.r.r.E E c c N E r.S j = @ v N M B r.S S S S m g # . O @ . O O O O O O O O O O O O . . O O O O O O O O O O O O O O O O O O + O O . @ @ . . O O + + + O . . O O O O O O O O O O O O O O O O O O O O O O O O O O O O . . O @ @ . . O O O O O + + O O O O O O O O O O O O O O O O O O O O O . O O O O O O . . O . . . . . . @ O O O O O O O O . . . O O O O O . . & O . 9 m m S r.y.u.t.| b v O # j V r.r.E E i.| N E r.r.S M | | | | | | B B y.j # # g B B V y.r.z.a.j j j O O O O O O O O O O . . @ O . . O O O O . O O O O O O O O . . . . . . . . O O O O O O O O O O O O O . . . . . O O . . O . . . . . . . . . . . . O O O O O ",
"O O O O O O O O # # # # # # # # & * @ . . . .       . . . . O O . O O @ . . . . . . . . . . . . . . . . . . . . . . . . . . . .     . . O O @ @ = @ = @ . = h 0 0 j j m m v g g O + 3 j V S S S v m V V C V S y.M N N c N N V B B h + + 9 l m v t 0 3 h m C = X . . X X . . . . @ X X X @ @ @ @ . . @ . .   .       . . . O O * # # # # # # # # 2 2 2 2 2 2 2 2 2 2 # # # # # # O O O O O O O O O O .     X X . . O O + + + @ @ # # # # # # # # # # # # # # # # # # # # # # # # # # + + + O O O .     . . . @ O O O O O @ @ @ @ O O O O O O O O O O O O O O O O O O O O O @ @ @ . O 9 j h n S v h j j 2 O O 9 V D D D S B V m m l m m M B r.r.i.r.r.r.B C 9 @ . < 0 0 x v m j j m g 9 + . O # * # # # # # # # # O O O O O O O O O O O O O + + + 2 2 2 2 2 2 2 2 * @ . .       . O + + 2 2 2 & & & & # # # # # # # # # # # # # # # # # # # # < < # # + O @ . . . . . . @ @ # # # 2 2 2 2 2 2 2 2 # # # # # # # # 2 2 2 # # # # # O O O O O O O . .             . . O O O O O O O + + # # # # & & 9 & 2 # O 2 g g 9 h x N N c t 0 O @ 9 m S r.r.B c N M B Z S D D B M v m m m V B V 0 + + 9 m C j j 2 9 j j l g O & & & & & 4 * * @ . . . . . . . @ @ . . . . @ @ @ @ @ @ @ @ @ @ @ @ @ @ @ @ @ @ O O O O @ @ @ @ @ . . . . . . . . . @ @ @ @ @ @ @ @ @ @ @ . @ @ O O O O ",
"2 3 2 3 3 3 3 3 g g g g g g g g h 9 # O .   . .   . . . O O $ $ O @ @ @ @ @ @ @ @ @ @ @ @ @ @ @ . . @ @ O @ O . . . . . . . . .     . . O * # & C = = 9 # + + + + + + + + + + O O + < h m B B B x x h 9 # # + + 3 6 6 6 x x v m 3 > O O + # < 4 M x 3 3 h 9 @ . @ @ $ $ @ @ @ @ % % % % % % % % & & % @ @ X .   X . . . . O & g g g g g g g 9 g g g g g g g g g g g g g g g g 9 2 3 2 3 3 3 3 3 + + @ .       . O + 2 3 g g 9 2 9 9 9 9 9 9 9 9 g g g g g g g g 9 9 9 9 9 9 9 9 9 9 9 3 2 + O O .     . . O # 2 & & & & & & & & 9 3 3 2 3 3 3 3 3 3 3 3 3 3 3 3 s s s g 9 9 2 9 9 O + < > 4 4 > > 4 4 > + + 4 0 n n v v v 0 9 9 # 9 2 + + > > , 6 3 3 3 9 2 # O , , 3 3 0 9 9 9 2 # + # * & g j g g g g g g g g 3 3 3 3 3 3 3 3 2 2 2 3 3 9 9 9 g g g g g g g g & * O .   . . . & 2 3 h j h z z g g g g g g g g g g g g g g g g g g g g g g g g 9 9 9 2 # @ . . . . . @ 2 9 g 9 h h h g g g g g g g g g g g g g g g g g g 9 9 9 2 2 2 2 2 = & = @ . . . .     . + + # # < 2 2 2 9 9 9 9 g g g g m g g g # + + + + + > > > > > + . O 2 h M M E E x c x 3 4 * + O 2 3 3 0 x x v n 2 + O O + # # < m v 2 2 g 2 O O g g g g g g g a # . . . . . . @ @ @ @ @ @ @ @ @ * * * * & & & & & & & & & & * & * * * * * * & % @ $ @ X O . . . . . @ # & & & 9 9 = 9 = 9 = 9 9 2 2 2 2 ",
"j j j j j j j j h h h h h h h g j h 2 @ . . . . X o X X @ $ $ $ @ @ @ @ @ @ @ @ @ @ @ $ $ @ @ @ @ @ @ @ @ @ @ @ @ @ @ @ @ @ @ X     . . * & 9 g z = = C 9 O + + + + + + + + + + O O + + + + O O + + O O O O + + + + > , > + O O > > + + + + > > + + + > + O O # & % & & % & & & & & & & & & & & & & & & @ @ @ . . . . . O & g h h h h h h h h h h h h h h h h h h h h h h h g g j j j j j j j j h 3 & @       . & 2 h n m m l h g h h h h h h h h h h h h h h g h h h h h h h h h h j h 9 2 + O .   . @ @ & 9 9 h j g g g z z g j j j j j j j j j j j j j j j j k k k k h h h h g O O + + + + > O O + + O O + + 4 4 > + + + O O . O O O + > > , > > + + O O O O O + + + + + + + + O O # h h g m g h h h h h h h j j j j j j j j h h h j j j j v h h h h h h h h 3 2 @ .   . . @ g g h x h h g g g h h h h h h h h h h h h h h g g g g h h h h h j h g g 9 # @ . . @ @ & 9 g h h h h h h h g g g g h h h h h h h h h h g h h g g j h h h h h h z & @ @ . . . . @ 9 9 g g h h j j g g g g h h h g h 9 g m 2 O + + + + + > > > > > O O O + + + + + > + + O O O O O O + + > > + O O > > + + + + + > O + + O + . . g g g h h h h h g & @ O . . . @ @ & & & & & & & & & & & & & & & & & & & & & & & & & & & & * * * * % % % @ @ . . . O + & 9 g g g g j j g j h g g g g h h h ",
"g g g g g g g g g h g g g 9 9 g g h g & @ . . . X X X $ $ $ $ $ @ @ @ @ @ @ @ @ @ @ @ @ @ @ @ @ @ $ $ $ @ @ @ $ @ @ @ @ @ @ @ @   . . O & s j j 9 g = C 2 O M r.u.k.k.c.v.b.Y.).|.|.).Y.v.c.u.r.E c x 3 + O + t ].|.#X#XoXP.n.a.6 6 6 3 3 3 t d f f E E N 9 + O & & & & & & & & * * * * & & & & & & & & & @ @ @ . . . O & g h j g h h g g g g 9 h h h h h h g g 9 9 9 g g g g g g g g g g g g h n x g & .   . @ 2 3 a h x h g g h h h h h h h h g g g g g g 9 g h h h h h h h h h h j j h 3 2 # . . @ & 9 9 g g g g g g g g g g g g g 9 0 g h h g g g g g g g g g g g g g g g g 3 + n r.p.v.k.v.).).).}.|.).).).k.k.i.| T c t 3 O . O v v.}.].|.Y.v.k.t.M c t t v c c c c c c n M x + + h j 2 g g g 9 9 g g g g g g g g g g g g 3 9 g g g h h h g g h h h h h h h g & @ . . @ & j x x x h g g g g g 9 9 g g g g 9 9 g g g g g g g g g h h h 0 0 h h h g g 2 O . O O # 9 g h h x h h h h h g g g g g 9 9 g g g g h g g g g 9 9 9 h h h g g h h h g g # . . . & g g g g g h g g h 9 9 3 h h g h h 3 g 2 m 2 + M r.p.k.k.v.K.P.Y.Y.|.}.).Y.v.k.h.t.c c x 3 + O * h }.|.oX+X|.P.c.u.6 6 6 6 3 3 3 6 3 N N x M 2 + 2 3 g g h h h h g g & @ O . O # & & & & & & & & & * * * * & * * * * * & & & & * * & & & & & & * * * & & % @ @ . . * 2 9 g g g g g g g g g 9 g g 9 g g g h ",
"h h h h a h h h h h h h a h a h 3 g h g & @ . . @ @ $ $ $ $ $ $ @ @ @ @ @ @ @ @ @ @ @ @ @ @ @ @ @ @ $ $ @ @ $ $ @ @ @ @ @ @ @ @   . . O 2 h j j 9 j # j # < }.$X$X$X$X$X$X$X$X$X#XOX@X@X@XOX#X#X@X&X&XXXN O > k.&X&X&X&X&X&X%X%X&X&X&X*X*X*X&X&XZXAX&X&X&X}.n . & & & * * * * * & & & & & & & & * # # & & & # # . . O * 3 h h a h h h h a h a h x h h h h h h h 3 0 h h h h h h h h h h a h a a x h g g @ . @ g g a a a a a a g h h h h a h h h h h h h a h a h 3 0 h h a h h h 3 h x x x h 3 2 . O # 9 g g g 9 g 9 g g g g g g h h h h h h a h h h h h h h h h h h h g g g g g 3 3 }.&X&XZX@X&X@X$X@X$X@X@X@X#X&X&X&X@X@X@X@X+Xm O 2 b.=X&XZX&XZXZXAX&X@X@X@X%X+X+X+X+X+X+X+X%X+X}.N + h j 2 h h h a 0 h h h h h h h h h h h h 3 h h h h h a h h h h h h h x h x h 3 @ . . # g h x d d x h h h g h a 0 h h h h 3 0 h h h h h h g g h h h a 3 3 h 0 9 h g 9 # O O + 2 g g h h a h h h h h h h h h h a 0 h h h h h h h h h h h h x h h h h j j h h h 2 O . @ 9 j h h h h 3 3 3 3 x h x h h h h h a v 2 h 4 < }.%X&X&X&X&X&XVXVXVX@X@X@X@X@X@XOXOX@X@X&X.XN O & n.&X@X@X@X@X@X@X@X&X&X&X&X&X&X&X&XZXZX+X%X*X}.n O 3 3 a h h h h h h g & O O O & & & & # # & & & & & & & & & & & & & & & & & & & & & & & & & & & & & * & & % @ . . 2 3 h j h g h h g g g g 9 g g 9 h h x h ",
"x x x x x x x x x x x h d h d x a j j h & @ . . @ @ $ $ X X @ @ @ @ @ @ @ @ @ @ $ $ $ @ @ @ @ $ @ @ $ $ @ @ @ @ @ @ @ @ @ @ @ @ . . . * 3 h x h 9 V # 9 > < +XOXT.I.I.I.K.V.V.x.V.V.K.I._.oXOXOXoXoX&X&Xk.> c &XR.K.L.U.T.].+X+X#X#X#X+X+X+X+X#X#X#XoX#XZX&Xz.+ * & & & * & & & & & & & * & * & * # # & & & & & O O O + 3 h h a h h x h d h x h x x x x x x x x d h x x x x x x x x x x x x x x d a h h & . @ g j h x d d x h h h h a h a a 6 3 x x x h d h d x 3 3 3 h a h d x a h x x x h d 0 O O # 9 g h h h x x h x h h h h x x x x x x x x x x x x x x x x x x x x x x j x + > |.|.Y.#XK.T.T.T.U.K.K.K.K.T.T.T.].oX#XOX@X&Xn.O 3 }.}.P.].K.K.U.Q.].oXOX@XZX@X@X@X@X@X@X@X+X&XZXk.> 3 x 3 v h h d x d x x h x x x x x x x x x x x x x x x x x x x x x x x x x h g * . . & g h x d d d h j j h h d x d x x h d h d x h h h h h h h x h d d d x 3 3 g h 9 # O O # 9 h h h a a x x x x x h h h h h d x d x x h d h d x x h h x x x x x x x x j g h 9 O O * g j h x x x x x x x x x x x x x x x 3 M 2 3 > 3 +X+XY.Y.T.T.K.K.m.l.x.V.K.I.Q.oX#XOXoXoX&X&Xp.+ m =XR.K.L.K.I.Q.#XOX#XOX#X#XOX#X#X#X#X|.|.#XZX&Xb.+ a h h x x x x h j h 2 O O * & # & & # # # & & & & & & & & & & & & & & & & & & & & & & & & & & * & & & & % @ . . g g h h h 9 h h h h h h h h h x x x x x ",
"6 a a a a d 3 6 d x x x d d d h a j l g & O . . @ @ X X X X @ @ @ @ @ @ @ @ @ @ $ $ $ $ $ $ $ $ @ @ @ @ @ @ @ @ @ @ @ @ @ @ @ @ . . O * 3 x x 0 < V < 9 > , P.g.m.V.C.I.I.L.I.I.V.V.V.V.C.C.V.V.U.j.K.+Xk.+ , R.R.U.U.U.L.K.K.D.U.U.K.R.R.R.K.K.D.U.U.D.K.Y.t.+ * * & & & & & & & & & & * * * * * & & & & & & # * O O + 2 h x a d x x x d x x x x x x x d d d d 3 d d x d x x x 6 a a a a d d a x a x j & . O g g h d x x x h h h x x x d d d d d x x x d d d d 3 a a x d x x x x x x x d d d h + + # 3 9 h x x x x x x h h h h h a a a a a d d a a 6 6 6 a a a d d d a h h h 3 > 6 |.R.h.T.m.Q.L.L.K.D.D.D.L.U.L.K.D.D.K.L.L.Y.b.O 4 XXP.l.T.K.D.L.U.K.L.m.V.K.K.K.K.K.K.K.K.K.K.+Xk.> 3 x 3 x x x d d d x x x 6 6 a d a a 3 3 3 3 3 3 3 3 3 3 d d x x x x x x h h g * . . & j h d d d d a g g h x d d d x x x d d d d x x h d x h x x x x d d x a 3 h h 9 # O O + 9 j v x x x x x x x d h h h x x d d d x x x d d d d d d a h a a a a a a a a 3 g g * O # g g 3 3 3 a x x x x x x x x x x x x 2 B 4 3 > , Y.l.K.K.K.K.U.U.K.L.K.K.K.m.D.F.F.K.Q.l.R.+Xp.+ + b.U.U.U.L.L.F.D.D.L.L.K.K.K.K.K.K.K.D.K.K.K.|.c.+ 3 a a x x x x x g h 2 O O * & + & & # # # & & & & & & & & & * * * * * * & & & & & & & & & & & & * * & & & @ O . 9 0 h h 3 3 h x h h h h h h h h 3 3 3 3 ",
"d d h h h d d d d d d d d h x d a h j j & O . . @ @ % % % % $ $ $ $ @ @ @ @ @ $ $ @ @ @ @ @ $ $ @ @ $ $ $ @ @ @ $ $ $ @ @ @ $ $ @ . . + 3 x x 3 v 2 h 0 > 6 x.K.L.C.C.C.C.C.C.C.C.C.C.C.C.C.C.L.F.L.K.K.i.> > P.K.L.L.F.F.L.L.L.L.L.K.K.K.K.K.L.L.U.F.Q.D.v.k.+ + * 2 2 * * & & & & 2 2 2 2 & & 2 & & & & & & & * O O 2 g h x x d d h h h x x d d d d d d a x x d x x x h x x x d d d d d a x x d x x g @ . O 2 h x d d d x h h h d d d x x x x d d d d d a x x x x d d a d d d d d d d d a x h + O # h 9 0 x 3 h h h h h h h h h h h h d d d d x d x h h h h h d d d x h 0 3 6 > c l.T.L.D.L.L.L.L.L.L.L.L.L.L.L.L.L.L.L.L.L.K.r.+ 2 n.Y.R.K.L.F.F.F.L.L.L.L.L.L.K.L.L.L.L.K.K.R.K.l.> , t t 0 x d d d x x x h h h x h d d d d x h h h d d d d d d h h h d x d d x g * O O 2 g h d d d d h h h h d d d d d d d d h h h d d d d h h x d x x d x 6 x h h h g # O O < g h h x x 6 d d d d x h h h x d d d d d d d d h h h d d d h d d d d d h h h h v g O O * g g h d d d d d h h h h a d d d x h x 2 h 0 > f x.K.K.L.L.L.L.L.L.L.L.L.L.L.F.F.F.L.F.U.R.v.a.+ + b.K.F.F.F.L.L.L.L.L.L.L.L.L.L.K.L.L.L.L.U.l.v.k.+ , 0 x t d x a 3 j h 2 O O * 2 2 & & 2 2 2 & & & & & & & & & & & & & & & & & & & & & & & & & & & & * * * * % @ O 3 3 x x a a d x x x d h a h a a d d d d ",
"d d h x h h d d d d d d h h x x a h h h & O . . @ @ % % % % $ $ $ $ @ @ @ @ $ $ $ $ @ @ @ @ $ $ @ @ $ $ @ @ @ @ $ $ $ $ @ @ @ @ X . . + 3 x x 3 v 2 h 3 > f D.K.L.C.C.C.C.C.C.C.M.M.M.M.C.C.C.F.F.L.D.K.k.> > K.K.L.F.F.F.F.L.L.F.F.L.K.K.K.L.L.F.E.H.U.D.K.x.+ + * 2 2 * * * & & & 2 2 2 2 & & 2 & & & & & & & * O O 2 g h x x d d x x h h h d d d x d h h x x d d x x h h d d d d d d h h x h d x x g @ . @ 2 h x d d d x h h h x d d x d h h d d d d h h x h x x x x a a h x d d d d h a x h + O < h 0 0 x 3 x x h x h h h h x h h h d d d x d d x x h h x a d d d d t t 6 6 > c l.U.L.D.L.L.L.L.L.L.L.L.L.L.L.L.F.L.L.L.L.K.u.> < k.Y.K.D.L.F.F.F.F.F.L.L.L.L.L.L.L.L.L.F.L.U.K.l.> , t 0 0 h d d d d d x x h h a a d d d d x h h h d d d x x d h h h h d d d x g * O O 2 g h d d d d h h h h x d d d d d d a a h h d d d d h h d d x d d x 6 x h h h g 2 O O # g h h x x 6 d d d d x h h h x d d d d d d d a a h h d d d d d d d d d x h h h v g + O + g g h d d d x x h h a h a d x x x h h 2 h 3 > f D.K.L.F.F.F.L.L.L.L.C.L.L.F.H.F.F.F.L.U.K.v.p.+ + b.L.F.F.F.F.F.F.F.L.L.L.F.F.L.L.L.L.L.L.U.D.K.x.> , 6 x t d x a 3 j g 2 O O * & 2 & & 2 2 2 2 & & & & & & & & & & & & & & & & & & & & & & & & & & & & * * * & @ O 3 3 x x x a d x x x d d a d a a d d d d ",
"d x x x d d d d d d x x h h h h a h h h 2 O . . @ @ % $ % % % $ $ @ @ @ @ @ $ $ $ $ @ @ @ @ @ $ @ @ @ $ @ @ @ @ @ @ @ @ @ @ @ @ X . . + 3 x x 3 v 2 x 3 > c K.L.L.C.C.C.C.C.C.C.M.M.C.L.C.C.C.F.H.H.D.K.k., > l.K.L.F.F.F.F.L.L.F.F.L.L.K.K.L.L.F.H.F.E.m.K.v.> + * & 2 * * * & & & & & 2 & & & & & & & & & & & * O O 2 g h h x d d d x d d d d d d x x h h h h d d a h d d d d d d x x h h h h d x x g # . O 2 h h d d d d h h h d d d a h h h d d x x h h h h x d x x x x a x x d x x h h h h + O < h h h x a x x d d h h h h x x h h d d x x d d d x d d d d a d x t t 0 6 6 > Q l.U.L.F.L.L.F.F.F.F.F.F.F.F.F.F.F.F.F.F.F.L.c.4 > i.Y.K.F.F.F.F.H.H.F.L.L.C.C.C.L.L.L.L.L.L.L.K.l.> , 3 0 0 h d d d d x d d d d a d x d x x x x h h d d x x d d x h d d d d x x g * . O 2 g h d d d d h h h h d d d x d x x x x h h d d x x h h h d d x d d 6 x h h h g 2 O O < g h h x x 3 x x d d d h h h a a d d x d x x x x h h d d x x d d d d d d h h h j a + O + g g x d x x x h h h a h d d x x x h h 2 h 3 > c K.L.L.L.L.F.L.L.L.C.C.C.L.F.H.F.F.F.F.L.D.R.l.> + k.L.H.H.F.F.F.F.F.F.L.F.F.C.C.L.L.F.E.L.U.D.K.K.> , 6 x h 0 0 x 3 j g 2 O O + & & & & & 2 & & & & & & & & 2 & & & 2 & & & & & & & 4 4 & & 2 & & & & & & & * & O O 3 3 x x a a d x x x x d x x h h x x x x ",
"x h x h d h d h d h x h h h h h a a x x 3 O . . $ $ % $ % % % $ $ @ @ @ @ $ $ $ $ $ @ @ @ @ @ $ @ @ @ $ @ @ @ @ @ @ @ @ @ @ @ @ X . . O 2 x x a v 3 x 3 > c K.K.L.C.F.C.F.C.F.C.F.C.F.L.F.C.F.F.H.H.m.K.x.5 > s.K.L.F.F.F.F.F.F.H.F.F.L.L.L.L.L.F.H.H.E.M.K.K.> + * & & * * * & & & & & & & & & & & & & & & & & @ O O 2 g h h x h h d h d h d h d h x h h h h h d h h h d h d h x h x h h h h h d x j g @ . @ & g h d d d x h h h h d h a h h h x h x h h h h h x h d h x h h h x h x h h h h h + O # h g h x a x x a d h h h h h h a h d h x h d x d h d h d d a d x t t t 6 6 > Q K.U.L.L.L.F.F.F.F.F.F.F.F.M.F.F.F.F.F.F.F.L.v.< > t.R.K.F.F.F.H.H.F.F.L.C.C.C.C.L.L.F.F.F.F.L.K.l.> , 3 0 0 h h d h d h d x d h d h x h x h d h a h d h x h d h x h d h d h x v g * O O 2 g h x d d x h h h h h d h x h x h x h h h d h x h h h h h h x d d d h h 9 g g 2 + O # g g g h x 3 x x d d x h h h h h d h x h x h x h h h d h x d d d d d d d h h h j 3 O O 2 g h h h d h h h x h x h d h d x x 0 h 9 h 3 > Q K.L.L.L.F.F.L.L.C.C.C.C.L.F.F.F.H.H.F.F.m.Y.v.3 > i.L.H.H.F.F.F.F.F.F.L.M.C.C.C.L.L.F.H.F.E.D.K.R., , 3 x h 0 x x 3 j g 2 O O + & & & & & & & & & & & & & & 2 2 & & & & 2 2 & & & & 4 4 & & 2 & & & & & & & * & O O 3 3 x x h a x x x x x x x x x x x h x h ",
"h h h h h h h h h h h h h h h h d d x x 3 * O . @ @ $ $ % $ $ $ @ @ @ @ @ @ @ @ @ @ @ @ @ @ @ @ $ $ @ @ $ $ $ $ @ @ @ @ @ @ @ @ X   . O 2 h x h h 3 h 3 > E R.D.L.L.L.L.L.L.L.F.L.L.L.L.F.F.F.F.H.J.M.K.K.6 > W K.L.F.F.H.H.F.F.F.F.L.L.L.L.F.F.M.H.H.E.M.K.K., + * & & & & & & & & & & & & & & & & & & & & & & @ O O 2 g h h h h h h h h h h h h h h h h h h h h h h h h h h h h h h h h h h h x x j g @ . . & g h d d x h h h h h h h h h h h h h h h h h h h h h h h h h h h h h h h h h h h * O & j g 0 x 3 d d d d x h h h h h x h h h h h h h x h h h h h 3 3 0 h t t 6 6 > E K.K.L.L.L.M.F.F.L.L.L.L.M.M.F.F.L.L.L.L.M.L.P.3 > W K.L.L.F.F.F.F.F.C.C.C.C.C.C.C.C.F.F.F.H.L.L.K.> , 3 9 0 h h x h h h h h h h h h h h h h x h h h h h h h h h h h h h h h h j g # . @ 9 h h x d d h h h h h h h h h h x h h h h h h h h h h g h h h d x d d x h 9 g g 2 + O # g h g h x 3 x x x h h h h h h h h h h h h h h h h h h h h h d d d d d d h h h j 3 O O & g g h h h h h h h h h h h h h h h 0 g 9 0 3 > Q K.D.L.F.F.F.C.C.C.C.C.C.C.C.F.F.F.H.F.F.m.T.R.6 > t.L.F.F.F.F.F.F.L.L.L.F.L.L.L.L.L.M.H.F.E.F.K.Y., , 3 t 0 0 h h 9 h g 2 O O O & & & & & & & & & & & 2 2 2 4 2 2 2 4 4 4 4 2 4 4 4 4 4 2 2 & & & & & & & & & * O O 3 3 x x x a x x h h h x h h h h h h h h ",
"h h h h h h h h h h h h h h h h d d d x g * O . @ @ $ $ % $ $ % @ @ @ @ @ @ @ @ @ @ @ @ @ @ @ @ $ $ $ @ $ $ $ $ @ $ @ @ @ @ @ @ X   . O 3 h x 0 h 3 h 3 > E U.D.L.L.L.L.L.L.F.F.L.L.L.L.L.F.F.F.H.J.M.K.v.6 > E K.L.L.F.H.H.H.F.F.F.L.L.L.L.F.F.F.H.H.E.M.K.P., + * & & & & & & & & & & & & & & & & & & & & & & @ O O & g g h h h h h h h h h h h h h h h h h h h h h h h h h h h h h h h h h h h h h g @ . . & g h d d h h h g h h h h h h h h h h h h h h h h h h h h h h h h h h h h h h h h + O & h g 9 x 3 d d d h h h h h h h h h h h h h h h h h h h h h 3 3 0 h t t 6 6 > E K.K.F.L.E.M.F.F.L.L.L.L.M.M.L.F.C.C.F.L.M.L.P.3 > W K.L.L.F.M.F.F.L.C.C.C.C.C.C.C.C.F.F.H.F.L.L.K.> , 3 9 0 g h h h h h h h h h h h h h h h h h h h h h h h h h h h h h h h h j g # O @ g h h h d d h h h h g h h h h h h h h h h h h h h h h h h h h h x h x h g 9 g g 9 + O # g g g h h 3 x h h h h h h h h h h h h h h h h h h h h h h h x d d x d h h h h j 2 O O 2 h g h h h h h h h h h h h h h h h 9 j 9 0 3 > E K.m.L.F.F.F.C.C.C.C.C.C.C.C.L.F.F.F.F.F.m.T.K.6 +  .L.F.F.F.F.L.L.L.L.L.L.L.L.L.L.L.M.H.F.E.m.K.K., , 3 t 0 9 h h 9 h g & O O O & & & & & & & & & & & 2 2 2 4 2 2 2 4 4 4 4 2 2 4 4 4 4 2 2 & & & & & & & & & * O O 3 3 x x x a x x h h h x h h h h h h h h ",
"h h h h h h g h h h h h h h h h x d d x g # O . @ @ % % % % % % @ @ $ @ $ $ @ @ @ @ $ $ @ $ @ @ $ $ @ @ @ @ @ @ $ $ $ $ @ @ @ @ X   . @ 3 h h h h 3 h 3 > E T.D.L.F.L.L.L.L.F.L.L.L.L.L.L.L.L.F.M.E.L.I.x.6 > E K.L.L.F.H.H.F.F.F.F.L.L.L.L.F.F.H.H.H.E.M.K.P., * & * * & & * * * * * * * * & & & & & & & & & & @ O O 2 g g g h h h h h h h g h h h h h h h h h h h h h h h g h h h h h h h h h h h h g @   . & g h x x x h g g h h h h h h h h h h h h h h h h h h h h h h h h h h h h h h h g * O & h 9 3 x 3 h h h h h h h g h h h h h h h h h h h h h h g g 0 0 0 0 0 t t 6 > E K.K.m.L.E.M.C.C.C.C.C.C.C.C.C.C.C.C.C.C.C.L.R.1 > W K.L.L.E.F.F.F.L.C.C.V.V.C.C.C.C.F.H.H.F.F.L.K., < 3 9 9 g h h h h h h h h h h h h h h h h h h h h h h h h h h h h h h h g j g @ . @ g l h h d x h g g g g h h h h h h h h h h h h h h h h g h h h h x h x x h 9 g g 9 # O # g g g h h 3 h h h h h h h g g h h h h h h h h h h h h h h h h d x x d h h h h j 2 O O 2 h g g h h h h h h h h h h h h h h 9 j 9 z < > W I.m.L.F.F.F.C.C.C.C.V.V.C.C.L.F.F.F.F.F.m.T.R.5 >  .L.C.C.C.C.C.C.C.C.C.C.C.C.C.C.C.M.H.M.L.m.K.K., > 3 0 0 0 h h 9 h g & O . O # # & & & & & & & & & 4 4 4 4 4 2 2 2 2 4 4 2 2 2 2 4 4 2 2 4 4 & & & & & & & * O O a h h h h h h h h h h h h h h h h h h h ",
"h h h h h h h h h h h h h h h h x d d v h * O . @ @ $ % % % % % @ @ $ $ $ $ @ @ @ $ $ $ $ $ @ @ @ @ @ @ @ @ @ @ $ $ $ $ @ @ @ % X   . @ 2 h h 3 h 3 x < > W T.D.L.F.F.F.F.F.F.F.F.F.F.F.F.F.F.F.F.E.L.I.x.6 > E K.K.L.F.H.H.H.H.H.F.L.L.L.L.L.L.L.L.F.L.m.K.P., + * & & & & & & & & & & & & & & & & & & & & & & @ O O 2 g g h h h h h h h h h h h h h h h h h h h h h h h h h h h h h h h h h h h h h g O . . & g h h x h h g g h h h h h h h h h h h h h h h h h h h h h h h h h h h h h h h h + O < h 3 3 x 3 x x x x h h h h h h h h h g h h h h h h h h h h a 0 t t t t 6 6 > W K.L.F.E.E.M.F.C.L.C.L.M.M.M.L.C.C.C.L.C.F.L.v.< >  .K.K.L.E.F.F.L.L.L.L.K.K.C.M.B.B.H.H.H.F.F.L.R., 3 3 3 h h h h h h h h h h h h h h h h h h h h h h h h h h h h h h h h h g h g @ O @ g l h h d d h h g g g h h h h h h h h h h h h h h h h h h h h h x x h x h 9 g j 9 # O # g g g h h 3 h h h h h h h h g h h h h h h h h h h h h h h h h d d x d h h h h g 2 O O 2 h g h h h h h h h h h h h h h h h h h 9 0 4 > W I.m.L.F.F.F.F.F.L.L.L.K.L.L.L.F.F.F.F.F.D.T.R., + t.C.C.C.C.C.C.C.C.C.C.C.C.C.C.C.C.M.J.M.L.m.K.K., > 3 0 0 9 h h g g g & O . O & # & & & & & & & & & 4 4 4 4 4 2 & 2 4 4 4 2 2 4 4 4 2 & & & & & & & & & & & & O O s h h h h 0 h h h h h h h h h h h h h h ",
"9 9 9 9 3 3 3 3 x x x x x x x h a a a a s * O O @ @ @ @ % @ % % @ $ $ $ @ @ @ @ @ @ X X X X X X X X X X X X @ X X X X X @ @ @ % . . . @ 2 j j h h x 6 , , w.T.L.L.H.H.H.H.H.H.H.E.E.E.E.E.E.E.E.F.F.L.U.g.5 , Q K.K.L.F.H.H.J.!.H.F.L.L.L.L.L.L.L.V.K.l.x.P.l.3 + * & & & & 4 2 4 4 & * & & & & * 4 4 4 2 * & & + O + 2 h n h a h h h h x x x x a x x h h h h h h h h h h h h x 0 0 0 0 0 0 0 g 3 h j 3 O O O & g g g g h g j j 3 3 3 a a h h h g g a a a a a d x x x d x d d 6 x x x d d x x x + + 2 3 g h h 3 x d d d d d d d a g g h h h j j g g a h x d d d d d d 6 d 6 6 , > t.U.D.F.E.H.E.E.E.H.H.E.E.E.E.E.E.E.H.H.M.M.V.p.2 + E P.R.K.U.F.F.L.L.K.K.K.L.B.B.B.B.B.H.F.F.F.U.R.6 + n h a d d d d d x x x x x x x x x x a x x x x x x x x x h x h x h x h 9 g g & O O 2 j a a a x d d d a h 0 0 0 0 0 0 0 0 0 0 0 0 0 0 0 0 0 0 0 0 0 0 0 x 0 3 9 h h 3 # . @ g j j h g g g h h h a a a h a h h h a a a a h h h h g g g h x x d d a 3 0 3 h 3 # O O # 9 j 3 6 6 d d x x x d x d x x x x x x x x < , w.R.K.U.L.F.H.H.H.H.H.L.L.L.L.F.H.H.H.F.F.R.R.k., + b K.C.C.C.m.V.C.L.C.C.C.C.C.C.C.L.H.H.H.D.D.I.x.6 > 3 x 3 3 v v 3 h s % . . O % & * & & & & & & & 2 2 4 4 * + + * 2 2 2 2 2 2 4 2 * & % & % % & % & & & & & @ O O 2 3 x h a 3 h v h h h h h h h h h h h h ",
"j j g h h a a 6 x x x x h h h h h h a s 2 + O . O O O @ @ @ X @ O @ @ @ @ @ @ @ @ @ X X X X X X % % % % % % % % @ @ % % % % % % . . . . & g g h 3 3 6 , , t.T.U.F.F.F.F.F.F.F.F.M.M.M.F.F.F.F.M.U.L.K.K.s., > c v.K.K.F.D.G.G.H.H.F.L.L.L.L.L.L.K.K.K.V.K.P.l.6 O O * & * * * * 2 & & & & & & & * 4 4 4 * * * * O O O * a h h a j j v v v x x x 3 3 3 0 g 9 9 9 9 9 0 0 3 0 0 0 h h h h h h h h g h g 2 + O O + h g h h g g g g x d x x x h j h h h h x h d d d x x d d x x x x d x x x x x x x O O # 2 9 h h x x x x d d d d x h g j h j h h g g g h h d d d d x d d x x x 6 3 , k.T.K.F.F.D.F.M.M.M.M.M.M.M.M.M.M.F.E.E.E.F.V.u.< O c v.v.l.D.F.F.F.L.L.R.K.L.J.J.J.J.H.F.F.L.R.Y.v.a + k k a x c d d d d d d d d d d 3 3 3 3 a a h h h h a a a a a a a a a g g g 2 O O O 2 j h x x x x x d d x h x h x h x h x h x h x x x h 0 0 0 0 0 0 0 0 0 3 3 h x 0 4 + O @ & g z g g g h h h x x x d x a h h h h a a g a a a a a g g a h x d x a a h g j 9 + O O @ 9 g x x x x x x x x 3 3 6 6 6 6 6 6 x h h < > t.Y.R.K.D.F.F.F.F.H.F.K.K.L.L.F.F.U.U.U.U.K.v.t.> + x K.C.C.Z.m.m.m.m.C.C.L.C.L.C.C.C.E.H.E.F.K.T.l.6 > 3 x 3 0 v v 3 z s % X . @ & = * & & & & & & & 2 2 2 & 2 & 2 2 # # + + 4 4 4 + & & & & & & & & & & & & $ O . . * 3 x v h a a h a a a a h h h a 0 9 3 9 ",
"g g g h h h x d 3 3 3 h h h h h k k g 2 * O . . . . . X X X X X O @ @ @ @ @ @ $ @ @ X X @ @ @ @ @ @ @ @ X @ @ @ @ @ @ @ @ @ X X . . . . @ & g j g g 3 > > | P.R.K.L.L.L.L.L.L.L.U.U.U.U.U.U.U.K.D.x.h.h.E > + x v.v.R.U.U.F.H.J.J.J.J.H.H.F.F.F.L.L.U.K.D.K.j.6 + @ & * & & & & & & & & * * * * & & * & * * @ @ . . . O 2 g h g g 9 9 0 3 3 3 3 x h a h g g g g h h h h h h h h h h h h h h h h j h g # O O O O 3 g g h j h g g x x x x h h h g j g h h a a a a h g h g h h h h 3 g x v v 9 2 + . . @ # & 9 9 g h h h h x x x x a g g h h g g g g g g a a d d d a a 3 h x a 3 < > t.v.K.K.U.L.L.U.U.L.L.U.U.U.U.L.L.L.L.L.m.d.s.E > + f l.U.L.!.H.H.H.H.F.F.F.F.E.E.E.L.L.L.K.K.v.v.n.a + h g h h d d a 3 0 3 0 x x x h h h h g h h h h h h h h h g a g a g h g g 9 # O . O 2 g g a a h a d d a h h h h h h h h h h h h h h h h g h g g g g g g h h h j h 3 + O O @ @ & g h g g h h h h h h d h h h h h h h g g g g h h g g g g 3 3 3 a 3 0 0 g g 2 O . . O # 9 h h h h h h h h h h h h h h h h j h g 4 4 B b.v.R.R.R.L.L.L.L.L.R.R.R.R.U.U.U.U.D.x.k.p.M + O x m.M.E.E.E.C.F.C.E.E.E.L.E.C.M.M.L.L.K.K.v.b.p.3 + 2 j g g j j 9 & % @ . . O $ * & * & & & & & & * + + + # # & & # # & # + > > + & & & & & & & & & & & % @ O . O + 4 g v j h h j h h h h h h h h h h h h ",
"g g g g h h v v h h x h x j v j h g s & @ O . . X X X X X X X X @ @ @ $ $ % % % @ @ @ X @ @ @ @ @ @ @ @ @ @ @ @ @ @ @ X . . . .         . @ = z j g 9 < > n p.p.l.l.l.l.l.l.l.l.m.m.l.l.l.l.l.l.s.t.r.| N + + 0 u.k.v.R.U.U.U.U.H.H.H.F.F.F.F.D.m.m.D.m.j.l.! , * % & & & % & & & & % % % * % % & & & & % % @ @ . . . . & g g h g g h h h h h h v x h h g g g g j j j j j j j h h h h h h h h h j g & + O O O O * & 2 g h h h j h h h h h g g g h h h h h a a a j j g g g g g g 9 g g g 9 # + O . . . @ @ & 9 9 g g g h h h h h g g h h h h g g h h h h x x d h a a 9 g h g 2 < O N p.k.l.K.m.K.l.l.l.m.l.m.l.l.l.l.l.g.s.W W Q E > + 6 g.U.L.U.H.H.H.F.F.F.F.D.L.C.V.V.V.x.x.n.k.a.a.2 O z g k g 9 g g h h h j j j j j g g g g h j j j j h h h j h h h h j j h & # O . . O * & 3 g g a h h h h h g h h h h g g g g g h h h g g h h h h h h h h v j h g 9 2 + O O . O @ 9 z h g h g h h h h h h h g g g g g g g j h j j j j j j h h d h h h g g 2 # O . . . @ # g g g g g g g g j j j j j j j j j g 9 # + m p.p.n.x.x.x.x.m.m.l.c.n.c.x.x.l.l.x.h.i.r.r.m O . 9 h.N.M.L.E.L.E.E.L.L.L.F.F.M.M.m.D.l.v.x.p.p.B > + 2 g g g g g 2 @ @ . . . . @ $ & & & & & & & & & & & + * # * @ & & & & 2 * 4 + * % % % % % % % & & & % @ @ O O O + 2 g g g j j j j j j j j j j j j j j ",
"9 9 9 9 9 9 3 3 3 3 3 0 9 g g g & & @ @ . . . .           X X X @ O O O @ @ @ @ @ @ @ @ @ @ @ @ @ @ @ @ @ @ @ @ @ @ @ @ O . O .       . . . @ = g 9 9 + O 0 S B | | | | | |  .| E E E E E E E E r.r.M M n + O 2 B r.p.c.x.x.x.D.D.m.m.m.j.j.j.j.d.s.h.s.w.t.E > * % % % % % % % % % % % % % % % @ @ @ @ X           . . @ % & & h h h h x x x x 3 3 2 2 2 2 & & 9 3 3 3 2 2 2 2 9 9 9 9 9 9 9 9 2 # O O O O O O O O * & 2 2 2 2 3 3 3 a g g g g h h h g g g h g g g g 9 9 = & & = & & & # O @ O     . . @ @ @ # = = 2 2 2 2 2 2 2 9 g g h z z z g g g g g h h g g g 9 g g g 9 < O v B B r. .E W E E E E E E E E E E E E E E E | M 4 + 1 E h.d.e.D.D.D.D.D.m.l.l.l.l.f.f.u.u.u.y.y.M S & O & & g g g g g g g g g 9 9 = = = = = & 2 2 2 2 2 2 2 2 2 2 3 2 2 2 2 2 @ . . . . O O O 2 2 g g h h h j g g g g g g g g g g g g g g g g g g g g g g g g g 9 2 2 + + O O O . . . @ & & & 2 3 3 3 3 3 3 3 2 2 2 2 2 2 2 & 2 2 2 2 3 3 9 9 j h x h h 9 3 9 + + O O O . O O & & = = 9 9 9 9 = 9 9 9 9 9 9 9 9 & & * O g y.S B | | r.E  . . .r.r.r.E E E E E | r.B V l @ . 2 E +.j.l.m.l.l.l.m.l.l.l.l.g.j.d.s.u.u.u.| B m + O # & & # # * O @ O . . . O @ @ & & & & & & & & & & & & & & & & & & # # * + + * * % % % * * & & @ @ @ @ O O O . . O O + * & 2 3 2 2 2 2 2 2 2 2 9 9 9 9 ",
"@ O O O O O O + + + + + + O + O O O . . . . . . .   .           O O O O O O O O O . . . . . . . O O O O O O O O O . O . . . . . . . . .   . . @ # O # O O 2 m v b b b b b b B B | | | B V b b b M M n n v + . + m B r.r.t.t.w.w.W W W E E E E E N c M M x x x + O . @ . . . . X . . . . . . . . . . . . .               . . @ O * + + + + > > + + + O O O O O @ O O O O O O O O + + + O + O + + O O O . O O O O O O O O O O O O + + + + * # # & & & & & & 4 4 2 + O O @ O . . . . . . . . . O . .       . . . . . O O O O O O O O O + O @ @ @ @ O @ * * + + + + & & # # # # O O + h n n M M b E E B M B V V V V | B b N b b b B 9 + O > v r.t.W t.e.w.w.w.E E E b b b b b v v v V g h @ O @ . # # # # # O O O O @ @ . . . . . . O O O O O O O O O O O O O O O O . . . . . O . . O O * & & 2 2 2 # # # # # # # # # # # # # # # # # # # # # # # # 2 # O O O O O . . . . . . . . . O O O O O + + + O O O O O O O O O O O O O + + + < < 4 4 4 + + + . . . . . . . . O O @ @ @ O O O O O @ @ @ @ @ O @ . O O O 2 V m m M N M b E E E S S S B E E E M M M v m j @   @ M | i.i.i.r.w.| E E E E E E E E b N M M v j 0 O O O O @ O O O O O . . . . O O O O O O + + + + + O O O O O O @ @ @ @ @ @ O O O O O O O O O O O O O O O . . . . . O O O . O . O O O O O O O O O O O O @ O ",
". . . O O O O O + + + + O O O O O O O O . O . O . . . . . . . . O O O O O O O . O . . . . . . . . . O . O . O . O . O O O O O O @ @ @ O O . . . O . O O . + 9 2 0 t t t t t v v M M b b N n v v 3 3 4 < < O O + 9 h x v x 6 6 6 3 2 2 2 2 2 2 2 2 # 2 9 # # & O . . . . . . . . . . . . . . O O O O @ . . .         . . . . O O O O + O O + + + + + O . . . . . . . O . O . . . O . O . O . O . O O O O @ @ @ O O O @ O O . . . . O O . . . . . . . . O O O + O O O O O O O O O O O . . . O O O . . . . . . . . @ O O O O O O O O O O . . . . . . . . . O O + O O O . . O O O O O < < 4 t t t N b N N N N N N N N n v t 0 3 3 < . . . O 9 j m n 0 0 0 3 3 2 2 < < < 4 4 < < < 2 9 + # O O @ . O O O O O O O @ @ . . . . . . . . . . . . . . . . . . . . . . . . . . . . . . . . . . O O O O O O O . . . . . . . O O O O O O . . O O O O O O O O O O O . O . O O . . . . . . . . . O O O O O O O O . O . O O O O . . O O O O O O O O + + + + + + O O O @ @ O O . O O . . . . . . . . . . . . . . . . O O . + 9 2 0 t t x t v c v N m m c c x x v 3 3 < < 2 O   @ 9 j j j h 9 9 9 2 2 2 2 2 2 2 2 4 < < 2 + 2 2 O O O O O O O O O @ @ * * * * * * * * * * * * + + * + O O O O . . . . . . O O O O . . . . . . . . O O O O O O O O O O O . O O O . O O O O O O O O . . . . ",
". . O # & 9 9 g 3 3 3 2 2 2 & # * * + * * * * * O @ @ @ @ @ @ @ * * * * * @ O O . . . . . . . . * * * * * * * * & & & & & & 2 2 & 2 2 & # * O O O O O O . O + O O + + + + + + + + + + + + + + + + + O O + O O + O + + > + > > > O O O O . . . . . . . @   . . . O O O O O . . O s = & 2 2 2 s s * * @ % % % @ @ @ @ @ @ @ @ * * 3 3 3 3 3 3 3 3 < + + O O @ @ @ O O O O O O O O @ @ @ @ @ @ @ @ O # & & & # # & # # @ O O O @ O O O O O O . . . . . O O O O + * 9 9 9 9 9 g g g g g 9 9 9 2 2 2 9 9 9 9 9 9 9 9 g g g g g g g g 2 & * O O . . @ . @ @ O * # & & # O O O O O O O O + + O + + + + + + + + + + + + + + + + + + O O . X   . . O O O + + + O O O O O O O O O O O O O + . O O O + O + O O + # # 2 9 9 @ @ @ @ . . . . O O @ @ O @ @ @ @ @ @ @ @ @ @ @ . X X . . . @ @ @ @ @ @ @ O O . O O O O O O O O O O O O O O O O # # # # # # # # . O O @ @ O O @ . . @ @ @ @ @ # & & & & & & & & O O O O O O O O O O O O + + * * + + + < 2 2 9 9 9 9 9 9 9 9 9 9 9 9 2 & # # + O O O O O O O O O O O O O . O + O + + + + + > > > > + > > + > + + + + O O O . . @ . O @ @ O . . . . . . . . . . O O O O + O O + O O O O O O O + 2 z z h h h g g s g g h h h h h h j g 9 & * O . . . . . . @ O O O & & & & * * * * $ @ @ @ @ @ $ @ O O O # & & # @ & & & & & & & & . . . . ",
". . # 9 g g g h h h g g g g g g h h h h h h h h h h h h g g g g h h g g g g g g O O . . . . # 9 g g g g g g g g g g g g g g g g 2 a n 2 O 4 y.n.n.n.z.p.p.a.a.y.B M M M N N N n M M M N N N N N b b N N N N N N x x c c c c c c j h j g g g g g j j l l V V S S a.p.z.a.a.a.m . g g g g h v x 3 h h g g g g g g g g g g g g h h g g h h h h h h 9 g 9 O . . . . . O @ & & & & % & & & & & & & & & & & & & & & & & & & & & & & & 2 2 & & * O @ @ . O O . * 2 g h h h g h h h h h h h h h h h h g g g g g g g g g g h h h h h h h j h 2 O . . . . @ @ % & & & & & . 2 y.n.n.p.p.z.a.a.t.r.| M b b b N N N N N N N N N N N N N N v C C C C C m m m h h h h h h h h 0 0 x x x x x x B S r.y.y.a.a.a.z.S m O O h g g g 9 & + O O . O @ @ @ @ @ @ @ @ @ @ @ @ @ @ @ @ @ X X X @ @ @ @ @ @ @ @ @ @ @ @ @ @ @ @ @ @ . . . . . @ @ % % % & & & & & & & & & & & & & & & & & & & & & & & & & & & & & & & & @ # @ . . . . . O & 2 g h h g g g g g g g g g g g g g g g g g g g g g g g g g g 2 9 j # O # y.n.n.n.z.p.p.a.a.u.E E E M b b c c N N E N N N N c N N N M m m m m j j j l l l j j h h h g g h g g x x v N M B | r.a.a.p.a.a.p.m O 9 g g g g j h 3 h h h h h h h h h g g g g & O . . . . @ & & & @ * & & & & & & & & & & & & & & * & & & & & & & & & & & & & & & & @ @ . . ",
". @ # 9 g g g h h h h g g g g h h d d d d d x x x x x x h h h h j h h g g g g g * O O . . @ & g g g h g h g h g g g h g h g g h a n N a , w.b.}.b.b.b.b.b.b.b.b.}.}.}.}.}.}.|.|.|.|.|.}.}.}.}.}.|.|.|.|.|.|.|.}.}.}.|.|.|.|.|.|..X.XXX XXX XXX X}.{.{.^.{.^.b.b.Y.[.}.[.[. Xb.m 2 g h h x x c d d x h h h h h g g h h h h h d h h h h h h h h h 3 g 9 @ . . . . . @ @ & & & & % & & & & & & & & & & & & & & & & & & & & & & & & 2 & & & # @ O @ . O O O + 2 g h h x h a x x d x x x x x x x x h h g h h h h h h h h h h h h d h j h 9 # O . . . @ @ & & & # # * 2 S b.b.b.v.b.b.b.P.Y.Y.).|.|.|.|.|.}.|.}.}.}.}.}.}.}.}.}.}.}.}. X{. X X}.}.}.}.XXXX|.|.XXXXXXXX}. X X X}.}.}.}.b.b.b.b.b.b.Y.b.{.b.n.h + j 3 9 h 9 2 + O O O O @ @ @ @ @ @ @ @ @ @ $ @ @ @ @ @ @ X X X @ @ @ @ @ @ % @ @ @ @ @ @ @ @ @ @ @ . . . . . @ @ % % % & & & & & & & & & & & & & & & & & & & & & & & & & & & & & & & & # @ @ O . . O O & 2 g h h j g g g g g g g g h g g g g g g g g g h h h h h h h h 0 x x 3 4 S b.{.b.b.b.b.b.b.b.b.}.}.|.|.|.|.|.|.|.|.|.|.|.|.|.|.|.|.}.}.}.}.}.}.}.}.}.}.}.}.}.}.XXXXXXXXXXXXXX X).).).).Y.Y.Y.Y.Y.Y.}.[.Y.XXb.n 2 g h g h j j g h h h h h h h h h h h h g & @ . . . . @ & & & @ & & & & & & & & & & & & & & & & & & & & & & & & & & & & & & & % @ @ . . ",
"O @ 9 g g g g h h h h h h g g h x d d d d d d d d d d d d d d x h h h h g g g g 3 # O O O 2 g g g g h g h h h h h g h h h h h h a d a > > B n.p.t.t.t.t.p.p.p.p.i.i.i.p.k.k.k.k.k.k.p.p.p.i.i.i.k.k.k.k.k.k.p.p.k.k.k.k.k.k.k.k.s.d.s.s.s.s.s.s.j.h.h.h.s.t.t.w.j.h.k.p.p.b.n.h > 3 v x d f f d d d x x h h h h h h h h x x d d h h h h h h h h 3 h g & @ . . . @ $ & & & & & & & & & & * * * * & & & & & & & & & & & & & & & & & & # # # # @ @ @ O O @ 2 g g h x d d d d d d d d d d d d d d x x h d d d x x x x x d x d d x x h h g & @ O . . % % & & & @ O O + M n.p.r.t.p.i.t.t.t.i.i.f.k.k.k.k.k.k.k.k.k.k.i.i.i.i.i.i.i.i.k.k.k.k.k.h.h.h.d.d.d.d.d.d.d.d.t.r.r.r.r.r.r.r.i.i.i.k.p.k.k.k.z.b.b.x > v h h h h 3 < + O O O @ $ $ $ $ $ $ $ $ $ $ $ $ $ $ % % % % % % % % % % % % % % % % @ @ @ @ @ @ @ . . . . . @ @ % % % & & & & * * * * & & & & & & & & & & & & & & & & & & & & & & & & & & @ @ O . O + h h h j j h g g h h h h h g h g h h h h g g g g h h h h x x x x 3 3 3 + + M n.a.i.i.i.i.i.p.k.k.i.i.i.k.f.f.k.k.k.k.h.h.h.h.h.i.k.k.k.p.p.p.p.p.k.j.k.k.j.j.j.j.h.h.h.h.h.h.s.s.k.u.f.u.i.t.t.t.k.h.k.k.k.b.n.x + 3 j h g h h h h h h h h h h h x h h j g 9 # O . . . @ & & & # & & & & & & & & & & & & & & & & & & & & & & & & & & & & & & & & % @ X . ",
"@ & g g g g h h h h h h h h h h x d d d d d d d d d d d d d d x h h h h h g g g g # O O # g h g g h h h h h h h h h h h h h h h n n d > > w.n.r.t.t.t.t.t.t.t.t.t.t.t.t.t.t.t.t.k.p.k.k.k.k.k.k.u.f.k.p.k.p.p.p.k.p.p.k.k.k.k.h.j.j.j.j.j.j.j.j.j.j.j.j.j.j.j.j.s.w.t.r.r.p.y.2 + 3 v x d d f f d d d x d h h x h h x x x d d d x x d d x d x h 3 h g 9 # @ . . & & & & & & & & & & & & & & * & & & & & & & & & & & & & & & & & + + # + # # # # O O O & g h g h x d d d d d d d d d d d d d d d x x x d d x x x x x d d d d x x h g g g & O O @ & & & & & # @ + + S n.a.w.i.k.t.h.h.h.i.r.r.| | k.k.k.k.k.k.k.k.k.k.k.k.k.k.k.k.h.h.j.j.j.j.j.j.j.j.j.j.N.N.N.g.k.p.p.p.k.k.k.k.t.t.t.t.t.t.t.t.M a.p.2 + v v h h h h 2 + O O O @ $ $ $ $ $ $ $ $ $ $ $ $ $ $ $ % % % % % % % % $ % % % % % % % @ @ @ @ @ @ @ . . . . @ % % % & & & & & & * & * & & & & & & & & & & & & & & & & & & & & & & & & & & # @ O O O + j j j h h h h h h h h h h h h h h h h h h h h h h h h h x x x x x x x > > S z.w.i.i.i.i.i.i.i.t.t.t.r.r.t.t.t.t.k.k.k.h.k.k.k.k.p.p.p.p.p.p.p.k.h.d.d.j.j.h.j.d.j.j.j.j.j.j.j.j.k.k.f.f.k.k.k.k.t.w.t.t.t.p.r.2 + 3 j h 9 9 g g h h h h h h h h a h h h h g & @ . . @ @ & & & # & & & & & & & & & & & & & & & & & & & & & & & & & & & & & & & & % % X . ",
"O 9 j g g h h h h h h h h h h h x x x x x x d x d x d d d d d x h h h g h h h g v # O O # g j g h h h h h h h h h h x h h h h h a h h 4 + M p.r.i.i.t.t.u.u.t.t.k.k.k.p.k.p.k.p.t.r.t.r.t.t.t.t.r.r.r.r.t.r.t.r.t.r.r.r.r.r.r.t.s.s.s.e.e.e.s.s.! ! ! ! e.e.e.d.l.h.k.p.a.a.B + + 9 v v d d d d d d d x x x x h h h h x x d d d d x x x x x x d 3 h j g & @ . . & & & & & & & & & & & & & & & & & & & & & & & & & & & & & & & & + + + + & & & & @ O O 2 h h g h x x d d d x d d d d d d d x d x d d x x x x d x x d d d x x x x h g h j 2 O O @ & & & & & & & & O m z.a.r.p.k.t.i.i.u.p.u.p.p.p.t.r.t.t.t.r.t.r.t.t.t.t.t.t.t.t.w.w.e.e.e.e.e.e.s.s.d.d.e.e.e.s.t.t.t.t.t.i.i.i.k.k.k.k.k.k.k.p.a.a.a.4 + m v 9 g g j 9 + O O O @ $ $ $ $ $ $ $ $ $ $ $ $ $ $ $ $ % $ % $ % % % $ $ % % % % % % O @ @ @ @ @ @ . . . @ % % % % & * & & & & & & & & & & & & & & & & & & & & & & & & & & & & & & & & & & & O O O 2 j h a a a h x x x h h h h h h h x h h h h h h h x h h h h h x h 3 h x 4 + M p.r.i.i.i.i.i.i.i.t.p.p.p.p.p.p.u.u.t.t.t.t.t.t.t.t.r.r.r.r.r.r.r.t.w.e.e.e.e.e.e.e.e.s.s.s.d.s.e.s.W |  .t.t.t.t.t.k.h.k.k.i.a.Z + + 9 v v h h h h h h h d d d x x d x x a h j 2 O O O @ @ & & & & & & & & & & & & & & & & & & & & & & & & & & & & & & & & & & & & % % @ . ",
"O 9 j h 3 h x 3 d x x h x h h h h h x x x x x x x x d d x x x x h h h h h h h g j < O O # g j g h h h h h h h h x x x x h h h h 3 s g 4 O 2 m m m m N N M M M E N N N N N M E E p.p.p.p.p.p.p.p.a.a.p.p.p.p.p.p.p.p.p.p.p.p.p.p.i.u.s.s.s.s.h.h.g.g.g.g.g.g.g.k.i.w.t.r.B V g O # g j h a x c f d d x x x h h h h h h h x x d d d d d d d d d x 3 h h g & @ . . & & & & & & & & & & & & & & & & & & & & & & & & & & & & & & & 2 4 4 4 4 & & & & # O O 2 j h g x x x d d x x d d d d d d d d x x d d x x x x x h h h h h h h h h h a h j 2 O O & & & & & & & & & . 2 m m m E E c c N b N N b b b a.a.a.a.a.a.a.a.p.p.p.p.p.p.p.p.p.p.k.p.p.p.p.p.i.i.i.i.i.i.s.i.i.i.i.i.i.p.p.p.r.r.r.r.r.r.r.r.y.B m + + m g 9 9 g j 9 # O O @ @ $ $ $ $ $ $ $ $ $ $ $ $ $ $ $ $ $ $ $ $ $ $ % $ $ % % % % $ $ @ @ @ @ @ @ @ @ . . @ % % & % & & & & & & & & & & & & & & & & & 4 2 2 2 2 & 2 & & & & & & & & & & # # & O O O 3 g a a a a d x x x h h h h h h h x x x x a a d d h h h h h h h h 2 3 g < + 2 m x N N N N M M M E N N N M M M M M p.k.p.p.p.p.p.p.a.a.a.a.a.a.a.p.k.k.k.k.k.k.k.k.i.i.i.i.s.u.s.i.k.k.k.k.k.k.k.k.i.w.t.r.B M h O < g v h g h v v h h x x x x x d d x d a h k 3 O O O # # # # & & & & & & & & & & & & & & & & & & & & & & & & & & & & & & & & & & & % @ X ",
"O 9 j g 3 x x 6 d d x x h h h h 0 0 0 0 h 0 0 0 0 0 0 0 0 t 0 0 3 3 0 0 0 0 h h 9 + O O < g g 9 0 t t t x x t t t t t t t t t h l g z g * # g g h h x x x x v v x x x x x x N N t t 0 x x x x x 0 0 t t t t t t x x x x h h h 0 v u v v v v b b v v v u v u t t N x x m h j 9 . @ # 2 < 2 0 x x t t 0 0 0 0 9 0 9 9 0 0 0 0 t t d d d d d d d x d 3 g g & O . O & & * * & & & & & & & & & & & & & 2 2 2 2 2 2 2 2 2 2 2 2 2 2 2 4 4 2 < & & & & & O O 2 j h a x h h h h h h h h h h h h h h h h h h h h h h h h h h h h h h g h x a h h 2 O O & & & # @ # * * + O & g h x x x 6 N M N n v v j 0 0 t t t t t t t x x x x x x x x 0 0 0 0 0 0 9 9 j j m m v v v n x N N N c c c c c c x x n n n n j # # O O 9 # 2 & 9 z g # @ @ @ @ $ $ $ $ $ $ $ $ $ $ $ $ $ $ $ $ $ $ $ $ $ $ $ $ $ % % % % $ $ O @ @ @ @ @ @ O . . @ % & & * & & & & & & & & & & & & & & & & & 4 4 4 4 4 2 2 2 2 2 2 & & & & & & * # & + . O 3 a h h x d d d d x h h x d d d d x x x x d d d d h g h h g h g g m g g 9 + 4 g h x x x x x x x x x x v v v v n n t 6 t x x x x x 0 0 h h x x x h h z 0 z 0 u 0 0 m m m m m m m v n n c c c c c c N v x m j j g O + < 4 < 3 0 x x 0 0 t t x 6 6 d d c d 3 a n 3 O O O # & # # # & & & & & 2 2 2 2 2 2 2 2 & & & & & & & & & & & & & & & & & & & & & % % @ ",
"O 9 j g 3 h x 3 d d x h h h h h 9 9 9 9 9 9 0 0 0 0 0 0 0 0 0 0 3 0 0 9 0 0 h h 9 # O + 2 g g 9 0 t t t t x 6 6 6 t t t 0 0 0 h + . . O O . + + + > > + + + + + > > + + + + + + + + + + + + > > > + > > > > > > + + + + + + + + O O O O O O + + O + + + + + + + > + + + + + + . O O O O + 3 0 3 0 0 0 0 9 9 0 0 0 9 0 9 0 0 0 0 x d d d d d d x x 3 9 g & . . @ & * * & & & & & & & & & & & & & & & & & 2 2 & 2 2 & & & & & & 2 4 2 4 2 2 & # # & O . & j g g j h h h h h h h h h h h h h h h h h h h h h h h h g g g g g g g g x 3 0 g & . O & % & @ @ + O + + + + + + > > > > + + + + + + O + + + > + + + + + > + > + > + > + + O O O O O @ @ . O O O O O O O + + + + + + + + + + + + + + > + 3 + + O O + O + # 9 g g % @ . @ @ @ @ @ @ @ @ @ @ @ @ @ @ @ @ @ $ $ $ @ $ @ $ @ $ @ % @ % @ $ @ O O O @ @ @ @ @ . . @ & & & & & & & & & & & & & & & & & & & & & & 2 4 2 4 2 2 2 2 & & & & & & & & * & & O . O 3 h h x x x x d d x x h h h h h h x x x x d d d h h g g g g g g g + O O + O O > < > > > > + + + + > + + + + + O O + + + + + + > + + + > > > > > + + O O O + + + + O O O O O O O O + + > > > > > > > + + + + + + . O + + + > 3 0 3 0 0 0 0 h 0 0 d d x d 3 a k 2 . O O & & # # # & & & & & & & & & & & & & & & & & & & & & & & & & & & & & & & & & & & % @ ",
"@ & g g g h h h h h h h g g g g h g g g g g g g g g h h h g h h h h h g h g g g g # O O # g g g h x x d d d d d 6 d x 3 v m + 4 r.n.}.).b.b.b.b.k.k.k.f.i.r.t. .E E E E E E E E b b b b b b b b c c x x x x b v v v x x x h 0 0 0 0 8 8 8 8 0 0 v v v v v v v u M | r.f.v.P.).|.Y.+X.Xn.3 + h < h h h g g g g g g g h h g h h h h h h h d d d d x d h g 2 O . O @ @ & & & # & & & & & & & & & & & & & & & & & & & & & & & & & & 4 4 4 4 2 & & & O O O * 9 h j g h h h h h h h h x h h h x h x h h g h g g g g g g g g g g g h h h 0 9 g & . . X @ @ . O r.Y.].Y.Y.P.K.x.x.k.l.f.R { { { | | | | N N N N N N N N N N N N N N N N n v v v v v v v h h h h h h h x c c c c c c c c x v c b b | r.u.P.P.P.).|.|.|.}.3 O g h & .   X @ @ @ @ @ @ @ @ @ @ @ @ @ @ @ @ @ @ @ @ @ @ % @ $ @ @ @ @ @ % $ $ @ @ @ @ @ @ $ O . O * & * * & & * & * & * & * & * & * & * & & & & & & & & & & & & & & & & & & & * * * O . + 2 g h h 0 h 0 t h h h h h h h h h h h h h h h h h g g l s k l + 4 r.n.).).Y.K.K.K.k.k.k.p.u.r.r.r.E E E E E E E E N N N N N N N b c c c c c c c c c x x v v v x x x x x x x x x t c c c c c c c c E E r.p.v.b.).}.).+X|.v.3 O 3 9 0 0 0 0 g g g g a g g g h g & O . @ @ & & # & & & * & & * * * * & & & & & & & & * & & * * * & & & * & & & & & & * % @ . ",
"O 9 g g g g h h h h h h g g g g h h h h h h h h h h h h h h h h h h h h h h g g g # O O # g g g h x x d d d d d 6 6 x 3 j j + < Y.#X@X@X@X@X@X#XOX@XOX#X#X#X#XoX&X&X&X&X&X&X&X&X&X&X&X&X&X&X&X&X&X&X&X*X&X*X&X&X+X+X.X.X.X.X.X.X=X=X%X%X%X+X%X%X%X$X$X$X$X$X$X$X$X$X$X@X@XBXBXBXOX@X@X.Xr.> 0 h h h h h h h h h h h h h h h h h g g h h h d d d x x h g 2 O . O @ @ & & # # & & & & & & & & & & & & & & & & & & & & & & & & & & 4 4 4 4 & & & & O O O * 2 h h g h h h h h h d d x x h h x x x h h h h h h h h h h h h h h h h 0 x 0 9 g = . . @ = s & g b.+X+X#XOXOXOXOXoXoX_._.$X$X$X$X$X%X%X$X&X&X&X*X&X*X&X*X&X&X&X*X&X*X&X*X&X&X%X%X&X%X%X%X+X+X+X+X+X+X+X+X@X@X@X@X@X@X@X@X&X$X$X$X$X$X&XZXVXVXVXVXCXCXVX&XE > 3 h & $ . % @ @ @ @ @ @ @ @ @ @ @ @ @ @ @ @ @ @ @ @ @ @ @ @ @ @ @ @ @ @ @ @ * * @ @ @ @ @ @ O . O * 4 * 4 4 & & & & & & & & & & & & & & & & & & & & & & & & & & & & & & & & * * * * O . + s g g h 0 0 0 0 h h h h h h h h h h h h h h h h h g g k s k n + < }.|.@X@XBXVXBXOXOX@X@X#XoXoXoXoX&X&X&X&X&X&X&X&X&X*X&X&X&X&X&X&X&X&X&X&XVXVXVXVX#X+X+X+X+X+X+X+X+X+X+X+X+X+X+X+X&X$X$X$X$X$X$X$X@X@X$X$X$X$X$X@X@X$X#X|.E > x 0 0 0 0 0 g g g g g g g g h g & O . @ @ & & # & & & * & & * * * * & & & & & & & & & & * * * * & & & & & & & & & & & % @ . ",
"# 9 j g 0 h x x d d d h h h h h h x h h h h h h h x x x h h h h h h h h h h h h h 4 O O < g g g h x x x d d d d d 6 x 3 h j O 4 R.U.U.L.U.Q.Q.U.U.U.U.U.Q.Q.Q.Q.V.V.V.V.K.V.K.V.K.K.K.K.K.K.K.K.K.K.K.K.K.K.K.K.oXoXoXoXoXoX#X#X#X#X#X#X#X#X#X#XT.T.T.T.T.T.T.T.(.(.Q.Q.Q.Q.!.Q.OX].].&Xk.+ 4 x h h h h h h h h h x x x h h h h g h g h x x d d x h g g 2 O . O * & & & & & & & & & & & & & & & & & & 2 & & & & & & & & & & & 2 2 2 2 & & & & & O O . O 2 h h g h x x x d d d d h h h h x h x x h h h h x x h h h h h h h x x t x 0 0 h 9 O . % @ O O 3 n.|.T.D.L.L.L.I.I.I.I.I.V.V.V.V.V.x.x.V.K.K.K.K.K.K.K.K.K.K.K.K.K.K.K.K.T.T.T.(.T.T.T.T.#X#X#X#X#X#X#X#X#X#X#X#X#X#X#XoXoX_.T.T.T.T.T.I.Q.Q.Q.Q.Q.Q.].Y.k.> 4 g s & . % @ @ @ @ @ @ @ @ @ @ @ @ @ @ @ @ $ $ @ @ @ @ $ $ $ @ @ @ @ @ $ $ * * $ $ @ @ @ @ . . . * & * * 4 & & & & & & & & & & & & & & & & & & & & & & & & & & & & & & & & & * & * O O + s h g h h 0 0 0 0 d d d d x x x x d d d x x x x h h a n a x x + , b.P.K.K.U.Q.!.L.I.I.I.I.I.I.I.I.V.V.V.V.V.V.V.V.K.K.K.K.K.K.K.K.K.K.K.K.K.K.I.I.oXoXoXoX#XoX#X#X#X#X#X#X#X#X#X#XQ.Q.Q.Q.Q.Q.T.T.Q.Q.Q.Q.T.I.I.I.#XoXT.oXi., 6 3 0 0 0 0 h h h h a x h g j g & O . @ # & & # & & & & & & & & & & & & & & & & & & & & & & & & & & & & & & & & & & & % @ . ",
"2 h v h 3 d x x d d d x x x x h x x x x d d d d x x x x x x x d x h x x d h d h h 4 + O 4 9 h g h x x x x d d d d 6 v 3 h h O 3 m.F.F.M.M.F.F.M.M.M.M.M.M.M.F.F.L.L.L.L.L.L.L.L.E.U.E.U.E.U.E.U.Q.Q.Q.Q.Q.Q.Q.Q.D.D.F.F.F.F.F.F.m.m.m.m.D.m.m.m.D.D.D.D.F.D.m.m.l.m.m.M.F.F.F.F.U.D.D.|.t.+ < x d x x x x d d d d x x x x x x d h h h h x x d d x h g h & @ . O * * & & * * & & & & & & & & & & 2 4 4 4 4 2 4 2 4 2 4 2 4 2 4 2 2 2 & & & & & & O O . O 2 g h g h x x x d d d h h h h h h h h h d d d d x x x x x x x x d d x t v 6 x h 3 O O % & * + 3 v.].R.m.M.M.M.M.M.M.M.M.U.U.L.I.I.I.I.I.L.W.L.L.L.U.L.L.L.L.L.L.L.L.L.L.V.V.V.V.V.C.C.C.m.m.m.m.V.V.V.m.m.m.m.m.m.m.m.m.L.L.K.m.m.m.D.F.L.M.M.M.F.L.K.K.s.> > g 2 O . @ @ @ @ @ @ @ @ @ @ @ @ @ @ @ @ @ @ @ * @ * @ * $ * @ * @ * @ * * * * * $ @ @ @ $ . . . $ & * * & 2 2 4 2 4 2 4 2 4 2 4 2 4 4 4 2 4 4 4 2 4 4 4 2 4 4 4 2 4 2 4 & & * & & O O * g h g h h 0 0 0 t x x d x d x d d d d d x d x d d a a n a x x + 3 v.R.K.m.m.F.F.M.m.m.M.m.M.m.F.F.L.L.L.L.L.L.L.L.U.U.U.U.K.K.U.U.I.I.I.I.U.Q.Q.Q.m.m.M.M.M.M.M.C.M.M.M.M.M.M.M.M.F.F.F.F.F.F.F.F.m.m.m.m.F.F.L.L.L.m.l.Y. .> 1 6 x t 0 0 h x x x d d d a h g 2 O O O # & & # & & & & & & & & & & & & & & & & & & 2 2 2 2 2 2 2 2 2 2 4 2 4 2 4 & & % @ . ",
"2 h x x 6 d x x d d d d d d x x x x d d d x d d d d d x d d d d d x d x x x x x 3 > + + 4 0 h h h h h d x d d x x 3 v 3 h 9 O 3 m.E.!.J.J.E.E.E.E.E.E.E.E.E.E.E.F.F.F.F.F.F.F.F.F.D.F.F.M.M.M.M.F.F.F.F.F.F.F.F.J.J.J.J.H.H.H.H.H.H.H.H.F.F.F.F.E.E.E.E.E.E.E.L.U.U.L.E.E.E.H.H.D.D.D.K.E > a x d d d x d x d d d d d x d d d d h h h x x x x h h h g h & @ . . * * 4 4 * * * 2 4 4 4 2 2 2 2 4 4 4 4 2 4 4 4 4 4 4 4 2 4 2 4 2 & & & & & & & % @ O . O 2 g h g d d d x x d a h h h h h h g h h d d d x d d d d d d d x d x d 6 x t t x 3 O O * 2 4 + 6 c.T.K.L.E.E.E.E.E.E.E.E.M.M.M.m.m.m.m.M.M.M.M.M.M.M.M.M.M.M.M.M.M.M.M.M.E.E.E.E.A.A.E.E.C.M.B.B.C.M.M.C.L.L.L.L.L.L.L.L.E.E.E.E.E.E.Q.Q.E.L.F.L.U.U.U.R.E + , j 2 O . @ @ @ @ @ @ @ @ @ @ @ @ @ @ @ @ @ * * * * * * * $ * * * * * * * * * * @ @ @ @ $ @ X . . $ & & & & 4 4 4 2 4 2 4 2 4 2 4 4 4 4 4 2 4 2 4 4 4 4 4 2 4 2 4 2 4 2 4 4 & & & % O O * g h h h h x x t t d d d d d d d d d d d d d d d d d a n a x d + 6 l.R.T.U.L.L.E.E.E.E.E.E.E.E.E.E.F.F.F.F.F.F.F.F.M.M.M.M.M.M.M.M.F.F.F.F.F.F.F.M.E.E.E.A.A.B.B.A.B.M.B.M.B.B.A.M.E.E.E.E.E.E.E.E.E.E.E.E.E.E.E.L.K.m.l.K.E + 6 c d x x x d d d d d d d d x h 4 O O O * & & & & & 2 2 4 4 4 4 2 2 2 2 4 4 2 2 2 2 4 2 4 2 2 2 2 2 2 2 4 4 4 4 4 & & % @ . ",
"4 9 v d 6 d d d d d d d d d d d d d d d x x x x d d x x d d d d d d x x x x x x 3 > O O 4 3 h 3 h h h h d d x x x 3 v 9 h 3 O 6 e.M.H.H.M.F.H.F.H.H.F.F.F.M.M.M.H.H.H.H.H.F.H.H.E.E.E.H.E.E.E.E.H.H.H.H.H.H.H.H.J.J.J.J.H.H.H.H.H.H.H.F.F.F.F.F.M.M.M.M.M.M.M.m.F.F.F.F.F.F.F.F.F.U.D.k.6 > v 3 d d x x x x d d d d x x d d d d d d x x x h h h h g g z & @ . O * * 4 4 * * 4 2 4 4 4 2 4 2 4 4 4 2 2 2 2 2 4 4 4 4 4 2 2 2 2 2 & & & & % % % % @ . . O & g g g h d d d x x h h h h h h g g h h d d d x x x d d d d x x x x x t x 6 0 x 2 O O * O O O < t.l.l.K.F.M.F.M.F.M.M.M.F.F.L.L.F.L.L.F.A.A.A.A.E.A.A.A.A.A.A.A.A.A.A.A.M.N.M.N.N.N.N.M.M.M.M.B.M.M.M.M.L.L.L.L.L.L.L.L.M.M.M.m.m.m.M.m.F.M.M.F.L.L.D.x.6 + x n & @ . % @ @ @ @ @ @ @ @ @ @ @ @ @ @ @ $ * * * * * * * * * * * * * * * * * * @ @ @ @ $ % X . . @ % % & & 4 4 4 2 2 2 2 2 2 2 4 4 4 4 2 2 2 2 4 4 4 4 2 2 2 2 2 2 2 2 4 & * % & % O . @ g g g h h x x d x x d d d d d d d d d d d d d d d x a n a x 3 + 6 t.l.K.K.m.M.L.L.F.F.F.F.F.M.F.F.H.H.H.F.H.E.E.H.E.L.E.L.L.L.L.L.L.L.L.L.L.L.L.L.A.A.A.C.M.M.M.M.M.M.B.M.M.M.M.M.M.M.M.M.M.M.M.M.F.F.F.F.F.F.F.F.K.R.v.v.c + 6 c x x x d d d d d d f d d x h 4 O O O * & & & & & 2 2 4 4 2 4 2 2 2 4 4 4 2 2 2 2 4 4 4 4 4 2 4 2 2 2 4 4 2 4 2 & & % @ . ",
"+ 3 h x h x x d d d d d d x x x d h h h h h h h h h h h h h h h d d d h h h h h 3 + O O + 3 g 9 h h h h h h h h x 3 v g h 2 O x e.d.m.m.D.F.L.F.F.F.F.F.F.F.F.F.F.F.F.F.F.F.F.F.F.L.F.F.F.F.F.F.F.F.F.F.F.F.F.F.F.F.F.H.H.H.H.F.H.L.L.L.L.L.L.L.U.U.U.U.U.U.U.U.D.F.F.L.L.L.U.U.D.K.k.i.3 + h 3 h h h h h h h h h h h h h h h h d d d d x h h h j h h z & @ . O * * 2 & * * 4 & 4 * 4 * 2 & 2 2 4 4 2 2 2 4 4 4 4 4 4 4 2 2 2 & & & & % % = = = @ . . O & g g g d d d d x x x h h h h h g g g g h h h h h h h h h h h h h h h 0 t 3 3 0 2 O . @ & & * h t.k.k.K.L.F.F.F.F.F.F.F.L.L.L.L.L.L.L.L.C.C.C.C.C.C.C.C.M.C.C.C.C.C.M.C.E.W.W.W.L.W.E.W.L.C.L.C.L.C.L.L.L.L.L.L.L.L.L.L.U.U.U.Q.U.U.E.L.L.K.L.K.K.K.l.k., + j g @ @ . X $ $ $ $ $ $ $ $ $ $ $ $ $ $ $ $ $ $ $ $ $ $ $ $ $ $ $ $ $ $ $ $ * * * @ @ @ @ % o   . @ % % % & & 4 4 4 2 2 2 2 2 4 4 4 2 2 2 2 2 4 4 2 4 2 2 2 2 2 4 2 4 4 4 & & % % @ O . O 2 g g h h h h h h d x x x x d x x x x x x x x x x x a x a x 3 + x | k.x.l.m.K.L.L.L.L.F.F.F.F.F.F.F.F.F.F.F.F.F.F.L.F.F.F.F.L.L.L.F.L.L.L.K.K.D.D.C.C.C.C.C.C.M.M.L.C.L.C.L.C.L.L.E.U.U.U.U.U.U.U.F.F.F.L.L.L.U.U.K.v.k.i.3 + 3 3 d x d d d d d d d d d d h g # . O O @ & & & & & & & 4 & 2 & 2 & 2 & 4 & 4 & 2 4 4 4 4 4 2 4 2 2 4 4 4 4 & & & & & % @ . ",
"O 2 g g g h x a x x x d d x x h h h h h h h h h h h h h h h h h h h h h h g g g 3 + O O # 9 g 9 g h h h h h h h j 3 j h h 2 O x E Q Q W d.l.l.h.m.l.D.D.D.K.K.K.m.m.m.m.x.l.m.m.l.x.m.m.D.m.m.m.D.D.D.D.D.D.D.D.D.D.D.D.F.F.F.D.D.D.D.D.D.D.D.D.l.l.l.l.l.l.l.l.K.K.K.K.D.D.D.x.x.k.r.y.3 O 9 g g h h h h h h h h h h h h h h h d d d d h h h h h h z z & @ . O * * & & * * & & & & & & & & & & & & & & & & & & & & & & & & & & & & & % % = = = @ . . . & g h g d d d d d d h h h h h h g g g g g h h h h h h h h h h h h h h 0 0 3 2 9 & . . @ @ & * 3 M M N i.g.j.j.l.l.l.l.l.m.m.m.m.m.m.m.m.m.m.m.m.m.m.m.m.m.m.m.m.m.m.m.m.m.m.m.m.l.l.l.l.V.m.m.m.m.m.m.m.l.l.l.l.l.l.l.m.g.l.l.m.D.D.D.D.K.x.v.v.x.k.t.E 4 + g 2 . @     % $ $ $ % $ $ $ $ $ $ $ % % % % $ $ $ $ $ $ $ $ $ $ $ $ $ $ $ % * * @ @ @ @ @ @     . X % % % & & & & & & & & & & & & & & & & & & & & & & & & & & & & & & & & & & % % @ . . O 2 g g h h h h h h h h h h h h h h h h h h h h h h v a x h x 2 + x N M E | u.l.l.g.l.m.D.D.D.D.D.K.m.m.m.l.m.m.m.m.m.m.m.m.D.D.D.m.D.D.m.m.l.l.l.l.l.l.m.m.V.V.K.K.m.m.m.m.m.m.V.m.l.l.l.l.l.l.l.l.K.K.K.K.K.K.m.l.k.c.r.B 3 + x 3 h h h h x x d d d x x h g g # . . . @ % % % & & & & & & & & & & & & & & & & & & 4 4 & & & & & & & & & & & * & & & % @ . ",
"  @ 9 j j j h j h h h x x h h g g g g g g g g g g g g g g g g g 9 9 g g g g 9 9 O O . . @ # = g 2 h j g g v j 3 h 9 g v h < 4 3 N N E E | E E E E M E E E E | | E E E M N N N N N N E E | E E E r.E E E E E E E E E E E E E E E E E E E E | E N | E E M M M M E E W W W E E w.w.M r.r.m & O & j g j g j g g g h g g g g g g g 9 x d a h h h g g 2 j l & . . . @ $ $ & & & & & & * * * * * * * * & & & # @ @ @ @ & & & # & # @ @ & # @ @ @ % % @ . . . . @ & h m 3 3 6 x x x x h h h h h h h j j g g g g g g g g g g g g g g g 0 h 0 2 # @ . . . X . @ 9 V y.r.M r.W E E E E E E E E E E W E E E E N E E E E E E E E E E E E E E E E E E E E E E E E E E E E E E E E E E E E E E E t.W E W s.t.E | | | M N N M B < # # @ X       X X X X X @ @ @ % % % % % % % % X X % % % % % % % X X % % % X X O * & % @ @ . .   o .   . & & @ & # # # # & & & # # # & & & & & # & & & & & & & # # # @ @ @ @ @ & @ @ O O O O . g h k k h g h j 9 j j 9 g j j 9 g g g g g g j j 3 a g g g 9 2 # V B B B E E E E E E E E E E E E v M E N N E E b E W W W W E E E E E E E E E E E E N M M E E E E E E E E E E E E E E N N E E | r.E E | | | E E M | B B v 2 O 2 m g g g g g h h h h h j j g & @ .       X @ % = = & & & & & & # @ # # # # # # & & & & & & # * # @ & # @ @ & = & % . . . . ",
"X X . @ @ & 9 9 g g g h h g g 9 g g g g g g g g 9 9 9 g g g g g g h j j j g 9 9 @ . . . . @ @ & g h h 9 9 9 g j l g g g 3 2 4 4 m m V B B B B B B B B V m m v v B B B B S S r.r.B B B B V m m v B M m n m m m m B B B B M M B S S S B V V V V V V V V V m V B B M E E E E | r.r.M S S l & * & j g 9 9 9 9 9 9 9 9 9 9 g g g g g h a h h h h h h l j & O . O O . . . O @ % % % % % @ % @ % @ % @ & & & & & & & & # # & & & & & & # # # & & @ @   . . . . @ & g l v v x x x h h h h g 9 9 9 9 3 9 g g g g g 9 9 9 9 9 9 9 9 9 9 9 9 9 # @ @ . .   X X @ & g m m v M M M M M | r.r.M B E M N N M | B Z S S S S S Z Z Z Z Z Z Z Z Z S S S S S S S S S S S S S B S B M E | | | M M M N M N c b | r.B v B S r.S B V V + O @ .         . . .   .   .   X . X . X . X X o o X o X X X o X o o   .   o @ O O . . . X X     . @ @ % & & % & & & & & & & & # # # # # & & & @ @ @ @ # # # & & & & & & & & & & # * O . . O O & 2 g h h h k l g j j 2 O O + # + + + # # # # # 3 3 9 9 9 2 # # j m m n n n N n x h h 0 9 9 0 3 x 0 2 0 n S r.B B E E E E E E E N N M B | E N N S S S S S S S S Z Z Z m m m m m x x h h h x v v m M V B B B B B B B B m 9 @ # g g g g z h h k k 2 2 g g & @ @ . % @ X X X X X @ @ @ @ @ # @ @ @ & & & & & & & & & & & & & & & & @ @ @ % = = @ . . . . . ",
"X         @ O + + + + + + + + O # # # # # # # # # # # & = 9 9 9 2 2 2 & & # # @ . . . . . . . . # # 2 2 & # & 9 & & # + < 2 > O O O O O O O O O # # # # # + O O O O O O O O O O O O O O O O O + & * O O + # # # O O @ O @ O @ @ @ @ @ @ O @ @ # # # # # # # # 2 > > > > < 4 2 < 3 g g & @ O & & O O O O O O O O @ @ @ @ O # # # 2 2 3 3 2 2 9 9 = # O . O O O . O @ @ @ & # & & & & & & & & & & O @ @ @ @ @ @ @ @ O @ @ @ # # # & & # # & # @ . . . . . . O @ 2 2 2 3 3 3 3 3 3 2 2 2 < 4 + + + + O O O @ @ O O O O O O O O O O O O . .     . .     . . O O + # O O + + + # 2 2 3 9 h g h 0 v m s 2 2 & & & & # O @ O @ @ @ @ @ O O O O O O O O O O O O O O O O + + + + + + + + < < < + + < 2 2 # 9 0 g 9 2 # # O O @ . . X X X . . . . @ . @ X @ X X . . . . . X X @ X X X @ X % % % X . . % = @ . . . . X X . . . . @ O . O O O @ @ O O . . . O O @ @ @ @ O O @ @ @ @ @ @ @ @ @ @ O O . . . . . . O . . . O + O O & & & & & & & # + O O O O O O O O O O O O O + + O O O O O . @ O O O + + + + O O O O O O O O O . . . O O + 2 + + + + + + + + 2 + + < 4 > + 4 O O O O O O O O * * O O O O O O O O O O O O O O + + + # # 2 9 0 9 9 9 9 O . @ = % % & & & & & & g z g & .                 X @ % # # # # @ O @ O . O O O . . . . O O O O O O O O . . .   . X   . . . . . ",
"    X X . . . . O O O + O O O O O O O O O O O O O O O O O O + + O + + O O O O O @ @ @ O O @ @ @ . . . O @ O O @ . O O O O + + O O O O O O O # @ . . O O O @ O O + O O O O O O O + O O O O O O O . . . . . . . . . . . . .           .   . . . . O O . . . . . . + + + + + + + + + + O O O O O * O O O O O O O O O O O O O O O O O + + + O O O O . . O O . . O O . . . . . . . . O . O . O . O . O O O O O O O O O @ O @ O O O O + + O . . . . . . . . . . . . O O O + + + + + + O O O O O O O O O O O O O O O O O O O O O O O O O O O O O @ @ @ . . . O O O O O . . . @ @ O O O O O O O + O O O O O . . . . . . . . . O O @ @ @ O O O O O O O O O O O O O O O O + + O O O O + O O O O . . . . . O . . . . O O O . . . . . . . . . . . . . . . . . . . . . . . . . . . . . . . . . . . . . . . . @ . . X X . . . % . . . . . O O O O O O O . . . O O O . O O O . O . O . O O O O O . O O O O O O O + + # + O O . . . O @ @ . . . O . O 2 V S V m j j j g 9 9 2 2 > + + + + + + O O O O O + + + + + # # # 2 2 9 9 9 j j j # . . O . . . . . . . O + . . O O O O + O O O O O O O @ . . O O O @ * * + + + # + O O O O O O . . . O O O O O O . . . @ . . . . . . O O O O . . . . @ @ @ @ . . . . . . O O O O O O O O O O O O O O O O O O O O O O O . O @ .       . @ . . . . ",
"    @ @ . . O O < 4 4 4 < < 4 4 + + + + + O O O O O O O O O O O O O O O + + + O # # 2 2 2 2 2 2 2 O . . O . . . O O O . O + 3 3 9 9 2 9 9 9 9 g m V B S y.y.a.a.n.z.z.z.p.a.a.a.v j 0 2 > + O O + O + + + O . . . . X X @ X X X @ X .   . . @ @ + + O + + + + + O O O O O O O O O O O O O O O O O O + + + + + + + 4 2 3 2 2 + + O O . . . . . . . O O O + + 3 n j h h 9 g 9 3 9 h h h h h h h h 2 2 2 # < # + + + O + O O . O O > > + + O O . . . . . @ @ . . O O O O . . . O O + + + + + + + + + + + + 4 < 2 2 2 2 2 2 2 2 2 2 3 3 2 2 3 9 g g g & & 2 9 2 + O O . . . @ . . O O . . . . O . . O O O O O O + * O O + * & & 2 2 g g g g 9 9 9 9 2 2 2 2 2 2 2 2 3 2 2 2 < + . . O O @ @ .   .   @ . . O 9 m B m m m m m m m m m m m m m m m M m m m m m m m m m j j j j j j j j g 9 g j j 9 + . . . . @     . X @ . . * a a a n 2 2 2 & < # + + + + + O + O + O O O O O O O + + h j m V S a.a.z.n.n.z.z.a.m * . . . . . . . . . O + n n.}.XX X}..X.X.XXXXX X}.}.}.).Y.b.b.b.^.^.^.^.^.^.^.^.^.^.{.{.}. X X X X.X^.{. X Xb.m < O .     . . . . O O O + h m M B a.p.z.z.z.n.n.n.n.b.b.[.{.{.{.}.{. X X X X X X{.{.z.a.r.M v g 2 2 3 h h g 2 * . . . . . . . . . O O . . . . .     . . . . O O + 2 9 g v m S D y.a.a.a.a.y.y.y.y.y.S S B M M M m m V V V g O . . . . . . . ",
"    X . . O 9 M  X}.XX.X.XXX}.}.}.}.}.}.}.{.b.b.b.b.b.b.b.b.b.b.b.b.b.[.[.}.}.{.}. X XXXXX XXX Xn.D 9 . . . . . . O . O 2 D b.}..X.X.X X.X.X.X.X}.}. X X X.X.X.X.X.X.X.X.X.X.X.X.X.X|.}.}.b.b.b.a.a.y.y.D S m g O .             X .   . @ 9 V D S r.r.r.t.u.p.p.n.n.n.n.n.n.n.n.b.b.b.b.b.[.[.[.[.^.[.}.}.}.XX.X}.XX.X.X.XXX}.{.2 * O . . @ . . @ . . + S n.b.[.XX}.}.}.}. XXXXX X X X X X X X X.X.X.X.X.X.X.XXX}.}.}.{.b.b.b.b.r.i.p.z.p.D l g O .   . @ . . . @ . . . O g V D y.y.a.a.a.p.p.p.}.{.}.}.}.XX.X.X.X.X.X.X.X.X.X.X.X.X.X.X.X.X.X.X.XXX XXX.X X^.b.#       .   . . @ . . O 9 C D S m M M B S y.a.z.b.b.^.^.{. X X X.X.X.X.X.X.X.X.X X X}.}.}.}.}.}.}.}.XX.X Xb.D j O . . . X X     . O 9 D b.{. X}.XX|.|.|.}.}.}.}.}.}.|.|.|.|.|.|.|.XX|.|.|.|.|. X}.}.}.}.}.}.}.}.}.}.}.}.XXb.a.m .     . .   . @ . O k a.b.[.[.[..X.XXXXXXX}.}.}.}.}.}.{.}.{.{.[.b.b.{.{.}.}.}.}.{.{.}.}.}.XX.X.X=X.X.X.X Xb.D g . . . . .   o . O M }.=X.XXX.X*X}.}.}.}.}.}.}.|.|.|.|.|.}.}.}. X}.}.}.}.|.|.|.|.}.}.}.}.|.}.|.}.+X.X}..X.X^.N O .       . . . . . # S b.{. X X X}.}.|. XXX.X.X.X}.}.}.}.}.}.|.}.|. X|. X|.}.}.}..X.XXX}.}.}.Y.Y.b.}.}.}.b.a.g O O O O . . . . . O O O * * O O . . O + 3 m a.n.b.}.}.}.}.XX.X.X.X.X.XXXXXXX}.}.}.|.|.|.|.}.}.}.}.{.}. Xb.D g O . . . . . ",
". . . . O 3 a.b.}.}.|.|.XX|.}.}..X.X.X|.|.}.].[.|.}.|.|.|.|.|.|.}.}.|.|.|.|.|.XXXX|.|.}.XXXX.XXX X{.a.#   . @ . . . O g z.}.=X*X|.|.|.|.|.|.|.|.|.|.|.|.|.|.|.|.|.|.oX|.oX|.oX|.T.].oX+X#X+X+X|.+X+X.XXX.XXXXX{.a.l @ . . . .   . @ # j a.^. X.X.X.X|.|.|.oX+X+X).^.}.}.}. XXXXX}.}.}.}.[.[.[.].|.|.|.|..XXX.X.X|.|.|.|.|.}.|.}.n.S # . . @ @ . . . O m {.=X*X=X|.|.|.|.|.|.|.|.|.|.|.|.|.|.|.|.].}.}.}.}.}.|.|.|.|.|.|.|.|.|.|.|.|..X=X.X X^.b.l @     . . . . . . O 9 D b.{.{.XXXX.X.X.X.X.X+X}.}.|.}.|.|.|.|.|.|.|.|.XXXX|.|.|.|.|.|.XXXXXXXX}.XXXX}.XX}.).^.z.z . . @ . . @ . @ z D n.{.{. X X X).).).). X Xb.b.b.^.).).).).).).).).).).).).).).).).Y.P.b.b.b.b.^. X X{.b.a.# .             . g z.{..X=X.X+X|.|.|.|.|.|.|.|.|.|.|.|.|.|.|.|.|.|.oX|.|.|.|.|.+X+X.X.X.X.X.X.X+X+X.X+X+X.XY.v.g       X   . . O l b.XX=X=X=X+XXX|.|.|.|.|.|.|.|.|.|.}.}.}.}.}.}.}.}.}.}.}.|.|.+X+X.X.X|.|.|.|.|.}. X.X.X X{.z.@ .             a n.%X+X].].|.|..X.X.X.X.X.X+X+X#X#X#X+XoX+X.X.X|.|.|.|..X.X.X.X|.|.oX|.oX|.oX|.oX|.Y.Y.+X&XR.v @ X X X X @ @ O O V b. X.X.X.X}.|.(.(.).(.).Y.).oX|.oX|.|.|.|.|.oX|.oX|.oX.X+X+XY.].].|.oX+X+X+XoX+X+X.XXX{.z.m O O . . . . . O O + j D a.z.n.b.b.[.[.}.XX.X+X+X+X.X.X|.|.|.].Y..X.X|.|.|.|.|.|.+XoX+X+X+X+X+X.X+X.X.X.X}.z.9 . O . . . ",
". . . O 2 B b.+X|.|.|.|..X|.|.|.+X+X|.|.|.].Y.Y.].|.|.|.|.|.|.+X|.|.|.|.|.|.|.|..X|.|.|.|.|.|.|.}..X^.j . . .   O . # a..X=X).n.v.v.v.x.l.l.x.x.R.R.R.R.Y.Y.Y.Y.v.K.D.x.l.l.g.j.K.R.T.oXoXoX].T.R.R.v.v.v.Y.}.}.=Xn.g O . .   . . O 0 p.}.=X.X).P.v.v.l.l.h.h.s.k.n.v.b.b.b.Y.}..X.X+X+X.X|..X+X+X+X+X|.|.|.|.|.+X|.|.|.|.|.+X.X*Xn.g . . . . . . O m b..XXXY.P.v.x.l.k.s.s.s.s.f.f.f.f.f.f.f.f.k.k.l.v.v.v.R.R.Y.Y.Y.|.|.|.|.|.+X|.|.}.|. XXX Xb.m @ . @ .   @ . O 9 a.{.=X.X}.}.}.|.|.|.|.|.|.|.|.|.|.|.|.|.|.|.|.|.|.|.|.|.|.|.|.|..X.X.X.X.X|..X+X.X|.|.|..X.XD @ . . . . O . g n..X=X.X X}.).P.x.f.u. .| |  . . . . . . . .f.f.f.f.f.f.f.f.l.f.f.s.u. . . .t.r.r.p.b. X.X.XV & . . . X   . # S {.=X.X).).|.|.oXoXoXoXoXoXoX|.oXoXoXoXoXoXoXoXoX#XoXoXoX#X#XoX|.|.|.|.|.|.|.|.).].|.oXoX#X.Xa.s   . @ . . . k n.=X=X}.[.].].+X+X+X|.oX+X+X+X|.|.|.|.|.|.|.].Y.Y.Y.Y.P.P.R.R.v.R.R.P.Y.Y.Y.Y.|.}.}.}.|. XXX Xg & . .     X . a.].+X].].+X+Xv.v.v.x.k.k.k.h.h.d.d.h.h.s.s.s.s.k.k.h.h.h.h.h.h.s.h.h.j.l.l.l.l.j.U.T.l.K.#XoXv..       . . . . V ^.=X|.).}.}.v.x.l.l.g.g.s.s.s.+.+.+.s.s.s.s.g.l.l.g.j.l.l.x.x.x.x.x.x.l.g.d.s.k.j.s.i.x.Y.b.n.O O O O O O O O h a.}..XXX}.}..XXXXXXX.X.XoXoXoX].|.|.|.oX|.oX|.Y.Y.Y.Y.Y.P.Y.Y.K.K.R.Y.Y.Y.].|.+X|.Y.|.+X).| > O . . . ",
"  X . O n }.@XY.x.v.v.P.Y.].|.oXoX(.P.l.k.s.s.s.s.s.k.l.v.P.Y.T.Y.Y.Y.T.T.T.Y.Y.R.R.R.R.R.Y.Y.).oXoX X^.@ . . @ O O M }.b.u.k.f.s.s.s.s.s.s.s.s.s.s.s.s.s.s.s.s.s.s.s.s.s.s.s.s.s.s.s.s.s.s.s.h.h.h.s.s.i.u.i.s.P.|.P.x O . . . O > c.+XY.v.R.s.s.h.h.h.h.s.s.s.s.s.s.u.s.s.s.s.k.k.l.x.R.R.Y.Y.Y.Y.Y.Y.R.v.v.x.k.k.k.k.k.k.k.k.P.b.n.9 . . @ . . m v.v.v.k. . .s.s.s.s.s.s.s.s.s.s.s.s.s.s.s.s.s.s.s.s.s.s.s.s.u.s.s.k.l.l.x.v.|.}.|.|.|. XXXXX.X^.V . . @ @ . O c )..X|.|.|.|.|.|.oXoXoXoXoXoXoXoX|.|.Y.Y.T.Y.v.l.k.s.s.s.s.s.R.Y.Y.|.oXoXoX|.oXoXoXoX|.oX|.|. X.XD O . @ . O 2 n..X|.}.XX).p.u.s.s.s.s.s.s.s.s.s.s.s.s.s.s.s.s.s.s.s.s.s.s.s.s.s.s.s.s.s.s.s.t.u.i.i.u.x.)..XXXB . O O . @ . r.b.+X|.P.v.K.K.P.K.K.P.K.P.K.P.P.T.T.T.T.T.T.T.(.(.(.(.oXoXoXoXoXoXoXoXoXoXoX|.T.T.Y.K.R.P.T.).}.a.. .   & . O ^.).|..X+X.X|.|.|.|.(.T.P.R.K.v.l.l.k.k.f.s.s.s.s.s.s.s.s.s.s.s.s.s.s.s.s.s.s.s.i.i.s.h.g.K.Y.}.b.# . . X   . # |.Y.K.v.g.s.s.s.s.s.s.s.s.s.s.s.h.s.h.s.s.s.s.s.s.s.s.s.s.s.s.s.s.s.s.s.s.s.s.s.s.s.s.s.s.s.s.u.0 . @ @ . @ . + }.).Y.K.l.k.s.u.s.s.s.s.s.s.s.s.s.s.s.s.s.s.s.s.s.s.s.s.s.s.s.s.s.s.s.s.s.s.s.s.s.s.s.h.s.s.u.u.S . @ . . # . < ).).|.|.|.|.|.|.|.|.|.|.|.|.oXoXY.Y.K.K.l.l.k.s.s.s.s.s.s.s.s.s.s.s.s.s.s.s.s.s. .l.R.v.|.+XP.x O . . @ ",
"    . < r.).Y.l. .u.u.f.k.k.l.l.l.l.h.s. . . .s.s.s.s.s.s.s.f.f.f.f.f.f.f.f.f.f.h.s.s.s.s.f.l.l.V.V.|. Xj @ . . O + N v.k. .f. .s.s.s.s.s.s.s.s.s.s.s.s.s.s.s.s.s.s.s.s.s.s.s.s.s.s.s.s.s.s.s.s.h.h.s.s.s.s.s.s.h.K.R.| 2 O . . + y v.Y.x.f.g.s.s.s.s.s.s.s.s.s.s.s.s.s.s.s.s.s.s.s.s.s.s.s.h.s.f.f.f.h.s.s.s.s.s.s.s.s.s.s.s.s.k.l.p.0 . . @ . . M c.k.l.f. .+.s.s.s.s.s.s.s.s.s.s.s.s.s.s.s.s.s.s.s.s.s.s.s.s.s.s.s.s.s.h.f.f.t.p.k.c.v.P.Y.).|.).a.# . X X . >  .T.).K.v.K.x.x.x.V.V.V.V.V.V.l.l.l.l.g.f.f.f.l.k.f.s.s.s.s.s. .s.g.x.P.T.(.(.(.(.(.(.(.(.(.|.|..Xy.+ . . . O u.).+X).K.v.c. .s.s.s.s.s.s.s.s.s.s.s.s.s.s.s.s.s.s.s.s.s.s.s.s.s.s.s.s.s.s.s.s.t.u.s.u.u.f.v.).XXz.O O O . @ O k.K.K.g.s.s.f.h.h.f.f.f.f.f.f.f.f.f.f.f.f.f.f.f.g.g.l.l.l.l.x.x.x.x.x.x.l.l.l.l.l.g.f.s.s.f.g.k.b.y.O @ . @ . 9 ).).(.(.).Y.b.v.l.l.l.f.f.h.s.s.f.f.f.h.s.s.s.s.s.s.s.s.s.s.s.s.s.s.s.s.s.s.s.s.f.s.s.s.d.d.l.x.b.j . . @ . @ m v.l.g.f.s.s.s.s.s.s.s.s.s.s.s.s.s.s.s.s.s.s.s.s.s.s.s.s.s.s.s.s.s.s.s.s.s.s.s.s.s.s.s.s.s.s.s.i.m . @ @ . @ O 9 k.k.d.d.s.s.s.t.s.s.s.s.s.s.s.s.s.s.s.s.s.s.s.s.s.s.s.s.s.s.s.s.s.s.s.s.s.s.s.s.s.s.s.h.s.h.s.u.y.+ . . . . O r.).(.|.oXoXoXoXoXoX|.).Y.K.x.k.k.f.f.h.h.s.s.s.s.s.s.s.s.s.s.s.s.s.s.s.s.s.s.s.s. .g.g.s.l.T.P.k.+ . . O ",
"    O h n.Y.l.W  . . . .u.s.s.s.s.s. . . .s.s.s.s.s.s.s.s. . . . . . . . . . . .+. . . . .+.s.s.s. .Y.).a.@ . . O 4 M p. . .f. .s.s.s.s.s.s.s.s.s.s.s.s.s.s.s.s.s.s.s.s.s.s.s.s.s.s.s.s.s.s.s.s.h.h.s.s.s.u.s.s.W g.x.p.n +   . + | v.k.s. .s.h.s.s.s.s.s.s.s.s.s.s.s.s.s.s.s.s.h.s.s.s.+. . . .W  . . . . . . .s.s.s.s.s.s.+.s.W u.u.v O @ @ . O M p.u.s.+.} s.s.s.s.s.s.s.s.s.s.s.s.s.s.s.s.s.s.s.s.s.s.s.s.s.s.s.s.s.s. . . .t.r.t.u.u.s.f.f.x.^.n.j O .   . N f.K.x.s.u.s.s.s.s.s.s.s.s.s.s.s.s.s.s.s. . . .f.s.s.s. .s.s.s. . .s.s.f.l.l.l.K.K.K.K.K.K.K.v.k.b.y.# O O + 0 ).}.Y.x.f.u.u. .s.s.s.s.s.s.s.s.s.s.s.s.s.s.s.s.s.s.s.s.s.s.s.s.s.s.s.s.s.s.s.s.t.u.s.u. .u.k.x.}.).0 O O . @ 9 v.l.h.W W s.s. .s.s.s.s.s.s.s.s. . . . . . . . . . . .s.s.s.s.s.s.s.s.s.s.s.s.s.s.s. . . . . .u.u.y.9 @ . . @ B b.v.v.x.l.f.u.u.t.s.s.s.s.s.s.s.s.s.s.s.s.s.s.s.s.s.s.s.s.s.s.s.s.s.s.s.s.s.s.s.f.s.s.s.s.s.s.u.b.B O . @ . @ D i.s. . . .t.s.s.s.s.s.s.s.s.s.s.s.s.s.s.s.s.s.s.s.s.s.s.s.s.s.s.s.s.s.s.s.s.s.s.s.s.s.s.s.s.s.i.y.O . . . . # B r.t.+.s.s.s.s.s.s.s.s.s.s.s.s.s.s.s.s.s.s.s.s.s.s.s.s.s.s.s.s.s.s.s.s.s.s.s.s.s.s.s.s.h.s.s.s.u.a.0 . @ O . j }.|.|.|.|.|.(.).).v.x.x.k.f.f.u.u. .+.s.s.s.s.s.s.s.s.s.s.s.s.s.s.s.s.s.s.s.s.s.s.s.s.s.W W f.K.P.2 . . O ",
"X   O m n.x.s.W s.s.u.u.i.s.s.h.s.h.h.h.h.s.s.s.h.h.h.h.s.s.s.s.s.s.s.s.s.s.s.s.f.f.h.s.s.h.f.f.g.Q c.z.z.O . O O x t.i. .s.f. .s.s.s.s.s.s.s.s.s.s.s.s.s.s.s.s.s.s.s.s.s.s.s.s.s.s.s.s.s.s.s.s.h.h.s.s.s.s.s.s.s.+.s.u.m O   @ + u.c.E  .s.s.g.s.s.s.s.s.s.s.s.s.s.s.s.s.s.s.s.s.s.s.h.h.h.s.s.s.s.s.s.s.s.f.f.s.s.s.s.s.s.s.s.t.i.p.m O . . . + B p.u.s.+.} s.s.s.s.s.s.s.s.s.s.s.s.s.s.s.s.s.s.s.s.s.s.s.s.s.s.s.s.s.s.s.s.t.k.k.s.u.u. .}  . .c.z.v O . . O r.f.f.u. . .s.s.s.s.s.s.s.s.s.s.s.s.s.s.s.s.s.s.s.s.t. . .s.s.s.f.f.s.s. . .s.s.s.s.s.s.s.s.s.s.w.p.r.9 O O 2 V b.k.s.s. . .u.s.s.s.s.s.s.s.s.s.s.s.s.s.s.s.s.s.s.s.s.s.s.s.s.s.s.s.s.s.s.s.s.s.t.u.s.u. . .u.u.b.XXS O O . @ j k.h.s.s.f.g.h. .f.f.f.f.f.f.f.f.s.s.s.s.s.s.s.s.s.s.s.s.s.s.s.s.s.s.s.s.s.s.s.s.s.s.h.h.h.h.s.i.r.y.v # . . 2 a.u.u.u.s.t. . . .s.s.s.s.h.h.f.f. . . . .s.s.s.s.s.s.s.s.s.s.s.s.s.s.s.s.s.s.s.s.u.u.s.s.d.s.h.i.c.a.O . @ . @ a.u.s.s.s.t.s.s.s.s.s.s.s.s.s.s.s.s.s.s.s.s.s.s.s.s.s.s.s.s.s.s.s.s.s.s.s.s.s.s.s.s.s.s.s.s.s.s.i.z.# . @ . . 9 y.u.s.d.d.d.h.s.s.s.s.s.s.s.s.s.s.s.s.s.s.s.s.s.s.s.s.s.s.s.s.s.s.s.s.s.s.s.s.s.s.s.s.s.h.s.s.s.u.y.D . @ O . z..X|.|.(.Y.P.v.x.k. . .u.u.u.u.s.s.f.f.h.h.h.s.s.s.s.s.s.s.s.s.s.s.s.s.s.s.s.s.s.s.s. .s.s. . .s.k.g O . @ ",
"X   O B k.u. .f. . .....u.s.d.h.s.s.s.s.s.s.s. .s.s.s.s.s.s.s.s.s.s.s.s.s.s.s.s.f.s.s.s.s.s.s.s.l.R u.r.a.@ . O O M p.i.t.f.f. .s.s.s.s.s.s.s.s.s.s.s.s.s.s.s.s.s.s.s.s.s.s.s.s.s.s.s.s.s.s.s.s.h.h.s.s.s.u.s.s.g.W t.p.M O   @ > u.f.E s.l.s.h.s.s.s.s.s.s.s.s.s.s.s.s.s.s.s.s. . .s.s.s.s.h.h.s.s.s.s.s.s.s.s.s.s.s.s.s.s.s.s.g.s.p.B * . . . # | k.u.s.+. .s.s.s.s.s.s.s.s.s.s.s.s.s.s.s.s.s.s.s.s.s.s.s.s.s.s.s.s.s.s.s.s.s.i.i.i.s.h.f.f.f. .u.u.v + . . O r.u.u. . .s.f.s.h.h.s.s.s.s.h.h.s.s.s.s.s.s.s.s.s.s.s.s.s.s.s.s.s.s.s.s.s.s.f.k.s.s.s.s.s.s.s.s.i.k.p.m O . < M u.| W s.s.t.u.f.s.s.s.s.s.s.s.s.s.s.s.s.s.s.s.s.s.s.s.s.s.s.s.s.s.s.s.s.s.s.s.s. .u.s.s.u.u.u.u.u.).p.+ O O @ V | W s.f.f.s.s.s.s.s.s.s.s.s.s.s.s.s.s.s.s.s.s.s.s.s.t. .s.s.s.s.s.s.s.s.s.s.s.s.s.s.s.s.s.s.s.t.t.a.B + O . 9 y.u.i.s.s.s.s.f.f.s.s.s.s.s.s.s.s.s. .s.s.s.s.h.h.s.s.s.s.s.s.s.s.s.s.s.s.s.s.s.s.u.u.s.h.d.d.h.s.u.y.# . @ . O a.f.f.h.s.s.s.s.s.s.s.s.s.s.s.s.s.s.s.s.s.s.s.s.s.s.s.s.s.s.s.s.s.s.s.s.s.s.s.s.s.s.s.s.s.s.s.s.u.p.2 . @ . . j y.i.s.s.d.s.s.s. .s.s.s.s.s.s.s.s.s.s.s.s.s.s.s.s.s.s.s.s.s.s.s.s.s.s.s.s.s.s.s.s.s.s.s.s.s.s.s.u.B z.O . . O {.).Y.P.K.x.k.f.u. .s.s.u.u.u. . . .s.s.s.s.s.s. . .s.s.s.s.s.s.s.s.s.s.s.s.s.s.s.s.s. .s.f.f. .W r.m O . O ",
"X   # B p. .t.l. . . . .u.s.d.s.s.s.s.s.s.s.s.s.h.h.s.s.s.s.s.s.s.s.s.s.s.s.s.s.s.s.s.s.s.s.s.s.s.+.r.y.a.= . O O M p.t.s.f. .} s.s.s.s.s.s.s.s.s.s.s.s.s.s.s.s.s.s.s.s.s.s.s.s.s.s.s.s.s.s.s.s.h.h.s.s.s.u.s.s.h.W s.c.y.#   . 0 y.f. .s.g.s.W s.s.s.s.s.s.s.s.s.s.s.s.s.s.s.s.s.s.s.s.s.s.s.s.s.s.s.s.+. . . .s.s.s.s.s.s.s.s.g.s.p.S & . . O 2 r.k.s.f.s. .+.s.s.s.s.s.s.s.s.s.s.s.s.s.s.s.s.s.s.s.s.s.s.s.s. . .t.s.s.s.s.s.t.t.t.s.s.s.s.f.f.f.u.M 2 . . # t.u. .u.s.f.s.s.s.s.s.s.s.s.s.s.s.s.s.s.s.s.s.s.s.s.s.s.s.s.s.s.s.s. .s.s.s.f.f.s.s.s.s.s.s.s.s.s.t.p.r.+ O 2 r.u.t.s.d.d.s. . .s.s.s.s.s.s.s.s.s.s.s.s.s.s.s.s.s.s.s.s.s.s.s.s.s.s.s.s.s.s.s.s. .s.s.s.s.s.i.i.r.c.p.+ O @ @ D i.s.s.s. .W  .f.s.s.s.s.s.s.s.s.s.s.s.s.s.s.s.s.s.s.s. .s.s.s.s.+.+.s.s.s.s.s.s. .s.s.s.s.s.t.t.i.p.S + O O 0 r.u.s.s.s.s.s.s.s.s.s.s.s.+.+.+. .s.s.s.s.s.h.h.h.s.s.s.s.s.s.s.s.s.s.s.s.s.s.s.s.u.u.s.s.d.s.s.t.t.y.9 . @ O # a.u.s.s.s.s.s.s.s.s.s.s.s.s.s.s.s.s.s.s.s.s.s.s.s.s.s.s.s.s.s.s.s.s.s.s.s.s.s.s.s.s.s.s.s.s.s.s.i.y.9 . O O O V y.u.s.s.s.s.s.s.s.s.s.s.s.s.s.s.s.s.s.s.s.s.s.s.s.s.s.s.s.s.s.s.s.s.s.s.s.s.s.s.s.s.s.s.s.s.s.s.u.B z.# . O 9 ^.z.k.f.f.u.u.u. . .s.s.f.s.s.u.u.s. .s.s.s.s.s.s.s.s.s.s.s.s.s.s.s.s.s.s.s.s.s.s.s.f.s. .s.f.h.s.i.S * . O ",
"  . & B k.u.t.h.s.u.u.u.s.s.h.h.h.s.s.s.s.f.f.f.f.f.f.f.h.s.s.s.s.s.s.s.s.h.h.h.s.s.s.s.s.h.s.s.W g.r.u.D j . O O B p.t.s.s.W s.s.s.s.s.s.s.s.s.s.s.s.s.s.s.s.s.s.s.s.s.s.s.s.s.s.s.s.s.s.s.s.s.h.h.s.s.s.u.s.s.s.+.s.c.y.2 . . n | k.k. .s.d.+.s.s.s.s.s.s.s.s.s.s.s.s.s.s.s.s.f.h.h.h.s.s.s.s.s.s.s.s.s.s.s.s.s.s.s.s.s.s.s.s.h.t.u.y.9 . . O 9 y.k.s.s.s.+.s.s.s.s.s.s.s.s.s.s.s.s.s.s.s.s.s.s.s.s.s.s.s.s.s.s.s.s.s.s.s.s.s.s.s.s.s.s.+.+.+.s.f.p.r.3 . O 9 p.u.u.s.s.u.s.s.s.s.s.s.s.s.s.s.h.s.h.s.s.s.s.s.s.s.s.s.s.s.s.s.f.h.s.s.s.+. . .+.+.s.s.t.t.t.s.s.E p.r.+ O v p.i.h.d.s.s.s.s. .s.s.s.s.s.s.s.s.s.s.s.s.s.s.s.s.s.s.s.s.s.s.s.s.s.s.s.s.s.s.s.s.s.s.s.s.s.s.i.u.i.r.y.< . O # a.k.s.s.s.s. .s.g.s.s.s.s.s.s.s.s.h.h.h.s.s.s.s.s.s.s.s.s.s.s.s.s.s.s.s.s.h.h.h.f.s.s.s.s.s.s.s.s.i.p.r.+ + O j y.u.s.s.s.+.+. . .s.s.s.s.s.s.s.s.s.s.s.s.s.s.s.s.s.s.s.s.s.s.s.s.s.s.s.s.s.s.s.s.s.u.s.s.s.s.s.u.p.S 0 @ . @ j y.t. .s.s.s.s.s.s.s.s.s.s.s.s.s.s.s.s.s.s.s.s.s.s.s.s.s.s.s.s.s.s.s.s.s.s.s.s.s.s.s.s.s.s.s.s.s.i.y.v O @ . + a.y.s.h.s.s.s.h.s.s.s.s.s.s.s.s.s.s.s.s.s.s.s.s.s.s.s.s.s.s.s.s.s.s.s.s.s.s.s.s.s.s.u.u.s.s.s.s.s.u.r.a.# . O 9 n.u.i.s.s.t.t.s.s.s. . .t.s.s.f.f.f.s.s.s.s.h.f.f.f.s.s.s.s.s.s.s.s.s.s.s.s.s.s.s.s.f.s.s. .s.f.f.u.a.# . O ",
"  . & S n.l.s.W s.s.s.u.s.s.d.s.h.s.s.s.s.s.s.s.+.+.s.s.s.s.s.s. . .s.s.s.s.s.s.s.s.s.s.s.s.s.s.W V.t.u.B C . + + r.p.t.k.s.W l.s.s.s.s.s.s.s.s.s.s.s.s.s.s.s.s.s.s.s.s.s.s.s.s.s.s.s.s.s.s.s.s.h.h.s.s.s.u.s.s.g.s.s.u.S 9 X . M b k.x.W W g.d.s.s.s.s.s.s.s.s.s.s.s.s.s.s.s.s. . . .s.s.s.s.s.s.s.s.s.s.s.s.s.s.s.s.s.s.s.s.s.h. .p.p.g . . . h u.k. .s.+.+.s.s.s.s.s.s.s.s.s.s.s.s.s.s.s.s.s.s.s.s.s.s.s.s.s.s.s.s.s.s.s.s.s.s.s.h.s.d.d.d.s.W  .k.r.3 O O g p.s.u.s.u.u.s.h.s.s.s.s.h.h.h.h.s.s.s.s.s.s.s.s.s.s.s.s.s.s.s. .s.s.s.s.s.s.s.s.s.s.s.s.s.s.s.s.l.w.k.a.+ O t u. .h.d.! W s.h.h.s.s.s.s.s.s.s.s.s.s.s.s.s.s.s.s.s.s.s.s.s.s.s.s.s.s.s.s.s.s.s.s.s.s.s.s.s.s.s.u.k.N r.4 . O & a.u.W  .f.f.s. .s.s.s.s.s.s.s.s.s.s.s.s.s.s.+. . .s.s.s.s.s.s.s.s.s.s.s.s.s.s.h.h.s.s.s.s.s.s.s.s.t.p.u.+ + O v u.r.s.s.d.d.d.h.h.t.t.s.s.s.s.s.s.s.s.s.s.s.s.s.s.s.s.s.s.s.s.s.s.s.s.s.s.s.s.s.s.u.u.s.s.d.d.j.k.k.B 9 O . O m r.i.s.s.s.s.s.s.+.s.s.s.s.s.s.s.s.s.s.s.s.s.s.s.s.s.s.s.s.s.s.s.s.s.s.s.s.s.s.s.s.s.s.s.s.s.s.s.s.r.B O O . # z.y.s.h.s.s.s.+. . .s.s.s.s.s.s.s.s.s.s.s.s.s.s.s.s.s.s.s.s.s.s.s.s.s.s.s.s.s.s.s.s.u.u.s.s.s.s.s.u.p.y.# O O 2 r.u.f.s.s.s.s.s.s.s.s.s.s.s.s.t.t. .t. .s.s.+.s.s.s.s.s.s.s.s.s.s.s.s.s.s.s.s.s.s.s.s.f.g.s.+.h.h.r.a.# . O ",
"  . O z.t.s.h.s.s.s.s.s.s.h.h.h.h.s.s.s.s.s.s.s.s.s.s.s.s.s.s.s.s.s.s.s.s.s.s.s.s.s.s.s.s.s.s.s.s.s.u.u.a.9 . O + n p.k.t.s.s.+.s.s.s.s.s.s.s.s.s.s.s.s.s.s.s.s.s.s.s.s.s.s.s.s.s.s.s.s.s.s.s.s.h.h.s.s.s.u.s.s.s.s.k.p.B & . . n u.s. .f.s.+.s.s.s.s.s.s.s.s.s.s.s.s.s.s.s.s.s.s.s.s.s.s.s.s.s.s.s.s.s.s.s.s.s.s.s.s.s.s.s.s.s.h.s.k.y.9 O O O v y.i.t.d.s.+.s.s.s.s.s.s.s.s.s.s.s.s.s.s.s.s.s.s.s.s.s.s.s.s.s.s.s.s.s.s.s.s.s.s.s.h.s.d.d.d.s.s.u.p.r.3 . O 9 u.f.f.u.u.f.s. .s.s.s.s.s.s.s.s.s.s.s.s.s.s.s.s.s.s.s.s.s.s.s.s.s.s.s.s.s.s.s.s.s.s.s.s.s.s.s.s.s.h.k.N + O t k.s.h.d.d.d.s.s.s.s.s.s.s.s.s.s.s.s.s.s.s.s.s.s.s.s.s.s.s.s.s.s.s.s.s.s.s.s.s.s.s.s.s.s.s.s.s.s.s.i.u.y.4 O O # z.u.s.s.s.s.s.s.s.s.s.s.s.s.s.s.s.s.s.s.s.s.s.s.s.s.s.s.s.s.s.s.s.s.s.s.s.s.s.s.s.s.s.s.s.s.s.s.s.s.i.u.> + . v r.u.s.s.s.s.s.s.s.s.s.s.s.s.s.s.s.s.s.s.s.s.s.s.s.s.s.s.s.s.s.s.s.s.s.s.s.s.s.s.s.u.u.s.s.d.d.h.s.r.p.9 O O O v r.i.s.s.s.s.s.s.s.s.s.s.s.s.s.s.s.s.s.s.s.s.s.s.s.s.s.s.s.s.s.s.s.s.s.s.s.s.s.s.s.s.s.s.s.s.s.s.s.t.v O O O # y.y.s.h.s.s.s.s.s.s.s.s.s.s.s.s.s.s.s.s.s.s.s.s.s.s.s.s.s.s.s.s.s.s.s.s.s.s.s.s.s.s.s.s.s.s.s.s.h.s.p.v # O O h y.t.s.s.s.s.s.s.s.s.s.s.s.s.s.s.s.s.s.s.s.s.s.s.s.s.s.s.s.s.s.s.s.s.s.s.s.s.s.s.s.s.s.s.s.s.s.s.s.u.a.& . O ",
"  . O p.i.s.h.s.s.s.s.s.s.h.h.h.h.s.s.s.s.s.s.s.s.s.s.s.s.s.s.s.s.s.s.s.s.s.s.s.s.s.s.s.s.s.s.s.s.s.u.u.y.9 O O + x k.h.s.s.s.+.s.s.s.s.s.s.s.s.s.s.s.s.s.s.s.s.s.s.s.s.s.s.s.s.s.s.s.s.s.s.s.s.h.h.s.s.s.s.s.s.s.s.h.p.B & . . n y.s. .s.s.+.s.s.s.s.s.s.s.s.s.s.s.s.s.s.s.s.s.s.s.s.s.s.s.s.s.s.s.s.s.s.s.s.s.s.s.s.s.s.s.s.s.d.t.k.y.9 O O O v t.i.s.d.s.+.s.s.s.s.s.s.s.s.s.s.s.s.s.s.s.s.s.s.s.s.s.s.s.s.s.s.s.s.s.s.s.s.s.s.s.h.s.d.d.d.s.s.s.p.r.3 . O 9 t.f.f.u.u.f.s. .s.s.s.s.s.s.s.s.s.s.s.s.s.s.s.s.s.s.s.s.s.s.s.s.s.s.s.s.s.s.s.s.s.s.s.s.s.s.s.s.s.h.p.N + O 0 p.s.h.d.d.d.s.s.s.s.s.s.s.s.s.s.s.s.s.s.s.s.s.s.s.s.s.s.s.s.s.s.s.s.s.s.s.s.s.s.s.s.s.s.s.s.s.s.s.i.u.y.4 O O # a.u.s.s.s.s.s.s.s.s.s.s.s.s.s.s.s.s.s.s.s.s.s.s.s.s.s.s.s.s.s.s.s.s.s.s.s.s.s.s.s.s.s.s.s.s.s.s.s.s.i.u.> O . x r.u.s.s.s.s.s.s.s.s.s.s.s.s.s.s.s.s.s.s.s.s.s.s.s.s.s.s.s.s.s.s.s.s.s.s.s.s.s.s.s.u.u.s.s.d.d.h.s.r.p.9 O O O v r.s.s.s.s.s.s.s.s.s.s.s.s.s.s.s.s.s.s.s.s.s.s.s.s.s.s.s.s.s.s.s.s.s.s.s.s.s.s.s.s.s.s.s.s.s.s.s.s.t.n + O O # y.y.i.s.s.s.s.s.s.s.s.s.s.s.s.s.s.s.s.s.s.s.s.s.s.s.s.s.s.s.s.s.s.s.s.s.s.s.s.s.s.s.s.s.s.s.s.s.h.s.p.v # O O x y.t.s.s.s.s.s.s.s.s.s.s.s.s.s.s.s.s.s.s.s.s.s.s.s.s.s.s.s.s.s.s.s.s.s.s.s.s.s.s.s.s.s.s.s.s.s.s.s.u.a.& . O ",
". @ O z.i.s.h.s.s.s.s.s.s.h.h.h.h.s.s.s.s.s.s.s.s.s.s.s.s.s.s.s.s.s.s.s.s.s.s.s.s.s.s.s.s.s.s.s.+.d.u.u.r.9 . O + x i.h.s.s.s.+.s.s.s.s.s.s.s.s.s.s.s.s.s.s.s.s.s.s.s.s.s.s.s.s.s.s.s.s.s.s.s.s.h.h.s.s.s.u.s.s.s.s.h.p.M # . . n u.f. .s.s.+.s.s.s.s.s.s.s.s.s.s.s.s.s.s.s.s.s.s.s.s.s.s.s.s.s.s.s.s.s.s.s.s.s.s.s.s.s.s.s.s.s.h.s.k.y.3 O O O v t.s.+.d.+.+.s.s.s.s.s.s.s.s.s.s.s.s.s.s.s.s.s.s.s.s.s.s.s.s.s.s.s.s.s.s.s.s.s.s.s.h.s.d.d.s.s.s.s.u.| 2 . . 2 r.s.f.u.u.f.s. .s.s.s.s.s.s.s.s.s.s.s.s.s.s.s.s.s.s.s.s.s.s.s.s.s.s.s.s.s.s.s.s.s.s.s.s.s.s.s.s.s.h.i.N + O 0 p.s.h.s.d.s.s.s.s.s.s.s.s.s.s.s.s.s.s.s.s.s.s.s.s.s.s.s.s.s.s.s.s.s.s.s.s.s.s.s.s.s.s.s.s.s.s.s.s.i.u.r.4 O O # y.u.s.s.s.s.s.s.s.s.s.s.s.s.s.s.s.s.s.s.s.s.s.s.s.s.s.s.s.s.s.s.s.s.s.s.s.s.s.s.s.s.s.s.s.s.s.s.s.s.i.u.> O . h B u.s.s.s.s.s.s.s.s.s.s.s.s.s.s.s.s.s.s.s.s.s.s.s.s.s.s.s.s.s.s.s.s.s.s.s.s.s.s.s.u.u.s.s.d.d.d.s.t.p.9 O O O n t.s.s.s.s.s.s.s.s.s.s.s.s.s.s.s.s.s.s.s.s.s.s.s.s.s.s.s.s.s.s.s.s.s.s.s.s.s.s.s.s.s.s.s.s.s.s.s.s.t.n + O O 2 y.t.s.h.s.s.d.s.s.s.s.s.s.s.s.s.s.s.s.s.s.s.s.s.s.s.s.s.s.s.s.s.s.s.s.s.s.s.s.s.s.s.u.u.s.s.s.s.h.s.u.x # O O x u.i.s.s.s.s.s.s.s.s.s.s.s.s.s.s.s.s.s.s.s.s.s.s.s.s.s.s.s.s.s.s.s.s.s.s.s.s.s.s.s.s.s.s.s.s.s.s.s.u.a.& . O ",
". @ O p.i.s.h.s.s.s.s.s.s.h.d.d.h.s.s.s.s.s.s.s.s.s.s.s.s.s.s.s.s.s.s.s.s.s.s.s.s.s.s.s.s.s.s.s.+.d.i.u.D 9 . O + c i.s.s.s.s.+.s.s.s.s.s.s.s.s.s.s.s.s.s.s.s.s.s.s.s.s.s.s.s.s.s.s.s.s.s.s.s.s.h.h.s.s.s.s.s.s.s.s.s.p.M # . . n y.f.u.s.s.+.s.s.s.s.s.s.s.s.s.s.s.s.s.s.s.s.s.s.s.s.s.s.s.s.s.s.s.s.s.s.s.s.s.s.s.s.s.s.s.s.s.h.s.u.r.3 O O O n t.s.+.d.@.+.d.s.s.s.s.s.s.s.s.s.s.s.s.s.s.s.s.s.s.s.s.s.s.s.s.s.s.s.s.s.s.s.s.h.h.h.s.s.s.s.s.t.u.u.M 2 . . 2 | u.f.u.u.f.s.s.s.s.s.s.s.s.s.s.s.s.s.s.s.s.s.s.s.s.s.s.s.s.s.s.s.s.s.s.s.s.s.s.s.s.s.s.s.s.s.s.s.h.i.n + O 3 u.s.h.s.s.s.s.s.s.s.s.s.s.s.s.s.s.s.s.s.s.s.s.s.s.s.s.s.s.s.s.s.s.s.s.s.s.s.s.s.s.s.s.s.s.s.s.s.s.s.u.r.4 O O + r.i.s.s.s.s.s.s.s.s.s.s.s.s.s.s.s.s.s.s.s.s.s.s.s.s.s.s.s.s.s.s.s.s.s.s.s.s.s.s.s.s.s.s.s.s.s.s.s.i.t.y.> + . 0 M u.s.s.s.s.s.s.s.s.s.s.s.s.s.s.s.s.s.s.s.s.s.s.s.s.s.s.s.s.s.s.s.s.s.s.s.s.s.s.s.u.u.s.s.d.d.d.s.t.p.9 O O O n t.s.s.s.s.s.s.s.s.s.s.s.s.s.s.s.s.s.s.s.s.s.s.s.s.s.s.s.s.s.s.s.s.s.s.s.s.s.s.s.s.s.s.s.s.s.s.s.s.i.N + O O 2 y.t.s.h.s.s.s.s.s.s.s.s.s.s.s.s.s.s.s.s.s.s.s.s.s.s.s.s.s.s.s.s.s.s.s.s.s.s.s.s.s.s.u.u.s.s.s.s.s.i.t.x + O + x t.i.h.s.s.s.s.s.s.s.s.s.s.s.s.s.s.s.s.s.s.s.s.s.s.s.s.s.s.s.s.s.s.s.s.s.s.s.s.s.s.s.s.s.s.s.s.s.s.u.a.& . O ",
". @ O p.i.s.d.s.s.s.s.s.s.h.d.d.h.s.s.s.s.s.s.s.s.s.s.s.s.s.s.s.s.s.s.s.s.s.s.s.s.s.s.s.s.s.s.s.! s.i.u.D 2 . O + x i.s.s.s.s.+.s.s.s.s.s.s.s.s.s.s.s.s.s.s.s.s.s.s.s.s.s.s.s.s.s.s.s.s.s.s.s.s.h.h.s.s.s.u.s.s.s.s.s.u.M # . . n y.f.u.s.s.+.s.s.s.s.s.s.s.s.s.s.s.s.s.s.s.s.s.s.s.s.s.s.s.s.s.s.s.s.s.s.s.s.s.s.s.s.s.s.s.s.s.j.s.i.r.2 O O O n t.s.s.d.+.+.s.s.s.s.s.s.s.s.s.s.s.s.s.s.s.s.s.s.s.s.s.s.s.s.s.s.s.s.s.s.s.s.s.s.s.s.s.s.s.s.s.t.u.t.M < . . # E  .s.u.u.s.h.s.s.s.s.s.s.s.s.s.s.s.s.s.s.s.s.s.s.s.s.s.s.s.s.s.s.s.s.s.s.s.s.s.s.s.s.s.s.s.s.s.s.h.t.x + O 3 r.i.s.s.s.s.s.s.s.s.s.s.s.s.s.s.s.s.s.s.s.s.s.s.s.s.s.s.s.s.s.s.s.s.s.s.s.s.s.s.s.s.s.s.s.s.s.h.s.k.u.r.4 O O + B i.s.s.s.s.s.s.s.s.s.s.s.s.s.s.s.s.s.s.s.s.s.s.s.s.s.s.s.s.s.s.s.s.s.s.s.s.s.s.s.s.s.s.s.s.s.s.s.p.t.y.< + . 9 n r.s.s.s.s.s.s.s.s.s.s.s.s.s.s.s.s.s.s.s.s.s.s.s.s.s.s.s.s.s.s.s.s.s.s.s.s.s.s.s.u.u.s.s.d.d.d.s.t.p.9 O O + N t.s.s.s.s.s.s.s.s.s.s.s.s.s.s.s.s.s.s.s.s.s.s.s.s.s.s.s.s.s.s.s.s.s.s.s.s.s.s.s.s.s.s.s.s.s.s.s.s.k.N + + O < y.t.s.h.s.s.s.s.s.s.s.s.s.s.s.s.s.s.s.s.s.s.s.s.s.s.s.s.s.s.s.s.s.s.s.s.s.s.s.s.s.s.u.u.s.s.s.s.s.s.r.0 > O + v i.t.h.s.s.s.s.s.s.s.s.s.s.s.s.s.s.s.s.s.s.s.s.s.s.s.s.s.s.s.s.s.s.s.s.s.s.s.s.s.s.s.s.s.s.s.s.s.s.u.a.& . O ",
". @ O p.t.s.d.s.s.s.s.s.h.h.d.d.h.s.s.s.s.s.s.s.s.s.s.s.s.s.s.s.s.s.s.s.s.s.s.s.s.s.s.s.s.s.s.s.! s.s.u.S 2 . O + x t.s.s.s.h.s.s.s.s.s.s.s.s.s.s.s.s.s.s.s.s.s.s.s.s.s.s.s.s.s.s.s.s.s.s.s.s.s.h.h.s.s.s.u.s.s.h.s.s.u.M # . . n y.f.u.s.s.+.s.s.s.s.s.s.s.s.s.s.s.s.s.s.s.s.s.s.s.s.s.s.s.s.s.s.s.s.s.s.s.s.s.s.s.s.s.s.s.s.s.j.s.i.r.2 O O O n t.s.s.d.s.+.s.s.s.s.s.s.s.s.s.s.s.s.s.s.s.s.s.s.s.s.s.s.s.s.s.s.s.s.s.s.s.s.s.s.s.s.s.s.s.s.s.t.u.r.n + . O # N  .s.s.u.s.s.s.s.s.s.s.s.s.s.s.s.s.s.s.s.s.s.s.s.s.s.s.s.s.s.s.s.s.s.s.s.s.s.s.s.s.s.s.s.s.s.s.s.i.r.x + O 2 r.u.s.s.s.s.s.s.s.s.s.s.s.s.s.s.s.s.s.s.s.s.s.s.s.s.s.s.s.s.s.s.s.s.s.s.s.s.s.s.s.s.s.s.s.s.s.h.s.k.u.r.4 O O O B i.s.s.s.s.s.s.s.s.s.s.s.s.s.s.s.s.s.s.s.s.s.s.s.s.s.s.s.s.s.s.s.s.s.s.s.s.s.s.s.s.s.s.s.s.s.s.s.p.t.y.< + . 9 x r.u.s.s.s.s.s.s.s.s.s.s.s.s.s.s.s.s.s.s.s.s.s.s.s.s.s.s.s.s.s.s.s.s.s.s.s.s.s.s.u.u.s.s.d.d.d.s.t.p.0 + O + N u.s.s.s.s.s.s.s.s.s.s.s.s.s.s.s.s.s.s.s.s.s.s.s.s.s.s.s.s.s.s.s.s.s.s.s.s.s.s.s.s.s.s.s.s.s.s.s.s.k.N + + O < y.t.s.h.s.s.s.s.s.s.s.s.s.s.s.s.s.s.s.s.s.s.s.s.s.s.s.s.s.s.s.s.s.s.s.s.s.s.s.s.s.s.u.u.s.s.s.s.s.s.r.0 + + + v i.i.h.s.s.s.s.s.s.s.s.s.s.s.s.s.s.s.s.s.s.s.s.s.s.s.s.s.s.s.s.s.s.s.s.s.s.s.s.s.s.s.s.s.s.s.s.s.s.u.a.& . O ",
". @ O p.t.s.d.s.s.s.s.s.h.h.d.d.h.s.s.s.s.s.s.s.s.s.s.s.s.s.s.s.s.s.s.s.s.s.s.s.s.s.s.s.s.s.s.s.! s.s.u.S # . O O x t.s.+.s.h.s.s.s.s.s.s.s.s.s.s.s.s.s.s.s.s.s.s.s.s.s.s.s.s.s.s.s.s.s.s.s.s.s.h.h.s.s.s.u.s.s.h.s.s.t.N # . . n y.f.u.s.s.+.s.s.s.s.s.s.s.s.s.s.s.s.s.s.s.s.s.s.s.s.s.s.s.s.s.s.s.s.s.s.s.s.s.s.s.s.s.s.s.s.s.j.s.i.| 2 O O O n u.s.s.d.s.+.s.s.s.s.s.s.s.s.s.s.s.s.s.s.s.s.s.s.s.s.s.s.s.s.s.s.s.s.s.s.s.s.s.s.h.s.s.s.s.s.s. .u.r.x + . . + N  .s.s.u.u.h.h.s.s.s.s.s.s.s.s.s.s.s.s.s.s.s.s.s.s.s.s.s.s.s.s.s.s.s.s.s.s.s.s.s.s.s.s.s.s.s.s.s.i.r.x + O 2 | u.s.s.s.s.s.s.s.s.s.s.s.s.s.s.s.s.s.s.s.s.s.s.s.s.s.s.s.s.s.s.s.s.s.s.s.s.s.s.s.s.s.s.s.s.s.h.s.k.u.r.4 O O O V i.s.s.s.s.s.s.s.s.s.s.s.s.s.s.s.s.s.s.s.s.s.s.s.s.s.s.s.s.s.s.s.s.s.s.s.s.s.s.s.s.s.s.s.s.s.s.s.p.t.y.# # . 9 0 r.u.s.s.s.s.s.s.s.s.s.s.s.s.s.s.s.s.s.s.s.s.s.s.s.s.s.s.s.s.s.s.s.s.s.s.s.s.s.s.u.u.s.s.d.d.d.s.t.k.0 + + + N p.u.s.s.s.s.s.s.s.s.s.s.s.s.s.s.s.s.s.s.s.s.s.s.s.s.s.s.s.s.s.s.s.s.s.s.s.s.s.s.s.s.s.s.s.s.s.s.s.k.N > + + 4 u.t.s.h.s.s.s.s.s.s.s.s.s.s.s.s.s.s.s.s.s.s.s.s.s.s.s.s.s.s.s.s.s.s.s.s.s.s.s.s.s.s.u.u.s.s.s.s.h.s.| 3 + + + x i.s.h.s.s.s.s.s.s.s.s.s.s.s.s.s.s.s.s.s.s.s.s.s.s.s.s.s.s.s.s.s.s.s.s.s.s.s.s.s.s.s.s.s.s.s.s.s.s.u.a.& . O ",
". @ O p.t.s.s.s.s.s.s.s.s.h.d.d.s.s.s.s.s.s.s.s.s.s.s.s.s.s.s.s.s.s.s.s.s.s.s.s.s.s.s.s.s.s.s.s.! s.s.u.| 2 . O O x u.s.+.s.s.s.s.s.s.s.s.s.s.s.s.s.s.s.s.s.s.s.s.s.s.s.s.s.s.s.s.s.s.s.s.s.s.s.h.h.s.s.s.s.s.s.s.s.u.t.n + . . v y.u.u.f.s. .s.s.s.s.s.s.s.s.s.s.s.s.s.s.s.s.s.s.s.s.s.s.s.s.s.s.s.s.s.s.s.s.s.s.s.s.s.s.s.s.s.d.s.i.| < O O O x t.s.s.d.s.+.s.s.s.s.s.s.s.s.s.s.s.s.s.s.s.s.s.s.s.s.s.s.s.s.s.s.s.s.s.s.s.s.s.s.s.s.s.s.s.s.s. .u.r.h + . . @ n  .s.s.u.u.s.s.s.s.s.s.s.s.s.s.s.s.s.s.s.s.s.s.s.s.s.s.s.s.s.s.s.s.s.s.s.s.s.s.s.s.s.s.s.s.s.s.s.i.r.x O O < B u.i.s.s.s.s.s.s.s.s.s.s.s.s.s.s.s.s.s.s.s.s.s.s.s.s.s.s.s.s.s.s.s.s.s.s.s.s.s.s.s.s.s.s.s.s.h.s.k.u.r.4 O O O m u.s.s.s.s.s.s.s.s.s.s.s.s.s.s.s.s.s.s.s.s.s.s.s.s.s.s.s.s.s.s.s.s.s.s.s.s.s.s.s.s.s.s.s.s.s.s.s.p.t.y.# # . 9 9 t.u.s.s.s.+.+.+.s.s.s.s.s.s.s.s.s.s.s.s.s.s.s.s.s.s.s.s.s.s.s.s.s.s.s.s.s.s.s.s.s.s.s.s.d.d.h.s.t.p.0 + O + N p.s.s.s.s.s.s.s.s.s.s.s.s.s.s.s.s.s.s.s.s.s.s.s.s.s.s.s.s.s.s.s.s.s.s.s.s.s.s.s.s.s.s.s.s.s.s.s.s.k.M + + O < u.r.s.h.s.s.s.s.s.s.s.s.s.s.s.s.s.s.s.s.s.s.s.s.s.s.s.s.s.s.s.s.s.s.s.s.s.s.s.s.s.s.u.u.s.s.s.s.s.i.M 3 + O + x i.i.h.s.s.s.s.s.s.s.s.s.s.s.s.s.s.s.s.s.s.s.s.s.s.s.s.s.s.s.s.s.s.s.s.s.s.s.s.s.s.s.s.s.s.s.s.s.s.u.a.& . O ",
"  . 9 r.i.s.s.+.+.+.u.u.s.s.s.s.s.s.s.s.s.s.s.s.s.s.s.s.s.s.s.s.s.s.s.s.s.s.s.s.s.s.s.s.s.s.s.s.s.+.f.k.M < O O + h r.k.s.s.s.+.s.+.s.+.s.+.s.u.s...s.+.s.+.s.s.s.s.s.s.s.s.s.s.s.s.s.s.s.s.s.s.s.s.s.s.s.s.s.s.+.s.u.y.j @ . . v u.u. .s.f.s.s.s.s.s.s.s.s.s.s.s.s.s.s.s.+.s.+.s.+.s.u.s...s.+.s.+.s.+.s.+.s.s.s.+.s.+.s.+.s.s.+.h.u.M 2 O O O B t.h.s.+.s.@.+.s.s.s.s.s.+.s.+.s.+.s.u.s...s.+.s.+.s.+.s.+.s.u.s...s.+.s.+.s.s.f.f.s.s.s.s.s.u.u.u.y.g O . . @ n | u.f.u.s.h.s.s.s.s.s.s.s.s.s.s.s.s.s.s.s.s.s.s.s.s.s.s.s.s.s.s.s.s.+.s.+.s.+.s.+.s.+.s.+.s.s.h.s.| t O . 2 B u.u.s.s.s.s.s.s.s.s.s.s.s.s.s.s.s.s.s.s.s.s.s.s.s.s.s.+.s.+.s.+.s.+.s.+.s.+.s.s.s.s.s.s.s.s.s.s.i.r.y.0 O O + m u.s.s.s.s.s.s.s.s.s.s.s.s.s.s.s.s.+.s.+.s.+.s.s.s.+.s.+.s.+.s.+.s.+.s.s.s.+.s.+.s.+.s.+.s.+.s.s.u.u.r.9 O . # g S u.f.s.+.+.+. .+.s.s.s.s.+.s.s.s.s.s.s.s.+.s.s.s.s.s.s.s.+.s.s.s.s.s.s.s.+.s.s.s.s.s.s.d.s.s.s.r.p.h + O + r.t.s.s.s.s.s.+.s.+.s.+.s.s.s.+.s.+.s.+.s.+.s.+.s.s.s.+.s.+.s.+.s.+.s.+.s.s.s.+.s.+.s.+.s.+.s.+.s.s.r.r.< O O 2 y.r.i.s.s.s.s.s.s.s.s.s.s.s.s.s.s.s.s.s.s.s.s.s.s.s.s.s.s.+.s.+.s.+.s.+.s.+.s.+.s.u. . .+.+.s.s.u.y.v 0 O O O B p.u.s.s.s.s.s.s.s.s.s.s.s.s.s.s.s.s.s.s.s.s.s.+.s.s.s.s.s.s.s.+.s.s.s.s.s.s.s.+.s.s.s.s.s.s.s.+.s.u.y.& . O ",
"  . 2 r.i.+.s.+.+.+.u.u.u.s.s.s.s.s.s.s.s.s.s.s.s.s.s.s.s.s.s.s.s.s.s.s.s.s.s.s.s.s.s.s.s.s.s.s.s.+.f.f.M 4 O O + h r.u.s.s.d.+.+.+.+.+.s.+.u.u.u...+.+.+.s.+.s.s.s.s.s.s.s.s.s.s.s.s.s.s.s.s.s.s.s.s.s.s.+.+.+. .u.u.y.j @ . O v y.u. .u.f.s.s.s.s.s.s.s.s.s.s.s.s.s.s.+.s.+.+.+.+.u.u.u.u.+.+.+.+.+.+.s.+.s.s.s.+.+.+.+.+.+.s.s.f.u.M 2 O O O B t.h.s.+.s.@.+.s.s.s.s.+.s.+.+.+.+.u.u.u.u.+.+.+.+.+.+.s.+.u.u.u...+.+.s.s.+.s.s.f.s.s.s.s.s.s.u.p.r.h O . o @ n | u.f.u.s.h.s.s.s.s.s.s.s.s.s.s.s.s.s.s.s.s.s.s.s.s.s.s.s.s.s.s.s.s.s.+.+.+.+.+.+.+.+.s.+.s.s.h.s.r.x O . 2 V u.u.s.s.s.s.s.s.s.s.s.s.s.s.s.s.s.s.s.s.s.s.s.s.s.s.s.s.........+.+.+.+.s.s.u.s.s.s.s.s.s.s.s.s.f.r.y.0 O O O v i.s.s.s.s.s.s.s.s.s.s.s.s.s.s.s.s.+.+.+.+.+.s.s.s.s.+.+.+.s.+.+.+.+.s.s.s.s.+.+.+.+.+.+.s.s.s.s.u.p.r.0 O . & g S u.k.s.+.+.+.} +.s.s.+.+.+.+.s.+.s.s.+.+.+.+.s.+.s.s.+.+.+.+.s.+.s.s.s.+.+.+.s.s.s.s.s.d.s.s.s.r.u.0 + O > r.i.s.s.s.s.+.s.+.+.+.+.s.s.s.s.+.+.+.+.+.+.s.+.s.s.s.+.+.+.+.s.+.+.+.+.s.s.s.s.+.+.+.+.+.+.s.s.s.s.u.r.< O O 9 y.y.i.s.s.s.s.s.s.s.s.s.s.s.s.s.s.s.s.s.s.s.s.s.s.s.s.s.s.s...+...+.+.+.+.+.s.+.u.u. . .+.+.s.s.u.y.v 9 . @ O B p.u.s.s.s.s.s.s.s.s.s.s.s.s.s.s.s.s.s.s.s.+.+.+.+.s.+.s.s.+.+.+.+.s.+.s.s.+.+.+.+.s.+.s.s.s.+.+.+.s.y.& . O ",
". . 2 r.i.+.s.+.+.+...u.s.s.s.s.s.s.s.s.s.s.s.s.s.s.s.s.s.s.s.s.s.s.s.s.s.s.s.s.s.s.s.s.s.s.s.s.s.+.f.u.M < O O O 0 r.u.i.s.s.s.s.s.s.s.s.s.s.s.s.s.s.s.s.s.s.s.s.s.s.s.s.s.s.s.s.s.s.s.s.s.s.s.u.u.s.s.+.+.+.+.+.u.u.| j # . O t y.f. .u.f.s.s.s.s.s.s.s.s.s.s.s.s.s.s.s.s.s.s.s.s.s.s.s.s.s.s.s.s.s.s.s.s.s.s.s.s.s.s.s.s.s.s.s.s.u.M 2 O O O B r.h.s.+.s.@.+.s.s.s.s.s.s.s.s.s.s.s.s.s.s.s.s.s.s.s.s.s.s.s.s.s.s.s.s.s.s.s.s.s.s.s.s.s.s.s.s.u.p.r.g O . . @ n | u.u.u.s.h.s.s.s.s.s.s.s.s.s.s.s.s.s.s.s.s.s.s.s.s.s.s.s.s.s.s.s.s.s.s.s.s.s.s.s.s.s.s.s.s.s.s.i.r.h O O # V u.u.s.s.s.s.s.s.s.s.s.s.s.s.s.s.s.s.s.s.s.s.s.s.s.s.s.s.s.s.s.s.s.s.s.s.s.s.s.s.s.s.s.s.s.s.s.s.k.t.u.0 O O O v u.s.s.s.s.s.s.s.s.s.s.s.s.s.s.s.s.s.s.s.s.s.s.s.s.s.s.s.s.s.s.s.s.s.s.s.s.s.s.s.s.s.s.s.s.s.s.s.u.p.y.0 O . & h S t.k.s.+.s.+.+.+.s.s.s.s.s.s.s.s.s.s.s.s.s.s.s.s.s.s.s.s.s.s.s.s.s.s.s.s.s.s.s.s.s.s.s.d.d.d.s.r.p.0 + O > t.p.s.s.s.s.s.s.s.s.s.s.s.s.s.s.s.s.s.s.s.s.s.s.s.s.s.s.s.s.s.s.s.s.s.s.s.s.s.s.s.s.s.s.s.s.s.s.s.s.u.y.4 O O 9 u.u.i.s.s.s.s.s.s.s.s.s.s.s.s.s.s.s.s.s.s.s.s.s.s.s.s.s.s.s.s.s.s.s.s.s.s.s.s.s.s.u. . .s.s.s.s.u.r.n 9 O O O S p.i.s.s.s.s.s.s.s.s.s.s.s.s.s.s.s.s.s.s.s.s.s.s.s.s.s.s.s.s.s.s.s.s.s.s.s.s.s.s.s.s.s.s.s.s.s.s.s.s.y.& O O ",
". . 2 r.i.s.s.+.+.+.+.+.s.s.s.s.s.s.s.s.s.s.s.s.s.s.s.s.s.s.s.s.s.s.s.s.s.s.s.s.s.s.s.s.s.s.s.s.s.+.u.u.M < O O O 0 r.u.i.s.s.s.s.s.s.s.s.s.s.s.s.s.s.s.s.s.s.s.s.s.s.s.s.s.s.s.s.s.s.s.s.s.s.s.s.s.s.s.+.+.+.+.+.u.u.r.j + . O t u.f. .s.h.+.s.s.s.s.s.s.s.s.s.s.s.s.s.s.s.s.s.s.s.s.s.s.s.s.s.s.s.s.s.s.s.s.s.s.s.s.s.s.s.s.s.s.s.t.M < O O O B t.h.s.s.s.s.+.s.s.s.s.s.s.s.s.s.s.s.s.s.s.s.s.s.s.s.s.s.s.s.s.s.s.s.s.s.s.s.s.s.s.s.s.s.s.s.s.u.u.r.g O . . @ x | u.s.s.s.h.s.s.s.s.s.s.s.s.s.s.s.s.s.s.s.s.s.s.s.s.s.s.s.s.s.s.s.s.s.s.s.s.s.s.s.s.s.s.s.s.s.s.t.E x + . # m u.u.s.s.s.s.s.s.s.s.s.s.s.s.s.s.s.s.s.s.s.s.s.s.s.s.s.s.s.s.s.s.s.s.s.s.s.s.s.s.s.s.s.s.s.s.s.s.k.t.y.3 O O + v u.s.s.s.s.s.s.s.s.s.s.s.s.s.s.s.s.s.s.s.s.s.s.s.s.s.s.s.s.s.s.s.s.s.s.s.s.s.s.s.s.s.s.s.s.s.s.s.i.k.y.0 O O & h B t.k.h.s.s.s.+.s.s.s.s.s.s.s.s.s.s.s.s.s.s.s.s.s.s.s.s.s.s.s.s.s.s.s.s.s.s.s.s.s.s.s.d.d.d.d.s.r.p.9 + + < t.k.s.s.s.s.s.s.s.s.s.s.s.s.s.s.s.s.s.s.s.s.s.s.s.s.s.s.s.s.s.s.s.s.s.s.s.s.s.s.s.s.s.s.s.s.s.s.s.s.u.y.4 O O 9 p.u.i.s.s.s.s.s.s.s.s.s.s.s.s.s.s.s.s.s.s.s.s.s.s.s.s.s.s.s.s.s.s.s.s.s.s.s.s.s.s.s.+.+.s.s.s.s.u.r.v 9 O O O S p.i.s.s.s.s.s.s.s.s.s.s.s.s.s.s.s.s.s.s.s.s.s.s.s.s.s.s.s.s.s.s.s.s.s.s.s.s.s.s.s.s.s.s.s.s.s.s.s.s.a.& . O ",
". . 3 r.s.s.s.+.s.s.s.s.s.s.h.h.s.s.s.s.s.s.s.s.s.s.s.s.s.s.s.s.s.s.s.s.s.s.s.s.s.s.s.s.s.s.h.h.s. .u.u.M + O O O 9 r.u.i.s.+.s.s.s.s.s.s.s.s.s.s.s.s.s.s.s.s.s.s.s.s.s.s.s.s.s.s.s.s.s.s.s.s.s.s.s.s.s.s.s.@.+.+.u.u.| 0 + . O 3 r.f. .s.s.s.h.d.s.s.s.s.s.s.s.s.s.s.s.s.s.s.s.s.s.s.s.s.s.s.s.s.s.s.s.s.s.s.s.s.s.s.s.s.s.s.s.s.s.t.n < O O + w.t.h.d.s.+.s.+.s.s.s.s.s.s.s.s.s.s.s.s.s.s.s.s.s.s.s.s.s.s.s.s.s.s.s.s.s.s.s.s.s.s.s.s.s.s.s.s.s.p.| g @ . . O x E u.u.s.s.s.s.s.s.s.s.s.s.s.s.s.s.s.s.s.s.s.s.s.s.s.s.s.s.s.s.s.s.s.s.s.s.s.s.s.s.s.s.s.s.s.s.h.t.E h + . # v u.u.s.h.s.s.s.s.s.s.s.s.s.s.s.s.s.s.s.s.s.s.s.s.s.s.s.s.s.s.s.s.s.s.s.s.s.s.s.s.s.s.s.s.h.h.s.s.k.t.r.3 O O O x t.+.s.s.s.s.s.s.s.s.s.s.s.s.s.s.s.s.s.s.s.s.s.s.s.s.s.s.s.s.s.s.s.s.s.s.s.s.s.s.s.s.s.s.s.s.s.s.s.k.r.9 O O & g B t.h.h.s.s.s.+.s.s.s.s.s.s.s.s.s.s.s.s.s.s.s.s.s.s.s.s.s.s.s.s.s.s.s.s.s.s.s.s.s.s.s.d.d.d.h.s.t.u.9 + + , i.i.s.s.s.s.s.s.s.s.s.s.s.s.s.s.s.s.s.s.s.s.s.s.s.s.s.s.s.s.s.s.s.s.s.s.s.s.s.s.s.s.s.s.s.s.s.s.s.s.i.i.4 O + 9 p.u.s.h.d.d.s.s.s.s.s.s.s.s.s.s.s.s.s.s.s.s.s.s.s.s.s.s.s.s.s.s.s.s.s.s.s.s.s.s.s.s.s.s.s.s.s.s.u.r.x 9 O O O r.p.i.h.s.s.s.s.s.s.s.s.s.s.s.s.s.s.s.s.s.s.s.s.s.s.s.s.s.s.s.s.s.s.s.s.s.s.s.s.s.s.s.s.s.s.s.s.s.s.u.a.& . O ",
". . 3 r.s.s.d.+.s.s.s.s.s.s.h.d.h.s.s.s.s.s.s.s.s.s.s.s.s.s.s.s.s.s.s.s.s.s.s.s.s.s.s.s.s.h.h.s.s.u.i.u.M + O O O 9 S u.i.s.s.+.s.s.s.s.s.s.s.s.s.s.s.s.s.s.s.s.s.s.s.s.s.s.s.s.s.s.s.s.s.s.s.s.h.s.s.s.s.s.@.s.+.s.u.r.0 O . O 3  .f. .s.s.s.h.s.d.s.s.s.s.s.s.s.s.s.s.s.s.s.s.s.s.s.s.s.s.s.s.s.s.s.s.s.s.s.s.s.s.s.s.s.s.s.s.s.s.t.x < O O + r.i.h.h.s.s.s.+.s.s.s.s.s.s.s.s.s.s.s.s.s.s.s.s.s.s.s.s.s.s.s.s.s.s.s.s.s.s.s.s.s.h.s.s.s.s.s.s.s.i.E a O . . O x E u.u.s.s.s.s.d.s.s.s.s.s.s.s.s.s.s.s.s.s.s.s.s.s.s.s.s.s.s.s.s.s.s.s.s.s.s.s.s.s.s.s.s.s.s.s.h.t.E 3 + . + x u.u.h.h.s.s.s.s.s.s.s.s.s.s.s.s.s.s.s.s.s.s.s.s.s.s.s.s.s.s.s.s.s.s.s.s.s.s.s.s.s.s.s.s.h.h.h.s.k.| | < O O O h  .+.s.s.s.s.s.s.s.s.s.s.s.s.s.s.s.s.s.s.s.s.s.s.s.s.s.s.s.s.s.s.s.s.s.s.s.s.s.s.s.s.s.s.s.s.s.s.t.f.r.9 O O & h B i.h.d.s.d.d.+.s.s.s.s.s.s.s.s.s.s.s.s.s.s.s.s.s.s.s.s.s.s.s.s.s.s.s.s.s.s.s.s.s.s.s.d.d.d.h.s.t.u.0 + + < t.t.s.s.s.s.s.s.s.s.s.s.s.s.s.s.s.s.s.s.s.s.s.s.s.s.s.s.s.s.s.s.s.s.s.s.s.s.s.s.s.s.s.s.s.s.s.s.s.s.i.t.4 O O 2 u.u.s.h.d.d.s.s.s.s.s.s.s.s.s.s.s.s.s.s.s.s.s.s.s.s.s.s.s.s.s.s.s.s.s.s.s.s.s.s.s.s.s.s.s.s.s.s.s.r.x 2 O O O r.p.i.h.s.s.s.s.s.s.s.s.s.s.s.s.s.s.s.s.s.s.s.s.s.s.s.s.s.s.s.s.s.s.s.s.s.s.s.s.s.s.s.s.s.s.s.s.s.s.i.a.& . O ",
". . 3 t.s.s.d.+.+.+.s.s.s.s.d.d.h.h.h.h.h.h.h.h.h.h.h.h.h.h.h.h.h.h.h.h.h.h.h.h.h.h.h.h.h.h.h.s.s.u.r.y.m + O O . 9 S u.i.s.s.s.s.s.s.s.s.s.s.s.s.s.s.s.s.s.s.s.s.s.s.s.s.s.s.s.s.s.s.s.s.s.s.s.h.s.s.s.s.d.d.s.s.s.u.| 0 + O O 3 t.k.t.s.d.s.d.d.d.d.h.d.h.h.s.s.s.s.s.s.s.s.s.s.s.s.s.s.s.s.s.s.s.s.s.s.s.s.s.s.s.s.s.s.s.s.s.s.s.t.x + O O + r.i.h.h.s.s.s.+.s.s.s.s.s.s.s.s.s.s.s.s.s.s.s.s.s.s.s.s.s.s.s.s.s.s.s.s.s.s.s.s.h.h.s.s.d.d.s.s.s.i.E a O O . . x E u.u.s.s.h.d.d.d.h.h.h.h.s.s.h.h.h.h.h.h.h.h.h.h.h.h.h.h.h.s.s.s.s.s.s.s.s.s.s.s.s.s.s.s.s.h.d.t.E h + . + 0 u.u.h.h.h.h.s.s.s.s.s.s.s.s.s.s.s.s.s.s.s.s.s.s.s.s.s.s.s.s.s.s.s.s.s.s.s.s.s.s.s.s.h.h.h.h.h.s.s.E E 4 O + O h E W s.d.h.h.s.s.h.h.h.h.h.h.h.s.s.s.s.s.s.s.s.s.s.s.s.s.s.s.s.s.s.s.s.s.s.s.s.s.s.s.s.s.s.s.s.s.t.k.r.9 O . & g M t.h.d.s.d.s.s.s.s.s.s.s.s.s.s.s.s.s.s.s.s.s.s.s.s.s.s.s.s.s.s.s.s.s.s.s.s.s.s.s.s.h.d.d.d.h.s.i.u.2 O O < r.t.s.s.s.s.s.s.s.s.s.s.s.s.s.s.s.s.s.s.s.s.s.s.s.s.s.s.s.s.s.s.s.s.s.s.s.s.s.s.s.s.s.s.s.s.s.s.s.s.i.r.4 O O 2 y.t.s.h.d.d.d.h.s.s.h.h.h.h.h.h.h.h.h.h.h.h.h.h.h.s.s.s.s.s.s.s.s.s.s.s.s.s.s.s.s.s.s.s.s.s.s.s.s.i.x 2 O + O r.p.i.h.s.s.s.s.s.s.s.s.s.s.s.s.s.s.s.s.s.s.s.s.s.s.s.s.s.s.s.s.s.s.s.s.s.s.s.s.s.s.s.s.s.s.s.s.s.s.i.a.& . O ",
". . 3 t.s.s.d.+.s.+.s.s.s.h.d.d.h.h.h.h.h.h.h.h.h.h.h.h.h.h.h.h.h.h.h.h.h.h.h.h.h.h.h.h.h.h.h.s.f.r.r.y.n + O O . 9 S y.t.u.h.s.s.s.s.s.s.s.s.s.s.s.s.s.s.s.s.s.s.s.s.s.s.s.s.s.s.s.s.s.s.s.s.s.s.s.h.s.s.d.d.s.s.u.u.| 0 O O O <  .k.t.s.s.s.d.d.d.d.h.d.h.h.h.h.s.s.s.s.s.s.s.s.s.s.s.s.s.s.s.s.s.s.s.s.s.s.s.s.s.s.s.s.s.s.h.s.h.r.x + . O + r.t.h.d.s.s.s.+.s.s.s.s.s.s.s.s.s.s.s.s.s.s.s.s.s.s.s.s.s.s.s.s.s.s.s.s.s.s.s.s.h.h.s.s.d.d.s.s.s.i.M a O O . . x E r.u.s.s.h.d.h.h.h.h.h.s.s.s.h.h.h.h.h.h.h.h.h.h.h.h.h.h.h.h.h.s.s.s.s.s.s.s.s.s.s.s.s.s.s.h.d.t.M 3 O . + 9 u.u.s.h.h.h.h.s.s.s.s.s.s.s.s.s.s.s.s.s.s.s.s.s.s.s.s.s.s.s.s.s.s.s.s.s.s.s.s.s.s.s.h.h.h.h.s.s.t.E N 4 O + O h E W s.d.h.h.s.s.h.h.h.h.h.h.h.h.h.s.s.s.s.s.s.s.s.s.s.s.s.s.s.s.s.s.s.s.s.s.s.s.s.s.s.s.s.s.s.s.t.i.r.3 O . # g B t.h.d.s.h.d.s.s.s.s.s.s.s.s.s.s.s.s.s.s.s.s.s.s.s.s.s.s.s.s.s.s.s.s.s.s.s.s.s.s.s.h.d.d.d.h.s.t.y.2 O O > w.E s.s.s.s.s.s.s.s.s.s.s.s.s.s.s.s.s.s.s.s.s.s.s.s.s.s.s.s.s.s.s.s.s.s.s.s.s.s.s.s.s.s.s.s.s.s.s.s.t.r.4 O O 2 y.t.i.h.d.d.h.h.s.s.h.h.h.h.h.h.h.h.h.h.h.h.h.h.h.h.h.s.s.s.s.s.s.s.s.s.s.s.s.s.s.s.s.s.s.s.s.s.s.i.x 2 O + O r.p.t.h.s.s.s.s.s.s.s.s.s.s.s.s.s.s.s.s.s.s.s.s.s.s.s.s.s.s.s.s.s.s.s.s.s.s.s.s.s.s.s.s.s.s.s.s.s.s.i.a.& . O ",
". O 4 c s.d.d.+.+.+.s.s.s.s.d.d.d.s.s.s.s.s.h.h.h.h.h.h.h.h.h.h.s.s.s.s.s.s.s.s.s.s.s.s.s.s.s.s.k.u.r.B h # . . . & m r.u.i.s.s.s.s.s.s.s.s.s.s.s.s.s.s.t.t.s.s.s.s.s.s.s.s.s.s.s.s.s.+.+.s.s.+.s.s.s.s.s.+.+.+.h.u. .B h + . O 3 E h.h.s.s.h.h.d.d.d.d.s.s.s.t.h.h.h.s.s.s.t.t.s.s.s.s.s.s.s.s.s.s.s.s.s.s.s.s.s.s.s.s.s.s.s.s.l.t.N x 2 O O + n r.h.h.h.s.s.s.s.s.s.s.s.s.s.s.s.s.s.s.s.s.s.s.s.s.s.s.s.s.s.s.s.s.s.s.s.s.s.s.s.s.s.s.s.s.s.+.s.t.c 3 O . . O h v r.k.k.t.t.h.d.d.d.s.s.s.s.s.s.s.s.s.s.s.s.s.s.s.s.s.s.s.s.s.s.s.s.s.s.s.s.s.s.s.s.t.s.s.s.s.j.w.x 3 + . + v | r.h.s.s.s.s.k.s.s.s.+.+.+.s.s.s.s.s.s.s.s.s.s.s.s.s.s.s.s.s.s.s.s.s.s.s.s.s.s.s.s.d.s.h.h.k.k.w.N x 2 + O # j c w.h.h.s.w.s.l.s.s.s.s.s.s.s.s.s.s.s.s.s.s.s.s.h.h.h.h.h.h.h.h.h.h.h.h.h.h.h.h.g.g.h.s.s.s.s.s.t.t.x + O O * j m w.t.d.e.! s.f.+.s.s.s.s.s.s.s.s.s.s.s.s.s.s.s.s.s.s.s.s.s.s.s.s.s.s.s.s.s.s.s.s.s.h.d.d.d.s.t.r.M 3 O + 3 x c t.s.s.h.h.s.s.s.s.s.s.s.s.s.s.s.s.s.s.s.s.s.s.s.s.s.s.s.s.s.s.s.h.s.s.s.h.s.s.s.s.h.j.h.s.s.s.h.i.m 4 O O + v r.i.s.s.d.s.s.i.i.h.h.h.h.h.h.h.h.s.s.s.s.s.s.s.s.s.s.s.s.s.s.s.s.s.s.s.s.s.s.s.s.k.s.s.d.j.h.w.N v + O O + x i.i.s.s.s.h.s.s.+.+.+.+.s.s.s.s.s.s.s.s.s.s.s.s.s.s.s.s.s.s.s.s.s.s.s.s.s.s.s.s.s.s.f.s.s.s.s.s.h.k.m # . . ",
". . * c t.d.d.d.s.s.s.s.s.s.h.h.s.s.s.s.s.s.s.s.t.t.t.t.t.t.t.t.s.s.s.s.s.s.s.t.s.s.h.h.s.s.s.i.k.r.| m g # O O . & m S t.i.s.s.s.s.s.s.s.s.s.s.h.s.h.s.s.s.h.h.s.s.s.s.s.s.s.s.h.h.s.s.s.s.h.h.h.s.h.h.h.h.h.s.f.u.| N g * O O < c t.s.s.s.h.s.h.j.h.h.d.s.s.s.s.s.s.s.s.s.s.s.s.s.s.s.s.s.s.s.s.s.s.s.s.s.s.s.s.s.s.s.s.s.s.s.h.w.N h & O . O n w.h.h.h.h.s. .t.t.s.t.s.t.s.t.s.s.s.s.s.s.s.s.s.s.s.s.s.s.s.s.h.s.h.s.h.s.h.h.h.h.h.h.h.h.h.s.s.| N 2 @ . . . h v E u.i.w.w.s.s.s.s.s.t.t.t.t.s.s.s.s.i.s.t.t.s.i.i.t.s.s.s.s.s.s.s.s.s.s.s.s.s.s.s.s.s.s.s.s.t.E x 3 O . + j N r.s.k.s.t.t.s.h.h.h.h.s.s.s.s.s.s.s.s.s.s.s.s.s.s.s.s.s.s.s.s.s.t.s.s.s.s.s.s.s.s.s.s.t.t.t.t.E N h 2 O . @ g c W k.k.s.t.t.s.s.s.s.s.s.s.s.s.s.s.s.t.t.t.t.t.t.t.t.t.s.s.t.t.s.s.s.s.t.t.t.s.s.s.s.s.s.s.s.s.E r.x + O O * k n w.t.h.s.e.s.s.h.h.h.h.h.h.h.h.h.h.h.h.h.h.h.h.h.h.h.h.h.h.h.h.h.h.h.s.h.h.h.h.i.i.s.d.d.d.s.i.r.m 2 O O 2 x x t.t.s.s.s.s.t. .s.s.s.s.s.s.s.s.s.s.s.s.s.s.s.s.s.s.s.u.s.s.s.s.s.s.s.s.s.s.s.s.s.s.d.s.s.s.d.h.w.n 2 O O # j M i.h.d.d.d.s.i.u.t.t.t.t.t.t.t.t.s.s.s.s.s.s.s.s.s.s.s.s.s.s.s.s.s.s.s.s.h.f.f.k.s.s.s.d.j.s.w.N v + O O + x r.t.s.s.s.s.s.h.h.f.s.s.s.s.s.s.s.s.h.h.h.h.h.h.h.h.h.s.h.s.h.s.h.h.h.s.s.s.s.s.s.s.u.u.s.s.s.s.s.i.m * . . ",
". . # x E w.s.d.s.s.u.i.i.s.d.d.h.k.h.h.h.i.i.i.h.h.h.h.h.h.h.h.h.h.k.h.h.i.i.i.t.t.t.t.t.t.t.i.r.E N v g & O . . & l S r.r.i.h.s.u.s.s.s.i.s.i.s.u.t.u.t.u.s.s.s.s.s.s.s.s.s.s.s.s.s.s.s.s.s.s.t.t.s.s.s.s.s.s.f. .b x 9 @ O O < x E t.h.h.h.s.h.h.h.s.s.t.t.t.s.u.s.i.s.s.s.s.s.s.s.s.s.s.s.s.f.f.f.f.f.f.f.s.i.s.i.i.s.s.s.s.w.E m g & O . O h M r.i.h.k.f. .i.i.s.i.s.i.s.s.s.i.s.i.s.i.s.i.s.u.s.s.s.i.s.i.s.u.s.u.s.u.s.u.s.s.s.s.s.s.s.t.t.| x 3 @ . . . h x N r.i.i.t.h.s.s.s.i.i.i.i.i.i.i.i.i.i.i.i.i.i.i.i.i.i.i.i.i.f.f.f.f.f.f.f.f.f.f.k.k.f.s.u.t.w.N v g O . O j h M i.k.h.i.t.t.s.s.s.s.s.s.s.s.s.s.s.s.s.s.s.s.t.u.t.u.s.i.s.i.s.u.s.i.s.s.s.f.k.h.h.h.i.t.w.E N x h 2 O . @ h x E t.h.k.h.i.i.h.h.h.h.h.h.h.h.i.i.i.i.i.i.i.i.u.u.u.u.u.u.u.u.u.u.u.u.u.u.u.u.t.u.i.s.f.s.u.u.c E x * O . @ k n Z t.h.d.s.s.s.s.s.s.s.s.s.s.s.s.s.s.s.s.s.s.s.s.s.s.s.s.s.s.s.s.s.s.s.s.s.s.s.i.i.s.s.s.s.h.i.M v & O O 2 h n E W t.i.f.s.u.u.s.s.s.i.i.i.i.i.s.s.s.s.i.i.i.i.i.i.i.i.f.f.f.k.t.s.s.s.s.s.s.s.h.s.s.t.s.s.s.i.x k 2 O . & g h r.t.s.s.s.i.i.t.k.h.h.h.h.h.h.h.h.h.h.h.k.k.k.k.s.f.s.f.k.k.k.k.s.i.s.i.s.u.s.i.t.t.s.s.h.s.E x v + . O + h r.E k.s.s.t.s.s.f.f.+. .s.s.s.s.s.s.s.s.s.s.s.s.s.s.s.s.s.s.s.s.s.s.s.s.s.s.i.i.i.i.i.i.s.s.u.t.W | m * . O ",
". . & h N E w.h.s.u.i.i.i.i.s.s.k.p.i.i.i.t.t.t.i.i.i.i.i.i.i.i.i.i.t.t.t.t.r.w.E E E E E E E E E c x h g & O . . & h m S r.t.s.i.u.u.i.i.i.i.i.u.u.u.u.u.u.u.u.s.s.s.s.s.s.s.s.s.u.s.u.s.s.s.i.i.i.t.s.s.s.s.s.u.E x h 9 @ . . 2 t N E t.h.h.s.h.h.h.s.s.t.t.i.i.u.i.i.i.i.s.i.u.u.i.i.i.i.i.i.i.u.u.u.u.u.i.i.u.u.i.i.i.i.i.i.N N n g & . . O s x N E t.f.f.r.s.s.f.u.f.f.s.s.f.f.f.f.f.f.f.f.u.u.s.i.i.i.i.i.u.u.i.i.i.i.s.i.u.u.u.s.s.s.s.u.| M x 2 @ .   . g h x M t.i.k.k.k.h.h.h.i.p.p.p.t.t.t.t.t.t.t.t.t.t.t.t.t.t.t.t.u.u.u.u.u.u.u.u.i.u.k.k.k.u.r.t.N n v g @   @ g g n r.i.h.i.i.u.u.u.s.u.s.u.s.u. . .t.u.t.u. . .t.u.u.u.u.u.u.u.s.i.s.i.i.u.u.u.t.i.i.i.t.E N c x v j & . . % z a x N E t.i.i.i.i.i.i.i.i.i.i.i.p.u.u.u.u.u.u.u.u.u.u.u.f.f.u.u.u.u.f.f.u.u.u.u.f.k.k.f.u. .| E 6 N h * O . @ k k M t.h.s.s.s.u.s.u.s.u.s.u.s.u.s.i.s.s.s.i.s.i.s.s.s.s.s.u.s.i.s.s.s.s.s.i.s.i.u.u.k.h.h.t.t.r.m g # . O & h m v b E r.f.k.f.f.f.f.f.f.u.u.u.u.i.i.i.u.i.i.i.i.r.r.r.i.u.f.f.f.s.s.s.s.s.t.t.t.h.i.s.i.s.s.t.E h h & . . & g g x N E w.t.t.t.r.i.i.i.i.i.i.i.i.t.t.i.i.i.i.i.i.t.t.t.u.u.i.s.f.s.i.i.u.u.t.t.t.i.i.s.h.s.t.N x j + . . O g Z N k.s.s.u.t.u.t.u. . .t. .s.u.s.u.s.u.s.u.s.u.s.u.s.u.s.u.t.u.s.u.u.i.i.i.i.i.i.i.k.k.k.u.r.E c c j O . O ",
"  . & g x c Q W s.u.t.u.u.i.i.i.t.r.r.E E E E E N N N N N N N N N N c c c x x x x x x x c x c c v t x v h & .   . % g m N M E t.i.i.i.i.i.i.i.i.h.p.h.p.h.p.h.s.f.f.f.f.f.f.f.f.f.f.f.f.f.f.f.k.i.i.h.h.f.s.s.s.E N x j g @ . . 2 h x N E i.h.s.h.h.h.h.h.i.i.i.t.t.t.r.W E E E E E E E E E E E | | | | | | | | | | | | | | | | x x v 9 @ . . . g g x x N | | | | r.w.r.t.r.w.r.i.i.i.i.i.i.i.i.i.i.i.i.i.i.i.i.k.p.k.p.h.p.h.k.s.s.u.f.f.f.f.u.E N h & @     . g 0 x n M r.r.w.w.w.r.r.r.r.r.r.E E E E E E E E E E E E E E E E | | | | | | | | | r.r.r.r.| E N x n k s @ . @ = g v M r.t.t.u.u.k.f.f.f.f.f.f.f.u.u.u.u.u.u.u.u.i.i.i.i.i.i.i.i.i.t.t.t.E E E E c N N N c c x 3 x v h & . . % g x x x c N E r.r.r.r.r.r.r.r.r.r.r.r.r.r.r.r.r.r.r.r.r.r.r.r.r.r.r.r.r.r.r.r.r.r.t.t.t.t.r.M c v 6 n g * . . @ z h m w.t.i.i.u.u.s.h.h.i.s.h.h.h.k.k.k.k.k.k.k.k.k.k.k.k.k.k.k.k.k.k.k.k.k.k.k.k.t.t.i.k.i.w.w.N m g @ . . * g m 6 x b | r.r.t.r.t.t.u.u.u.u.u.u.| | | | | | | | E E E E r.r.r.r.i.i.i.i.i.i.i.i.s.i.s.k.k.i.E c j g & . . & z g 3 x c E E E B B N N N N N N N N N N N N N N N N c c c c c N E E i.i.i.i.i.u.i.u.p.i.i.i.t.E c h h @ . . O s m x r. .u.f.f.f.u. .s.u.u.u.u.u.u.u.s.h.h.i.s.h.h.h.h.h.h.h.h.k.h.k.u.u.u.u.u.u.u.u.t.t.t.r.E b x t g O . O ",
"o . @ 3 x c c Q T E M M M N E E c n c x x x v v x x x x x x x x x x x x x t 6 0 x x x x x x x x t t x j g @ . . . $ g j n c E E E E E E E N E N t.r.t.r.t.r.t. .r.r.u.r.u.u.u.r. . . . . . . .r.r.r.t.t. . . . .c v x j 9 @ . . # 0 x x c E t.t.t.t.w.t.w.r.r.r.N N N N c c c v c c c c c c c c c x c v c v c x c x x x c x c x d x l = X . . . g j x d x v v t c c c c c c c c c b c b b N b b E M E E E E E M E E E E E E E E  . .|  . . . . .N n 9 & .       9 9 h h x x x x c c c x x v x x x x x x x x x x x x x x x x x x c x c x c x c x x x N N N n v x x n g & .   X % g j x N M r.r.y.r. . . . . . . .u.u.u.u.u.u.u.u.i.t.i.t.i.t.r.t.E N E b c c c x x x v x v x x h j l g @ . . % = m x x x x v c x c x c x x x x x v v v v v v v v c v c v c x c x c v c x c x c x N N N N N v v t x x 3 @ . . X g h n M w.w. . . .t.t.t.r.t.t.t.t.t.t.t.t.t.t.t.t.t.r.t.r.t.t.t.r.t.r.t.t.t.r.t.r.| r.r.t.w.E N v m g @ . . @ s m x x v n N N N N N N N N N N N N c x c v c v c x v v v x c n c c E E E | t.t.i.i.t.t.i.i.t.E c t j g @ . . @ g l h x c c c x x x x x x x x x x x x x x x x x x x t t x x c x c c N N E E t.r.i.u.r.r.t.w.E N x h 2 O . . O & n x c T  .u.f.f.f.u.u.u.u.u.u.u.u. .t.t.t.r.t.t.t.t.t.r.t.t.t.t.t.t.M M M M M M M M c N N N c v x 0 9 O . O ",
"o . O 3 x c c c y t t t x x d x x x x x x x x x x x x x x x x x v x v x x x x x x x x x v x v v x x v j & . . . . @ g j v x c c t t t t x x x x c v c v c v c c b b b b b b b b b b b b c b b N x x c c c c c c t x h g & .   X O 3 v x x c c N c c c c c c x x v v x x x t t t x x x x x x x x x x x x x x x x x x x x x x x x 3 n l &       . & g n x x t t 0 t t t t t t t t 6 6 6 6 6 6 6 6 t x t t t t x x x x x x x x x x c c t y y y y y v x 9 & .       & 9 j h 0 x x 6 x x x x x x x x x x x x x x x x x x x x x x x x x x x x x x x x x x x x t t t x n n s $     X @ z g x x n N N N N b b b b b c c E E E E E E E E E E E E E M M M v v v x x t 6 t x x x x x x x x j j g @ .   X @ v x v x t 0 x x x x x x x x x x t t t t t t t t t t t t t t t t t t t t t t t t x x x x x x x x x v & . .   . = k k x c c c c b c c c v c v c v c c c N c N c c c b c N c N c N c N c N c b c N N m N c c c x x l = @ . . . & n x x x x x x x x 0 0 0 0 0 0 0 0 x x x x x x x x t x x x x x x x x c c N E M E E E E E E N c c x k & . . .   & l v v x x x x h h x x x x x x x x v x v v x v x x v v v x c c c c t t x v c N N N M M E N N x x j # . . . . & k v t t b E | | | | E E E E E E E b c c c v c v c v c v c v c c c c x x x x x t t t t t x x x x x x 3 O . O ",
"    . & v x x x v v x x v x c x x x v x x x x x v x v x x x x x x x x x x x v x x x x x v x v x x n m g @ . . @   @ g h j x 6 x v v v v v v x x t t t t t t t t t t t t t t t t v v t t x v v v x x x d t t t t t x j g @   . % . < v v x h d 6 x x x d x d x d t t x x x x x x c c v v v v v v x x x x x x x x v v v v v v v x h m l & .       . 2 m x x x x t v v v v v v v v c c v v v v v v v v v x x x v v v x x x x x x x t t t t t t t t x h 9 & .       O 9 j h h v m x x x x x v v v v x x x x x x x x x x x x x x x x x x x x x x x x x x x x t x x v n k 2 @ .   . . z g h x v x h 3 v v v v c v t t t t t t t t t t x x x t x t t t t t x x x x x x x x x x v x v v j h & .     X . 9 h v x x x v n v x v x v x v x x v v v v v v v x v v v x x x v x x x x x x x x x x x x x x v n j g * . . . . & k h h x 6 t 6 t t t t t t t t t x x v v v v x x c x v v v x x x v v v x v v v v x h 3 3 3 d x j h & @ . . . % h n v x x x x n n v v v v v v v v v v v v v v v v x v x x x x x x x x x x x t t t c c b c t 6 x v h @   . . . @ k j v x x x x v v v x v x v x v x x x x x x x x x x x x x x x x x x x v v v x x x v v x x x x v j @ . . . . $ k m t t t t t t t t v v t t t t t t t t t t t t t t t t t t t t t t v x x x x x x x x x x x x x x x 2 . . O ",
". . . * g m v h v v v v x n n n x x x x x x x x x x x x x x x v x x x x x x x x v v v v v v v v x n j 3 @ .       . # g m n v a x x x x v v v v v v v v v v v x v v x v v x v v x v x v v x v v x x x x x x v v v j g & O . . . . O 9 j j g h h v v x x n x n x x x x x x x x x x x x x x x v x v x v v v v v v v v v v v v v x m h & @         . & h m v d x x x v v v v v x x v v v v v v v v x x x x v v v v v v v v v v v v x x x x x x v v m g & @ . . . . O 2 m m m h h v j j j j k j v v x v x v v v v v x x x x x x x x v v v v v v v v x v v x x v x v l = @ . . . . . 2 g j n v h h x v x x x x x x x 6 0 t t x x v v x x x x x x v v v v v x x x x x x x x x x v j j l 9 @ .   X X . & 3 n v j g h v j h j h j h h h x v x x x x x x v v v v v v v v x x x v v v v v x x v x x x v x g & O . O @ @ O g j n n x x x x v x x x x x x x v v v v v v v v x v v v v v v v x v x v x x x x x v v x x x j j 2 @ O O . . . & h x x x x x x x v v v v v v v v x x x x x x x x v v v v x x v v x x x x x x x x x x x v v v v x # @ . . . . @ # h j n n n v n v v v v v n v n v v v x v x v x v x x x x x x x x v v x x v v v x M v h h n n j g @ @ . . . . = j x t t t t t x v x x x x x x x x x x x x x x x x v v v v x v v v x x x x x x x x n x x x x x x h O . . . ",
"O . . O & g h j j h h x x x x x x x x x x x x x x x x x x x x x x j x j x j x j x h x h x j x x n x 3 & @ . . X   . @ 9 h m n v x x x x x x x x x x x x x x x x x x x x x x x x x x x x x x x x x x n n n n v j j g 2 O . . . O . @ = g j h h g j j x x x x x x x x x x x x x v 0 0 0 0 t 0 t t v v x x x x x x x x x x x x x v j g # @ .         @ g j v x n N x x x x x x x x x x x x x x x x x x x x x x x x x x x x x x x x n n n n v v v j j g # O . . O O . + 3 g j g j j h h h h h h j j v v x x x x x x x x x x x x x x x x x x x x x x x x x x x x 0 g z = . . . . . . * 2 g m m j j x x x x x x x x x x x x x x x x x x x x x x v v v 0 0 0 0 0 0 0 x d d x v v n l l g % .     X X . O 2 g j j g g h j h j j j j j j v v x x x x x x x x x x x x x x h h h t x x x x x x x x x x x v = @ . . . @ O O g h j n v h h h v x x x x x x x x x x x x x x x x x x x x x x x x x x x h h h h x h x x j j l k & O . . . . . @ h x x x x x 0 0 x x x x x x x x v x x x x x x x x x h x h h x x x x x x x x x x 0 x x x x x x h O . . . . . @ O j j j j j j h h h h h h h h h h x j x j v j x j x j x j x h x j x j v j v v v v v h h j n j g & O @ @ . . . % g j x x x x x x x x v x x x x x x x x v v x x x x x x x x x x x v x x h x h h x x x x h x v x a 2 O . . . ",
". . . . @ & g l j j v v n v v n n n n n n n n n v v n n n n n n n m n n n m n m j j j j j j v j j 3 + O . .   X   . @ & g l m n v v v v v v v v x x v v v v v v v v v x v v v v v v v v v v v v n n n n n n n l h 2 * . . . O . . @ @ = g j j h h j j v x x x v v x x v v v v v v v v v x x x x v v v v v v v v v v v v v v v j g & O . .       . . & 9 j n N N x v v v v v v v v v v v x x v v v v v v v v v v x x v v v v v v n v n n v v j j g 2 O O . . O O . O + 2 h h l l j j j j l l l l j v v v v v v v v v v v v v v v v v v v v v v v v v n n n v x g & @ . . . @ O . . O 2 h j j j h j v v v x n n n v v v v v v x x x x x x x x x x h h h x x x x x x v n m m j h h # @ .       X   . * g l l j j j h h j j l l l l h x x x x x x x h h h h h h h h v v v v v v v v x v v v v x h g @ . . . . O . . 2 3 h n v j x x x x x x x x x x v v v v v v v v v v v v v v v v v v v v v v v v v v n n n j h g O O . . .   . O 2 3 h v v v v h h x h h h h h h x x x x x x x x v v v v v v x v x x x x x x x x v v v v v h 0 3 .   . . . . O O g g h l l j j j m m n j v j h j n k n k j j j j j j j j j j j j j k j k m m m m v j j l l g & O O O @ . . . @ & g h v v v x h h x x x x x x x x x x h x x x x x h h x x x h h h v v v v x x v v x v n n n a 4 O . . . . ",
". . . . . @ & g h h j j h h x x h h h h j j j j h h j h j j j j g g g g g g g g g g g g g g g g 3 # O . . .         . @ & g h j j j j j j j j j j j j j j j j j j j j j j j j j j j j j j j j v x x j v j j j h 2 # O . . . . . . . . @ = z k h j j j j n n n n x h j j j j j j j j j j j j j j h h h h h h h h h h h h h h h g & @ . .     X       . & 3 x x x v j j v j j j j j j j j j j j j j j j j j j j j j j j j j j j j x x h j j j h h & * O . . . . . O O O # 9 g h g h h h h h h h h j h h h h h h h j j j j j j j j h h h h h h h h h j v v j h 9 9 @   . . . . . . . O # 2 3 g g g g g h h j v v v j j j j j j j j j j j j j j j j v v v v j j j j k m m j h g 2 & @ . . .         . O & g g g g h g g g h h h j k j j j j j j j j j j j j j j j j v v v v v v v v j v v j h 3 2 # . . . . . . . . O # g j m m m m j j j j j j j j j j j j j j j j j j j j j j j j v v v v v v v v m m m m j g 2 & O . . . . .   . + 4 3 h v m m m j j j j j j j j v v j j j j j j v v v v v v v v j v j j j j j j m m m m j 3 < + .   . .   . . . @ & 9 h l l l j l l j j h g g g 3 3 3 3 2 2 2 3 2 2 2 2 2 2 2 2 g h h h j j l l m l l l h 2 O . . . . . .     @ 9 9 h j v j h h j j j j j j j j h h h h h h h h j j j j j j j j m m m m m m m m m m m m g 2 + O .   . . ",
". . @ . . . @ # # # * + + + + + * * * * * * * * * * * * * * * * O O O O O O O + O O O O O O O O O O . . . .     X     . @ & & 2 3 3 3 3 3 3 3 3 3 3 3 2 2 3 2 3 3 3 2 2 3 3 3 3 3 2 2 2 9 3 3 3 2 2 2 2 2 2 & & O O . . . . .   . . . . @ = = & 9 9 2 3 3 3 3 3 2 2 2 2 2 2 2 2 # # # # # # # # 2 2 2 2 2 2 2 2 2 2 2 2 2 2 2 2 @ . . .   X X     . . O # 3 2 2 3 3 2 2 2 3 3 3 3 3 3 3 2 3 3 3 3 3 3 3 3 2 3 3 2 3 3 3 3 3 2 2 2 2 2 2 2 2 2 & @ @ . . . . . . O . . . O @ @ @ # # # # # # # # 2 2 2 2 2 2 2 2 2 2 2 2 2 2 2 2 2 2 2 2 2 2 2 2 + # # 2 # # + O .         . . . . . . @ * # & & 2 2 2 2 3 9 9 9 g g h j j j j j j j j j j j j j g g g g 9 3 2 2 2 2 2 = & @ @ . . . . .       . . . . O O O @ & # # & & & & & = g g g g g g g g g g h h h g g g g g g g g g g g 3 9 9 3 2 + O O .     . . . . . . O # 9 g g g h g g g g g g g g 3 3 2 3 2 3 2 2 3 3 3 3 2 3 2 2 g g g g g g g g g g g g 2 & @ @ . . .       . . O O # 2 g g g g g g g g g g g g g g g g g g g g g g g g g g g g g g g g g g g g g g g g 9 # + . .         .   . . O @ & 9 g 9 2 & & & # * * * + O O O O O O O O O O O O O O O O & & & & 2 2 2 2 g g 9 & & @ O . . . . .         & 2 g j j j j j j j j j j j j j g g g g g g g g h g g g g g g g g g g g g g g g g g g 3 & + O O . . . . ",
". . @ . . . . . . . O O O O O O O O O O O O O O O O O O O O O O . . . . . . . . . . . . . . . . . . . . .       X     . . @ O O O O O O O O O O O O O O O O O O O O O O O O O O O O O O O O O O O O O O O O O O . . . . @ . .   . . . . . . . . O O O O O O O O O O O O O O O O O O O O O O O O O O O O O O O O O O O O O O O @ @ . . .   X X   X     . @ * + O O O O O O O O O O O O O O O O O O O O O O O O O O O O O O O O O O O O O O O @ @ @ . . .   . .   @ . . . . . . . . . . . . . . . @ O O O O O O O O O O O O O O O O O O O O O O O O O O O O O . .             .   . . . . . O O O O O O O O O + O # # # # & 2 2 2 & & & & & & & & # # + + O O O O . . . . . . . . . . X .     . . . . . . . . O @ . . . . O . O O O + + + + + + + * * # # # # # # O + + + + + + + O O O O O O O . .   .     . . . . . @ @ O O * * + + + + + + + + O O O O O O O O O O O O O O O O + + + + + + + + O O + @ O @ O . . . . . .   .   . O O + + + + O # # # # # # # # + + + + + + + + + + + + + + + + + + + + + + + + + + # # + O O .         .   . . . . . @ @ O O O O O O O . . . . . O O . O O O O . . . . . . . . O O O O O @ @ @ @ @ @ O O . . .               . O O + # & 2 2 2 & & & & & & & & # # # # # # # # # # # # * * # * * * * * * * * * O O O O O O O @ . . . . ",
".       . . . . . . . . O O O O O O O O O O O O O O O O O O O O . . . . . . . . O O . . . . . . . . . .     X X X X       . . . . . . . . . . . . . . . . . . . . . . . . . . . . . . . . . . . . . . . . . . .   . . .                   . . . . . . . . . . . . . . . . . . . . . . . . . . . . . . . . . . . . . . . . . . . .   .   X X         . . . O O O . . . . . . . . . . . . . . . . . . . . . . . . . . . . . . . . . . O O . . . . .   .         . @ . . . . . . . . . . . . . . . . . . . . . . . . . . . . . . . . . . . . . . . O O O O . . . .   X X         . . . . . . . . . . . . . . . . . . . . O . O O O O . . . . . . . . . . . . . . .                 . . .           @ . . . . . . . . . . . . . . . . . . . . . . . . . . . . . . . . . . . . . . . . . . . . . . .           .   . . . . . . . . O . . . . . . . . . . . . . . . . . . . . . . . . . . . . . . . . . . . . . . . . . . .     X X . . . . O . . . . . . . . . . . . . . . . . . . . . . . . . . . . . . . . . . . . . . . O O O . .               . . . . . . . . . . . . . . . . . . . . . @ @ @ @ . . . . . . . . . . . . . . . . . . . . . . . . .               . . . . . O O @ . O O O . . . . . . . . . . . . . . . . . . . . . . . . . . . . . . . . . . . @ . . . . ",
"            . . . . . . O O O O . . . . . . . . . . . . . . . . . . . . . . . . . . . . . . . . . . . .     X X X       . . . . . . . . . . . . . . . . . . . . . . . . . . . . . . . . . . . . O O O O . . . .   .           X               X . . . . . O O O @ @ . . . . . . . . . . . . . . . . . . . . . . . . . . . . . . .   .   X X             . . . . O . . . . . . . . . . . . . . . . . . . . . . . . . . . . . . . O O O O . . . . .   .     .   .   . . . . . . . . . . . . . . . . . . . . . . . . . . . . . . . . . . . . . . . . . . . . . . . X X X           . . . . . . . . . . . . . . . . . . . . . . . . . . . . . . . . . . . . . . . . .         X X X   .   . . .   . . . . . . . . . . . . . . . . . @ . . . . . . . . . . . . . . . . . . . . . . . @ . . . . . . .             . . . . . . . . . @ @ . . . . @ . . . . . . . . . . . . . . . . . . . . . . . . . . @ @ . . . . . . . .       X X . . . . . . . . . . . . . . . . . @ . . . . . . . . . . . . . . . @ . . . . @ @ @ . . . . . . . .                     . . . . . . . . . . . . . . . . . . . . . . . . . . . . . . . . . . . . . . . . . . . . .             X X   . . . . . . . . . . . . . . . . . . . . . . . . . . . . . . . . . . . . . . . . . . @ . . . . . . . . . "
};
