/* XPM */
static char *abc9fdbb253f444ddd5d2136ee4c2930O2Zc4ELAze9CzMYd[] = {
/* columns rows colors chars-per-pixel */
"640 320 165 2 ",
"   c #040505",
".  c #090607",
"X  c #050807",
"o  c #090907",
"O  c #0A0708",
"+  c #070908",
"@  c #0B0D0C",
"#  c #110E0E",
"$  c #0E100F",
"%  c #11120E",
"&  c #0F0F11",
"*  c #120F10",
"=  c #0F1110",
"-  c #131413",
";  c #181616",
":  c #161817",
">  c #191916",
",  c #171918",
"<  c #1B1C1B",
"1  c #201E1E",
"2  c #1E201E",
"3  c #21211F",
"4  c #1F1F21",
"5  c #1F2121",
"6  c #242423",
"7  c #282625",
"8  c #252925",
"9  c #292926",
"0  c #262628",
"q  c #292728",
"w  c #262929",
"e  c #2C2C2B",
"r  c #302E2E",
"t  c #2D312E",
"y  c #32302F",
"u  c #312F30",
"i  c #2E3130",
"p  c #343333",
"a  c #383636",
"s  c #353837",
"d  c #393937",
"f  c #353739",
"g  c #393738",
"h  c #363A39",
"j  c #3C3B3B",
"k  c #403E3E",
"l  c #3E403D",
"z  c #42413E",
"x  c #423F40",
"c  c #3E4140",
"v  c #444343",
"b  c #494646",
"n  c #464845",
"m  c #4A4946",
"M  c #4A4748",
"N  c #474948",
"B  c #4C4B4B",
"V  c #504E4E",
"C  c #4F504E",
"Z  c #52514E",
"A  c #534F51",
"S  c #4F5150",
"D  c #545353",
"F  c #595656",
"G  c #575855",
"H  c #5A5956",
"J  c #5B5759",
"K  c #575958",
"L  c #5D5B5B",
"P  c #615E5E",
"I  c #5F605D",
"U  c #62615F",
"Y  c #5F6161",
"T  c #656565",
"R  c gray40",
"E  c #656766",
"W  c #646362",
"Q  c #686665",
"!  c #696867",
"~  c #696768",
"^  c #676969",
"/  c #666968",
"(  c #686868",
")  c #6B6B6B",
"_  c #686B6A",
"`  c #6A6C6A",
"'  c #6F6D6B",
"]  c #6D6E6B",
"[  c #6D6D6D",
"{  c #6F6F6F",
"}  c #6C6E6E",
"|  c #6C6B6B",
" . c #716F6B",
".. c #706E6D",
"X. c #716F6E",
"o. c #736F6C",
"O. c #706E6E",
"+. c #73716F",
"@. c #72716D",
"#. c #75716E",
"$. c #72716F",
"%. c #716F70",
"&. c #6E7170",
"*. c #6E7170",
"=. c #717171",
"-. c #727272",
";. c #727271",
":. c #757371",
">. c #737471",
",. c #757572",
"<. c #747474",
"1. c #767676",
"2. c #777575",
"3. c #757373",
"4. c #787676",
"5. c #757877",
"6. c #7B7977",
"7. c #777478",
"8. c #7A7778",
"9. c #767978",
"0. c #797979",
"q. c #7A7A7A",
"w. c #7D7B7B",
"e. c #817E7E",
"r. c #7D807F",
"t. c #83817E",
"y. c #7F7D80",
"u. c #827F80",
"i. c #7E8180",
"p. c #848383",
"a. c #898686",
"s. c #858887",
"d. c #8A8987",
"f. c #8A8788",
"g. c #878988",
"h. c #8C8B8B",
"j. c #918E8E",
"k. c #8E908F",
"l. c #92908E",
"z. c #928F92",
"x. c #8F9190",
"c. c #949393",
"v. c #989696",
"b. c #979896",
"n. c #9A9997",
"m. c #999699",
"M. c #979999",
"N. c #9C9A9A",
"B. c #A09E9D",
"V. c #A2A09F",
"C. c #A19FA0",
"Z. c #9FA2A1",
"A. c #A4A2A2",
"S. c #A8A6A6",
"D. c #A9A7A8",
"F. c #ACABAB",
"G. c #AAA9A5",
"H. c #B4B2B3",
"J. c #BBBBBB",
"K. c #C6C4C5",
"L. c #CCCBCC",
"P. c #D1CECF",
"I. c #DBDBDB",
"U. c LightGray",
"Y. c #E3E3E3",
/* pixels */
". . . . . . X X X X X X X X X X X X X X X X X X X X X X . . . . . . . . . . . . . . X X X X X X X X X X X X X .         . . . . . . . . . . . . . .       .                                                                                                         X       X X X X X X . . . . X X X X X X X X X X X X X X X X X X X X X X X X X X X X X X X X X X X X X X X X X X X X X X X X X X X X X X X X X X X + + + X X + + + + + + + + + + + + + + + + + + + + @ @ + + + @ @ @ @ @ @ @ + + + + @ @ @ @ + + + + @ @ + + + + + + + + + + @ @ @ @ @ @ @ @ @ @ @ @ @ @ @ @ @ @ @ @ @ @ + + + + + @ @ @ X X X + + + + + @ @ @ @ @ @ @ @ @ @ @ @ @ @ @ @ @ @ @ @ @ @ @ @ @ @ @ @ @ @ @ @ @ @ @ @ @ @ @ @ @ @ @ @ @ @ @ @ @ @ @ @ @ @ @ @ @ @ + + + + @ @ @ @ + + + + @ + + + + + + + @ @ @ @ + + + + + + + + @ @ @ @ + + + @ @ @ @ @ + + + + @ @ @ @ @ @ @ @ @ @ @ @ @ @ @ @ @ @ @ @ @ @ @ @ @ @ @ @ @ @ @ @ @ @ @ @ @ @ @ @ @ @ @ @ @ @ @ @ @ @ @ @ @ @ @ @ @ @ @ @ @ @ @ @ @ @ @ @ @ @ @ @ @ @ @ @ @ @ @ @ @ @ @ @ $ $ @ @ @ @ @ @ @ $ $ @ @ @ @ @ + X . .   X X X X X X . .       . . .                                                                                                                                                                   X X X X X X X X X X X X X + @ @ @ @ @ @ @ @ @ @ @ @ @ @ @ @ @ @ ",
". . . . . . X X X X X X X X X X X X X X X X X X X X X X . . . . . . . . . . . . . . X X X X X X X X X X X X X .         . . . . . . . . . . . . . .                                                                                                                 X .         X X . X . . . . X X X X X X X X X X X X X X X X X X X X X X X X X X X X X X X X X X X X X X X X X X X X X X X X X X X X X X X X X X X X + + X + + + + + + + + + + + + + + + + + + + + + + @ + + + @ @ @ @ @ @ @ + + + + @ @ @ @ + + + + @ @ + + + + @ + + + + + @ @ @ @ @ @ @ @ @ @ @ @ @ @ @ @ @ @ @ @ @ @ + + + + + @ @ @ X X X + + + + + + + @ @ @ @ @ @ @ @ @ @ @ @ @ @ @ @ @ @ @ @ @ @ @ @ @ @ @ @ @ @ @ @ @ @ @ @ @ @ @ @ @ @ @ @ @ @ @ @ @ @ @ @ @ @ @ @ + + + + @ @ @ @ + + + + + + @ @ + + + + @ @ @ @ + + + + + + + + @ @ @ @ + + + + @ @ + @ + + + + @ @ @ @ @ @ @ @ @ @ @ @ @ @ @ @ @ @ @ @ @ @ @ @ @ @ @ @ @ @ @ @ @ @ @ @ @ @ @ @ @ @ @ @ @ @ @ @ @ @ @ @ @ @ @ @ @ @ @ @ @ @ @ @ @ @ @ @ @ @ @ @ @ @ @ @ @ @ @ @ @ @ @ @ $ $ @ @ @ @ $ @ @ @ $ @ @ @ @ @ + X . .   X X X X X X . .       . . . .                                                                                                                                                                 X X X X X X X X X X X X X + @ @ @ @ @ @ @ @ @ @ @ @ @ @ @ @ @ @ ",
". . . . . . X X X X X X X X X X X X X X X X X X X X X X . . . . . . . . . . . . . . X X X X X X X X X X X X X . .       . . . . . . . . . . . . . .     . .                                                                                                             .           . . . . . . X X X X X X X X X X X X X X X X X X X X X X X X X X X X X X X X X X X X X X X X X X X X X X X X X X X X X X X X X X X + + + + + + + + + + + + + + + + + + + + + + + + + + + + + + + @ @ @ @ @ @ + + + + + + + + + + + + @ @ + + @ @ @ @ + + + + @ @ @ @ @ @ @ @ @ @ @ @ @ @ @ @ @ @ @ @ @ @ + + + + + @ + + X X X + + + + + + + + + @ @ @ @ @ @ @ @ @ @ @ @ @ @ @ @ @ @ @ @ @ @ @ @ @ @ @ @ @ @ @ @ @ @ @ @ @ @ @ @ @ @ @ @ @ @ @ @ @ @ @ @ @ @ + + + + + + + + @ + + + + @ @ @ @ @ + + + + + + + + + + + + + + + @ + + + + + + + + + + + + @ @ @ @ @ @ @ @ @ @ @ @ @ @ @ @ @ @ @ @ @ @ @ @ @ @ @ @ @ @ @ @ @ @ @ @ @ @ @ @ @ @ @ @ @ @ @ @ @ @ @ @ @ @ @ @ @ @ @ @ @ @ @ @ @ @ @ @ @ @ @ @ @ @ @ @ @ @ @ @ @ @ @ @ @ @ $ $ $ @ $ $ $ $ @ @ @ @ @ @ @ @ @ + X . X X X X X X X .         . . . .                                                                                                                                                                 X X X X X X X X X X X X X + @ @ @ @ @ @ @ @ @ @ @ @ @ @ @ @ @ @ ",
". . . . . . X X X X X X X X X X X X X X X X X X X X X X . . . . . . . . . . . . . . X X X X X X X X X X X X X . .       . . . . . . . . . . . . . .     . .                                                                                                         .             . . . . . . . X X X X X X X X X X X X X X X X X X X X X X X X X X X X X X X X X X X X X X X X X X X X X X X X X X X X X X X X X X X + + + + + + + + + + + + + + + + + + + + + + + + + + + + + + + @ @ @ @ @ @ + + + + + + + + + + + + @ @ + + @ @ @ @ + + + + @ @ @ @ @ @ @ @ @ @ @ @ @ @ @ @ @ @ @ @ @ @ + + + + + + + + X X X + + + + + + + + + @ @ @ @ @ @ @ @ @ @ @ @ @ @ @ @ @ @ @ @ @ @ @ @ @ @ @ @ @ @ @ @ @ @ @ @ @ @ @ @ @ @ @ @ @ @ @ @ @ @ @ @ @ @ + + + + + + + + @ @ + + + @ @ @ @ + + + + + + + + + + + + + + + + + + + + + + + + + + + @ @ @ @ @ @ @ @ @ @ @ @ @ @ @ @ @ @ @ @ @ @ @ @ @ @ @ @ @ @ @ @ @ @ @ @ @ @ @ @ @ @ @ @ @ @ @ @ @ @ @ @ @ @ @ @ @ @ @ @ @ @ @ @ @ @ @ @ @ @ @ @ @ @ @ @ @ @ @ @ @ @ @ @ @ @ @ @ $ $ @ @ $ $ $ $ @ @ @ @ @ @ @ @ @ + X . X X X X X X X .         . . . .                                                                                                                                                                 X X X X X X X X X X X X X + @ @ @ @ @ @ @ @ @ @ @ @ @ @ @ @ @ @ ",
". . . . . . X X X X X X X X X X X X X X X X X X X X X X . . . . . . . . . . . . . . X X X X X X X X X X X X X               . .     . . . . . .                         . O             .         . + .                                                                             X X . . . . X X X X X X X X X X X X X X X X X X X X X X X X X X X X X X X X X X X X X X X X X X X X X X X X X X X X X X X X + + + + X X + + + + + + + + + + + + + + + + + + + + + + + + + + + + @ @ @ @ @ @ @ @ @ @ @ @ @ @ @ @ @ @ @ @ @ @ @ @ @ @ @ @ @ @ @ @ @ @ @ @ @ @ @ @ @ @ @ @ @ @ @ @ @ @ @ @ @ @ + + + @ @ @ + X + @ @ @ + + @ @ @ @ @ @ @ @ @ @ @ @ @ @ @ @ @ @ @ @ @ @ @ @ @ @ @ @ @ @ @ @ @ @ @ @ @ @ @ @ @ @ @ @ @ @ @ @ @ @ @ @ @ @ @ @ @ @ + + + + + + + + + + @ @ @ @ @ @ @ @ @ @ @ @ + + + + + + + + + + + + + + + + + + + + @ + + + @ @ @ @ @ @ @ @ @ @ @ @ @ @ @ @ @ @ @ @ @ @ @ @ @ @ @ @ @ @ @ @ @ @ @ @ @ @ @ @ @ @ @ @ @ @ @ @ @ @ @ @ @ @ @ @ @ @ @ @ @ @ @ @ @ @ @ @ @ @ @ @ @ @ @ @ @ @ @ @ @ @ @ @ @ @ @ @ $ @ $ $ @ @ @ $ @ @ @ @ @ @ @ + X X X X X .     .       X   .                                                                                                                                                               X X X X X X X X X X X X X X X X X + @ @ @ @ @ @ @ @ @ @ @ @ @ @ @ @ @ @ ",
". . . . . . X X X X X X X X X X X X X X X X X X X X X X . . . . . . . . . . . . . . X X X X X X X X X X X X X               . .     . . . . . .                         .   . - < -     @   - 6 + .   .                                                                             X X . . . . X X X X X X X X X X X X X X X X X X X X X X X X X X X X X X X X X X X X X X X X X X X X X X X X X X X X X X X X + + + + X X X + + + + + + + + + + + + + + + + + + + + + + + + + + + @ @ @ @ @ @ @ @ @ @ @ @ @ @ @ @ @ @ @ @ @ @ @ @ @ @ @ @ @ @ @ @ @ @ @ @ @ @ @ @ @ @ @ @ @ @ @ @ @ @ @ @ @ @ + + + @ @ @ + X + @ @ @ + @ @ @ @ @ @ @ @ @ @ @ @ @ @ @ @ @ @ @ @ @ @ @ @ @ @ @ @ @ @ @ @ @ @ @ @ @ @ @ @ @ @ @ @ @ @ @ @ @ @ @ @ @ @ @ @ @ @ @ + + + + + + @ + + + @ @ @ @ @ @ @ @ @ @ @ @ + + + + + + + + + + + + + + + + + + + + @ @ + + + + @ @ @ @ @ @ @ @ @ @ @ @ @ @ @ @ @ @ @ @ @ @ @ @ @ @ @ @ @ @ @ @ @ @ @ @ @ @ @ @ @ @ @ @ @ @ @ @ @ @ @ @ @ @ @ @ @ @ @ @ @ @ @ @ @ @ @ @ @ @ @ @ @ @ @ @ @ @ @ @ @ @ @ @ @ @ $ @ @ $ @ @ $ $ @ $ @ @ @ @ @ + X X X X X .     .       .   .                                                                                                                                                               X X X X X X X X X X X X X X X X X + @ @ @ @ @ @ @ @ @ @ @ @ @ @ @ @ @ @ ",
"X X X X . . X X X X X X X X X X X X X X X X X X X X X X . . . . . . . . . . . . . . X X X X X X X X X X X X X           . . . .   . . . .                                 - B L E E v - - B _ ~ F e +                                                               . .     X X       X .       X X X X X X X X X X X X X X X X X X X X X X X X X X X X X X X X X X X X X X X X X X X X X X X X X X X X X X X X + + X X X X + + + + + + + + + + + + + + + + + + + + + + + + + + + + + @ @ @ @ @ @ @ @ @ @ @ @ @ @ @ @ @ @ @ @ @ @ @ @ @ @ @ @ @ @ @ @ @ @ @ @ @ @ @ @ @ @ @ @ @ @ @ @ @ @ @ @ @ + + + @ @ @ + + + + + + + + @ @ @ @ @ @ @ @ @ @ @ @ @ @ @ @ @ @ @ @ @ @ @ @ @ @ @ @ @ @ @ @ @ @ @ @ @ @ @ @ @ @ @ @ @ @ @ @ @ @ @ @ @ @ @ @ @ @ + + + + @ @ @ @ + + @ @ @ @ @ @ @ @ @ @ @ @ + + + @ + + @ + + + @ @ @ @ @ @ @ @ + @ @ @ + + + + @ @ @ @ @ @ @ @ @ @ @ @ @ @ @ @ @ @ @ @ @ @ @ @ @ @ @ @ @ @ @ @ @ @ @ @ @ @ @ @ @ @ @ @ @ @ @ @ @ @ @ @ @ @ @ @ @ @ @ @ @ @ @ @ @ @ @ @ @ @ @ @ @ @ @ @ @ @ @ @ @ @ @ @ @ @ @ @ @ @ @ @ $ $ $ $ @ @ @ @ @ @ + X X X X       .           .       . . . . . . . . . .     . . . .                                                                                                                             X   X X X X X X X X X X X X X + @ @ @ @ @ @ @ @ @ @ @ @ @ @ @ @ @ @ ",
"X X X X . . X X X X X X X X X X X X X X X X X X X X X X . . . . . . . . . . . . . . X X X X X X X X X X X X X .         . . . .   . . .                                 O B E _ _ } } / p v } W | X.D <                                                             X . .   X X     X X         X X X X X X X X X X X X X X X X X X X X X X X X X X X X X X X X X X X X X X X X X X X X X X X X X X X X X X X X + + X X X X + + + + + + + + + + + + + + + + + + + + + + @ + + + + + + + @ @ @ @ @ @ @ @ @ @ @ @ @ @ @ @ @ @ @ @ @ @ @ @ @ @ @ @ @ @ @ @ @ @ @ @ @ @ @ @ @ @ @ @ @ @ @ @ @ @ @ @ + + + @ @ @ + + + + + + + + @ @ @ @ @ @ @ @ @ @ @ @ @ @ @ @ @ @ @ @ @ @ @ @ @ @ @ @ @ @ @ @ @ @ @ @ @ @ @ @ @ @ @ @ @ @ @ @ @ @ @ @ @ @ @ @ @ @ @ + + + @ @ @ @ + + @ @ @ @ @ @ @ @ @ @ @ @ + + @ + @ + + @ @ + @ @ @ @ @ @ @ @ + @ @ @ + + + + @ @ @ @ @ @ @ @ @ @ @ @ @ @ @ @ @ @ @ @ @ @ @ @ @ @ @ @ @ @ @ @ @ @ @ @ @ @ @ @ @ @ @ @ @ @ @ @ @ @ @ @ @ @ @ @ @ @ @ @ @ @ @ @ @ @ @ @ @ @ @ @ @ @ @ @ @ @ @ @ @ @ @ @ @ @ @ @ @ @ @ @ $ $ $ $ @ @ @ @ @ @ + X X X X       . .         .       . . . . . . . . . .     . . . .                                                                                                                                 X X X X X X X X X X X X X + @ @ @ @ @ @ @ @ @ @ @ @ @ @ @ @ @ @ ",
"X X X X X X X X X X X X X X X X X X X X X X X X X X X X X X X X X X X X . . X X X X X X X X X X X X X X X X X X X . . . . . . .         . . . .                       . - W E _ -.-.-.1.-.h B 1._ E -.L - . . .                                                             X X X X X X X X X X X X X X X X X X X X X X X X X X X X X X X X X X X X X X X X X X X X X X + + X X + + + + X X X X X X X X X X X X + + + + + + + + + + + + @ + + + @ @ + + + @ @ @ + + + + @ @ @ @ @ @ @ @ @ @ @ @ @ @ @ @ @ @ @ @ @ @ @ @ @ @ @ @ @ @ @ @ @ @ @ @ @ @ @ @ @ @ @ @ @ @ @ @ @ @ @ @ @ @ @ @ @ @ @ @ + + + @ + + + + @ @ @ @ + + + + @ @ @ @ @ @ @ @ @ @ @ @ @ @ @ @ @ @ @ @ @ @ @ @ @ @ @ @ @ @ @ @ @ @ @ @ @ @ @ @ @ @ @ @ @ @ @ @ @ @ @ @ @ @ @ @ @ @ @ @ @ @ @ @ @ @ @ @ @ @ @ @ @ @ @ @ @ @ @ @ @ @ @ @ + + + + @ @ @ @ @ @ @ @ @ @ @ @ @ @ @ @ @ @ @ @ @ @ @ @ @ @ @ @ @ @ @ @ @ @ @ @ @ @ @ @ @ @ @ @ @ @ @ @ @ @ @ @ @ @ @ @ $ $ $ $ @ @ @ $ @ @ @ @ @ @ @ @ $ $ @ @ @ @ $ $ @ @ @ @ $ $ $ $ @ @ @ @ @ @ @ @ @ @ $ $ @ @ @ @ @ @ @ $ $ @ @ @ $ $ @ @ @ @ @ @ + X X X                                 . .                                                                                                                                     . .             X X X X X X X X X X X X X + @ @ @ @ @ @ @ @ @ @ @ @ @ @ @ @ @ @ ",
"X X X X X X X X X X X X X X X X X X X X X X X X X X X X X X X X X X X X . . X X X X X X X X X X X X X X X X X X X . . . . . . . X       . . . .                           h _ _ } } } } } -.a v 1.-.E -.B     .                                                             X X X X X X X X X X X X X X X X X X X X X X X X X X X X X X X X X X X X X X X X X X X X X X + + + + + + + + X X X X X X X X X X X X + + + + + + + + + + + + @ + + + + + + + @ @ @ @ + + + + @ @ @ @ @ @ @ @ @ @ @ @ @ @ @ @ @ @ @ @ @ @ @ @ @ @ @ @ @ @ @ @ @ @ @ @ @ @ @ @ @ @ @ @ @ @ @ @ @ @ @ @ @ @ @ @ @ @ @ @ + + @ @ + + + + @ @ + @ + + + + @ @ @ @ @ @ @ @ @ @ @ @ @ @ @ @ @ @ @ @ @ @ @ @ @ @ @ @ @ @ @ @ @ @ @ @ @ @ @ @ @ @ @ @ @ @ @ @ @ @ @ @ @ @ @ @ @ @ @ @ @ @ @ @ @ @ @ @ @ @ @ @ @ @ @ @ @ @ @ @ @ @ @ @ + + + + @ @ @ @ @ @ @ @ @ @ @ @ @ @ @ @ @ @ @ @ @ @ @ @ @ @ @ @ @ @ @ @ @ @ @ @ @ @ @ @ @ @ @ @ @ @ @ @ @ @ @ @ @ @ @ @ $ $ $ $ @ @ @ $ @ @ @ @ @ @ @ @ $ $ @ @ @ @ $ $ @ @ @ @ $ $ $ $ @ @ @ @ @ @ @ @ @ @ $ $ @ @ @ @ @ @ @ $ $ @ @ @ $ $ @ @ @ @ @ @ + + X X               .                 . .                                                                                                                                     . .             X X X X X X X X X X X X X + @ @ @ @ @ @ @ @ @ @ @ @ @ @ @ @ @ @ ",
"X X X X X X X X X X X X X X X X X X X X X X X X X X X X X X X X X X X X X X X X X X X X X X X X X X X X X X X X X X X X X X X X X X         . .                           . v -.-.-.-.-.-.} 1.a B 0.-.L p e @                                                                 X X X X X X X X X X X X X X X X X X X X X X X X X X X X X X X X X X X X X X X X X X X + + + + + + + X + + X X X X X X X X + + + + + + + + + + + + + + + + @ @ + + + + + + + + @ @ @ @ @ @ @ @ @ @ @ @ @ @ @ @ @ @ @ @ @ @ @ @ @ @ @ @ @ @ @ @ @ @ @ @ @ @ @ @ @ @ @ @ @ @ @ @ @ @ @ @ @ @ @ @ @ @ @ @ @ @ @ @ @ @ @ @ @ @ + + + + + + + + + + + + @ @ @ @ @ @ @ @ @ @ @ @ @ @ @ @ @ @ @ @ @ @ @ @ @ @ @ @ @ @ @ @ @ @ @ @ @ @ @ @ $ @ @ @ @ @ @ @ @ @ @ @ @ @ @ @ @ @ @ @ @ @ @ @ @ @ @ @ @ @ @ @ @ @ @ @ @ @ @ @ @ @ @ @ @ @ @ @ @ @ @ @ @ @ @ @ @ @ @ @ @ @ @ @ @ @ @ @ @ @ @ @ @ @ @ @ @ @ @ @ @ @ @ @ @ @ @ @ @ @ @ @ @ @ @ @ @ @ @ @ @ @ @ @ $ $ @ @ @ @ $ $ @ @ @ @ @ @ @ @ $ $ $ $ @ @ @ $ $ $ @ @ $ $ $ $ @ @ @ @ @ @ $ $ $ $ $ $ $ $ $ $ $ $ = $ $ $ @ @ $ $ @ @ @ @ @ @ @ @ + X             . .                       .                                                                                                                                 . .     .       X X X X X X X X X X X X X + @ @ @ @ @ @ @ @ @ @ @ @ @ @ @ @ @ @ ",
"X X X X X X X X X X X X X X X X X X X X X X X X X X X X X X X X X X X X X X X X X X X X X X X X X X X X X X X X X X X X X X X X X X         . .                             @ S } 1.w.0.-.1.L B e B D 6 B 1.B -                                                                 X X X X X X X X X X X X X X X X X X X X X X X X X X X X X X X X X X X X X X X X X X X + + + + + X X + + + X + + + X X X + + + + + + + + + + + + + + @ @ @ @ + + + + + + + + @ @ @ @ @ @ @ @ @ @ @ @ @ @ @ @ @ @ @ @ @ @ @ @ @ @ @ @ @ @ @ @ @ @ @ @ @ @ @ @ @ @ @ @ @ @ @ @ @ @ @ @ @ @ @ @ @ @ @ @ @ @ @ @ @ @ + @ @ @ + + + + + + + + + + + + @ @ @ @ @ @ @ @ @ @ @ @ @ @ @ @ @ @ @ @ @ @ @ @ @ @ @ @ @ @ @ @ @ @ @ @ @ @ @ @ $ @ @ @ @ @ @ @ @ @ @ @ @ @ @ @ @ @ @ @ @ @ @ @ @ @ @ @ @ @ @ @ @ @ @ @ @ @ @ @ @ @ @ @ @ @ @ @ @ @ @ @ @ @ @ @ @ @ @ @ @ @ @ @ @ @ @ @ @ @ @ @ @ @ @ @ @ @ @ @ @ @ @ @ @ @ @ @ @ @ @ @ @ @ @ @ @ @ @ @ @ @ @ @ $ $ @ @ @ @ $ $ @ @ @ @ @ @ @ @ $ $ $ $ @ @ @ $ $ $ @ @ @ @ @ @ @ @ @ @ @ @ $ $ $ $ $ $ $ $ $ $ $ $ = $ $ $ @ @ $ $ @ @ @ @ @ @ @ @ @ + .           . .                       .                                                                                                                                 . .     .       X X X X X X X X X X X X X + @ @ @ @ @ @ @ @ @ @ @ @ @ @ @ @ @ @ ",
"X X X X X X X X X X X X . . . . X X X X X X X X X X X X X X X X X X X X X X X X X X X X X X X X X X X X X X X X X X X X X X X X X X X X X X X X X X X X   .   .           +   < v v D W -.B D } -.h < E _ } -.b +     +                 .   .     @ @           X X . .     X   X X X X X X X X X X X X X X X X X X X X X X X X X X X X X X X X X X X X X X X X + + + + X X + + X X X X + + + + + + X X X X + + + + + + + + + + + @ @ @ @ + + + + + + + + + + + + + + + @ @ @ @ @ @ @ @ @ @ @ @ @ @ @ @ @ @ @ @ @ @ @ @ @ @ @ @ $ $ $ $ @ @ @ @ $ $ @ @ $ $ $ $ @ @ @ @ @ @ @ @ @ @ @ @ @ @ @ @ @ @ @ @ @ @ @ @ @ @ @ @ @ @ @ @ @ @ @ @ @ @ @ @ @ @ @ @ @ @ @ @ @ @ @ @ @ @ @ @ @ @ @ @ @ @ $ $ @ @ $ $ $ $ $ @ $ $ @ @ @ @ $ $ $ $ $ $ @ @ @ @ @ @ @ @ @ @ @ @ @ @ @ @ @ @ @ @ @ @ @ @ @ @ @ @ @ @ @ @ @ @ @ @ @ @ @ @ @ @ @ @ @ @ @ @ @ @ @ @ @ @ @ @ @ @ @ @ @ @ @ @ @ @ @ @ @ @ @ @ @ @ @ @ @ @ @ @ @ @ @ @ @ @ @ @ @ @ @ @ @ @ @ @ @ @ @ @ $ $ @ @ $ $ $ $ @ @ @ @ $ $ $ @ $ $ $ $ @ @ @ @ @ $ @ @ $ $ $ $ $ $ $ $ $ $ $ $ $ $ $ $ = $ @ @ @ @ @ @ @ @ @ @ $ @ @ @ X X       X X X                     X X   .         X X                 . . . .                                                                                         . .     X X X X X X X X X X X X X X X X X + @ @ @ @ @ @ @ @ @ @ @ @ @ @ @ @ @ @ ",
"X X X X X X X X X X X X . . . . X X X X X X X X X X X X X X X X X X X X X X X X X X X X X X X X X X X X X X X X X X X X X X X X X X X X X X X X   X X X           .     . + - B W L D v a K 0.} -._ a N 1.} } -.B .   O                 . < p h e . X .         X X .           X X X X X X X X X X X X X X X X X X X X X X X X X X X X X X X X X X X X X X X X + + + + X X + + X X X X + + + + + + X + X X + + + + + + + + + + @ @ @ @ @ @ + + + + + + + + + + + + + + @ @ @ @ @ @ @ @ @ @ @ @ @ @ @ @ @ @ @ @ @ @ @ @ @ @ @ @ $ $ $ $ @ @ @ @ $ $ @ @ $ $ $ $ @ @ @ @ @ @ @ @ @ @ @ @ @ @ @ @ @ @ @ @ @ @ @ @ @ @ @ @ @ @ @ @ @ @ @ @ @ @ @ @ @ @ @ @ @ @ @ @ @ @ @ @ @ @ @ @ @ @ @ @ @ @ $ $ $ $ = = $ $ $ @ $ $ @ @ @ @ $ $ $ $ $ $ @ $ @ @ @ @ @ @ @ @ @ @ @ @ @ @ @ @ @ @ @ @ @ @ @ @ @ @ @ @ @ @ @ @ @ @ @ @ @ @ @ @ @ @ @ @ @ @ @ @ @ @ @ @ @ @ @ @ @ @ @ @ @ @ @ @ @ @ @ @ @ @ @ @ @ @ @ @ @ @ @ @ @ @ @ @ @ @ @ @ @ @ @ @ @ @ @ @ @ @ $ $ @ @ $ $ $ $ @ @ @ @ $ $ $ @ $ $ $ $ @ @ @ @ $ $ @ @ $ $ $ $ $ $ $ $ $ $ $ $ $ $ = = = $ @ @ @ @ @ @ @ @ $ $ $ @ @ @ @ X X       X X                     X X   .   X     X X           .     . . . .                                                                                         . .     X X . . X X X X X X X X X X X X X + @ @ @ @ @ @ @ @ @ @ @ @ @ @ @ @ @ @ ",
"X X X X X X X X X X X X . . . . X X X X X X X X X X X X X X X X X X X X X X X X X X X X X X X X X X X X X X X X X X X X X X X X X X X X X X X X X .             . . . . + - D 1.-.1.1.-.v v -.-._ -.W e K 0.E -.-.j   .                 < W } _ } 6 . +         X X X X       X X X X X X X X X X X X X X X X X X X X X X X X X X X X X X X X X X X X X X X X X + + X X X X + + + + X X + + X X + + + + X X X + + + + + + + + + + + @ @ @ @ @ + + + @ + @ @ + + + + + + @ @ @ @ @ @ @ @ @ @ @ @ @ @ @ @ @ @ @ @ @ @ @ @ @ @ @ @ @ @ $ $ @ @ $ $ $ $ @ @ @ @ $ $ @ @ @ @ @ @ @ @ @ @ @ @ @ @ @ @ @ @ @ @ @ @ @ @ @ @ @ @ @ @ @ @ @ @ @ @ @ @ @ @ @ @ = $ $ @ @ @ $ $ $ $ @ @ @ @ @ @ $ $ @ @ $ $ = = = = = = = = = $ $ $ $ $ $ = @ @ $ $ $ $ $ $ @ @ @ @ @ @ @ @ @ @ $ $ @ @ @ @ $ $ $ $ @ @ @ @ @ @ @ @ @ @ @ @ @ @ @ @ @ @ @ @ @ @ @ @ @ @ @ @ @ @ @ @ @ @ @ @ @ @ @ @ @ @ @ @ $ $ $ $ $ @ @ @ @ @ $ $ $ @ @ $ $ $ $ $ @ @ @ $ @ @ @ @ @ @ @ @ $ $ @ @ @ @ $ $ @ @ @ $ $ $ @ @ @ @ @ @ @ @ $ $ $ $ = $ $ $ = = = = = = = = = = = = = $ = $ $ $ @ @ @ @ $ $ $ $ @ @ @ @ @ @ X X     X X     X X   . . .   X X X . . X X     . .         . . . . . . . .                                                                                         . .         .   X X X X X X X X X X X X X + @ @ @ @ @ @ @ @ @ @ @ @ @ @ @ @ @ @ ",
"X X X X X X X X X X X X . . . . X X X X X X X X X X X X X X X X X X X X X X X X X X X X X X X X X X X X X X X X X X X X X X X X X X X X X X X X   .   .     .   . . . .   p _ _ -.} _ -.-.j h 1.-._ 0.K e E -._ } _ q                   v 1._ } _ v + .         X X           X X X X X X X X X X X X X X X X X X X X X X X X X X X X X X X X X X X X X X X X X + X X X X X + + + + + + + + X X + + + + X X X + + + + + + + + + + + + + @ @ @ + + + @ @ @ @ @ + + + + + @ @ @ @ @ @ @ @ @ @ @ @ @ @ @ @ @ @ @ @ @ @ @ @ @ @ @ @ @ @ @ @ @ @ $ $ $ $ @ @ @ @ @ @ @ @ @ @ @ @ @ @ @ @ @ @ @ @ @ @ @ @ @ @ @ @ @ @ @ @ @ @ @ @ @ @ @ @ @ @ @ @ $ @ @ @ $ $ $ @ @ @ $ $ $ $ @ @ @ @ @ @ $ $ @ @ $ $ = = = = = = = = = $ $ $ $ $ $ $ @ @ @ @ $ $ $ $ @ @ @ @ @ @ @ @ @ @ $ @ @ @ $ $ $ $ $ $ @ @ @ @ @ @ @ @ @ @ @ @ @ @ @ @ @ @ @ @ @ @ @ @ @ @ @ @ @ @ @ @ @ @ @ @ @ @ @ @ @ @ $ $ $ $ $ $ @ @ @ @ @ @ $ $ @ @ @ @ $ $ $ $ @ @ @ @ @ @ @ @ @ @ @ @ $ $ @ @ @ @ @ @ @ @ @ $ $ $ @ @ @ @ @ @ @ @ $ $ $ $ = $ $ $ = = = = = = = = = = = = = $ = $ $ $ @ @ $ $ $ $ $ $ @ @ @ @ $ @ @ X   . . .     . X . . . .   X X X   . X X     . .         . . . . . . . .                                                                                         . .             X X X X X X X X X X X X X + @ @ @ @ @ @ @ @ @ @ @ @ @ @ @ @ @ @ ",
"+ + + + X X + + X X X X X X X X X X X X X X X X X X X X X X X X + X X X X X + + + + + + + + X X + X X X + + + + X X X X X X X X X X X X X X X X             X X X       . = C } / } -.<.} 9.e j -.-._ 0.N h 0._ -.-.v . + . +           B } _ -.} -.< . . . . .       X X X     X X X X X X X X X X X X X X X X X X X X X X X X X X X X X X X X + + + + + + X X X X + + + X X X + + + + + + X X X X X X + + + + + + + + + + + + + + + + @ @ @ @ + + + @ @ @ @ @ @ @ @ @ @ @ @ @ @ @ @ @ @ @ @ @ @ @ @ @ @ @ @ @ @ @ @ @ @ @ @ @ @ @ $ @ @ @ @ @ @ @ @ $ $ $ @ @ @ @ $ $ $ $ $ @ @ @ @ @ @ @ @ @ @ @ @ @ @ @ @ @ @ @ @ @ @ @ @ @ @ @ @ @ @ @ @ @ @ @ $ $ $ @ @ @ @ @ @ @ @ @ $ $ @ @ @ @ $ $ = = = = = = - - - = = = = = = = = = = = = = = = = = $ $ $ @ @ @ $ @ @ @ $ $ $ $ $ $ $ $ $ @ @ @ $ $ @ @ @ @ @ @ @ @ @ @ $ $ @ @ @ @ @ @ @ @ @ @ @ @ @ @ @ @ @ @ @ @ @ @ @ @ @ @ @ @ $ $ $ @ @ @ @ @ @ @ @ @ @ @ $ $ $ $ $ $ $ $ $ $ $ $ @ @ @ @ @ @ $ $ $ $ $ $ @ @ @ @ @ @ @ @ @ @ @ @ @ @ @ @ $ $ @ @ $ $ $ $ = = = = = = = = = = = = = $ $ @ @ @ @ @ $ $ $ $ $ @ $ $ @ $ $ @ @ + X . . . X X X X                 .               . . . .         . . . .     . .                                                                                                 X X X X X X X X X X X X X + @ @ @ @ @ @ @ @ @ @ @ @ @ @ @ @ @ @ ",
"+ + + + X X X + X X X X X X X X X X X X X X X X X X X X X X X X + + X X X X + + + + X X + + X X + X X X + + + + X X X X X X X X X X X X X X X X . .         X X   .     X   < W / / _ _ -.D v p h -.| _ -.a K -.-.v v v @   @           B 1.} } } -.N @ . . . .         X X     X X X X X X X X X X X X X X X X X X X X X X X X X X X X X X X X X X + + + + X X X X + + + + X X + X + + + + X X X X X X + + + + + + + + + + + + + + + + @ @ @ @ + + + + @ @ @ @ @ @ @ @ @ @ @ @ @ @ @ @ @ @ @ @ @ @ @ @ @ @ @ @ @ @ @ @ @ @ @ @ @ @ $ @ @ @ @ @ @ @ @ $ @ $ @ @ @ @ $ $ $ $ @ @ @ @ @ @ @ @ @ @ @ @ @ @ @ @ @ @ @ @ @ @ @ @ @ @ @ @ @ @ @ @ @ @ $ $ $ = $ @ @ @ @ @ @ @ @ @ $ $ @ @ @ @ $ $ = = = = = = - - - = = = = = = = = = - - - - = = = = = = = @ $ @ @ @ @ @ $ $ $ $ $ $ $ $ $ @ @ @ @ @ @ @ @ @ @ @ @ @ @ @ $ $ @ @ @ @ @ @ @ @ @ @ @ @ @ @ @ @ @ @ @ @ @ @ @ @ $ $ $ $ $ $ $ @ @ @ @ @ @ @ @ @ @ @ $ $ $ $ $ $ $ $ $ $ @ @ @ @ @ $ $ @ $ $ $ $ $ $ @ @ $ $ $ $ @ @ @ @ $ $ @ @ @ @ $ $ @ @ $ $ $ $ = = = = = = = = = = = = = $ $ $ @ @ @ @ $ $ $ $ @ @ $ $ @ $ $ @ @ + + X . . X   X X       .                         . . . .     .   . . . .     . .                                                                                                 X X X X X X X X X X X X X + @ @ @ @ @ @ @ @ @ @ @ @ @ @ @ @ @ @ ",
"+ + + + X X + + X X X X X X X X X X X X X X X X X X X X X X X X + + + + X X + + X X X X + + + + + + X X + X + + X X X X X X X X X X X X X X X X . . . .   X X X         @ +   8 } -.-.E v N } } p j 1.} } D p } v D -._ h .   .     . . v -.-.-.} -.} < . . . .         X X . . X X X X X X X X X X X X X X X X X X X X X X X X X X X X X X X X X X X X + + X X X + + + X X X X X X X X + X X X X X X X + + X X + + + + + + + + @ @ + @ + + + + + + + + + + + + @ @ @ @ @ @ @ @ @ @ @ @ @ @ @ @ @ @ @ @ @ @ @ @ @ @ @ @ @ @ @ @ @ @ $ @ @ @ @ @ @ @ @ @ $ $ $ $ @ @ @ $ @ @ @ @ @ @ @ @ @ @ @ @ @ @ @ @ @ @ @ @ @ @ @ @ @ @ @ @ @ @ @ @ @ @ $ $ = = - = = $ $ $ $ $ $ $ $ $ $ $ @ @ $ $ $ $ = - - - - - - - - - - - - - - - - - - - - - - - = - = = = = $ $ $ $ @ @ $ = $ $ = = - - - = = $ @ @ $ $ @ @ @ @ @ @ @ @ $ = $ $ $ $ $ $ $ $ $ $ $ @ @ @ $ $ $ $ @ @ @ @ $ $ = = = = = = = = = $ $ $ @ @ $ $ $ $ = = - - - = = = $ $ $ $ $ @ $ $ $ $ @ @ @ @ @ @ @ @ $ $ $ $ $ $ @ @ $ $ $ $ @ @ $ $ @ @ $ $ $ $ = = = = = = = = = = = = = $ = $ $ $ @ @ @ $ @ @ @ @ $ $ $ $ $ @ @ @ @ X . .             . .                         . . . . . . . . . . . .   . . .                                                                                         . . . . X X X X X X X X X X X X X + @ @ @ @ @ @ @ @ @ @ @ @ @ @ @ @ @ @ ",
"+ + + + X X + + + + X X X X X X X X X X X X X X X X X X X X X X + + + + X X + + X X X X + + + + + + X X X X + + X X X X X X X X X X X X X X X X . . . .     X X     . X X       6 p v B E 1._ 1.-.j v _ -.1.e p L 0.} _ -.6   . . . . . 6 E -.1.-.} -.j .   . .         X X . . . .     X X X X X X X X X X X X X X X X X X X X X X X X X X X X X X X X + + X X + + + + X X X X X X X X + + X X + X + + + + X X + + + + + + + + @ @ @ @ + + + + + + + + + + + + @ @ @ @ @ @ @ @ @ @ @ @ @ @ @ @ @ @ @ @ @ @ @ @ @ @ @ @ @ @ @ @ @ @ $ @ @ @ @ @ @ @ $ @ $ $ $ $ @ @ $ $ @ @ @ @ @ @ @ @ @ @ @ @ @ @ @ @ @ @ @ @ @ @ @ @ @ @ @ @ @ @ @ @ @ @ $ $ = = - = = $ $ $ $ $ $ $ $ $ $ $ $ @ $ $ $ $ = - - - - - - - - - - - - - - - - - - - - - - - - - = = = = $ $ $ $ @ @ $ $ $ $ = = - - - = = $ @ @ $ $ @ @ @ @ @ @ @ @ $ $ $ $ $ $ $ $ $ $ $ $ $ @ @ @ $ $ $ $ $ @ @ @ $ $ = = = = = = = = = $ $ $ @ @ $ $ $ $ = = - - - = = = $ $ $ $ $ @ $ $ $ $ @ @ @ @ @ @ @ @ $ $ $ $ $ $ @ @ $ $ $ $ @ @ $ $ @ @ $ $ $ $ = = $ $ $ $ $ $ $ $ = = = $ = $ $ $ @ @ $ $ @ @ @ @ $ $ $ $ $ @ @ @ @ + X .             .                 .         . . . . . . . . . . . .     . .                                                                                         . . . . X X X X X X X X X X X X X + @ @ @ @ @ @ @ @ @ @ @ @ @ @ @ @ @ @ ",
"+ + + + + + + + + + + + X X X X X X X X X X X X X X X X X X X X X X X + + + + + X X + + + X + + + + + + X X X + X X X X X X X X X X X X X X X X X X X X X X X X X X X X X     5 p v j i _ -.} &.-.-.B _ E N D N 1.-.E _ -.K < . . . . . . K } L B D L W +       . . . . . .     . .         X X X X X X X X X X X X X X X X X X X X X X X X X X + + + X X X X X X X X X + + + + + + X X X X X X + + + + X X X X + + + + + + + + @ + + + @ @ + + + + + + + + + + @ @ @ @ @ @ @ @ @ @ @ @ @ @ @ @ @ @ @ @ @ @ @ @ @ @ @ @ @ @ @ @ $ $ @ @ $ @ $ $ @ @ $ $ $ $ $ $ @ @ @ @ @ $ $ $ @ @ @ @ @ @ @ @ @ @ @ @ @ @ @ @ @ @ @ @ @ @ @ @ @ @ $ $ $ $ = = = = - = = $ $ $ $ $ $ $ $ $ @ @ @ $ $ $ @ $ - - - - - - - - - - - - - - - - - - - - - - - - - - = = = = = $ $ $ $ $ $ $ = = - - = = = = = = $ $ = $ $ $ @ @ @ @ $ $ $ $ $ $ $ = $ $ = = = = $ @ @ @ @ @ $ $ $ @ $ $ $ $ = = = = - - = = $ = $ $ $ = = = = = = - - - - - - = = = = = = = = $ @ @ @ @ @ @ @ @ @ @ @ @ @ @ @ @ @ @ @ @ @ @ @ @ @ @ @ @ @ @ $ $ = $ $ $ $ $ $ $ $ $ $ $ $ $ @ @ $ $ @ @ @ @ @ $ $ $ @ @ @ @ $ $ @ @ @ @ + X X . . . X X X X                                                                                                                                                         X X X X X X X X X X X X X X + @ @ @ @ @ @ @ @ @ @ @ @ @ @ @ @ @ ",
"+ + + + + X + + + + + + X X X X X X X X X X X X X X X X X X X X X X + + + + + + + X + + X X X X + + + + X X X X X X X X X X X X X X X X X X X X X X X X X X X X X X X X .   - D [ ` &.K h K &./ } -._ v v E -._ D 0.} } E 1.B   + . . .   e S D } -.1.0.6 . . . . . . . . .               . . . X X X X X X X X X X X X X X X X X X X X X X X X + + X X X X X X + X X X + + + + + + X X X X X X + + + + X X X X + + + + + + + + + + + + @ @ + + + + + + + + @ + @ @ @ @ @ @ @ @ @ @ @ @ @ @ @ @ @ @ @ @ @ @ @ @ @ @ @ @ @ @ @ @ $ $ @ @ $ @ $ $ @ @ $ $ $ $ $ $ @ @ @ @ @ @ $ $ @ @ @ @ @ @ @ @ @ @ @ @ @ @ @ @ @ @ @ @ @ @ @ @ @ @ $ $ $ $ = = = = - = = = $ $ $ $ $ $ $ $ @ @ @ = = $ @ $ - - - - - - - - - - - - - - - - - - - - - - - - - - = - = = = $ $ $ $ $ = $ = = - - - - = = = = $ $ = $ @ @ @ @ @ @ $ $ = $ $ $ $ = $ $ = - = = $ @ @ @ @ @ $ $ @ @ $ $ $ $ = = = = - - - = = = $ $ $ = = = = = - - - - - - - = = = = = = = $ @ @ @ $ $ @ @ @ @ @ @ @ @ @ @ @ @ @ @ @ @ @ @ @ @ @ @ @ @ $ $ = = = $ @ @ @ @ @ @ @ @ $ $ $ $ @ @ @ @ @ @ @ @ @ @ $ $ @ @ @ @ $ $ @ @ @ @ + + X X . .   X X X                                                                                                                                                         X X X X X X X X X X X X X X + @ @ @ @ @ @ @ @ @ @ @ @ @ @ @ @ @ ",
"+ + + + X X X X X X + + X X X X X X X X X X X X X X X X X X X X X X X X + + + + + + + + X X X X X X X X X X X X X X X X X X X X X X X X X X X X X X X X X X X X . . X X     e L I &.` <.K l T } } _ 1.D B _ _ -.K L 0._ 0.N e - . . . . + e -._ -.1.1.1.v + . . . . . . . .                   . X X X X X X X X X X X X X X X X X X X X X X X X + + + + X X X X + + X X X + + + + + + + X X X X X X + + + X + + + + + + + + + + + + + + @ @ @ + + + + + @ @ @ @ @ @ @ @ @ @ @ @ @ @ @ @ @ @ @ @ @ @ @ @ @ @ @ @ @ @ @ @ @ @ @ @ $ $ @ @ @ @ $ $ @ @ $ $ $ $ $ $ $ $ $ $ $ = = = $ $ $ @ @ @ @ @ @ @ @ @ @ @ @ @ @ @ @ @ @ @ @ @ @ @ @ $ $ $ = = = = - - - - = = = = = = = $ @ @ $ = = = $ = - - - - - - - - - - - - - - - - - - - - - - - - - - - - - - - - = = = = = = - - - - - - - - - - = = = = $ $ $ $ = = = = - - = = - - - - - - - - = $ $ = = = = = = = $ $ = = = = - - - - - - - = = = = = = = = = = = - - - = - = = = = = = = $ @ @ @ $ $ $ $ @ @ @ @ @ @ @ @ @ @ @ @ @ @ @ @ @ @ @ @ $ $ $ $ = = $ $ @ @ @ @ $ $ $ $ $ $ $ $ @ @ @ @ @ $ @ @ $ $ $ $ @ @ $ $ $ $ @ @ @ @ @ + X . . .   . X X     . .                                                                                                                                         X X     X X X X X X X X X X X X X X X + @ @ @ @ @ @ @ @ @ @ @ @ @ @ @ @ ",
"+ + + + X X X X X X + + X X X X X X X X X X X X X X X X X X X X X X X X + + X X + + + + X X X X X X X X X X X X X X X X X X X X X X X X X X X X X X X X X X X X X X X X     < K / T ` [ 9.v w _ -.E } -.D L } -._ D L 1.v p B L + + . . + , T [ 1.1.1.<.K @ + . . . . . . .                     X X X X X X X X X X X X X X X X X X X X X X X X + + + + + X X X + + X X X + + + + + + + + + X X X + + + + + + + + + + + + + + + + + + + @ @ + + @ @ + + + @ @ @ @ @ @ @ @ @ @ @ @ @ @ @ @ @ @ @ @ @ + + @ @ @ @ @ @ @ @ @ @ @ @ @ @ @ @ @ @ @ @ @ @ $ $ $ $ $ $ $ $ $ $ $ = = = $ $ $ @ @ @ @ @ @ @ @ @ @ @ @ @ @ @ @ @ @ @ @ @ @ @ $ $ $ $ = = - = - - - - = = $ $ = = = $ @ @ $ = = = $ = - - - - - - - - - - - - - - - - - - - - - - - - - - - - - - - - = = - - = - - - - - - - - - - - = = = = $ $ $ $ = = = = - - = = = - - - - - - - = $ = = = = = = = = $ $ = = = = - - - - - - - = = = = = $ = $ $ = = - - - = - = = = = = = $ $ @ @ @ $ $ $ $ @ @ @ @ @ @ @ @ @ @ @ @ @ @ @ @ @ @ @ @ @ @ $ $ $ @ $ @ @ @ @ @ $ $ $ $ @ @ @ @ @ @ @ @ @ @ @ @ @ $ $ $ @ @ @ $ $ $ @ @ @ @ @ + + X . .   . . .     . .                                                                                                                                         X X     X X X X X X X X X . . .     X + + @ @ @ @ @ @ @ @ @ @ @ @ @ @ @ ",
"+ + @ @ + + + + + + + + + + X X X X X X X X X X X X X X X X X X + + + + + + X X X X X X + + + X X X + + + X X X X X X X X X X X X X X X X X X X X X X X X X X X X X X X     X 6 L E ` T v N L j E -._ W N a 1.-.} E B e D E -.1.N   . + @ + V 1.-.1.-.-.-.p     . . . . . . . . . .     . . X X X X X X X X X X + + + + + + X X X X X X X X X X X X X X X X X X X X X X X X X X X X X X X X X X X X X X X X X X X X X + + + X X + + + + + + + + + + + + @ @ + + @ @ @ @ @ @ @ @ @ @ @ @ @ @ + + + + + + @ @ @ @ + + + @ @ @ @ @ @ @ @ @ @ @ @ @ @ @ $ $ @ $ = = = = = = $ $ $ = $ $ @ @ @ $ $ $ @ @ @ @ @ @ @ @ @ @ @ @ @ @ @ @ @ @ $ $ $ $ - - - - - - - - = @ @ $ = - - = $ $ = = - = = = - - - - - - - - - - - - - - - - - - - - - - - - - - - - - - - - - = - - - - - - - - - - - - - - - - - - = = $ = = = - = = = = = - - - - - - - - - = - - - - = - = = = = = = - - - - - - - - - - = = = = = = = $ $ $ - - - - = $ $ $ $ $ $ @ @ @ @ @ @ @ @ @ @ @ @ @ @ @ @ @ @ @ @ @ @ @ @ @ @ @ @ @ @ @ @ @ @ @ @ @ @ @ @ @ @ @ @ @ @ @ @ @ @ @ @ @ @ @ @ @ @ @ @ @ @ @ @ $ $ $ @ @ @ @ @ @ + X X X     X . . . . . .   . .         . .                                                             . . . .         .           . .     . . . .           X X X X X X X X X X X X . . . . .   X X X + + + @ @ @ @ @ @ @ @ @ @ @ @ @ ",
"+ + @ @ + + + + + + + + + + X X X X X X X X X X X X X X X X X X + + + + + + X X X X X X + + + X X X + + + + X X X X X X X X X X X X X X X X X X X X X X X X X X X X X .       X w Y L v L [ -.T v L W v _ W N } W 1.v a D W } } ~ e   + + . j 1.} -.-.-.-.D - . . . . . . . . . . .     . . X X X X X X X X + X + X + + + + X X X X X X X X X X X X X X X X X X X X X X X X X X X X X X X X X X X X X X X X X X X X X X + + X + + + + + + + + + + + + + @ @ + + @ @ @ @ @ @ @ @ @ @ @ @ @ @ + + + + + + + + + + + + + + @ @ + + @ @ @ @ @ @ @ @ @ @ $ $ @ $ = = = = $ = $ $ $ = = = @ @ @ $ $ $ @ @ @ @ @ @ @ @ @ @ @ @ @ @ @ @ @ @ $ $ $ $ - - - - - - - - = @ @ @ = - - = $ $ $ = - = = = - - - - - - - - - - - - - - - - - - - - - - - - - - - - - - - - = = - - - - - - - - - - - - - - - - - - = - = = = = - - = = = = - - - - - - - - - - - - - - - - - - = = = = - - - - - - - - - - = = = = = = = = = $ - - - - = = $ $ $ $ @ @ @ @ @ @ @ @ @ @ @ @ @ @ @ @ @ @ @ @ @ @ @ @ @ @ @ @ @ @ @ @ @ @ @ @ @ @ @ @ @ @ @ @ @ @ @ @ @ @ @ @ @ @ @ @ @ @ @ @ @ @ @ @ @ $ $ $ @ @ @ @ @ @ + + X X         . .         . .         . .                                                             . . . .     .   . .     . . . .       . . .             X X X X X X X X X X X . .             X + @ @ @ @ @ @ @ @ @ @ @ @ @ @ @ ",
"+ @ @ @ + + + + + + + + + + X X X X X X X X X X X X X X X X X X X + X X + X X X X X + + + + X X X + + + X X X X X X X X X X X X X X X X X X X X X X X X X X X X X X X .           c L I / ` _ 0.L p v -.W 1.v v 1.v N -.L _ } } -.L 6   .   6 _ -.-.1.-.-.-.h . . . . . . . . . . . .   . . X X X X X X + + + + X X X X + X X X X X X X X X X X X X X X X X X X X X X X X X X X X X X X X X X X X X X X X X X X X X X + + + + + + + + + + + + + + + + + + + + + + + + + @ @ @ @ @ @ @ @ @ @ + + + + + + + + + + + + + + + + + + @ @ @ @ @ @ @ @ @ $ $ $ $ $ = = = = - - = = = - - - $ $ $ = $ $ $ $ @ $ $ $ @ @ @ @ @ @ $ $ $ $ $ $ $ $ = = - - - - - - - - = @ @ $ = = - = = = $ = = - - - - - - - - - - - - - - - - - - - - - - - - - - - - - - - - - - - - - - - - - - - - - - - - - - - - - - - - - - - - - - - - - - - - - - - - - - - - - - - - - - - - - - = = = - - - - - - - - - - = = - - - = = = = = - - - - = $ @ $ $ $ @ @ $ $ $ $ @ @ @ @ @ @ @ @ @ @ @ @ @ @ @ @ @ @ @ @ @ @ @ @ @ @ @ @ @ @ $ @ @ @ @ @ @ @ @ @ @ @ @ @ @ @ @ @ @ @ @ @ @ @ @ @ @ @ @ @ $ $ $ @ @ @ @ @ @ + X X X X X             X   X         . .                                                             . . . . . . . . . . . . . . . .     . . . .             X X X X X X X X X X X . .             X + @ @ @ @ @ @ @ @ @ @ @ @ @ @ @ ",
"+ + @ @ + + + + + + + + + + X X X X X X X X X X X X X X X X X X X X X X X X X X X X + + + + X X + + + + X X X X X X X X X X X X X X X X X X X X X X X X X X X X X X X           X @ h I I &.E [ 0.D v E _ _ _ j 6 j -.} } 1.1.-.} -.B +     @ N -.} -.-.} -.E - . . . . . . . . . . . . . . X X X X X X + + + + X X X X + + X X X X X X X X X X X X X X X X X X X X X X X X X X X X X X X X X X X X X X X X X X X X X + + + + + + + + + + + + + + + + + + + + + + + + + @ @ @ @ @ @ @ @ @ @ + + + + + + + + + + + + + + @ + + + @ @ @ @ @ @ @ @ @ $ $ $ $ $ = = = = - - = = = - - - $ $ $ = $ $ $ $ @ $ $ $ @ @ @ @ @ @ $ $ $ $ $ $ $ $ $ $ - - - - - - - - = @ @ $ = = = $ $ $ = = = = - - - - - - - - - - - - - - - - - - - - - - - - - - - - - - - - - - - - - - - - - - - - - - - - - - - - - - - - - - - - - - - - - - - - - - - - - - - - - - - - - - - = - = = = = - - - - - - - - - = = - - - = = = = = = = = = $ @ $ $ @ @ @ @ $ $ $ $ @ @ @ @ @ @ @ @ @ @ @ @ @ @ @ @ @ @ @ @ @ @ @ @ @ @ @ @ @ @ $ @ @ @ @ @ @ @ @ @ @ @ @ @ @ @ @ @ @ @ @ @ @ @ @ @ @ @ @ @ @ @ @ @ @ @ @ @ @ + + + X X X       X X X X   X   X     . .                                                             . . . . . . . . . . . . . . . . .   . . . .             X X X X X X X X X X X .               X + @ @ @ @ @ @ @ @ @ @ @ @ @ @ @ ",
"@ @ @ + + + + + + + + + X X X X X X X X X X X X X X X X X X X X X X X X X X X X X + + + X X X X X X X X + + + + X X X X X X X X X X X X X X X X X X X X X X X X X X X X . .         X v / Y _ / E 0.L B 1.-.E 1.e D -.} -.-.1.-._ } -.h @ O O - ~ W P P } } :.Z # . @ . . . . . . . X X X X X X + + + + + + + X + + X X X X X X X X X X X X X X X X X X X X X X X X X X X X X X X X X X X X X X X X X X X X X X + + + + X X + + + + + + + + + + + + + + + @ @ @ + + + + @ @ @ @ @ @ @ @ @ @ + + @ @ + + + + + + + + + + + + @ @ @ @ @ @ @ @ @ @ @ @ = = = = - - - - = = = = - - - - = $ = = = = = = $ $ $ $ @ @ @ @ @ $ @ $ $ $ $ $ = = = = - - - - - - - - - = $ = - - = $ $ $ $ $ = = = = - - - - - - - - - - - - - - - - - - - - - - - - - - - - - - - - - - - - - - - - - - : : - - - - - - - - - - - - - - - - - - - - - - - - - - - - - - - - - - - - - - - - = $ = = - - - - - - - - - - - - - - - = = $ = $ $ $ $ $ $ $ @ @ @ @ @ @ @ @ $ $ @ @ @ @ @ @ @ @ @ @ @ @ @ @ @ @ @ @ @ @ @ @ @ @ @ @ $ $ $ $ @ @ @ @ @ @ @ @ @ @ + + @ + + + + + @ @ @ @ @ @ @ @ @ @ @ @ @ @ @ @ @ @ @ @ @ + X X X X X   X X   .                                                                             . . . . . . . .     . . . . . . . . . . . .     X       X X X X X X X X X X X X         . . X + + @ @ @ @ @ @ @ @ @ @ @ @ @ @ @ ",
"@ @ @ + + + + + + + + + X X X X X X X X X X X X X X X X X X X X + + X X X X X X + + + + X + X X + X X X + + + + X X X X X X X X X X X X X X X X X X X X X X X X X X X X . .       X   = N &.[ _ P 0._ a D -.L 1.v j W 0.-.-.-.-.-._ } E 6     O p m F H +.-.:.W q O + . . . . . . . X X X X X X + + + + + + X X + + X X X X X X X X X X X X X X X X X X X X X X X X X X X X X X X X X X X X X X X X X X X X X X + + + + X X X + + + + + + + + + + + + + + + @ @ + + + + @ @ @ @ @ @ @ @ @ @ + + @ @ + + + + + + + + + + + + @ @ @ @ @ @ @ @ @ @ $ @ = = = = - - - - = - = = - - - - = $ = = = = = = $ $ $ $ @ @ @ @ @ @ @ $ = = $ $ = = = = - - - - - - - - - = $ = - - $ @ @ @ $ $ = = = = - - - - - - - - - - - - - - - - - - - - - - - - - - - - - - - - - - - - - - - - - - : : - - - - - - - - - - - - - - - - - - - - - - - - - - - - - - - - - - - - - - - - = $ $ = - - - - - - - - - - - - - - - = = $ $ @ @ @ @ @ @ @ $ @ @ @ @ @ @ @ $ $ @ @ @ @ @ @ @ @ @ @ @ @ @ @ @ @ @ @ @ @ @ @ @ @ @ @ $ $ @ @ @ @ @ @ @ @ @ @ @ @ + + @ @ + + + + + + @ @ @ @ @ @ @ @ + + + + @ @ @ @ + + @ + X X X X X   X X .                                                                               . . . . . .         . . . . .   . . . . . .     X       X X X X X X X X X X X X         . . X + + @ @ @ @ @ @ @ @ @ @ @ @ @ @ @ ",
"@ @ + + + + + + + + + + X X X X X X X X X X X X X X X X X X X X + + + + + + X X + + + + + + + + + + X X X + + + X X X X X X X X X X X X X X X X X X X X X X X X X X X X . . .     X X   - S T T 1.K j D v K _ B N -.-.1.-.-.-.-.1.} E -.~ a ; % P +.2.:.X.1.:.:.D + . . . . . . . . X X X X X X + + + + X X X X + + + + X X X X X X X X X X X X X X X X X X X X X X X X X X X X X X X X + + X X + + X X X X X X + + X X X X + + + + + + + + + + + + + + + + @ @ @ @ @ + @ @ @ @ @ @ @ @ @ @ + + @ @ + + + + + + + + + + + + @ @ @ @ @ @ $ @ @ @ $ = - - = = = - - = - - - - - - - - = = = - = = = = $ $ $ @ @ @ @ @ @ @ $ = - - = = - - = = - - - - - - - - - $ = - - - $ @ @ @ $ $ = = = = - - - - - - - - - - - - - - - - - - - - - - - - - - - - - - - - - - - - - - - - - - : : : : - - - - - - - - - - - - - - - - - - - - - - - - - - - - - - - - - - - - - - = $ $ = = = - - - - - - - - - - - = = $ $ $ $ $ $ $ @ @ @ @ $ $ $ $ @ @ @ @ $ $ $ @ @ @ @ @ @ @ @ @ @ @ @ @ @ @ @ @ @ @ @ @ @ @ @ @ @ @ @ @ @ @ @ @ @ @ @ @ @ @ + + + @ @ @ + + + + @ @ @ @ @ @ @ @ + + + + @ @ @ @ + + + + + + X X X   . . .               . . . .   . . .                                                 .   . . .           . . . .       . . . . .     X X     . . . . X X X X X X X X X .     . . X + + @ @ @ @ @ @ @ @ @ @ @ @ @ @ @ ",
"+ @ + + + + + + + + + + + X X X X X X X X X X X X X X X X X X X + + + + + + X X X + + + + + + + + + X X X + + + X X X X X X X X X X X X X X X X X X X X X X X X X X X X . . .       +     5 L &.D j _ } _ h N j _ } _ 1.-.-.-.-.} -._ -.,.:.~ H :.+.X.+.:.,.+.' 1.< . . . . . . . . X X X X X X + + X X X X X X + + + + + + X X X X X X X X X X X X X X X X X X X X X X X X X X X X X X + + X X + + X X X X X X + + X X X X + + + + + + + + + + + + + + + @ @ @ @ @ @ + @ @ @ @ @ @ @ @ @ @ + + @ @ @ + + + + + + + + + @ @ @ @ @ $ $ @ $ @ @ @ = = - - = = - - - - - - - - - - - - = = = - = = = = $ $ $ @ @ @ @ @ @ @ $ = - - = = - - = = - - - - - - - - - $ = - - - $ @ @ @ $ $ = $ @ - - - - - - - - - - - - - - - - - - - - - - - - - - - - - - - - - - - - - - - - - - - : : : : - - - - - - - - - - - - - - - - - - - - - - - - - - - - - - - - - - - - - - = $ $ = = = - - - - - - - - = - - = = $ $ $ $ @ @ $ $ $ @ @ $ $ $ $ @ @ @ @ $ $ $ @ @ @ @ @ @ @ @ @ @ @ @ @ @ @ @ @ @ @ @ @ @ @ @ @ @ @ @ @ @ @ @ @ @ @ @ @ @ @ + + + + @ @ + + + + @ @ @ @ @ @ @ @ + + + + @ @ @ @ + + + + + + X X X X .       .           . . . .   . . .                                                     . . .           . . . .       . . . . .     X X     . . . . X X X X X X X X X       . . X + + @ @ @ @ @ @ @ @ @ @ @ @ @ @ @ ",
"@ + + + + + + + + + + + + + + + X + + + + + X X X X X X X X + + + + + + + + + + X X + + + + + + X X X X X X X X X X X X X X X X X X X X X X X X X X X X X X X X X X X X X X X .         @ X p Y B E } E _ } p v -._ _ -.+.+.+.+.X.:.X.X.' 2.K W :.:.:.:.,.-.-.,.1.h   . . + X X X X X X X + + + + + X X X X X X + X X X X X X X X X X X + + + X X X X X + + + + X X + + + + X X X X X X + + + + + X X X + + + + + + + + + + + + + + + + + + + + + + + + @ @ @ @ @ @ @ @ @ + + + + + + + + + @ @ @ @ @ @ @ @ @ + + + @ @ @ $ $ = @ @ - - @ @ @ @ = - = = = = = = - - - - - - - - - - = = = = = = $ $ @ $ @ @ @ @ @ @ $ $ $ = = = $ $ = = = = = - - - - - - - = $ = = = = @ @ @ - - * @ @ # # - - - - - - - - - - - - - - - - - - - - - - - - - - - - - - - - - - - - - - - - - - - - - - - - - - - - - - - - - - - - - - - - - - - - - - - - - - - - - - - - - - - - - = $ = - = = - - - = = $ $ - - = = $ $ $ @ @ $ $ $ $ $ $ @ $ $ $ $ @ @ @ @ @ $ $ $ @ @ @ @ @ @ @ @ @ @ @ @ @ @ @ @ @ @ @ @ @ @ @ @ @ @ @ @ @ @ @ @ @ @ @ @ + + + + + + + @ @ @ + + + + + + + + + @ @ @ + + @ @ @ @ @ @ + + + + + X X . . .           X                                     . . . . . . . . . . . .                 X . .                       .   .   X                       . . X X X X X X X X X X X + + + + + @ @ @ @ @ @ @ @ @ @ @ @ ",
"+ + + + + + + + + + + + + + X + X X + + + + X X X X + + X X + + + + + + + + + + X X + X + + + + X X X X X X X X X X X X X X X X X X X X X X X X X X X X X X X X X X X X X X X .             X N E L E } E } L 6 v L } } +.+.+.+.X.X.X.X.#.H D 2.:.:.:.:.-.-.,.,.-.D . O + + X X X X + + X X + + + + X X X X + + + + X X X X X X X X X X + + + X X X X X + + + + X X X + + X X X + X X X + + + + X X X X + + + + + + + + + + + + + + + + + + + @ + + + + @ @ @ @ @ @ @ @ @ @ @ @ @ @ @ @ @ @ @ @ @ @ @ @ @ @ @ + + @ $ = = = - - - - - - @ @ @ @ - - = = = = = = - - - - - - - - - = = = = - = = $ $ @ $ @ @ @ @ @ @ $ $ $ $ = = $ $ = = = = - - - - - - - - = $ = = = = - . - e < = @ @ # # - - - - - - = - - - - - - - - - - - - - - - - - - - - - - - - - - - - - - - - - - - - - - - - - - - - - - - - - - - - - - - - - - - - - - - - - - - - - - - - - - - - - - = $ = = = - - - - = = = = - - = = $ $ $ @ @ $ $ $ $ $ $ $ $ $ $ $ @ @ @ @ @ $ $ $ @ @ @ @ @ @ @ @ @ @ @ @ @ @ @ @ @ @ @ @ @ @ @ @ @ @ @ @ @ @ @ @ @ @ @ @ + + + + + + + + @ @ + + + + + + + + + @ @ @ + + @ @ @ @ @ @ + + + @ @ + X X . .         X X                                     . . . . . . . . . . . .                 X X .                   .           X X                     . . X X X X X X X X X X X + + @ + + @ @ @ @ @ @ @ @ @ @ @ @ ",
"+ + + + + + + + + + + + X X X X X X X X + + + X + + + + X X X X X X + + + + + X X X X X X X + + X X X X X X X X X X X X X X X X X X X X X X X X X X X X X X X X X X X X X X X . .       X     - K L E E E E a D L W } -.X.X.X.X.X.X.X.X.Q v +.X.:.:.:.:.-.-.,.,.} E < . + + X X + + + + X X X X + + + X + + + + + + + + X X X X X X + + + + X X X + X X + + X + X X + + + + X X + + + + + + + + + + + + + + + + + + + + + + + + + + + + @ @ @ @ @ @ @ @ @ @ @ @ @ @ @ @ @ @ $ $ $ $ $ $ $ $ $ $ @ @ @ @ @ @ @ @ @ @ - - - - - - - - - - - - $ $ - - - - = = = = - - - - - - - - = = - - - - = = $ $ @ @ @ @ @ @ @ @ @ @ $ $ = = = = - - = = = - - - - - - - = $ $ = = = . - e v p < @ @ @ @ - - - = = = = = - - - - - - - - - - - - - - - - - - - - - - - - - - - - - - - - - - - - - - - - - - - - - - - - - - - - - - - - - - - - - - - - - - - - - - - - - - - - - = $ = - - - - - - - - = = = = $ $ @ @ @ @ @ @ $ $ $ $ @ @ $ @ $ $ @ @ $ $ @ @ $ $ @ @ @ @ @ @ @ @ @ @ @ @ @ @ @ @ + + + + @ + + + + + + + @ @ @ @ @ @ @ @ + + + + + + + + @ @ @ + @ @ @ @ + + + + @ + + + @ @ @ @ @ @ @ @ @ @ @ @ + X . . .   . . X X X .         . . X X                 . .     .   . . . . . .         . .     X X X X                 .         X X X                     . . X X X X X X X X X X X + @ @ @ @ @ @ @ @ @ @ @ @ @ @ @ @ ",
"@ + + + + + + + + + + + X X X X X X X X + + X X + + + + X X X X X X X X + + + X X X X X X X X + X X X X X X X X X X X X X X X X X X X X X X X X X X X X X X X X X X X X X X X .           X @   - D W L T x B -.} } %.%.X.X.X.X.X.X.X.X.v ! :.' :.:.:.:.:.-.,.,.} } p   . + X X + + + + X X X X + + X X + + + + + + + + X X X X X X + + + + X X + + X X + + X X X X + + + + X X + + + + + + + + + + + + + + + + + + + + + + + + + + + + @ @ @ @ @ @ @ @ @ @ @ @ @ @ @ @ $ $ = = = = = = = = $ $ $ $ @ @ @ @ @ @ @ $ - - - - - - - - - - - - $ $ - - - - = = = = - - - - - - - - = = - - - - = = $ $ @ @ @ @ @ @ @ @ $ $ $ $ = = = = - - = = = = - - - - - = $ @ $ = = = - p h 6 h e - @ @ @ - - = = = = - = = - - - - - - - - - - - - - - - - - - - - - - - - - - - - - - - - - - - - - - - - - - - - - - - - - - - - - - - - - - - - - - - - - - - - - - - - - - - - = $ = - - - - - - = = = = $ $ @ @ @ @ @ @ @ @ @ $ $ $ $ @ @ @ $ @ @ @ $ $ @ @ $ $ $ $ @ @ @ @ @ @ @ @ @ @ @ @ @ @ + + + + + + + + + + + + @ @ @ @ @ @ @ @ + + + + + @ + + @ @ + + @ @ @ @ + + + + @ @ + + @ @ @ @ @ @ @ @ @ @ @ @ + X X . . . . . X X X X         . . X X                 . .         . . . . . .         .       X X X                     .     X   X X                 X     . X X X X X X X X X X X + @ @ @ @ @ @ @ @ @ @ @ @ @ @ @ @ ",
"@ @ + + + + + + + + + + X X + + + + + X X X X X + + X X X + + X X X + + + + X X X X X + X X X X + + + + X X + + X X X + + + X X X X X X X X X X X X X X X X X X X X X X X X X X .       .       . - K ~ L L E _ ' | } } X.X.X.X.X.X.X.X.F  .#. .#.#.#.#.:.:.:.:.} } D   X X X X + + X X + + X X + + + + + + X X X X X + X X X X X + + + X X X X + + + + + + + + + + + + + + + + + + + + + + + + + + @ @ @ @ + + + + + + @ + + + @ @ @ @ @ @ @ @ @ @ @ @ @ @ @ @ @ @ $ $ = $ = = = $ = = - - - - - - = $ $ @ @ @ @ @ - - - - - - - - - - - - = = - - - - - - - - - - - - - - - - - - - - - - - = = $ $ @ @ @ @ @ @ @ @ @ $ $ - - = = - - - = - - - - - - - - $ @ = = - + a v e 6 < h p - - @ @ @ @ @ @ @ @ @ @ @ @ @ $ $ @ @ = = = = - - - - - - - - - - - - - - - - - - - - - - - - - - - - - - - - - - - = - - - - - - - - - - - - - - - - - - - - - - - - - - - - - $ $ = - - - - - - - @ @ @ $ $ $ @ @ @ $ $ @ @ $ $ $ $ @ @ @ @ $ $ $ $ $ $ $ $ $ $ $ $ $ $ $ $ $ $ @ @ @ @ @ @ @ @ @ @ @ @ + + + + + + + + @ @ @ @ @ @ @ @ @ @ @ @ @ @ @ @ @ @ @ @ @ @ @ @ @ @ @ @ @ @ @ @ @ @ @ @ @ @ @ @ @ @ @ @ @ + X X     X . X X X X .       .                       .             .                     X X X .                                                 . .         X X X X X X X X X X X + + + + + @ @ @ @ @ @ @ @ @ @ @ @ ",
"@ @ + + + + + + + + + + X X + + + + + X X X X X + + X X + + + + X X + + + + X X X X X + X X X X + + + + X X X + X X X X + + X + X X X X X X X X X X X X X X X X X X X X X X X X . .     . .       . 6 W E W E W ' ' } } X.X.X.X.' ' ' ' U X.X.#.#.#.#.#.:.:.:.:.-.} E < . X X X X + X X + + + + + + + + + + X X X X X + X X X X + + + + X + X X + + + + + + + + + + + + + + + + + + @ + @ + + + + + @ @ + @ + + + + @ @ + + + @ @ @ @ @ @ @ @ @ @ @ @ @ @ @ @ @ @ @ $ $ $ $ = = = $ = = - - - - - - $ $ = $ $ @ @ @ = - - - - - - - - - - - = = - - - - - - - - - - - - - - - - - = - - - = - = = $ $ @ @ @ @ @ @ @ @ @ $ $ - - = = - - = = - - - - - - - = @ @ @ $ = e v 6 E K v e h a @ + @ @ @ @ @ @ @ @ @ @ @ @ $ $ @ @ = = = = - - - - - - - - - - - - - - - - - - - - - - - - - - - - - - - - - = = = = - - - - - - - - - - - - - - - - - - - - - - - - - - - $ @ @ @ $ $ $ $ - = @ @ @ @ @ @ @ @ @ @ $ $ @ @ $ $ $ $ @ @ @ @ $ $ $ $ $ $ $ $ $ $ $ $ $ $ $ $ $ $ @ @ @ @ @ @ @ @ @ @ @ @ + + + + + + @ + @ @ @ @ @ @ @ @ @ @ @ @ @ @ @ @ @ @ @ @ @ @ @ @ @ @ @ @ @ @ @ @ @ @ @ @ @ @ @ @ @ @ @ @ @ @ + X X   X X X X X X . .                             . .           .     .                   . .                                                 . .       . X X X X X X X X X X X + + + + + @ @ @ @ @ @ @ @ @ @ @ @ ",
"@ + + + + + + + + + + + + + + + + + + + X X + X X X X X + + + + X + + + + X X X X X + + + + + + + + X X X X + + X X X X + + + + X X X X X X X X X X X X X X X X X X X X X X X X         . . . .   .   a L ~ E E } } } } X.X.X.X.' ' ' '  .+.+.#.#.#.#.#.:.-.-.-.1.} -.j . X X X X X X X + + + + + + + + X X X X X X X X X X X X + + + + + + + + + + + + + + + + + + + + + + + + @ @ @ @ + + + + + + + @ + + + + + + @ @ + + + @ @ @ @ @ @ @ @ @ @ @ @ @ $ $ = $ @ $ = = = = = = = = = = = - - - - - - - = = $ $ $ $ - - - - - - - - - - - - - - - - - - - - - - - - - - - - - - - - - - - = = = = $ $ @ $ $ $ $ @ @ $ @ $ $ - - - - - - - - - - - - - - - = @ @ @ @ < v e B N.D D b 6 v e - + @ @ @ @ @ @ @ @ @ @ @ @ @ @ @ = = = = - - - - - - - - - - - - - - - - - - - - - - - - - - - - - - - - - = = = - - - - - - - = = = - - - - - - - - - - - - - - - - = $ @ + + @ @ @ @ @ @ @ @ @ @ @ @ @ @ @ @ @ @ @ @ @ @ $ $ @ @ @ $ $ $ $ $ $ = = $ $ $ $ $ $ $ $ @ @ $ $ @ @ @ @ @ @ @ @ @ @ @ @ @ @ @ @ @ @ @ @ @ @ @ @ @ @ @ @ @ @ @ @ @ @ @ @ @ @ @ @ @ @ @ @ @ @ @ @ @ @ @ @ @ @ @ @ @ @ @ @ @ @ @ @ @ @ @ + X X     . . X X X X                                         . . . . . .           X X   .                                                             . X X X X X X X X X X X + + + + + @ @ @ @ @ @ @ @ @ @ @ @ ",
"@ @ + + + + + + + + + + + + + + + + + + X X + + X X X X + + + + X X + + X X X X X X + + + + + + + + X X X X + + X X X X + + + + X X X X X X X X X X X X X X X X X X X X X X X X X       . . . .         a E E E } } } } X.X.X.X.' ' X.X. . .+.+.+.+.+.+.-.-.-.-.1.} -.B . X X X X X X X + + + + X + + X X X X X X X X X X X X X X + + + + + + + + + + + + + + + + + + + + + + + @ @ + @ + @ + @ + + @ @ + + + + + + @ + + @ + + @ @ @ @ @ @ @ @ @ @ @ @ $ $ = = @ $ = = = = = = = = = = = - - - - - - - - = $ $ $ $ - - - - - - - - - - - - - - - - - - - - - - - - - - - - - - - - - - - = = = = $ $ $ $ $ $ $ @ @ $ @ $ @ = = - - - - - - - - = - - - = = @ @   w v e N s.N.K D E j e N e @ - @ @ @ @ @ @ @ @ @ @ @ @ @ @ = = $ $ = = - - - - - - - - - - - - - - - - - - - - - - - - - - - - - - - = = = - - - - - = = = = = - - - - = = - - - - - - - - - - = @ @ + + + @ @ @ @ @ @ @ @ @ @ @ @ @ @ @ @ @ @ @ @ $ $ @ @ @ @ $ $ $ $ @ @ $ $ $ $ = = $ $ $ $ @ @ @ @ @ @ @ @ @ @ @ @ @ @ @ @ @ @ @ @ @ @ @ @ @ @ @ @ @ @ @ @ @ @ @ @ @ @ @ @ @ @ @ @ @ @ @ @ @ @ @ @ @ @ @ @ @ @ @ @ @ @ @ @ @ @ @ @ @ @ @ @ + X X           X X X         .                         . . . . . . . .           X X X                                                                 X X X X X X X X X . X X + + + + @ @ @ @ @ @ @ @ @ @ @ @ ",
"+ + + + + + + + + + + + + + + + X X X X X X + + X X X X + + X X + + + + + + + + + + + + + + + + + + + + + + + + + + + + + + + + X X X + + + + + X X X X X X + + X X X + + + + + X X X X X X X X . . . . + v W L _ _ _ _ ` ` ` ` ' ' ' ' ' ' X.X.X.X.+.+.+.+.-.-.-.-.} L -   +   X X X X X X X X X X X X X X X X X + + + X X X X X X X X X X X X X X X + + + X X + + X X X X X X + + + + + + + + + + + + @ @ @ @ + + @ + + + @ @ @ @ @ @ @ @ @ @ @ @ $ @ @ @ $ $ $ $ $ $ = = - - - - = = = = = = = - - - - - - @ # - - - - - - - - - - - - - - ; < - : - - - - - - - - - - - - - - - = - - - = = = = $ $ $ $ $ $ $ $ $ $ @ $ = $ = = - - @ @ $ = = $ @ + - @ @ + 6 j h N v.c.N.W v E Y j a v <   @ @ @ @ @ @ @ @ @ @ @ @ $ $ $ $ $ $ = = = = - - - - - - - - - - - - - - - - - - - - - - - - - - - - - - = = = = = = - - = = = = = = - - = = - - = = - - - - - - = @ + + + + + + @ @ @ @ @ @ + + + + @ @ @ @ @ @ @ @ @ @ $ $ $ $ @ @ $ $ $ $ $ $ $ @ @ @ @ @ $ $ @ @ @ @ $ $ $ $ @ @ @ @ @ @ @ @ @ @ @ @ @ @ @ @ @ @ @ @ @ @ @ @ @ @ @ @ @ @ @ @ @ @ @ @ @ @ @ @ @ @ @ @ @ @ @ @ @ @ @ @ @ @ @ @ @ @ @ @ @ @ @ @ @ @ X X                       X             . .           X X X . . .   . . . .       . . .                                                     . . X X X X X X X X X . . . X X + + @ @ @ @ @ @ @ @ @ @ @ @ @ @ ",
"+ + + + + + + + + + + + + + X X X X X X X X + + X X X + + + + X + + + + + + + + + + + + + + + + + + + + + + + + + + + + + + + + X X X X + + + + X + X X X X + + X X X X + + + + X X X X X X X X . . . . . - N W E E _ _ ! ! ` ` ' ' ' ' ' ' X.} X.X.X.X.+.+.+.+.-.-.} E <   X   X X X X X X X X X X X X X X X X + + + + X X X X X X X X X X X X X X X X + + X + + + X X X X + X + + + + + + + + + + + + @ @ @ + + + @ @ + + @ @ @ @ @ @ @ @ @ @ @ @ $ @ @ @ $ $ $ $ $ $ $ = - - - - = - = = = = = = - - - - - @ # - - - - - - - - - - - - - - ; < , : - - - - - - - - - - - - - - - $ - - - = - = = $ $ $ $ $ $ $ $ $ $ @ @ $ $ $ $ = $ @ @ $ = = $ @ + + @ @ < B a N c.v.c.N._ B W T L h p v < @ @ @ @ @ @ @ @ @ @ @ @ $ $ $ $ @ @ $ $ $ $ = = - - = = - - - - - - - - - - - - - - - - - - - - - - - - = = = = = = = = $ $ $ $ = = = = $ $ = = $ = = = - - - = @ + + + + + + + @ @ @ @ + + + + + + + + @ @ @ @ @ @ @ @ $ $ $ @ @ @ @ @ @ @ @ @ $ $ @ @ @ @ @ @ @ @ @ @ $ $ $ $ @ @ @ @ @ @ @ @ @ @ @ @ @ @ @ @ @ @ @ @ @ @ @ @ @ @ @ @ @ @ @ @ @ @ @ @ @ @ @ @ @ @ @ @ @ @ @ @ @ @ @ @ @ @ @ @ @ @ @ @ @ @ @ @ @ @ @ X         X X         X X         X   . . .           X X . X .   . . . .       . . . .                                                   . . X X X X X X X X X . .     X + + @ @ @ @ @ @ @ @ @ @ @ @ @ @ ",
"+ + @ + + + + + + + + + X X X X + + + + X + + + X X + + + + + + + + + + @ @ + + + + + + + + @ @ + + + + + + + + + + + + + + + + X X X X X X + + + + + + X + + + X X X X X X + + X X X X X X X X . . . . # . @ V W W E E ` ` ` ` ` ` ' ' ' ' } } } } +.+.{ +.+.+.&.-.&.[ 6   X X X X X X X X X X + + X X X X + + + + + + X X X X X X X X X X X X X X X X + + + + + + + X + + + + + + + + + + + + @ @ + + @ + + + + @ @ @ + + @ @ @ @ @ @ @ @ @ @ @ @ @ @ @ @ $ $ $ $ $ $ = = - - - - - - - - = = = = = = - - - - - - - - - - - - - - - - - - - ; < < , : - - - - - - - - - - - < - - $ - - - - - = = $ $ = = = = = = = $ @ @ @ @ @ @ @ @ @ @ @ = = $ @ + + + - h v h p.N.v.b.A.{ B E W / L e h j < @ @ @ @ @ @ @ @ @ @ @ $ $ @ @ @ @ $ $ $ $ = = - - - - - - - - - - - - - - - - - - - - - - - - - - - - = = = = = = = = $ $ $ $ = = = = $ $ = = = = - - - = = @ @ @ @ + + + + + @ @ @ @ + + + + + + + + + + @ @ @ @ @ @ $ $ @ @ @ @ @ @ @ @ @ @ $ $ $ $ @ @ @ @ @ @ @ @ @ @ $ $ @ @ @ @ $ $ $ $ @ @ @ @ @ @ @ @ @ @ @ @ @ @ $ $ @ @ $ $ $ $ @ @ @ @ @ @ $ $ $ $ @ $ @ $ $ $ $ $ @ @ $ $ @ @ @ @ $ $ @ @ @ @ @ @ @ @ @ + X . . . X . .   . X X X     X X X X X .         . . X X X X X X . . . .     . . . .                                                     . . X X X X X X X X X .       X + + + + @ @ @ @ @ @ @ @ @ @ @ @ ",
"+ + + @ + + + + + + + + X X X X + + + + + + + + X X + + + + + + + + @ @ @ @ + + + + + + + + @ @ + + + + + + + + + + + + + + + + X X X X X + + + + + + + X + + + X X X X X + + + X X X X X X X X . . . . @ . . - N L W W ` ` ` ` ` ` ' ' ' ' } } } +.+.+.{ +.+.+.} &.&.} e . . X X X X X + + X X + + X X X X + + X + + + X X X X X X X X X X X X X X X X + + + + + + + X + + + + + + + + + + + + @ @ + + + + + + @ @ @ @ + + @ @ @ @ @ @ @ @ @ @ @ @ @ @ @ @ $ $ $ $ $ $ = = - - - - - - - - - - = = = = - - - - - - - - - - - - - - - - - - - ; < < , : - - - - - - - - - - - < - - $ - - - - - = $ $ $ = = = = = $ $ @ @ @ @ @ @ @ + + @ @ @ $ = $ @ +   - g v h g.N.x.v.v.S.1.N _ L L E L p j p < @ @ @ @ @ @ @ @ @ @ $ @ @ @ @ @ $ $ $ $ = = - - - - = = - - - - - - - - - - - - - - - - - - = = - - = = = = = = = = $ $ $ $ = = = = $ $ = $ $ = - - - = = $ @ @ @ + + + + + @ @ @ @ + + + + + + + + + + @ @ @ @ @ @ $ $ @ @ @ @ @ @ @ @ @ @ $ $ $ $ @ @ @ @ @ @ @ @ @ @ @ @ @ @ @ @ $ $ $ $ @ @ @ @ @ @ @ @ $ @ @ @ @ $ $ $ @ @ $ $ $ $ @ @ @ @ @ @ $ $ $ $ @ @ @ @ $ $ $ $ @ @ $ $ $ $ @ @ $ $ @ @ @ @ @ @ @ @ @ @ X . . . . . .   . X X X . . . X X X X X         . . X X X X X X . . . . . . . . . .                                                     . . X X X X X X X X X .       X + + + + @ @ @ @ @ @ @ @ @ @ @ @ ",
"+ @ @ @ + + + + + + + + X + + + + + + + + + + + X + + + + + + + + @ + + + + + + + + + + + + + + + + + + @ @ @ @ @ + + + + + + + + + + + X X X X X X + + + + + + X X + + X X X X + + X X X X X X X X + + + + + + < D _ E W E ! ! ` ` ` ` ' ' } } +.+.+.+.-.&.&.&.&.&.&.&.D + + + + .     + + + + + + X X X X + + X X + + X X X X X X     . . . . X X X X X X X X X X X X X X X X X X X X + + X X + + + + + + + + + + + + + + @ @ @ @ @ @ @ @ @ $ $ $ $ @ $ $ $ $ = = = = = = - - - - - - - - - - - - - = - - - - - - - - - - ; - - - < e e e e e - < < < < - - - ; ; < < < < < - - - = - - $ $ = $ @ @ @ $ = = = $ $ $ @ @ @ + + + + + + + + @ @ $ @ @ X - a b p s.N.b.b.v.N.N.5.N } L L U I Z d l h - : = @ @ @ @ @ @ @ $ $ @ @ @ @ $ $ $ $ = = = = = = - = - - - - - - - - - - - - - - - - = = = = $ = = = = = $ $ $ $ $ $ $ $ = = = = $ $ $ $ $ $ = - = @ @ @ @ @ @ @ @ @ @ + + @ + @ @ @ + + + + + + @ @ @ @ @ @ @ @ @ @ @ @ @ @ @ @ @ @ @ $ @ @ @ @ @ @ @ @ @ @ @ @ @ @ @ @ @ @ @ @ @ @ @ @ @ @ @ @ @ @ @ @ $ $ @ @ @ @ $ $ @ $ $ $ @ @ @ @ @ @ @ @ $ @ @ @ @ @ @ @ @ @ @ @ @ $ $ $ $ $ $ @ $ $ @ @ @ @ @ @ @ @ @ @ @ X . . . . . X .         X X X X X X X         .               . . . . . . . . . . . .                       . . .             X X X   X X X X X X X X X X X       . X + + + + @ @ @ @ @ @ @ @ @ @ @ @ ",
"@ @ @ @ + + + + + + + + X X + + X X + + + + + + X + + + + + + + + @ + + + + + + + + + + + + + + + + + + @ @ @ @ @ @ + + + + + + + + + + X X X X X X + + + + + X X X + + X X X X + + X X X X X X X X + + + + + +   - v E W W E ! _ ` ` ` ' ' } } } } +.+.&.&.&.&.&.&.&.&.-.h @ . . + + . + + + + + + X X X X + + X X + + X X X X X X X   . . . . X X X X X X X X X X X X X X X X X X X X + + + X + + + + + + + + + + + + + + @ @ @ @ @ @ @ @ @ @ $ $ $ @ $ $ $ $ = = = = = = - - - - - - - - - - - - - = - - - - @ @ - - - - ; ; - e j v v v v v h e < < - , < < < < ; ; - ; - - - - = - - $ $ = @ @ @ @ $ $ $ = @ @ @ @ @ @ + + + + @ @ + + @ @ = $ @ @ a j p w.N.b.x.N.N.N.N.5.N } L L U U L Z w h p = - = @ @ @ @ @ @ $ $ @ @ $ @ $ $ $ $ = = = = = = = = - - - = - - - - - - - - - - = = = = $ $ = = = = = = $ = $ $ $ $ $ $ = = = = $ $ $ $ @ @ @ + + @ @ @ @ @ + + @ + + + + @ < 6 e e e e 6 < - @ @ @ @ @ $ $ @ @ @ @ @ @ @ @ @ @ @ @ $ $ @ @ @ @ @ @ @ @ @ @ @ @ @ @ @ @ @ @ @ @ @ @ @ @ @ @ @ @ @ @ @ @ $ $ @ @ @ @ $ $ @ @ = = @ @ @ @ @ @ @ $ $ $ @ @ @ @ @ @ @ @ @ @ @ @ $ $ $ $ $ $ @ @ @ @ @ @ @ @ @ @ @ @ + X X .   . . X             X X . X X X                         . . . . . . . . . . . .                         . .             X X X X X X X X X X X X X X X       . X + + + + @ @ @ @ @ @ @ @ @ @ @ @ ",
"+ + @ @ + + + + + + + + + + + + X X X X + + + + + + + + + + + + @ @ @ @ @ @ @ @ @ @ @ @ @ @ @ @ @ @ @ @ @ + @ @ + + + + + + + + + + + + + + X X + + + + + + + + X X + + + + X X + + + + X X X X X X X + + + + + . + @ h K W W E ! _ ` ' ' ' ' ' ' ' } } } } &.&.&.&.&.&.E _ B -     . @ O O O O + + + X X + + + X X X X X X X X X X         . . X X X X X X X X X X X X X X X X X X + + + + X X + + + + + + @ @ + @ + + + @ @ @ @ @ @ @ $ $ @ @ @ @ $ $ $ $ $ $ = = = = = = = = - - - - - - - - - - - - - - - - @ @ - - ; - - 6 a j v j j j j j v j p < - 6 e e j j j j r < # < - - = = = - - $ @ @ @ @ @ @ @ @ @ @ @ @ @ @ @ @ @ @ @ @ + + @ @ @ - $ e N p 1.b.N.b.N.A.N.N.N.5.N } I L W W U U B a v t , - = @ @ @ @ @ $ @ @ @ $ $ @ @ @ @ $ $ $ $ $ $ $ $ = = = = = = - - - - - - - - - - = = = = = = = $ $ $ $ $ $ $ $ @ @ @ = = = = $ $ $ $ @ $ = - $ < 6 6 w 8 < - - @ @ - 6 r h a h h h h j a e 6 - @ @ $ @ @ @ $ $ $ $ $ $ $ $ $ $ $ $ $ @ @ @ @ @ @ @ @ @ @ @ @ @ @ @ @ @ @ @ @ @ @ @ @ @ @ @ @ @ @ @ @ $ $ $ @ @ @ @ $ $ $ = = = = $ $ $ $ $ = $ $ $ $ $ $ @ @ @ @ @ @ $ $ $ $ $ $ @ @ @ $ $ @ @ @ @ @ @ @ @ @ @ + X .     X X X               . .   X     X X X X             . . . .     . . . . . .                 . . . . . .             X X     X X X X X X X X X X X       . X + + + + @ @ @ @ @ @ @ @ @ @ @ @ ",
"+ + @ @ + + + + + + + + + + + + X X X X + + + + + + + + + + + + @ @ @ @ @ @ @ @ @ @ @ @ @ @ @ @ @ @ @ @ @ + + + + + + + + + + + + + + + + + + + + + + + + + + + X X + + + + + + + + + + + + X X X X X + + + + + . @ @ . p K W W E ! _ ` ' ' ' ' ' ' ' ' } } -.-.&.&.&.&.-._ -.W N p - @ O O O + + + + X + X + + X X X X X X X X X X             X X X X X X X X X X X X X X X X X + + + + + X X + + + + @ @ @ @ @ @ + + + @ @ @ @ @ @ @ $ $ @ @ @ @ @ $ $ $ $ $ = = = = = = = = - - - - - - - - - - - - - - - - < < 6 6 ; ; - q c h j v v v v v v j h a < p v j j j j j b k e - - - = $ $ - - $ @ @ @ @ @ @ @ @ @ @ @ @ @ @ @ @ @ @ @ @ + @ @ @ - @ i v e 1.A.N.A.A.A.N.N.N.N.1.N } I I E W U U W D w v e , - = @ @ $ $ $ @ @ @ $ $ @ @ @ @ $ $ $ $ $ $ $ $ $ $ $ $ $ $ $ = = = - - - - - - = = = = = = = $ $ $ $ $ $ $ $ @ @ @ = = = = $ $ $ $ @ - < 2 p j c s s h h h e < < e h a h h a a g h h h h h w - @ @ @ @ @ $ $ $ $ $ $ $ $ $ $ $ $ $ @ @ @ @ @ @ @ @ @ @ @ @ @ @ @ @ @ @ @ @ @ @ @ $ @ @ @ @ @ @ @ @ $ $ $ $ @ @ $ $ $ = = = = $ $ $ $ $ $ $ $ $ $ $ $ $ @ $ @ @ @ @ @ $ $ $ $ $ $ @ $ $ @ @ @ @ @ @ @ @ @ @ @ + + X     X X X             . . .         X X X X             . . . .   . . . . . . .                 . . . . . .     X       X       X X X X X X X X X X X       . X + + + + @ @ @ @ @ @ @ @ @ @ @ @ ",
"+ + + + + + + + X X X X X + + + + + + + + + + + + + + + + + @ @ @ @ @ @ @ @ @ @ @ @ @ @ @ @ @ @ @ @ @ @ @ @ @ @ + + + + + + @ + + + + + + + + + + + + + + + + + + + + + + + + + + + + + X X X X X X + + + + + + + + + +   < v T W W E E E _ _ _ _ _ } } ' ' X.+.} } } } +.+.+.{ -.' L m p ; @ .     + + @ .     . + + + + + + + X . . . . . X X X X X X X X X X X X X X X X X X X X X X X X X X + + + + @ + + + + + + + @ @ @ @ @ @ @ @ @ @ @ @ @ @ @ @ $ $ $ $ = = = = - - - - - - - - - - - - - - - - - @ - h k k j v z h y 9 e v j z z z z v v v z z z 6 p j z z z z k z v j < % - % $ - - $ @ @ @ @ @ @ @ @ @ @ @ @ @ @ @ @ @ @ @ @ = $ - - X e N w _ k.b.b.N.N.N.N.N.N.B.w.v ' U E W W W W W W B p v p # + - - * @ @ @ @ @ @ @ @ @ @ @ @ $ $ $ @ @ @ $ @ @ $ @ @ $ = = = = = = - - - - - = = = = $ $ $ $ $ $ $ $ @ @ @ $ $ = = @ @ - @ @ - - 6 p j d d d d d y h e % 9 d a d d d d h d a p a d h y 6 < : < 8 e p p e 6 > - % $ $ $ $ % % $ @ @ @ @ @ @ @ @ @ @ @ @ @ @ @ @ @ @ $ $ = = = $ $ $ $ $ = = = = = = = = = = - - = = = = = = = = $ $ $ $ = = = = @ @ @ @ @ @ $ $ $ @ @ @ @ @ @ @ $ $ @ @ @ @ $ $ @ @ @ @ @ @ @ @ X             X X X       . . .     X X X X         X X X X . .     . . .                                                       . . X X X X X X X X X X . .     X X + + @ @ @ @ @ @ @ @ @ @ @ @ ",
"+ + + + + + + + X X X X + + + + + + + + + + + + + + + + + + @ @ @ @ @ @ @ @ @ @ @ @ @ @ @ @ @ @ @ @ @ @ @ @ @ @ + + + + + + @ @ + + + + + + + + + + + + + + + + + + + + + + + + + + + + X X X X X X X + + + + + + + + + @   @ e D K E W W E _ _ _ | } } ' ' ' ' } } } } +.+.+.+.-.+.-.' :.W D k e @   . O + + .       . + + + + . . . . . . X X X X X X X X X X X X X X X X X X X X X X + + X X + + + + + + + @ + + + + @ @ @ @ @ @ @ @ @ @ @ @ @ @ @ @ = $ $ $ = = = = - - = - - - - - - - - - - - - - - 6 j h c j k c z j j j e e m j z z z v v v z z z j < p k z z z z z j z d % - $ @ % % @ @ @ @ @ @ @ @ @ @ @ @ @ @ @ @ @ @ @ @ @ - - $ = 6 v e / c.M.b.b.N.N.N.N.N.N.B.w.v ' U E W W W W L W W B p h p @ @ # * @ @ @ @ @ @ @ @ @ @ @ @ @ $ $ @ @ @ @ @ @ $ $ @ @ = = = = = = - - - - - - = = = $ $ $ $ $ $ $ $ $ @ @ $ $ = = @ @ - * - < e p h h d d d d a j 9 @ 9 d p p d d d d d h h d d d 6 2 6 e a j j h d d a a p p < % $ $ $ $ $ $ @ @ @ @ @ @ @ @ @ @ @ @ @ @ @ @ @ @ = = = = - - = = = = = = = = - - = = - - - - - - - - = = = = $ $ $ $ = = = = @ @ @ @ @ @ $ $ @ @ @ @ @ @ @ @ $ $ $ @ @ $ $ $ @ @ @ @ @ @ @ @ + X X X       X X X     . . X .     X X X X         X X X X . .     . . . .                                                     . . X X X X X X X X X X . .     X X @ @ @ @ @ @ @ @ @ @ @ @ @ @ ",
"+ + + + + + + + + + + + + + + + + + + + @ @ @ @ @ @ @ @ @ @ @ @ @ @ @ @ @ @ @ @ @ @ @ @ @ @ @ @ @ @ @ @ @ @ @ @ @ @ @ @ + @ @ @ + + + + + + + + @ + + + + + @ @ + + + + + + + + X X X X X X X X X X + + + + + + + + + + $ @ +   @ e D E E E E _ _ _ | | ' ' ' ' ' ' } } +.+.+.+.{ +.-.{ | | X.| -.W N a - - +   . . . . . . + + . . . . . . X X X X X X X X X X X X X X X X X X + + + + + + + + + + + + @ @ @ @ + + + + @ @ @ @ @ @ @ @ $ $ @ $ @ @ $ $ = = = = = = - - = - = = - - - - - - - - - - - - - j j j j j j j z z v v z 6 a v z z z v v v v z v z p 2 j z z z z z z z j p $ @ @ $ $ @ @ @ @ @ @ @ @ @ @ # @ @ @ @ @ @ @ @ @ @ - - - 6 c e / Z.N.N.N.b.N.N.N.N.N.N.A.w.v | W E W W W W W L W W v 6 h u - @ @ @ @ @ @ @ @ @ @ @ @ @ @ @ @ @ @ @ @ @ @ @ @ $ @ @ $ $ = = = = - - - - - - = = = $ $ @ @ @ $ $ $ @ @ @ @ @ @ @ @ @ - - < e j j h a d d d d z e . e h p j a d d d d d d d h p - 6 h d j h d j j j j j j j z e < % $ % $ % % % % % % - - % % $ $ $ $ $ $ = = = = - - - - - - - - - - - - - - - - - - - - - - - - - - - = = = = = = = - - = = $ $ $ $ $ = = $ @ @ @ @ @ @ $ $ $ $ @ @ @ @ $ $ @ @ @ @ @ @ @ @ @ @ X X     .   X X         X X         . . .   . . X X X X     . . . . . .                                                     .   X X X X X X X X X X . . .     X @ @ @ @ @ @ @ @ @ @ @ @ @ @ ",
"+ + + + + + + + + + + + + + + + + + + + @ @ @ @ @ @ @ @ @ @ @ @ @ @ @ @ @ @ @ @ @ @ @ @ @ @ @ @ @ @ @ @ @ @ @ @ @ @ @ @ + + @ @ + + + + + + + + @ + + + + + @ @ + + + + + + + + X X X X X X X X X X + + + + + + + + + + + + X   + @ - 6 N K _ _ _ _ _ | ' ' ' ' ' ' } } +.+.+.+.,.-.-.-.| 1.} ~ | } 1.} _ L N p 6 < @ @ + + + + . . . . . . X X X X X X X X X X X X X X X X X X + + + + + + + + + + + + @ @ @ @ + + + + @ @ @ @ @ @ @ @ $ $ $ $ @ @ $ $ = = = = = = - - = - - = - - - - - - - - - - - - e p j a j j j l v v z z m v 3 p z z z v z v v v z v l 6 p k z z z z z z d v w o 2 6 6 2 - % @ @ @ @ @ @ # # @ @ @ @ @ @ $ @ $ $ @ - w j - I c.c.k.M.N.N.N.N.N.N.N.N.A.w.v | W E W W W W } W L W } h - h 6 - + + @ @ @ @ @ @ @ @ @ @ @ @ @ @ @ @ @ @ @ @ @ @ @ @ $ $ = = = = - - - = = = = = $ $ $ @ @ @ $ $ $ @ @ @ @ @ @ @ @ @ ; < e h h h h h d d d d e - p j p h a a d d d d d d d d - y d d y h j a s d d d j j h d j e < % % % % $ - - - - - - - - = = = - - - - - - - - - - - - - - - - - - - - - - - - - - - - - - - - - - - = = = = = = - - = = $ $ $ $ $ $ = $ $ @ @ @ @ $ $ $ $ $ @ @ @ @ $ $ @ @ @ @ @ @ @ @ @ @ @ X     . . X X         X X         . . .   . . X X X X     . . . . . . .                                                       X X X X X X X X X X . . .     X @ @ @ @ @ @ @ @ @ @ @ @ @ @ ",
"+ + + + + + + + + + + + + + + + + + + + @ @ @ @ @ @ @ @ @ @ @ @ @ @ @ @ $ $ $ $ @ @ @ @ @ @ @ @ @ @ @ @ @ @ @ @ + + + @ @ @ + + + + + + + + + + + + + + + + + + + + + + + + + + + + + + + + X X X X + + + + + + + + + + + X + + + + @ @ - 6 B _ W E _ } ` ` ` ` ' ' ' ' X.X.X.X.X.X.+.+.:.:.-.-.-.%.%.%.%.%.-.-.-._ h p a - . - < - - < +       @ @ + X X @ @ X + + + + @ @ @ @ + + + + + + + + + + + + @ @ @ @ @ @ @ @ @ @ @ @ @ @ @ @ $ $ $ $ $ $ $ $ = = = = = = = = - - - - - - - - < : - $ - - * . 6 j j j h j v v v v v v v v s 8 k z v z z z z z z z z d < a z k z z z z j z j 6 9 d j j j r < @ @ @ @ @ # @ @ @ @ @ - - - - - - < h h 6 6 ` N.b.N.N.N.N.N.N.N.N.N.N.V.p.j | U U W W W W T T T T | N 6 e p p + + @ @ @ @ $ $ @ @ @ @ $ $ $ $ @ @ $ $ $ $ @ @ $ $ = = = = - - - = = = $ $ $ $ $ @ @ @ @ @ @ - - - - @ @ - < 6 e e < < p h h h h h j y y p % e j a a a d d d d d d y j 6 > d d d d d d d d d d d d d d h d e p y $ % % $ $ - - - - - - - - - - - - - - - - - - , : : - - - - - - - - - - - - - - - - - - - - - - - - - - - - - - - - - - - - - = $ $ $ $ @ = $ @ @ @ @ $ $ $ @ @ @ @ @ @ $ @ @ $ $ @ @ @ @ @ @ @ + X . . .                 X X .               X X X X     . . . . . . . .                                                   . . . X X X X X X X X X X X X . X + + @ @ @ @ @ @ @ @ @ @ @ @ ",
"+ + + + + + + + + + + + + + + + + + + + @ @ @ @ @ @ @ @ @ @ @ @ @ @ @ @ $ $ $ $ @ @ @ @ @ @ @ @ @ @ @ @ @ @ @ @ + + + + @ @ + + + + + + + + + + + + + @ + + + + + + + + + + + + + + + + + + X X X X + + + + + + + + + + + + + + + + @ @ # # < v W E _ _ ` ` ` ` ' ' ' ' X.X.X.X.X.X.+.+.:.:.:.:.:.:.:.:.:.:.-.-.} -.K 6 h h - j K a p p N N p : X X + $ @ + + + + + + + @ @ @ @ + + + + + + + + + + + + @ @ @ @ @ @ @ @ @ @ @ @ @ @ @ @ $ $ $ $ $ $ $ $ = = - = = = = = - - - - - - - : - - < < < 6 < - - e j h v v v v z v v z v v z p 1 d j j z z z z z z z z < r v j z z z z z z z y < j j j j v z 9 - @ @ @ # @ @ @ @ @ - - = < @ < a j e B D n c.c.N.N.N.N.N.N.N.N.N.N.V.p.d ! U U W W W W T T T T T p W 1.r a e + @ @ @ @ $ $ @ @ @ @ $ $ $ $ @ @ $ $ $ $ @ @ $ $ = = = = = = - = = $ $ $ @ @ @ @ @ @ $ @ @ = - - - - < p h p h e - a h p h h h h d j j < 3 a j a a a a a a a a a j 6 > p d d d d d d d d d d d d d d h j h h d < @ @ @ @ - - % $ - - - - - - - - - - : : - - : - : - - - - - - - - - - - - - - - - - - - - - - - - - - - - - - = - - - - - - = $ $ $ $ @ = $ @ @ @ @ $ $ $ $ @ @ @ @ $ $ @ @ $ $ @ @ @ @ @ @ @ + + X . . .           .   X X .         .     X X X X     . . . . . . . .                                                   . . . X X X X X X X X X X X X . X + + @ @ @ @ @ @ @ @ @ @ @ @ ",
"+ + + + + + + + + + @ @ + + + + @ @ @ @ @ @ @ @ @ @ @ @ @ @ @ @ @ @ $ $ $ $ $ @ $ @ @ @ @ @ @ @ @ @ @ @ @ @ @ @ + + + + @ @ + + + + + + + + + + + + @ @ @ @ + + + + @ @ + + + + + + + + + + + X + + + + + + + + + + + + + + + + + + @ @ + - - r L W E _ ` ` ` ` ' ' ' ' X.X.X.X.X.X.+.+.:.:.:.:.:.:.:.-.:.:.-.-.1.} _ e a a e 6 L } 0.E L B D T K h - X + = @   + + + + @ @ @ @ + + + + + + + + + + + + @ @ @ @ @ @ @ @ @ @ @ @ @ @ @ @ $ $ $ $ $ $ = = - - = = - - - - - - - - - @ - < 2 e h v h j j h p * @ < e d z z z z z z z z l l < - y j z z z z z z z z e 1 j z z z z z z z v j 9 e z z z z v z 9 - @ @ @ @ @ @ @ @ - - < - - h j p D W W v h.h.N.N.N.N.N.N.N.N.N.N.V.p.d ! U U W W W W W W W W _ h } N.1.e p p - @ @ @ $ $ @ @ @ $ $ $ $ $ @ @ @ @ $ $ $ $ = = = = - = = = = - - = $ $ $ $ $ @ @ $ $ $ @ - - - < e h h a j p - e d p j d d d d d j p : y p a p a a a a a p p p 6 > d j d d d d d d d d d d d d d d a p e 6 6 > - - - - @ $ % - - - - - - - - - - - : : - - : - : - - - - - - - - - - - - - - - - - - - - - - - - - - - - - = = - - - - - - - - = = $ $ = $ $ @ @ @ @ $ @ @ $ @ @ @ @ @ $ $ $ $ @ @ @ @ @ @ @ @ @ X . .   . X   X X . . X X X       . .         . .     . . . .     . .                                                     . . X X X X X X X X X X X X . X + + @ @ @ @ @ @ @ @ @ @ @ @ ",
"+ + + + + + + + @ @ @ @ + + + + @ @ @ @ @ @ @ @ @ @ @ @ @ @ @ @ @ @ $ $ $ $ $ @ $ @ @ @ @ @ @ @ $ $ @ @ @ @ @ @ + + + + @ @ + + + + + + + + + + + + @ @ @ @ @ + + + + @ + + + + + + + + + + + X + + + + + + + + + + + + + + + + + + @ @ . + @ j L L W E ` ` ` ` ' ' ' ' ' ' } } X.X.X.X.:.:.:.:.-.%.-.-.:.:.-.-.-.1.-.p a h h - 6 p j T g.s.5.E D S D N 8 .   - + + + + @ @ @ @ + + + + + + + + + + + + @ @ @ @ @ @ @ @ @ @ @ @ @ @ @ @ $ $ $ $ $ $ = = - - = = - - = = - - - - - + - 6 c c l j j v v j v x 6 +   - e j j z z z z z j j z -   6 z z z z z z z z z - r v z z z z z z v v j < z v j z z d j 9 - @ @ @ @ @ @ @ - - < < v h p L } D E v 0.N.N.N.N.N.N.N.N.N.N.N.V.p.d ! U U W W W W W W W W W a s.c.b.s.h j e - @ @ $ $ @ @ @ $ $ $ $ $ @ @ @ @ @ @ $ $ = = = = - - = = = - - = $ $ $ $ $ $ $ $ $ $ @ = - - h j j h h h < < j a j h d d d d d d 2 9 a p p p p a a a p p p p : p j y d d d d d d d d d d d d j p e 6 e e a p s s a a y 9 < - - - - - - - - - - - : : - - : : : - - - - - - - - - - - - - - - - - - - - - - - = = = = = = = = = = = = - - - - = = = $ = $ $ $ @ @ $ $ @ @ $ @ @ @ @ @ @ $ $ $ @ @ @ @ @ @ @ @ @ X X .     X X X X X . X X X       . .         . .     . . .                                                               . . X X X X X X X X X X X X . X + + @ @ @ @ @ @ @ @ @ @ @ @ ",
"@ + + + + + + + @ @ @ @ @ @ @ @ @ @ @ @ @ @ @ @ @ @ @ @ @ @ $ $ $ = = = $ $ $ $ @ @ @ @ @ @ @ $ @ @ @ @ @ @ @ @ @ @ @ @ + + + + @ @ + + + + @ @ @ @ @ @ @ @ @ @ + + + @ + + + + + + + + X X + + + + X + + + + + + + + + + + + + + + + + @   @ e L L _ _ E ! _ _ ! ! ! ! ' ' } } } } +.+.X.X.X.X.+.+.+.+.:.:.:.:.+.,.+.y a h v 6 } p.L v h D 1.g.h.1.D N B B < . + @ @ @ - @ - - @ + + + @ X X @ = @ + X @ @ @ + + @ @ - @ @ * - - - $ @ $ $ = = = = = = - - = = - - - - - - = = = - 2 l h j k v v v v v x v z j -     < a k k z k z k j z y ;   y z z z z z z z m 6 1 b v x z z z z z z v e h j z z z j v j 9 % % - - > - - < < < a i a L L L L _ B W A.N.N.N.N.N.N.N.N.n.b.N.w.p W U W W W W W W W W W F d c.c.N.B.h.a p p + - , $ @ = $ $ $ $ = = $ $ $ = = - = = - = = = - - - - - - - - = = $ = $ @ @ @ @ @ - - < p h h h h a 6 < j d d j d d d d d j e < p p p p a a a a a y a 9 % a a a a a a a a p a d j j j d p 9 9 9 y j j h h h j j j j j d a <   > - - - - - - - - - - - - : : : - - : : - - - - - - - - - - - - - - - - - - - - = $ = $ $ $ = = = = = = = = = = = = $ $ $ $ @ @ $ $ $ $ $ $ @ @ @ @ @ @ $ $ @ $ $ $ $ $ $ @ @ + X X . .       . . . X X X X X X X .                         . . . .                 . . . . . .                             X X X X X X X X X X X X X X + + @ @ @ @ @ @ @ @ @ @ @ @ ",
"@ + + + + + + + @ @ @ @ @ @ @ @ @ @ @ @ @ @ @ @ @ @ $ $ @ @ $ $ $ $ = = $ $ $ $ @ @ @ @ @ @ @ $ @ @ @ @ @ @ @ @ @ @ @ @ + @ + + @ @ @ + + + @ @ @ @ @ @ @ @ @ @ + + + + + + + + + + + + X X X + X X X X + + + + + + + + + + + + + + + + + . + - N L W W W ! ! ! ! ! ! ! ' ' ' ' ' ' } } X.X.X.X.X.X.+.+.:.:.:.:.X.:.' e a h j 6 h w.h.c.s._ D D K w.b.s.K a v v - - - + @ - @ @ @ + + + @ @ @ X @ @ $ $ @ - < < < 6 < - @ + @ - - - - - $ $ = = = = = = - - = = = = = = - - = = @ - e j h j k v v v v v v v z z z q @   o e d j j z z k k v p   @ a l v z z z z z k > a v v z z z z z z v p 3 v z l z z z z y < % - - > - - @ < a < p E L L L L E L B A.N.n.n.N.N.N.N.N.n.b.N.r.p W U W W W W W W W W W B v V.l.c.c.c.s.p 6 p + + - - - $ $ $ $ $ = $ $ $ = = - = - = - = = - - - - - - - - - - - - = = - - - - - < p h h h h h p < e h d d d d d d d d a 6 e p y p a a a a a a d e o 9 p a a a a a a a a a p p z a 3 - 9 y h j j h h h h j j j j j d p j 2 @ > - - - - - - - - - - - : : - - - : : - - - - - - - - - - - - - - - - - - = $ $ @ $ @ @ @ $ $ $ $ = = = = = = = = $ $ $ $ @ @ $ $ = = $ $ @ @ @ @ @ @ $ $ $ $ $ $ $ $ = @ @ + + X X X       . X . X X X X X X X .                         . . . .                 . . . . . .                         X   X X X X X X X X X X X X X X + + @ @ @ @ @ @ @ @ @ @ @ @ ",
"+ + + + + + + + @ @ @ @ @ @ @ @ @ @ $ @ $ $ $ $ = = = = $ $ $ $ = = = = = = = $ $ @ @ @ @ @ @ @ @ @ @ @ @ @ @ @ @ @ @ @ @ @ @ @ @ @ + + + + @ @ @ @ @ @ @ @ @ @ + + + + + + + + + + + + X X + + X X X X + + + + + + + + + + + + + + + + + O + + - v W W W E ! ! ! ! ! ! ' ' ' ' ' ' } } X.X.X.X.X.X.+.+.:.:.:.:.' X.` e a h v 6 j D D 0.h.h.c.w.-.D S ` c.0.p a L B j h - . @ @ @ @ + + - $ @ @ $ $ @ @ @ @ < a B W -.:.-.L c 6 @ @ = - - = = = = = = = - - - - $ = = = - - - - , + < p h j c v x v v v v v z z j p y q o   1 a d j k z d z k 7   3 d d v v z z v z e ; v v z z z z z z m y > d z z l z z v j 6 % - - > < < < h < p L K W W W W E _ h s.n.n.n.N.N.N.N.N.n.b.N.r.p W U W W W W W W W W W j L V.c.c.V.c.b.s.e 6 a - - - - $ $ $ $ $ $ $ $ $ = = - - - - - - - - - - - - - - - - - - - - - - - - - < p h h h h h h e : d d d d d d d d d d e 3 y p p a a a p a p p y % 2 y a p p p a a a a a a a a 6 < 3 p h j j j j j h h h h j j j j a p j z < o - - - - - - - - - - , , : : - - : : : - - - - - - - - - - - - - - - - - = = $ @ $ @ @ @ $ $ $ $ = = = = - - - - = = = = $ $ $ $ = = = $ @ @ @ @ @ @ $ $ = = = = = = = = $ @ @ X X X       X X X X X X X X X X .                 . . . . . .                     . . . . . .                     X X X X X X X X X X X X X X X X X X X + @ @ @ @ @ @ @ @ @ @ @ @ ",
"+ + + + + + + @ @ @ @ @ @ @ @ @ @ @ @ @ $ $ $ $ = = = = @ @ @ $ = = = = = = = $ = @ @ @ @ @ @ @ @ @ @ @ @ @ @ @ @ @ @ @ @ @ @ @ @ @ + + + + @ @ @ @ @ @ @ @ @ @ + + + + + + + + + + + + X X + + X X X X + + + + + + + + + + + + + + + + + + O . + - j W U W ! ! ! ! ! ! ' ' ' ' ' ' ' ' X.X.X.X.X.X.+.+.:.:.:.:.| ' ! e a h v 6 D c.} D D _ s.c.b.g.&.L v } c.K e W -.D D p - < @ @ + +     = i j n D Y _ 1.1.-.L D v j B 0.b.h.} v , + - - = = = = = = - - - - = = = - - - - - - = @ < h j v v x v v v v v z z j j z n y     > r d j k a d k z 6   < d j v v z z z j % p v z z z z z z z j - d z z l z z z z y % - - > @ 6 a 6 j W E L W W W W E E h E n.b.n.N.N.N.N.N.n.b.N.r.p W L W W W W W W U W W e 2.N.N.c.n.n.N.N.c.6 6 i : @ - $ $ $ $ $ $ $ $ $ = = - - - - - - - - - - - - - - - - - - - - - - - - - p h h h j h h h 6 e d d d d d d d d d d 3 y y p a a a a p p p p - > a y a a a p p a a a h e < - : e d d j j j j j j h h h h j j j j a p a d w - % - - - - - - - - - , , : : - - : : : - - - - - - - - - - - - - - - - - = = $ @ @ @ @ @ $ $ $ $ $ $ = = - - - - = = = = $ $ $ $ = = = $ $ @ @ @ @ @ @ $ $ $ $ $ = = = = $ @ @ + X X       X X X X X X X X X X .                 . . . . .                       . . . . . .                   X X X X X X X X X X X X X X . .   X X X + @ @ @ @ @ @ @ @ @ @ @ @ ",
"+ @ + + + + @ @ @ @ @ @ @ @ $ $ $ $ @ @ $ $ $ $ = $ $ $ = = = = - - = = = = - = = $ @ @ @ @ $ $ @ @ @ @ @ @ @ @ @ @ @ @ + + + + + + + + + + + + @ @ @ @ @ @ @ @ @ @ @ @ + + + + + + + + + + + + + + + + + + + + + + + + + + + + + + + + + + + + . + - e K W ! I W ! _ _ ! ` ` ` ' ' ' ' ' ' X.X.X.X.X.X.X.X.X.X.' 2.W e a h j 6 a } b.c.p._ L W -.g.N.c.-.h B b.w.h P u.b D L g . 6 g j j j j c v v c j j v K -.h.b.b.p.L v N E c.N.1.h - + - - - - @ @ @ @ * - = = - - @ + @ = - @ X   @ < p h j k x k x x z z z z j j z e O   # 1 a z k k k z d #   6 j j j j v m v 1 * v j v z z z z m v - p z z z z z z v j < y < % 6 h 6 v W W W W U U U U K W v z n.n.n.A.N.N.N.N.N.b.N.d.p W L W W W W W ~ U W U q j.N.v.N.N.n.n.N.N.h.a 6 s - - = - = X = = = = = = = = = - = - = = = = - - - - - - - - - - - - - - - 6 a j j h j j j a < p d d d d d d d d p 9 9 y y p p p a a d p p 6 2 y a d p p p p p a d e < - - e a a p p d d d d j j h h h h j j j j d d p j a < % - - - - - - - : : , , : : - - - - - - - - - - - - - - - - - - - - - - - - - $ = $ $ $ $ $ = = = = = = = = = - = = = = $ $ $ $ = = = = = $ $ $ $ @ $ $ $ $ @ @ $ $ $ $ $ $ @ @ + X             X X X X X X X . .               . . . . . .                         . . . .                 X X X       X X X X X X X . . .     X X + + @ @ @ @ @ @ @ @ @ @ @ @ ",
"@ @ + + + + @ @ @ @ @ @ @ @ @ @ $ $ @ @ $ $ $ $ $ $ $ $ = = = = - - = - = = - = = $ @ @ @ @ $ $ @ @ @ @ @ @ @ @ @ @ @ @ + + + + + + + + + + + + @ @ @ @ @ @ @ @ @ @ @ @ + + + + + + + + + + + + + + + + + + + + + + + + + + + + + + + + + + + + + + . @ - j L E U W W W ! ! ` ` ' ' ' ' ' ' X.X.' X.X.X.X.X.X.X.' :.Z y a h j 6 v D D 9.g.h.p.} L W } s.b.g.L v w.B.N F c.j j j h v D L } w.h.b.N.N.c.p.1.E B v e a L g.A.N.0.L D _ c.N._ 6   @ - - @ @ @ @ - - $ $ = = @ - - @ - = +     . . - e a v v x x z z z z z z v j q o     - r k z z j v 3   @ e j j d k v v r   u v v z z z z v v > r z z z z z z z j 6 9 < < p - j _ W W W W U U U U W W D p l.N.c.n.N.N.N.N.N.b.N.d.y U L U W W W W W P ~ G p c.N.n.N.N.n.n.B.b.b.b.j $ a - - - : - = = = = = = = = = = = = = = = = - - - - - - - - - - - - - - @ t h j h h j k j r 6 d d d d d d d d d y 9 e y y y p p a p p d 3 3 p s y y p p t e y 9 2 - - 6 a h a a p p d d d d j j d d h h j j j j j l d z j e - < : - - - < < , : , , , , - - - - - - - - - - - - - - - - - - - - - - - - = $ = $ $ $ $ $ = = - - = = = = = - = = = = $ $ $ $ = = = = = $ $ $ @ @ @ @ @ @ @ @ @ @ $ $ $ $ @ @ @ X X X     .   X X X X X X X .                 . .     . .   .                     . . . .     X X         X X   .     X X X X X X X .         X X + + @ @ @ @ @ @ @ @ @ @ @ @ ",
"@ @ @ @ + + @ @ @ @ @ @ @ @ @ @ $ @ $ $ = = = = = = = = - - - - - - - - = = = = = = = $ $ $ $ = @ @ @ @ @ @ @ @ @ @ @ @ + + + + + + + + + + + + @ @ @ @ @ @ @ @ @ @ @ @ + @ + @ + + + + + + + + + + + + + + + + + + + + + + + + + + + + + + + + + @ + . . $ 6 C L U W W W ! _ ` ` ` ' ' ' ' X.X.' ' X.X.X.X.X.X.' ' j a h h j 6 K c.} D D -.h.c.h.w.E K } c.N.0.a E C.b v N.e < s.0._ L D D B j v L p.b.A.A.b.h.s.} B h N w.A.N.s.K D -.N.w.B @ + @ @ @ @ @ @ @ @ @ @ @ = @ - 2 i p p p < @   .   - q g k x z z z z z z z z j 6   o o @ 7 r d j m r .   $ e j j j k z v - < z j z z z z z v 6 q z z z z v z z v a . 2 e - N E L W W W W W U W W ~ W W 9 2.N.c.c.N.N.N.N.N.n.N.d.y W L U W W W W W U ' v m N.N.n.N.N.N.N.b.N.h.c.c.j - h : @ @ - = = = = = = = = = = = = - - = = - - - - - - - - - - - - < < - a j j h h j k d 6 9 j d d d d d d p p y 8 y y y p p p p p a 6 < p p p y y p p y t < $ - w p h h e a p p p d d d d d d d d j h j j z l j d p p a e - < < > - < < < < , , , , , , , - : - - - - - - - - - - - - - - - - - - - - - - = = = = = = - - - - - - - - - - - - - - = = = = = = = = $ $ $ $ $ @ @ @ @ @ @ @ @ @ $ $ $ @ @ $ @ @ X X X X . . X X X X X X X .                 .       . . . . . . . .   . . .   . . . .       X X X         X         X X X X X . X .         X X @ @ @ @ @ @ @ @ @ @ @ @ @ @ ",
"@ @ @ @ + + @ @ @ @ @ @ @ @ @ @ $ $ = $ = = = = = = = = - - - - - - - - = = = = = = $ $ $ $ $ $ @ @ @ @ @ @ @ @ @ @ @ @ + + + + @ + + + + + + + @ @ @ @ @ @ @ @ @ @ @ @ + + + @ + + + + + + + + + + + + + + + + + + + + + + + + + + + + + + + + + @ @ + @ o . - j C W ! E E ! _ _ _ _ _ ' ' X.X.' ' ' X.X.X.X.X.' ~ e h h h j 6 B p.p.s.-.L E w.h.s.g.s.D D g.b.w.g D A.v B D B h L p.c.N.N.h.-.D j a h B _ h.N.b.N.N.c.L B L s.N.A.0.v N h.N.-.< + @ - @ @ @ @ @ @ @ @ : 6 h c N v s i e 6 6 < O       1 r k z z z z z v k j d < @     . - 6 y d y < $   : d v d j z m e . p v z z z z k v e 6 z z z z v z z z < y e : D E K L W T W W W W W W U P | a P N.v.N.N.N.N.N.N.n.N.d.y W L U W W W W P U #.a F B.N.n.N.N.N.N.N.V.n.h.c.c.D < p < $ - = = = $ = = = = = = = = - - = = - - - - - - - - - - - - v < < c j h h h d k d 1 e j d d d d d d y p t 3 y y y p p p p p 6 6 p e e y y p d e < @   < p d a a p e p p p p d d d d d d d d j j j j p t 6 < 6 6 6 < @ > 6 6 < < < < < , , , , , , , : : - - - - - - - - - - - - - - - - - - - - - - = = = = = = - - - - - - - - - - - - - - = = = = = = = = $ $ $ @ $ @ @ @ @ @ @ @ @ @ $ $ $ @ @ $ $ @ @ X X .     X X X X X X X                   . .     . . . . . . . . . . . .     . . .       X X X       X X     .   X X X X X . X .         X X + @ @ @ @ @ @ @ @ @ @ @ @ @ ",
"@ @ @ @ @ @ @ @ @ @ @ @ @ $ $ $ $ $ = = $ = - - - - - = = = - - = = = = - - - = = $ $ $ $ $ $ @ @ @ @ @ @ @ @ @ @ @ @ @ @ @ @ @ @ @ @ @ @ @ @ @ @ @ @ @ @ @ @ @ @ @ @ @ @ @ @ + + + + + + + + + + + + + + + + + @ @ @ @ + + + @ + + + + + + @ @ + @ + + @ @ @ @ O < x L _ E _ W E _ _ _ _ _ _ _ | | X.X.X.X.X.X.X.v e j g h j 6 D K :.h.a.s.w.L E f.c.f.h.W D 0.c.p.v D N.F < h.a.P D B D } s.N.N.N.g.-.F a p D w.c.v.g.N.b.0.D W j.A.v.D e _ N.p.a . - - @ @ @ + + + - p v j p < < < < < p D } :.| D a < O   - r a r p a j z v d -   O o     . < < - o O   ; j k k j j g   * k v v z k k v d 3 z z z z k z j < y e 1 D L L P W W W W W W W W W U U Q Z z A.n.n.N.N.v.c.l.c.c.c.j E L W W W P K P L -.q %.N.N.v.N.N.n.n.N.N.N.N.b.b.h.W < h - < < - @ & - - - - - - - - - - - - - - - - - - - - - @ p p j @ 9 a j j j j d j d 3 p h d d d d d d p j 3 y a a p p e a d < + - 6 e p y e 6 > % o   < e p p p p a h h a p p y d j a d d y 8 3 9 6 < < 6 t p a d j j e 3 - > < 1 1 : 2 < < : , , : : - - - - - - - - - - - - - - - - - - - - - - - = = = = = - - - - - - - - - - - - - - - - - = = = = = - = $ @ @ @ @ @ @ @ @ @ $ $ = $ $ $ $ $ $ $ @ @ @ @ + X . . X X X X X X X X . . . . . . . . . . . . . . . . . .             . . X X           .     X X     . . . . X X X .         . . . . X + + @ @ @ @ @ @ @ @ @ @ @ @ @ ",
"@ @ @ @ @ @ @ @ @ @ @ @ @ $ $ $ $ $ = $ $ = - - - - - = = - - - = = = = - - - = = $ $ $ $ $ $ @ @ @ @ $ @ @ @ @ @ @ @ @ @ @ @ @ @ @ @ @ @ @ @ @ @ @ @ @ @ @ @ @ @ @ @ @ @ @ @ + + + + + + + + + + + + + + + + + @ @ @ @ + + + + + + + + + + @ @ + @ + + @ @ @ @ O + @ < v L W _ E E _ _ _ _ _ _ | | | X.| | | | L e p j a g a e e.:.L X.g.h.p.p.-.F X.c.j.j.w.V | j.j.B W N.q v D.v.c.g._ h p B 1.c.N.h.b.c.2.D p v 2.N.N.v.v.h.W B 0.N.N.} e v N.b.a . @ * @ @ - + - e p 6 e D W _ 0.p.p.p.-.W W L T w.h.u.F e j V ~ ~ P D j r r ;   o . o # - - o   . @ .   - p j v x k - # p v v z k k v d 3 z z z z v z r e r q F L L P W W W W W W W W W W U U W L y d.l.c.c.N.N.c.N.v.c.h.g K W P W K F L E W W e p.v.N.v.N.N.n.n.N.N.N.N.b.b.b.h.W < h - @ - - - - - - - - - - - - - - - - - - - - - - - - p h a a @ e d j j j j d j d 3 a h d d d d d d h e 3 d d a p p y h 6 .   . + @ o o @ @ - $ o   @ < e p p a a h h a p p p p e 9 < % o @ - 3 9 e p d j j j j j d z d p 6 3 < q 2 6 2 < : , , : : : - - - - - - - - - - - - - - - - - - - - - - - = = = = - - - - - - - - - - - - - - - - - - = = = = - = $ @ @ @ @ @ @ @ @ @ $ $ $ $ $ $ $ $ $ $ @ @ @ @ + X . . X X X X X X X X . . . . . . . . . . . . .   . . . .             . . X X                 X X X   . . .   X X X . X       . . . . X + + @ @ @ @ @ @ @ @ @ @ @ @ @ ",
"@ @ @ @ @ @ @ @ @ @ @ @ @ @ $ $ $ $ $ $ $ $ - - - - = = = = - - = - = - - - - = - - - - = = $ @ $ $ $ $ @ @ @ @ @ @ @ @ @ @ @ @ @ @ @ @ @ @ @ @ @ @ @ @ @ @ @ @ @ @ @ @ @ @ @ + + + + + + + + + + + + + + + + + + @ + + + + + + + + + + + + + + @ + + + @ @ @ @ + + + + @ 6 B W W T E _ _ _ _ _ | | | | | ~ _ _ j q a g a a u a u.w.2.L | p.p.a.c.p.P W p.s.g.a.L P c.h.V P X.j L p.N.c.b.N.s.L v B ~ p.N.v.b.v.c.X.p j 2.A.N.c.A.p.j v s.S.h.v u w.b.j - @ * @ +   @ 6 j S W E E L K D K L -.g.c.p.~ D B K a.N.a.T Z D W t.j.t.| k 7 % @ % > < < - - > < ; - O # 1 u x g < . < v x z k z v d 3 z z z z k r d a r G ~ U P U W W W W W W W W W W W U U Q a :.V.c.l.p.| F b b v j 1 e p x B F P L W ~ D j v.c.v.N.N.N.n.n.N.N.N.N.N.b.b.b.A.L - j - @ - - - - - - - - - - - - - - - - - - - - - - e j h v e @ p j j j j j j j a 3 h d d d d d d d y 6 e e p p y e r 6 @ - @ @ + . o $ - - 6 < % o   . @ - 6 6 6 e 6 6 < < - o     % > w d j d j z j j j j j j j j z z z d a 1 > 3 8 2 < , < < < < , - - - - - - - - - - - - - - - - - - - - - - - = = = - - - - - - - - - - - - - - - - - - - - - - - - - = $ $ $ $ $ $ @ @ $ $ $ $ $ = = = = = $ $ $ $ $ @ X X . X X X X X X X X     . . . . . . . .     . . . . . .     X X     .   X X     . .     .   X X     .       X X X . X       . . X X X + @ @ @ @ @ @ @ @ @ @ @ @ @ @ ",
"@ @ @ @ @ @ @ @ @ @ @ @ @ @ $ $ $ $ $ $ $ $ = - - - = = = = - - - - = - - - - = - - - - = = $ $ $ $ $ $ @ @ @ @ @ @ @ @ @ @ @ @ @ @ @ @ @ @ @ @ @ @ @ @ @ @ @ @ @ @ @ @ @ @ @ + @ + + + + + + + + + + + + + + + + + + + + + + + + + + + + + + + + + + + @ @ @ @ @ @ * -   @ - p D W T E _ _ _ _ ~ | | | ~ ~ ~ ~ < j p e p a e j | w.p.p.0.~ :.h.p.a.f.X.D 0.j.c.x.F N j.c.W a ~ P a B w.b.c.c.N.N.p.L v N :.c.N.c.N.j.L e b p.N.h.N.v.D e 1.A.N._ e _ A.N - @ - 6 h D W _ W _ p.h.c.N.A.g.s.0._ P 1.h.N.f.E v p D a.V.j.,.Z m P d.V.c.#.V r # o # ; ; % # - ; # # # @ < e - O @ v x z k z v d 6 z z z z 6 y j b V ! Q ! U W W W W W W W W W W W W U U W v F w.b a < o . . O + . . O # # @ ; e j L ~ N B v.c.c.N.N.N.n.n.N.N.N.n.N.b.N.b.h.b.D - e + . - - - - - - - - - - - - - - - - - - - - - h j j j 6 @ a z j j j j j j a 3 h d d d d d d d e % 9 9 9 9 6 6 > $ < < < < < > < < < 2 < < 3 3 < @   . . . + @ o .       . < p d d j z j p d z a a s s j j j j j j h j a j 1 - 2 2 2 < < < < < < , : - - - - - - - - - - - - - - - - - - - - - = = = - - - - - - - - - - - - - - - - - - - - - - - - - = $ $ $ $ $ $ @ @ $ $ $ $ $ = = = = = $ $ $ $ $ @ @ X X X X X X X X X X         . . . . . . . . . .     . .       X         X X     . .       X X X             X X X . X       . . X X X + @ @ @ @ @ @ @ @ @ @ @ @ @ @ ",
"@ @ @ @ @ @ @ @ @ @ $ $ @ @ @ $ $ $ = = = = - - - - = = = = - - - - - - - - - - - - - - - - = = = = = = $ $ $ $ @ @ @ @ @ @ @ @ @ @ @ @ @ @ @ @ @ @ @ @ @ @ @ @ @ @ @ @ + + + + + + @ + @ @ + + + + + + + + + + + + + + + + + + @ @ + + + + + + + + + + @ @ @ @ + + + + @ @ @ @ < v E W L E _ E ~ _ | | | U ~ r p a p p p j < ~ P W f.p.h.0.L %.h.h.p.f.w.L 1.f.p.j.F K c.B.B j A.a.D k F w.b.c.c.c.b.a.} v j :.c.c.j.N.b.F e | C.j.N.N.~ 6 B v.A.0.j | v.D - E D D D L -.c.S.A.N.b.c.c.c.N.N.N.j.w.E L 0.v.A.a.B a j %.N.D.c.E B D 2.N.A.j.| V 1 @ - < @ < < # < < - O . . . . < j k x z z v 6 d v z q y p Z N.! v ' ~ W W W W W W W W U U Q P L W H F e < @ O # # # # # # # # # # # # * # # # 6 N g 0.v.c.B.c.N.N.n.n.N.N.N.N.N.b.b.N.b.h.D a < a . + ; ; - - - - - - - - - - - - < < - - < p j j j j - - j d j j j j j d r 6 h h h h h h d y - o @ @   . . @ - - < < < < < < < < < < 2 2 2 2 < < < < - - - - . . + @ - 9 a p a a a a h h j j j j j j j j j j k j j j j k a < > 2 3 3 2 2 2 2 < < < < - - - - - - < < < < < < , : - - - - - - - - - - - - - - - - - - - - - - - - - - - - - - - - - - - = = = $ $ $ $ $ $ = = = = = = - - = = = = = = - @ @ + X X X X X X X X     X X . . . . .       . .     . .                     X X X X . X X X         X       X X X X X X X   X X X X X + + @ @ @ @ @ @ @ @ @ @ @ @ @ ",
"@ @ @ @ @ @ @ @ @ @ $ $ @ @ @ $ $ $ = = = = - - - - = = = = - - - - - - - - - - - - - - - - = = = = = = $ $ $ $ @ @ @ @ @ @ @ @ @ @ @ @ @ @ @ @ @ @ @ @ @ @ @ @ @ @ @ @ + + + + + + + + + + + + + + + + + + + + + + + + + + + + @ @ + + @ + + @ + + + + @ @ @ @ + + + + @ @ @ @ + - e K E W W _ ~ ~ ~ _ W W D 6 a p p p a q j p.p.L D w.s.a.h.P L u.h.a.j.s.K | p.s.j.L F h.g.a 1.c.c.a.F j F a.b.j.h.c.C.h.~ a a :.D.N.v.N.w.e p b.j.f.N.c.p a f.A.c.K 1.A.e g p.w.g.c.b.b.b.b.c.b.N.N.N.N.N.b.c.N.N.h.E N D h.D.N.:.v b L g.F.B.s.W L | h.A.c.a.Q B a e - * 1 - ; ; - - - - - - e j k k k z 6 6 v 9 a d Z j.c.N.W b X.W W W W W W W W ! P W U P P k > O O @ @ @ @ # # # # # # # # # # * # # # O @ * K h.b.l.N.N.N.N.n.N.N.N.N.N.b.N.A.b.B D E e 6 a + * ; ; - - - - - - - , , < < < < - - e h j j j j - % j d j j j j j d r 6 h h h h h h p 9 @ . . . . @ - - < < < < < < < < < < < < 2 2 < < < < < < < < < < % . . - e r y p a a a a h h h h j j j j j j j j k k j j k k j y < 2 6 6 2 2 2 2 1 < < < < < < < < < < < < < < < < < , : - : : - - - - - - - - - : : - - - - - - - - - - - - - - - - - - - = = = $ $ $ $ $ $ = = = = = = - - = - - - - - - - @ @ + X X X X X X X     X X . . . . . .     . .     . .     . .             X X X X X X . X . .     X X     X X X X X X     X X X X X + + + @ @ @ @ @ @ @ @ @ @ @ @ ",
"@ @ @ @ @ @ @ @ @ @ $ $ @ @ @ @ $ $ = = = = - - = = = = = = = = = = - - - - - - - - - - - - = = = = $ $ @ $ @ @ @ @ @ @ @ @ @ @ @ @ @ @ @ @ @ @ @ @ @ @ @ @ @ @ @ @ @ @ + + + + + @ @ @ + + + + + + + + + + + + @ @ @ @ + + + + + + + + @ @ @ @ + + + + @ @ @ @ + + + + @ @ @ @ .   + < v L W L W T ~ ~ L E q r p p p p j 1 q | w.p.W D 2.p.u.p.~ F u.a.w.c.s.T W p.p.h.L D c.B 1 a.c.h.v.h.P V L a.N.c.g.h.v.j.W p j p.N.j.j.v.v u g.N.c.A.A.D e p.B.b.D %.c.# E N.c.b.c.c.b.N.b.g.} L / -.s.h.b.N.N.N.A.b.~ j F p.F.A.f.W x F p.A.F.g._ L | c.c.v.j.} P D p * < - - < , < < , @ 1 a k j j z 6 q r r a D l.c.c.c.c.D m W W W ~ W W W W H H U P B 6 @ % @ @ % - - - * @ @ @ @ @ @ @ # * - - @ @ * - * + q } N.n.N.N.n.n.N.N.N.N.N.b.N.N.W D E W W 6 6 e - * ; ; - - ; ; ; - < < < < < < < < a j j j j j - % j d j j j j j d r 6 h h h h h h y < @ % @ $ - - < < < < < < < < < < < < < < < 2 < < < < < < < < < < 6 - . . % 9 a p a a a a h h h h j j j j j j j j k j k k j j d j < 2 6 6 2 2 2 2 < < < < < < < < < < < < 4 < 6 6 2 2 < < < < < < < , , , , , : : , , : : - - - - - - : : - - - - - - - - - - - - - - - - = = = = - - - - - - - - - - - - - - - @ @ + X X X X X X   X X X . . . . . .     . . . . . .     . . . . X X X X   X             . . . . . X     X X X X .       X X + + + + + + @ @ @ @ @ @ @ @ @ @ @ @ ",
"@ @ @ @ @ @ @ @ @ @ $ $ @ @ @ @ $ $ = = = = - = = = = = = = = = = = = = - - - - - - - - - - = = = = $ $ @ @ @ @ @ @ @ @ @ @ @ @ @ @ @ @ @ @ @ @ @ @ @ @ @ @ @ @ @ @ @ @ @ + + + + + @ @ + + + + + + + + + + + + @ @ @ @ + + + + + + + + @ @ @ @ + + + + @ @ @ @ + + + + @ @ @ @ @ @ + + @ a D W U W W E ~ a < g p p p g < j U 6 W e.e.| b w.h.w.h.| F w.h.u.h.j.W V u.h.j.D N U 6 p ~ b.f.g.N.h.~ b D j.A.h.f.c.N.h.D e L A.b.c.N.W a e.B.j.v.A.:.e } N.h.D 0.| - s.S.N.N.A.N.g.W L E 1.0.9.<.-.T a.N.N.c.N.N.h.%.j a -.N.B.c.2.W T e.N.S.v.1.P %.N.C.h.e.~ ~ %.a < - < ; ; ; ; ; # 6 j j j z 6 # 9 j v c.c.N.c.l.V.v.H P W ~ ~ W W W W H P H d % o - @ $ % - : * * @ @ @ @ @ @ @ @ @ * - - @ @ - @ - - # @ k d.N.N.n.n.N.N.N.N.N.b.N.-.B _ K K W E 6 e 6 - * ; - - ; ; ; - < < < < < < < < v v j j j j - % j j j j j j j d r 6 h h h h d p 9 3 3 3 < < < < < < < < < < < < < < < < < < < < < < < < < < < < < < 6 < - . . % < e a a a a h h h h j j j j j j j j j j k j j a j v < 2 6 6 2 2 2 2 < < < < < < < < < < 6 6 6 6 6 6 6 5 2 < < < < < < < < < < , , , , , , : : - - : : : , , : : - - - - - - - - - - - - - - = = = = - - - - - - - - - - - - - - - - $ @ + X X           X X . . . . .       . . . . . .     . . . . X X X X           . . . . . . . .       X X X X .       X X + + + + + + @ @ @ @ @ @ @ @ @ @ @ @ ",
"@ @ $ @ @ @ @ @ @ @ @ @ @ @ = $ $ $ - - - - - - - - - - - - - - = = - - - - - - - - - - = = = = $ $ @ @ $ $ $ $ @ @ @ @ @ @ @ @ @ @ @ @ @ @ @ @ @ @ @ @ @ @ @ @ @ @ @ @ @ @ @ @ + + @ @ + + + + @ + + + + + + + @ @ @ @ @ @ @ @ @ @ @ @ @ @ @ @ @ @ @ @ @ @ @ @ @ @ @ @ @ @ @ @ @ @ @ @ @ + < B P P L W D , u g p g j e e a | _ < F p.f.-.B | g.e.a.1.V 0.h.p.h.j.~ r ~ b.a.U @ x 0.6 k s.c.g.f.N.h.B a P c.A.j.h.c.v.p.e a j.N.j.N.a.h T C.v.h.A.p.j | C.j.k w.v < L 1.g.0.B D g.b.S.A.N.N.N.N.s.| U w.N.N.g.c.B.b.~ e x w.N.A.A.h.W | w.N.S.j.X.K p.c.h.c.K ~ h.| e - ; < ; # - @ @ 6 k g x 6 - k u w.N.N.N.N.v.v.v.v.D L W W U U P P L H y @ % % % % % % % % # @ @ @ @ @ @ @ @ # # * = = $ @ * * - - - - # < } N.n.b.n.n.n.n.b.b.-.B W W W W T _ D q e 6 # < < - < 6 < < < < < < < 6 < 9 z h j j j j > > j j j j j j j z e 6 a a a h a a 6 6 < < < < < < < < : < < < < < < < < < < 2 2 2 < < < < < < < < < < < < < < < - +   - - 6 6 < 6 6 e e y y p e d j p j j j j j j j k < 2 6 6 5 5 5 5 6 < < < < < 6 6 6 6 6 6 6 6 6 6 6 5 5 2 < < < < < < < < < < , , , , : : - - : , : : , , , , , , - - - - - - - - - - - - - - - - - - - - - - - - - - - - - - - - = @ @ X . . . .         . . X X         . .     X X X X X X X X X X X X X X X X X X X X X X X X X X X X X X X X X X X X X X + + + + + + + + @ @ @ @ @ @ @ @ @ @ ",
"@ @ $ $ @ @ @ @ @ @ @ @ @ @ = = $ $ - - - - - - - - - - - - - - = = - - - - - - - - - - - = = = $ $ @ @ $ $ = $ @ @ @ @ @ @ @ @ @ @ @ @ @ @ @ @ @ @ @ @ $ $ @ @ @ @ @ @ @ @ @ @ + @ @ @ + + + + @ + + + + + + + @ @ @ @ @ @ @ @ @ @ @ @ @ @ @ @ @ @ @ @ @ @ @ @ @ @ @ @ @ @ @ @ @ @ @ @ # . + - j F P V ; e j u a p p e _ L 6 F | q v w.u.-.b :.f.w.h.1.D 1.v.p.w.c.T e T v.h.D < h.s.N e L c.N.f.v.N.p.b j %.N.C.h.f.c.v.b 6 w.c.c.b.c.p B A.c.j.N.g.v B v.h.j -.< e v j v } b.N.N.b.b.b.N.N.N.N.N.h.~ W w.B.N.j.N.C.b.E v L f.C.A.N.p.| T p.C.A.2.V %.v.c.v.-.K b.a.D < # - < - < - O < a a q a e 0.c.N.n.N.N.N.N.N.N.h.j P ~ P U W H H 3 o @ % % % % $ $ % % @ @ # @ @ @ @ @ @ @ - * $ = @ @ * * * - - - - - - K N.h.v.v.v.v.A.0.v _ W W W W T T W B 1 a - - < < < < < < < < 6 6 < - - e j h j j j j 1 < j j j j j j j k e 3 h g a a h p - < < < < < < < < < : < < < < < < < < < 2 2 2 2 < < < < < < < < < < < < < < 6 6 < -   .       . . .         .   @ 6 t t t t p a j v < 2 6 6 5 5 5 5 6 < 3 6 < < 6 6 6 6 6 6 6 6 6 6 6 5 5 2 2 < < < < < < < < < , , , , : : - - : : : : : : : , , , - - - - - - - - - - - - - - - - - - - - - - - - - - - - - - - - - $ @ + X       X       . X X X .       . . X   X X X X X X X X X X X X X X X X X X X X X X X X X X X X X X X X X X X X X X X X + + + + + + @ @ @ @ @ @ @ @ @ @ ",
"@ $ $ = $ $ = $ = $ $ $ $ $ = = = = - - = = - - - - - - - - - - = - - - - - - - - - - - = = = = $ $ @ @ $ $ = = @ @ $ @ @ @ @ @ @ @ @ @ @ @ @ @ @ @ $ $ $ $ $ $ @ $ @ @ @ @ @ @ + + @ @ + + + + + + + + + + @ @ @ @ @ @ @ @ @ @ @ @ @ @ @ @ @ @ @ @ @ @ @ @ @ @ @ @ @ @ @ @ @ @ @ @ @ @ @ + + + # u N 6 6 g a p p a q v w.:._ 1 V 1.6 v w.0.-.v :.h.w.a.w.N W c.a.e.a.w.v V j.c.u P f.a.2.u r -.N.h.a.f.b.1.r j h.A.c.j.h.A.~ j 0.b.h.c.N.a v N.c.h.N.h.a v S.:.v N v A.c.c.A.b.N.N.N.N.N.N.N.b.v.N.A.B.g.D F p.B.v.N.N.c.N.:.v ~ c.N.N.N.p.P :.N.D.N.%.W j.c.N.-.E h.A.a.r # < - - - @   @ 7 j p K F.v.N.N.N.N.N.N.N.N.v.p.j U W L W F < @ - @ $ $ $ $ $ $ $ $ = = - = $ $ $ $ = = = = = = $ $ = = = = - - - - - + K N.c.c.c.c.g.v W / T W W W W T W L v < r * , < < < < < < < < 3 < @ o e j h j j j j 6 3 j d j j j j j j 7 > a p e e p - < - < 6 6 6 < < < < : < < < < < < < < < < < 2 2 2 < < < < < < < < < < < < < < 3 < < + +   .     o @ > > < 2 < 2 2 < 2 2 2 2 6 < < e < 2 6 6 5 5 5 5 6 6 6 6 < < 6 6 6 6 6 6 6 6 6 6 6 6 5 5 2 2 2 < < < < < < < , , , , : : : : : : : : : : : : , , : : - - - - - - - - - - - - - - - - - - - - - - - - - - - - - - - = @ + X       X X     . . X X .           . . X X X X X X X X X X X X X X X X X X X X X X X X X X X X X X X X X X X X X X + + + + @ @ @ @ @ @ @ @ @ @ @ @ @ @ ",
"@ @ $ = = = - = = $ $ $ $ $ = = = = - - = = - - - - - - - - - - = = - - - - - - - = = = = = = = $ $ @ @ $ $ $ = $ $ $ @ @ @ @ @ @ @ @ @ @ @ @ @ @ @ $ $ = $ = $ $ $ @ @ @ + + + + + @ @ + + + + + + + + + + + @ @ @ @ @ @ @ @ @ @ @ @ @ @ @ @ @ @ @ @ @ @ @ @ @ @ @ @ @ @ @ @ @ @ @ @ + @ @ * *   *   - e e e r h 6 x K P 0.0.| 1 j u.a r 1.a.%.v :.f.e.f.u.F B s.j.s.u.a.v b v.j j v.w.c.c.P 6 b j.v.h.h.N.v.B q ~ N.j.c.j.B.h.D 0.v.c.c.N.v a c.c.v.b.N.k k B.-.N p -.N.b.b.b.b.b.N.A.N.N.N.N.N.v.N.C.b.A.w.N D e.B.v.j.N.A.n.K B w.N.b.N.N.w.~ c.A.A.:.| N.N.b.W D A B r @ - 1 1 6 u q # r g D v.j.c.N.N.N.N.N.N.N.N.N.n.2.j L P D % O # @ % $ $ $ $ $ $ $ $ - = = = $ $ $ $ = = = = = $ $ $ = = = $ @ @ - - - - o D c.c.c.c.v K / L W W W W P T T L W e 6 r @ < 6 6 < < < < - < < -   e h d j j j j 9 6 k d j j j j j k 6 - ; - @ . @ - 6 6 6 6 6 6 < < < < : < < < < < < < < < < < 2 2 2 < < < < < < < < < < < < < , < < 6 - @ . . @ - 6 e d d j z j l j d j j j j j v e < < 2 6 6 5 5 5 5 6 6 6 6 < < 6 6 6 6 6 6 6 6 6 6 6 6 5 5 2 2 2 < < < < < , , , , , , : : : : : : : : : : - - : : : : : - - - - - - - - - - - - - - - - - - - - - - - - - - - - - - - $ @ X .     X X       . X X . .             X X X X X X X X X X X X X X X X X X X X X X X X X X X X X X X X X X X X X X + + + + @ @ + @ @ @ @ @ @ @ @ @ @ @ ",
"$ $ = = - - - - = = $ = = = = = = = = = = = - - - - - - - - - - = - - - - - - = - - - = = = $ $ @ $ @ @ @ @ @ @ @ @ @ @ @ + + + @ @ @ @ @ @ @ @ @ @ $ = = = = = = $ $ @ @ + + + @ @ @ @ @ @ @ @ + @ + + + + @ @ @ @ @ @ @ @ @ @ @ @ @ @ @ @ @ @ @ @ @ @ @ @ @ @ @ @ @ @ @ @ @ @ @ @ @ @ @ @ @ @ @ + O O - 6 u a - j 2.%.F L :.2.1.e a u.k u %.p.1.v W h.e.a.h.W j _ c.w.s.e.v D D O | h.p.a.N.f.v q X.N.j.j.c.N.0.r B v.j.h.b.b.N.W | N.c.h.N.K g a.N.b.b.B.v v D._ h K N.g.c.b.b.b.b.b.b.N.N.N.N.N.N.N.N.N.N.b.~ j B c.N.b.c.c.C.h.W ~ b.N.v.N.j.~ 1.c.B.j.P v a p p u u p v D L V F L B e j b v.v.N.n.N.N.N.N.N.N.N.N.v.v.j.X.k U - . % % % % % % $ $ - - = = - - = $ $ @ $ $ - = = $ $ @ @ @ $ @ @ $ * - # @ @ @ @ @ K b.b.D K W W W W W W W U W W W P H 1 p < - 6 6 6 < 6 e - p v -   y j z k k k k p 1 j j j j j j j j 6 o . . . O - < 6 6 6 6 6 6 < < < < < < < < < 2 2 2 2 2 2 2 3 3 < < < < < < 6 6 6 6 6 6 6 3 < < < < < - + . e a a y j h d d h h h h j j j j j j j j 6 - 6 6 6 6 6 6 6 6 6 6 6 6 6 6 6 6 6 6 6 6 6 6 8 6 5 2 5 2 < < < < < < , < , , , , : : : : , , - - - - - - - : : : - - - - - - - - - - - - - - - - - - - - - - - - - - - - - - - - - @ @ +       X . .                   X X X X X X X X X X X X X X X X X X X X X X X X X X X X X X X X X X X X X X + + + + + + + + + + + @ @ @ @ @ @ @ @ @ @ ",
"= = = = - - - - - - = = = = = = $ = = = = = - - - - - - - - - - = - = - - - - = - = = $ = = $ $ @ $ @ @ @ @ @ @ @ @ @ @ @ + + + @ @ @ @ @ @ @ @ @ @ $ = = = = = = $ $ @ @ @ @ @ @ @ @ @ @ @ @ @ @ @ + + + + @ @ @ @ @ @ @ @ @ @ @ @ @ @ @ @ @ @ @ @ @ @ @ @ @ @ @ @ @ @ @ @ @ @ @ @ @ @ @ @ @ @ @ @ O O   # 1 q g D W 0.| F V :.:.1.v q p.B q X.e.X.v | p.w.s.p.%.B D a.a.p.p.W < v a B a.e.a.h.N.~ u F h.j.f.N.C.j.v V c.c.j.v.v.v.} | N.N.c.N.:.x e.A.f.b.A.F L A.K v s.b.N.N.N.N.A.A.A.A.N.N.N.N.N.N.N.N.N.N.A.h.D g W N.A.j.j.N.A.w.D 1.v.b.c.v.X.X.N.L | j.N.B.A.S.D.C.N.A.C.v.N.c.D j j w.v.v.N.N.N.N.N.N.N.N.N.N.N.c.N.B.U < % - % % % % % % $ $ - - - - - - = = $ @ $ $ = = = $ $ @ @ @ $ @ $ $ # @ # @ @ @ @ @ @ 0.~ v W W W W W W W W W W W W P W B ; p + ; q < 6 < < e h v -   r j z k k k k j > j j j j j j z j 6   . O # * < < < < 6 6 6 6 < < < < < < < < 2 2 2 2 2 2 2 2 3 3 < < < < < < < < 6 6 6 < < 6 < < < < < < - + - 6 p j d a p a h h j j j j j j j j j j j 6 - 6 6 6 6 6 < 4 < < 6 6 6 6 6 6 6 6 6 6 6 6 8 6 5 2 5 2 2 < < < < < , , , , : : : : : , , , - - - - - - - - : : - - - - - - - - - - - - - - - - - - - - - - - - - - - - - - - - - @ @ @ +         .                       X X X X X X X X X X X X X X X X X X X X X X X X X X X X X X X X X X X X + + + + + + + + + + + @ @ @ @ @ @ @ @ @ @ ",
"- - - - - - - - - - - - - - - - $ = = = - - - - - - - - - - - - = = = = - - - = - - - - = = = = @ @ $ $ $ $ @ @ @ @ @ @ @ + + + @ @ @ @ @ @ $ $ $ $ = = = = = = - - = = $ $ $ $ @ @ @ @ @ @ @ @ @ @ @ @ + + + @ @ @ @ @ @ @ @ @ @ @ @ @ @ @ @ @ @ @ @ @ @ @ @ @ @ @ @ @ @ @ @ @ @ @ @ @ @ @ @ @ @ # @ O     @ < P W V ~ %.} F V X.1.0.x e w.W 1 | p.E k } p.w.e.h.f.L v 3.f.s.e.L p 0.6 V x.s.a.a.N.f.D j 0.c.h.h.c.c.T N c.c.h.c.C.v.W P c.v.j.A.e.v :.N.x.j.v.} } N.j < B K -.-.-.<.1.E 1.h.N.N.N.N.N.N.N.N.N.j.v.D.a.B u X.N.N.c.N.N.N.~ _ j.N.N.c.A.0.g :.:.~ T P L W L P ~ 1.0.e.| h a L C.N.N.N.N.N.N.N.N.N.N.N.N.N.v.v.N.G   % # % % % % % % $ $ - - - - - - - - $ $ = = = = = $ $ @ @ @ $ $ $ $ @ @ @ @ @ @ @ @ - ; k L W W W W W W W W W W W W W U W e q q # 1 6 6 - < j h k <   e j j k j j j z < p j j j j j j j 6 o - - ; ; < < < < 6 6 6 6 3 3 < < 2 2 < < < < 3 3 2 < 2 2 3 3 < < < < < < < < < 6 6 < < < < < < < < < < - . + 2 d a a h d h h j j j j j j j j j j j v e < 6 6 6 6 < < < < 6 3 6 6 6 6 6 6 6 6 6 6 8 8 6 5 2 2 < 2 2 < < < < , < < , , , : : : , , : : - - - - - - - - - - - - - - - - - - - - - - - - - - - - - - - - - - - - - - - - - - $ @ @ X X                       . X X X X X X X X X X X X X X X X X X X X X X X X X X X X X X X X X X X X X X X + + @ @ + + + + + + @ @ @ @ @ @ @ @ @ @ ",
"- - - - - - - - - - - - = - - - = = - - - - - - - - - - - - - - - - = = - - - = - - - - = = = = @ @ $ $ $ @ @ @ @ @ @ @ @ + + + @ @ @ @ @ @ $ $ $ $ = = = = = = - - = = = = = $ @ @ @ @ @ @ @ @ @ @ @ @ + + + + @ @ @ @ @ @ @ @ @ @ @ @ @ @ @ @ @ @ @ @ @ @ @ @ @ @ @ @ @ @ @ @ @ @ @ @ @ @ @ @ @ @ # @ O .   @ ; b W B L %.0.K v X.w.0.F q -.E e E g.P p 1.g.e.w.s.p.:.b K a.s.e.u 2.X.< x f.g.h.s.h.v.0.j D j.c.p.j.N.w.K p.v.h.j.n.N.L D c.N.c.N.a.h W C.j.c.N.W E 1.- W D v v v N N B N v h | s.N.N.N.N.N.N.N.c.c.C.A.-.p V b.N.v.c.c.N.w.L 0.N.N.A.W j T K T ~ ~ ~ _ W W | | | P p v v c.N.N.N.N.N.N.N.N.N.N.N.N.N.c.N.c.e.- % # - % % % % % % $ $ - - - - - - - - $ $ = = = = = $ @ @ @ @ $ $ $ $ @ @ @ @ @ @ @ @ ; . e L W W W W W W W W W W W W U K W K < e < - 6 6 - a h a j 6   e z j z j j j z 6 6 z j j j j p d q % ; ; ; ; < < < < 6 6 6 6 3 3 < < 2 2 < < < < 3 3 2 2 2 2 3 3 < < < < < < < < < 6 6 < < < < < < < < < < < < .   % 6 r h d h h j j j j j j j j j j c v v e 6 6 6 6 < < < < < < 6 6 6 6 6 6 6 6 6 6 8 8 6 5 2 < < 2 2 < < < < < < < , , , : : : , , : : - - - - - - - - - - - - - - - - - - - - - - - - - - - - - - - - - - - - - - - - - - = $ @ @ X X             X X . . . X X X X X X X X X X X X X X X X X X X X X X X X X X X X X X X X X X X X X X X + + @ @ + + + + + + @ @ @ @ @ @ @ @ @ @ ",
"- - - - - - - - - - - - - - - - - - - - - - - - - - - - - - - - - - - - = - - - - - = = = = = = $ $ @ @ @ @ $ $ @ @ @ @ @ @ @ @ @ @ @ @ $ $ = = $ $ = = - - = = = = - - - = = @ @ @ @ @ @ @ @ @ @ @ @ @ @ @ @ @ @ @ @ @ @ @ @ @ @ @ @ @ @ @ @ @ @ @ @ @ @ @ @ @ @ @ @ @ @ @ @ @ @ @ @ @ @ @ # # @ @ @ @ @ @ + + . @ e N j K | :.W v L w.w.K e T _ < K u._ a %.p.p.e.e.h.p.L V 0.c.e N c.0.p e a.h.h.g.j.c.a.b v p.v.c.h.j.s.L a.N.j.v.g.v.D F b.v.j.N.x.N D v.b.c.c.b | x v F.N.C.N.N.S.N.N.j.w.K K -.v.A.c.c.c.N.N.N.v.N.B.v.X.x ~ A.A.b.c.C.v.P :.A.N.K :.F.N.N.N.N.N.N.N.B.B.v.A.P v 6 W B.b.N.N.N.N.N.N.N.N.N.N.N.v.N.c.c.p - - * # # * - - - * # # - - - - = - - - = = = = - - - = @ @ @ @ @ @ @ @ @ @ @ @ @ @ @ @ - * + N W T W W W W W W W W W W W U U U v < a - 6 < 1 g h j g e   < v j k k k k h a q v j j k k a d < $ - - < < < < < < 6 6 6 6 6 1 1 1 2 2 2 2 2 2 2 < < < 2 2 2 2 2 < < < < < < < < < < < < < < < < 6 < < < < 6 -   +   + > 6 y a j j d d j j j j j j j j j z e < 6 6 < < < < < < < 6 6 6 6 6 6 6 6 6 6 6 6 6 < < < 6 3 < < < < < < < , , , , : - - : : : : : : : : : - - : : - - - - - - : : - - - - : : : - - - - - - - - - - - - - - - - - - - # @ + + . . . . . . X X X X .       X X X X X X X X X X X X X X X X X X X X X X X X X X X X X X X X X X X X X X + + + @ @ @ @ @ @ @ @ @ @ @ @ @ @ @ ",
"- - - - = - - - - - - - - - - - = = - - - - - - - - - - - - - - - - - - = = - - - - = = = = = = $ $ @ @ @ @ $ $ @ @ @ @ @ @ @ @ @ @ @ @ $ $ = = $ $ = = - - = - = = - - - = = $ @ @ @ @ @ @ @ @ @ @ @ @ @ @ @ @ @ @ @ @ @ @ @ @ @ @ @ @ @ @ @ @ @ @ @ @ @ @ @ @ @ @ @ @ @ @ @ @ @ @ @ @ @ @ # # @ @ @ @ - @ @ + @ @ . - q 1 v ~ } | B L :.1.~ 6 K 1.< L p.%.v ~ g.w.s.a.a.a.| g F j O W c.p.b u u.c.h.j.a.h.j.K e 1.N.h.c.v.h.D w.n.g.c.v.N.~ F N.c.j.n.v.V D c.j.v.h.v F e p.j.c.h.h.j.c.N.B.N.N.c.:.K 2.B.N.c.b.v.N.N.N.N.N.B.a.F v s.N.N.c.A.S.T T F.L ~ C.v.v.v.v.v.v.v.v.n.n.w.h h e h.c.v.N.N.N.N.N.N.N.N.N.N.N.v.c.A.:.. - - - # # - - - - # # # - - - - = - - - = = = = - - - - = = = = @ @ @ @ @ @ @ @ @ @ @ @ @ - + 6 L W W P W W W W W W W W W U U U P < p 1 - < p k j j j j . ; v j k k k k h j 9 j j j k k d d < - - < < < < < < < 6 6 6 6 6 1 1 1 2 2 < < 2 2 2 < < < 2 2 2 2 < < < < < < < < < 3 < < < < < < 6 6 < < < < 6 - . . + +   . o ; 6 e a d j j j j j j j j j j p < 6 6 < < < < < < < 6 6 6 6 6 6 6 6 6 6 6 6 6 4 < < 6 4 < < < < < < < , , , , : - - - : : : : : - : : - - : : : - - - - - : : - - - - : : : : - - - - - - - - - - - - - - - - - - - # @ + . . . . . . X X . . . .     X X X X X X X X X X X X X X X X X X X X X X X X X X X X X X X X X X X X X X + + + + @ @ @ @ @ @ @ @ @ @ @ @ @ @ ",
"= = - - = = = = - = = = = = - - = = = = - - - - - - - - - - - - - - - - = = = = - - - - - - = = $ $ $ $ @ @ @ $ @ @ @ @ @ @ @ @ @ @ @ @ $ $ = = = = = = - - - - - - - - = = = = $ @ @ @ @ @ @ @ @ @ @ @ @ @ @ @ @ @ @ @ @ @ @ @ @ @ @ @ @ @ @ @ @ @ @ @ @ @ @ @ @ @ @ @ @ @ @ @ @ @ @ @ @ @ @ @ @ @ # - - - @ @ + - + + . < < 6 p B L B F :.:.~ q B %.a V h.0.j F p.w.w.e.h.h.e.x . e r L h.s.~ B :.h.f.c.a.g.c.%.e :.c.h.j.c.w.a 2.b.a.c.j.b.%.T c.j.v.c.v.} K h.b.c.p.j p N C.j.c.v.v.N.v.c.v.N.v.C.b.1.T e.A.N.N.b.v.N.N.N.N.A.C.w.D 1.c.v.c.N.S.P W :.L v.h.n.v.v.v.n.v.v.v.v.v x e X.N.c.x.N.N.N.N.N.N.N.N.N.N.v.v.c.b.j . - - # # * - - - - - @ @ - - - - = = - - - - = = - - - - - - - - - - @ @ @ @ @ @ @ # # @ + @ @ - b W W P W W W W W W W W U U U U T v ; p O   < e v x v x O - k x k k k k j x e p j k k j j p > - < < < < < < < < 6 6 6 6 6 6 1 1 < < < < 2 2 3 2 < < < < < < < < < < < < < < < 6 6 < < < < < 6 6 < < < < < - +   @ +           O < 7 p a j j j j j j j j h < < < < < < < < < < 6 6 6 6 6 6 6 6 6 6 6 6 6 6 < < < < < < < < < < < < < , , : - - - - - : : - - - - - - : : : : - - - - : : : : : , , , , : , , : : - - - - - - - - - - - - - - - - @ + + . . . . .     . . . . X X X X X X X X X X X X X X X X X X X X X X X X X X X X X X X X X X X X X X + + + + + + @ @ @ @ @ @ @ @ @ @ @ @ @ @ ",
"= = = = = $ = = $ $ $ $ = = = - = = = = - - - - - - - - - - - - - - - - = = = = - - - - - - = = $ $ $ $ @ @ @ $ @ @ @ @ @ @ @ @ @ @ @ @ $ $ = = $ $ $ $ = - - - - - - - - = = = $ @ @ @ @ @ @ @ @ @ @ @ @ @ @ @ @ @ @ @ @ @ @ @ @ @ @ @ @ @ @ @ @ @ @ @ @ @ @ @ @ @ @ @ @ @ @ @ @ @ @ @ @ @ @ @ @ @ - - - - - @ @ . - - # # - < - - 6 p e v :.w.X.a B 1.p v f.2.v v | a.w.w.w.u.h.D g ~ < W c.c.f.D W h.j.a.h.p.c.a.v } N.p.a.j.2.a 0.c.c.c.b.N.0.W a.j.j.j.N.w.D a.N.N.0.q ; B w.c.N.N.B.c.c.N.N.c.c.v.A.c.X.P s.c.N.N.N.N.N.N.c.v.S.b.} | p.C.b.b.A.X.} D B.A.B.N.N.N.B.N.N.N.X.e j - D a.v.C.N.N.N.N.N.N.N.N.N.N.v.c.v.2.@ @ @ @ @ @ @ @ * - * * @ @ @ @ - - $ $ - - - - = = = - - - - : , , , - - - @ # # @ # # # # + @ * O e K P P W W W W W W W W U U U U K ~ < p q < u < - < q g @ * j v k k k k j v e r j k k k j y - > < < < < < < < < 6 6 6 6 6 3 1 1 < < < < 2 3 3 2 < < < < < < < < < < < < < < < 6 6 < < < < < 6 6 < < < < < - +   . + o + o         . % 1 p j j j j j j j j 6 < < < < < < < < < < < 6 6 6 6 6 6 6 6 6 6 6 6 < < < < < < < < < < < < < , , : - - - - - : : - - - - - - : : : : - - - - : : : : : : , , , , , : : : - - - - - - - - - - - - - - - - @ @ + . . . . .       . X X X X         X X X X X X X X X X X X X X X X X X X X X X X X X X X X X X X X + + + + + + @ @ @ @ @ @ @ @ @ @ @ @ @ @ ",
"= = = = $ $ $ $ $ $ = = = = - - - - - - - - - - - - - - - - - - = = - - - - - - = = = = - - - - - - = = $ @ $ $ @ @ @ @ @ @ @ @ @ @ @ $ = = = $ $ @ $ $ = = - - - - - - - - - - = $ $ $ $ $ $ $ @ @ @ @ @ @ @ @ @ @ @ @ @ @ @ @ @ @ @ @ @ @ @ @ @ @ @ @ @ @ @ @ @ @ @ @ @ @ @ @ @ @ @ @ @ @ @ @ @ # - - + @ # - @ @ @ @ - - # # < < < < 1 ; e L w.0.g j X.j j 1.w.L u K p.p.w.e.u.p.e 1.K < | j.h.j.~ V a.c.h.u.h.j.f.b P n.h.a.j.1.p w.c.c.x.c.b.w.} x.n.v.h.N.u.F 1.N.N.w.# b K v V W s.N.A.b.v.N.N.b.v.N.N.h.W _ j.B.n.N.j.N.N.N.N.N.N.h.P X.v.A.c.v.v.D b } T T W W 0.%.0.w.j j 6 v k e k } v.A.N.v.c.v.N.N.N.v.c.c.c.g . < @ @ @ @ - - - - # @ @ @ @ @ @ @ $ $ $ $ - - - = = = - - , , , , < - - - @ @ @ @ @ @ @ @ @ @ @ @ - A P P W W W W W W W ~ ! W W | W V ; < k * w.s.K k 6 O   + u v x j j x x x j e v j j z d > $ 6 < < < < < < < < < < 3 6 6 1 < < < < < < 2 2 2 2 2 2 2 2 < < < < < < < < < < < 6 6 < < < < < 6 6 6 3 3 3 6 < @   - e e e e e e e 6 > o   O 6 a a d a z a g < 1 6 < < < < < < < < < 6 6 6 6 6 6 6 6 6 6 6 6 6 < < 1 < < < < < < < < < < , : : - - - - : : : : - - : : : , : : : - - : , , , : : : : : : : , , , : - - - - - - - - - - - - - - - - - @ + + . . . .     . . . . X X X       . . . . X X X X X X X X X X X X X X X X X X X X X X X X X X X X + + + + + + + + @ @ @ @ @ @ @ @ @ @ @ @ ",
"= = = $ $ @ $ $ = = = = - - - - - - - - - - - - - - - - - - - - = = = = - - - - = = = = - - - - - - = = $ @ $ $ @ @ @ @ @ @ @ @ @ @ @ $ = = = = $ $ = = = = - - - - - - - - - - = = = = = = = - - $ @ @ @ @ @ @ @ @ @ @ @ @ @ @ @ @ @ @ @ @ @ @ @ @ @ @ @ @ @ @ @ @ @ @ @ @ @ @ @ @ @ @ @ @ @ @ # # - - + @ # - @ @ @ @ - - # # < ; - # 1 6 - < e D | v u e.K p W e.2.V x E h.f.a.p.r p j.P k :.g.p.s.-.D %.v.p.h.f.h.j.v D j.a.c.N.0.a e.N.j.b.j.b.h.} a.c.j.v.c.b.P T c.N.D j D.p.~ B h h K a.A.N.c.c.b.b.v.N.B.0.} 0.v.A.N.h.N.N.N.N.b.v.C.E L g.A.j.A.} k | W W W W W P W v e v e E P F v e a W f.N.S.N.c.N.N.v.c.c.0.O O @ @ @ @ @ @ @ @ @ @ @ @ @ @ @ @ @ @ @ = = - - - = $ = - - , , , , < , - - @ @ @ @ @ @ @ @ @ @ @ @ @ k W L W W W W W W W W W ~ L z 6 j K 1 g ; B N.N.B.p.~ N e - 6 p v b j j x d 9 a 9 6 6 : - < 6 < < < < < < < < < < 4 < 6 1 < < < < < < < < 2 2 2 2 2 2 < < < < < < < < < < < 6 6 < < < < < 6 6 6 3 3 3 6 < - + 6 h p h j j j j k a e 6 # . % a z j y j q ; 1 6 < < < < < < < 6 6 6 6 6 6 6 6 6 6 6 6 6 6 6 6 6 1 < < < < < < < < < < , , : - - - - : : : : - - : : , , : : : - : : , , , : : : : : : : , , : : - - - - - - - - - - - - - - - - - @ @ + + O . .     X X                 . . . . X X X X X X X X X X X X X X X X X X X X X X X X X X X X + + + + + + + + @ @ @ @ @ @ @ @ @ @ @ @ ",
"= = = $ $ @ $ $ = = = = - - - - - - - - - - - - - - - - - - - - - - - - - - - - - - = = - - - - - - - = $ @ $ $ @ @ @ @ @ @ @ @ @ @ $ = - - - - - - - - = - - - - - - - - - - - - - - - = - = - - - - $ $ $ $ @ @ @ @ @ @ @ @ @ @ @ @ @ @ @ @ @ @ @ @ @ @ @ @ @ @ @ @ @ @ @ @ @ @ @ @ @ @ @ @ @ $ $ - - + @ # - @ @ @ @ + @ - - < - * + . 1 e q # ; u B v p ~ E j B p.g.E x j D :.p.D . | c.1.D 1.p.w.g.p.b L g.h.j.e.h.h.v W c.a.p.A.%.k u.h.v.c.j.b.w.W p.N.v.c.c.c.P U c.c.e 1.N.B.N.v.1.V a ~ f.A.S.N.N.b.b.c.A.v.1.P p.N.v.N.N.N.N.B.v.v.S.f.D :.v.N.s.v A.C.C.C.C.C.A.A.F k u z W L W ! ! F v a b } b.D.c.N.v.b.c.K   @ - @ @ @ @ @ @ @ @ @ @ @ @ @ @ $ $ $ $ = = - - - = = = - - , , , < < < - - @ @ @ @ @ @ @ @ @ @ @ @ @ q T W P W W W W W U U B v b L 1.c.B.F q j * g D _ f.N.N.j.:.b 6 6 e x j v a 1 - o   o - < 6 6 < < < < < < < < < < < < 6 1 < < < < 2 2 < < 2 3 2 < 2 2 < < < < < < < < < < < 6 6 < < 3 3 3 6 6 3 3 3 3 6 6 1 - . 6 a h j j j j z z j d k e ; # 6 j d a 1 ; 6 6 < < < < 6 6 6 6 6 6 q q e e e e q q 6 6 6 6 6 6 6 3 2 < < < < < < < < , : : - - - - - : , : : : , , < < , , , , < < < < , , < < , , , , < < < , < : , , < < - - - - - - - - - - - - @ + + + . .   X X X                     . . X X X X X X X X X X X X X X X X X X X X X X X X X X X X X X + + + + + + @ @ @ @ @ @ @ @ @ @ @ @ ",
"= = = $ $ @ $ $ = = = = - - - - - - - - - - - - - - - - - - - - - - - - - - - - - - = = - - - - - - - = $ @ $ $ @ @ @ @ @ @ @ @ @ @ $ = - - - - - - - - - - - - - - - - - - - - - - - - - - = = - - - = - - - $ @ @ @ @ @ @ @ @ @ @ @ @ @ @ @ @ @ @ @ @ @ @ @ @ @ @ @ @ @ @ @ @ @ @ @ @ @ @ @ @ @ @ - - + @ # - @ @ @ @ + + - - ; ; - - # # - < 6 # < 1 e e < D w.j e P a.u.L j u p j O p p.u.p.F E p.p.a.h.F D c.c.f.j.p.g.K E N.f.g.c.0.v p.c.h.c.j.b.h.L 0.B.c.j.j.N.:.K v.1.V N.p.h.j.N.N.c.%.F L c.N.N.N.N.c.v.c.A.j.W T p.N.N.N.N.N.N.v.N.B.N.~ P c.A.u :.v.b.v.v.v.c.g.g x e L P P U W W T E T B u v ~ c.N.v.b.c.e . - @ @ @ @ @ @ @ @ @ @ @ @ @ @ @ $ $ $ $ = = - - - = = = - - , , , < < < - - @ @ @ @ # @ @ @ @ @ @ @ ; ; D P P W W W | H z e B 1.c.B.N.j.c.w.; v - F D a u b ~ h.A.A.a.K 6 # 6 g a ; o   o % 6 < - : < < < < < < < < < < < < 6 1 < < < < 2 2 < < 3 3 < < 2 2 < < < < < < < < < < < 6 6 < < 3 3 2 6 6 3 3 3 3 6 6 6 6 * O e a d d d d j j k z k k k y 6 1 y j ; ; 6 1 6 6 6 6 6 6 6 6 6 q e e e e e e e e e q e 6 6 6 6 6 2 < < < < < < < < , , : - - - - : : , , : : , , , < , , , , < < < < , , , < , , , , < < < , < , , , < < - - - - - - - - - - - - - @ + + + .   X X X                         X X X X X X X X X X X X X X X X X X X X X X X X X X X X X X + + + + + + @ @ @ @ @ @ @ @ @ @ @ @ ",
"= = = $ @ @ $ $ = = - - - - - - - - - - - - - - - - - - - - - - - - - - - - - - - - = = - - - - - - = $ @ @ $ $ @ @ @ @ @ @ @ @ @ @ $ - - - - - - - - - - - - - - - - - - - - - - - - - - - - = - - $ $ = = - - $ @ @ @ @ @ @ @ @ @ @ @ @ @ @ @ @ @ @ @ @ @ @ @ @ @ @ @ @ @ @ @ @ @ @ @ @ @ @ @ @ @ @ @ @ @ @ @ @ @ @ @ @ + @ @ @ @ @ @ $ % % % 2 6 - % 1 q 6 ; a w.L e j 1.a.p.1.1.1.b 6 D 0.u.p.L E h.s.a.c.W B p.h.e.h.a.h.W ~ c.j.u.v.0.B e.g.v.h.g.c.c.W F N.b.j.g.A.2.N c.F D C.b.h.h.h.c.C.N.X.p W c.N.c.v.N.B.c.N.N.p.T F j.A.b.v.c.c.N.N.N.N.j.F w.P F A.N.c.N.c.B.+.a a j P L W W W W W W W W ~ F v B ~ s.b.w.+   @ - @ @ # # @ @ $ $ $ $ $ @ @ @ $ $ $ $ $ $ = = = = = - - - - , < < < < - - - @ @ @ # # @ @ @ # # # - - N L E E | V a a Z a.A.V.N.c.v.v.N.N.p j e D A.f.0.F j h D w.c.A.h.~ 6   # * . - ; - 1 > > 1 1 1 1 1 1 1 1 1 6 6 6 6 6 1 1 1 2 2 2 2 < < < < < < < < < < < < < < < < < < 2 6 3 < < 6 2 2 6 6 6 6 6 6 6 6 < 9 -   . < d j h a h h h j j j j j x e - ; < 1 , e 6 6 6 6 6 6 6 6 6 e e e e e e e e e e e e e 6 6 6 6 6 3 < < < < < < < < < , , , , : : : : : , , , , < < < , , , < , , , , , < < , , , , < , , , , : : : - - - - - - - - - - - - - - - - @ + + + . X X X       .       X X X     X X X X X X X X X X X X X X X X X X X X X X X X X X X X X X X X + + + @ @ @ @ @ @ @ @ @ @ @ @ @ ",
"$ = = $ @ @ $ $ = = - - - - - - - - - - - - - - - - - - - - - - - - - - - - - - - - = = - - - - - = $ @ @ @ $ @ @ @ @ @ @ @ @ @ @ @ $ = - - - - - - - - - - - - - - - - - - - - - - - - - - - - - - $ $ = = - - = @ @ @ @ @ @ @ @ @ @ @ @ @ @ @ @ @ @ @ @ @ @ @ @ @ @ @ @ @ @ @ @ @ @ @ @ @ @ @ @ @ @ @ @ @ @ @ @ @ @ @ @ @ @ @ @ @ % % % % % % % > 6 - ; 1 6 1 ; q W 2.a < D 1.2.e.w.| 1 p W 0.a.a.L F p.w.u.j.-.N w.h.s.g.a.h.L | h.h.h.N.w.N p.v.c.h.c.j.c.W D a.N.a.h.N.2.D | j K f.N.j.N.v.c.v.N.c.L v %.A.c.c.c.c.b.v.N.b.w.K | v.v.v.v.b.v.N.N.N.b.| a.a p.c.b.N.B.N.F d a B P L W W W W W W W W E E E L B v W v   . @ - @ @ # # @ @ $ $ $ $ $ @ @ @ $ @ $ $ $ $ = = = = = - = = - , < < < , - - @ @ @ @ @ # @ @ @ @ @ # ; O j E P b a x %.c.S.N.N.N.n.v.N.N.N.v.D 6 k r h.j.v.C.N.u.W D D -.h.N.j.} h < - < < > 1 > > 1 1 1 1 1 6 6 6 6 6 6 6 6 1 1 1 1 2 2 2 2 < < < < < < < < < < < < < < < < < < 2 6 6 2 2 6 3 2 9 6 6 6 6 6 6 6 < 9 - .   . < p a p h h h h j j j j k v p - < q 1 < 6 6 6 6 6 6 6 6 6 6 e e e e e e e e e e e e 6 6 6 6 6 6 6 3 2 < < < < < < < < < < < < < : : , , , , < < , , , , < < , , , , < < , , , , , , , , , : : : - - - - - - - - - - - - - - - - @ + + + . X X X       .         X X     X X X X X X X X X X X X X X X X X X X X X X X X X X X X X X X X + + @ @ @ @ @ @ @ @ @ @ @ @ @ @ ",
"$ $ $ $ @ @ $ $ = - - - - - - - - - : : : : : : - - - - - - - - - - - - - - - - - - - = - - - - = $ $ $ @ @ @ @ @ @ @ @ @ @ @ @ @ @ $ = = = - - - - - - - - - - - - - - - - : - - - - - - - - - - - $ $ - - - - - = @ @ @ @ @ @ @ @ @ @ @ @ @ @ @ @ @ @ @ @ @ @ @ @ @ @ @ @ @ @ @ @ @ @ @ @ @ @ @ @ @ @ @ @ @ @ @ @ $ $ $ $ $ $ $ % % % % % % % - o - 2 ; ; < 1 q < q D w.W a a L :.w.w.b < v F 1.e.p.P L w.g.a.j.:.b 1.c.s.g.a.c.P P N.h.s.b.:.N w.g.c.c.h.c.c.1.b 1.v.v.c.v.a.L D } V -.N.c.c.v.c.N.N.N.h.E F 2.C.v.c.N.v.c.b.B.c.%.| 2.v.A.A.N.N.v.N.c.S.A.v 6 L P P W P e z p P U U W W W W W W W W W W L K W K l X   X @ = @ @ @ # @ @ @ @ @ $ $ $ $ $ $ $ $ $ $ $ = = = = - - - - - : < < < - - @ @ @ # @ @ @ @ @ @ @ @ @ # @ 6 A v F p.N.S.v.c.N.c.v.v.n.N.v.v.v.1.6 v < p.v.h.v.v.N.B.N.p.| V B :.N.N.:.r O O < 1 > > 1 1 1 1 1 1 1 1 1 6 6 6 6 6 1 1 1 2 < 2 3 < < 6 6 < < < < < < < < < < < < < < 6 6 6 6 3 6 3 3 9 9 6 6 6 6 6 6 < 9 % o o     - e a h h h h j j j j j j h g - < e 6 6 6 6 6 6 6 6 6 6 6 e e e e e e e e e e e e 9 9 6 6 6 6 6 6 6 3 2 2 2 2 2 2 2 < < < < < , , < < < < < < < < < < < < < < < < < < < < < < < < < , < , , , < < - - - - - - - - - - - - - - - @ + + X . X X       .     .     .     X X X X X X X X X X X X X X X X X X X X X X X X X X X X + X X X + + + + @ @ @ @ @ @ @ @ @ @ @ @ ",
"$ $ $ $ @ @ $ $ = - - - - - - - - : : : , , : : - - - - - - - - - - - - - - - - - - - = - - - - = $ $ $ @ @ @ @ @ @ @ @ @ @ @ @ @ @ @ @ @ @ $ $ = - - - - - - - - - - - - - : - - - - - - - - - - - = = - - - - - = @ @ @ @ @ @ @ @ @ @ @ @ @ @ @ @ @ @ @ @ @ @ @ @ @ @ @ @ @ @ @ @ @ @ @ @ @ @ @ @ @ @ @ @ @ @ @ @ @ @ % % - - - % - % % % % % % - @ : 1 ; - ; 6 q 6 e j 3.h.L v v v L T < 6 j %.2.w.h.%.B 2.j.w.j.e.B | c.s.j.a.c.N N j.g.a.j.w.B w.v.h.c.c.c.c.g.D L h.c.j.b.p.< 2.N.D P a.N.j.c.c.j.c.N.N.f.W D 0.N.A.N.v.c.v.v.A.N.%.L } v.N.N.N.N.v.c.A.X.V v.c.c.c.| r z j W W U W W W W W W W W W W W L E L v X   X @ = @ @ @ @ @ @ @ @ @ @ $ $ $ $ $ $ $ $ $ $ $ $ $ $ = = - - - - : , ; - - @ @ @ # # @ @ @ @ @ @ @ @ # # ; W a.N.v.B.N.B.N.N.N.N.n.v.v.v.v.v.c.u v < ~ N.j.N.v.c.b.N.C.v.h.T j x W c.N.F q - 1 > > 1 1 1 1 1 ; ; ; ; < < < < 1 1 1 1 < < 2 2 < < 6 6 < < < < < < < < < < < < < < 6 6 8 6 3 9 6 3 e 9 6 6 6 6 6 6 < 9 @   @ o     @ < h h h h j j j j v j h h 6 ; 6 6 6 6 6 6 6 6 6 6 6 6 6 e e e e e e e e e e e 9 9 9 8 6 6 6 6 6 6 6 6 6 6 6 6 6 5 6 5 2 < < < < < < < < < < < < < < < < < < < < < < < < < < < < , < , , , < , - - - - - - - - - - - - - - - @ @ + X   X X       . . . .     . . . X X X X X X X X X X X X X X X X X X X X X X X X X X X X + X X X X X + + @ @ @ @ @ @ @ @ @ @ @ @ ",
"@ @ @ @ @ @ = = - - - - - - - - - - , , , , , : : : : : - - - - - - - - - - - - - - - - = = = = = $ $ $ = $ $ $ @ $ $ $ @ @ @ @ @ @ @ @ @ @ @ @ @ = - - - - - - - - : - - - - - - - - - - - - - - - - - - = = $ = $ $ @ @ @ @ @ @ @ @ @ @ @ @ @ @ @ @ @ @ @ @ @ @ @ @ @ @ @ @ @ @ @ @ @ @ @ @ @ @ @ @ @ @ @ @ @ @ @ @ @ @ @ $ % % % - % % % % % - - - - O - ; - - ; 1 e x e v w.w.X.D j v < . e u T p.1.a.| B } a.w.f.w.B _ j.u.w.p.h.a j c.p.p.v.0.p } c.p.g.f.f.j.b.| K 0.c.a.j.L j v.N.-.B W A.N.c.v.c.c.v.v.N.g.~ L 2.v.S.B.N.c.N.N.A.j._ D T c.N.N.N.v.N.j.V c.c.j.N.| j j v W W U W W W W W W W W T W W W L W 6     X @ = @ @ @ @ @ @ @ @ @ @ @ @ @ @ @ @ = = = = $ $ $ $ = = = $ = - - - - - @ @ @ @ @ # @ @ @ @ @ @ @ @ * # < g.v.v.N.N.N.N.N.N.N.N.N.v.N.N.n.N.B.v j u e a.N.N.N.N.v.c.c.j.b.N.v.w.B j W n.g.P a 1 ; 6 < < 1 p b B D D D D B x p 1 - - > < - 3 < 6 6 6 8 6 6 < 6 6 6 6 < < < < < 6 6 6 9 9 9 9 6 6 e e 6 6 6 6 e 6 6 9 <   . . o .     ; e h a j j j j j k z j j < % 3 6 6 6 6 6 6 6 6 6 6 6 9 e e e e e e e e t e e 9 e 9 8 6 8 8 8 8 6 6 6 6 8 8 8 6 6 5 5 2 2 < < < < < < < < < < < < < < < < < < < < < < < < < < , < , , , , , < < < < - - - - - - - - - - - - - @ + X X X X   . X X X       X X X X X X X X X X X X X X X X X X X X X X X X X X X X X X X + + + + X X + + @ @ @ @ @ @ @ @ @ @ @ @ ",
"@ @ @ @ @ @ = = - - - - - - - - - - , , , , < , , , : : - - - - - - - - - - - - - - - - = = = = = = $ $ = $ $ $ @ @ $ $ @ @ @ @ @ @ @ @ @ @ @ @ @ $ - - - - - - - - : - - - - - - - - - - - - - - - - - = @ @ @ @ @ $ @ @ @ @ @ @ @ @ @ @ @ @ @ @ @ @ @ @ @ @ @ + + @ @ + + + + + @ + + + + + + @ @ @ @ @ @ @ @ @ @ @ @ @ @ @ $ $ % % $ % $ % % % % % % @ O - < - @ 1 3 q j p p L w.p.p.%.D < - q q P u.2.p.-.j | h.p.p.e.v D s.f.p.p.s.e v h.s.g.c.w.6 L j.h.h.p.g.a.v.g.F F j.c.v.V | N.v.j.b a s.A.c.c.c.c.v.N.b.c.f.| L :.c.D.A.j.c.N.N.N.c.:.D :.v.N.A.v.N._ e.f.h.N.V p a V W Q U W W W W W W W W T W W W L K <     X @ = @ @ @ @ @ @ $ $ @ $ @ @ @ @ @ @ = = = $ @ @ @ @ @ @ $ $ @ = - - - # @ @ @ @ @ @ # @ @ @ @ @ # @ * * < w.v.v.N.N.N.N.N.N.N.N.N.N.N.N.N.n.N.L p j @ u j | c.v.N.c.v.c.c.b.v.N.N.w.x j | N.g.V 1 @ 1 r x A V D L L ~ | 0.a.g.h.0.W K d 6 - 6 6 6 e 6 < 6 6 6 6 6 6 6 6 6 6 6 6 6 9 9 9 9 9 6 9 e e 6 6 6 6 e 6 6 9 6   o @ @ o       - 1 r j j h g j j j j k a % < 6 6 6 6 6 6 6 6 6 6 9 9 w e e e e e e e t e e e e e 8 6 6 8 8 8 6 6 6 6 8 8 8 6 5 5 5 2 2 < < < < < < < 5 < < < < < < < < < < < < < < < < < < , < , , , , , - < < < - - - - - - - - - - - - - - = @ X X X   . X X X         X X X X X X X X X X X X X X X X X X X X X X X X X X X X X X + + + + X X X + @ @ @ @ @ @ @ @ @ @ @ @ ",
"* # @ @ = = - - - - - - : - : : - , , < < < < < < , , , , , , , - - - - - - - - - - - - - - = = = = = = = $ @ @ @ @ $ $ @ @ @ @ @ @ @ @ @ @ @ @ @ @ = - - - - - - - : - - - - - - - : : - - - - - - - - = @ @ @ @ @ = @ @ @ @ @ @ @ @ @ @ @ @ @ @ @ @ @ @ @ @ @ + + + + + + @ @ @ @ @ @ @ @ @ @ @ @ @ @ @ @ @ @ @ @ @ @ @ @ $ $ $ $ $ $ % $ $ $ $ $ $ $ < * O @ 6 < O ; , 1 h g 6 e V K | E 6 @ - < q ~ e.1.p.w.v 2.h.p.h.:.< B g.p.p.h.j.j g f.c.w.h.p.r a a.h.s.c.h.c.h.v.| F 0.N.p.a h.j.j.v.P 6 W B.v.c.c.c.c.v.N.N.C.h.K D %.c.N.C.b.c.b.N.A.N.w.| } c.B.B.0.} A.D.w.6 v e H W Q U W W W W W W W W W W W L W B @     X @ - # @ @ @ @ @ $ $ $ $ @ @ $ $ $ $ $ $ $ $ @ @ @ @ @ @ $ $ @ @ @ $ @ @ @ @ @ @ @ @ # # @ @ @ @ # # # * - } N.v.N.N.N.N.N.N.N.N.N.N.n.n.N.N.N.| g k < c.:.F v W p.N.N.N.b.c.v.j.v.N.N.1.b p w.S.P - v V L L K K K F F b g a j N P -.h.h.g.,.D j 6 < 6 8 6 < q q q q 6 6 6 6 6 6 6 e e e e 9 6 9 w e 6 6 6 6 e 6 6 9 9 o 2 p 6 < @ @ .     . 6 r g j j j j j j z 1 ; 6 6 6 6 6 6 6 6 e e e e w e r r e e e e e e e e e e 8 8 6 8 8 8 6 6 6 6 8 8 8 6 6 6 6 5 5 < 2 < < < 5 5 5 2 < < < < < < < < < < < < < < < < < , < < , , , < - < < < < ; - - - - - - - - - - - - - = @ X X . .   X X     .   X   X X X X X X X X X X X X X X X X X X X X X X X X X X X X X X + + X X X + @ @ @ @ @ @ @ @ @ @ @ @ ",
"* # # @ = - - - - - - - : - - - - , < < < < < < < < < , , , , , - - - - - - - - - - - - - - - = = = = = = $ @ @ @ @ $ @ @ @ @ @ @ @ @ @ @ @ @ @ @ @ = = - - - - - - : - - - - - - - : : - - - - - - - - - = = $ = = = $ @ @ @ @ @ @ @ @ @ @ @ @ @ @ @ @ @ @ @ @ + + + + + + @ @ @ @ @ @ @ @ @ @ @ @ @ @ @ @ @ @ @ @ @ @ @ @ $ $ $ $ $ $ % $ $ @ @ @ @ @ - ; - O . < 1 O < 6 1 1 e < O ; q 1 # - . 1 < < K w.0.p.0.B W a.s.p.w.6 j x.p.w.f.c.j q w.h.a.a.s.j 1 2.c.p.h.j.c.h.N.p.D L v.B 1 w.c.j.N.w.g k p.v.c.c.c.v.N.N.j.c.A.c.~ N K s.N.B.C.N.c.N.B.v.g.| } p.c.D %.:.k 6 V e H W Q U W W W W W W W W W W W L W v .     X @ - @ @ @ @ @ @ $ $ $ $ $ @ $ $ $ $ $ $ = $ @ @ @ @ @ @ $ $ @ @ @ @ @ @ @ @ @ @ @ @ @ # @ @ @ @ @ # # - # U n.v.N.n.N.N.N.N.N.N.N.N.n.n.N.N.N.p.r b < w.B.N.h.-.D D :.h.A.N.b.j.h.c.f.b.v.T r D p v X.X.} } :.w.a.j.N.B.N.x.e.~ B h j G W -.c.c.w.K h < - 6 q q q q 6 6 6 6 6 6 6 9 9 9 9 9 6 9 w e 6 6 6 6 e 6 6 9 e @ 2 d j a y e 6 #   . . ; e j j j j j j j e < 6 6 6 6 6 6 e e e e w e e e r r e e e e e e e e e e e 8 8 8 8 8 6 6 6 6 8 8 8 6 6 6 6 5 5 2 5 2 2 5 5 6 6 2 < < < < < < < < < < < < < < < < < , < < , , , < - < < < < , - - - - - - - - - - - - - - = @ X X         . . .       X X X X X X X X X X X X X X X X X X X X X X X X X X X X X X + + X X X + @ @ @ @ @ @ @ @ @ @ @ @ ",
"- * @ @ @ # - - - - - - - : : , : , , < < < < < < , , , , : : : - : : : - - - - - - - - - - = - - - = $ @ @ @ @ $ $ $ $ @ @ @ @ @ @ @ @ @ @ @ @ @ @ $ = = - - - - - - - - - - - - - - - : : : - - - - - - - - - - - - = $ @ @ @ @ @ @ @ @ @ @ @ @ @ @ @ @ @ + + @ @ @ + @ @ @ @ @ @ @ @ @ @ @ @ @ @ @ @ @ @ @ @ @ @ @ @ @ @ @ $ * - - - - - @ @ @ @ @ @ @ @ @ @ + @ - < @ @ < < 6 6 e 6 < . . - < - < 6 < E p.-.s.p.v D s.p.s.0.q v j.p.u.w.h.b 6 %.h.f.a.c.F 6 F j.h.c.h.a.h.c.j.P D 2.b v D c.j.b.N.F p | A.N.c.c.B.v.v.v.v.v.C.b.} b K s.B.A.N.v.c.N.A.N.p.| S.G ! U < p k d P W W W W W W W W W W W W W W P E p       X @ @ @ @ @ @ @ @ @ @ @ @ = = $ $ $ $ @ @ @ @ @ @ # @ @ @ @ @ @ @ @ @ # # @ - - - @ @ @ @ @ @ @ @ @ @ - - . K N.c.v.n.N.N.N.N.N.N.N.N.N.N.N.N.N.h.p D 1 -.v.c.B.C.v.p.D b W c.N.b.v.c.c.h.a.F.2.. 6 v j j j j x a h v D F ~ w.j.N.N.v.b.w.K v v j W p.h.w.B 1 < e e e e 6 6 e 6 6 6 6 6 q 9 9 6 6 e w 6 6 6 6 e 6 6 6 u < - p h a a j a p e <   . ; e a j j j j j y : 6 6 6 e e e w w w w w e e e y y r e e e i i e e i e e 8 w w w w 6 6 6 6 6 6 6 6 6 6 6 6 6 6 < 6 6 6 6 6 6 < < < < < < < < < < < < < < < < < < < < > < > > < - : > > > > > - - - - - - - - - - - - - - $ + X       X     . . . . X X X X X X X X X X X X X X X X X X X . X X X X X X X X X X X X X X X + + @ @ @ @ @ @ @ @ @ @ @ ",
"* - @ @ @ @ - - - - - - - : : , : , , < < < < < < < < , , : : : - - : : - - - - - - - - - - = - = = = $ @ @ @ @ $ $ $ $ @ @ @ @ @ @ @ @ @ @ @ @ @ @ $ $ = - - - - - - - - - - - : - - - : : : - - - - - - - - - - - - - = $ @ @ @ @ @ @ @ @ @ @ @ @ @ @ @ @ + + @ @ + + @ @ @ @ @ @ @ @ @ @ @ @ @ @ @ @ @ @ @ @ @ @ @ @ @ @ @ $ - # * - - - @ @ @ @ @ @ @ @ @ @ @ + @ - < - - - < 6 - @ 6 B D - < - @ < < 6 K 0.0.1.w.h v s.0.p.:.1 j j.e.w.a.a.F ; B c.s.w.h.:.e g a.h.p.s.s.g.j.j.:.V a a.b r p.j.h.v.w.v N c.N.A.v.N.v.v.v.v.c.v.N.c.0.W W 0.h.N.A.v.b.v.N.N.n.| a.#.< p a k U W W W W W W W W W W W W W W L L 6       X @ @ @ @ @ @ @ @ @ @ @ @ = = $ $ $ $ @ @ @ @ @ @ # # * * @ @ @ @ @ @ # # @ # - - @ @ @ @ @ @ @ @ @ @ - - . K N.c.v.n.N.N.N.N.N.N.N.N.N.N.N.N.N.j.p V < P N.f.c.v.B.B.B.u.F x K j.N.c.c.c.v.X.v 0.N.v.B.B.N.N.b.c.j.h.w.%.W L v v D } h.N.A.A.w._ L B N L w.p.E e < e e e 6 6 6 6 6 6 q q 9 9 6 6 e e 6 6 6 6 e 6 6 6 p 6 . < a j j g g j j a 1 @ . % p j j j j j y : 6 e e e w w w w e e t t t e r y r e e e u u e e i e w 8 w w w w 6 6 6 6 6 6 6 6 6 6 6 6 6 6 < 6 6 6 6 6 6 < < < < < < < < < < < < < < < < < < < < < < < < < - : > > > > : - - - - - - - - - - - - - - = @ + X     .     . . . . X X X X X X X X X X X X X X X X X X X . X X X X X X X X X X X X X X X + + @ @ @ @ @ @ @ @ @ @ @ ",
"- - - = - - - - - - : , < , < < < < < < < < < < < < < < < , : : : : - - - - - - - - - - - - = = = = = = $ @ @ @ @ @ @ @ @ @ @ @ @ @ @ @ @ @ @ @ @ @ @ $ $ = - - - - - - - - - - : : - : : : : - - - - - - - - - - - - - - = $ @ @ @ @ @ @ @ @ @ @ @ @ @ @ + + + @ @ + + @ @ @ @ @ @ @ @ @ @ @ @ @ @ @ @ @ @ @ @ @ @ @ @ @ @ @ @ @ @ @ # - - @ @ @ @ @ @ @ @ @ @ @ @ + @ - - # @ @ 6 h D E 1.D p e < @ - - < 1 K w.X.0.s.e B p.0.u.u.1 v a.p.w.p.g.:.e a s.j.w.a.a.B h :.b.h.s.g.h.j.v.a.e v F.D 1 1.b.a.j.N.| v T h.N.v.v.v.v.v.N.v.v.N.A.B.j.} K T w.c.v.v.v.b.v.6.Q m < a e b W W W W W W W W W W W W W W L L A <       X @ @ @ @ @ @ @ @ @ @ @ @ = = = - = = * * @ @ @ @ * * - * - - - - @ # @ # @ @ * @ @ @ @ @ @ @ @ @ @ @ - - . K N.c.v.v.N.N.N.N.N.N.N.N.N.N.N.N.v.c.a B < K F.N.N.v.c.v.c.N.C.a.E x D f.B.N.T B v.A.h.c.j.j.h.h.c.v.N.N.C.C.N.c.g.1.F x b B W w.N.C.A.h.u.K v V } p.D - 6 6 e 6 6 6 6 6 e w 6 6 6 6 e e 6 6 6 6 e e 6 6 p <   + q g k j g j j j j q -   6 j j k j j y > 6 e e e w e e e e t t t t t y y i e e e e u e e i e e w w e w w q 6 6 6 6 6 6 6 6 6 6 6 6 6 6 6 6 6 6 6 6 < < < < < < < 2 2 2 < < < < < < < < < < < < < < 2 - > < < < < > > > : - - : : : : - - - : : - @ @ + X . . . . . . . . X X X X X X X X X X X X X X X X X X     X X X X X X X X + X + + X X + + + @ @ @ @ @ @ @ @ @ @ @ ",
"- - - - - - - - - - : : < < < < < < < < < < < < < < < < < , : : : : - - - - - - - - - - - - = = = = = = = @ @ @ @ @ @ @ @ @ @ @ @ @ @ @ @ @ @ @ @ @ @ @ $ $ - - - - - - - - - - : : - - - - : : - - - - - - - - - - - - - - = $ @ @ @ @ @ @ @ @ @ @ @ @ @ + + + @ @ + + @ @ @ @ @ @ @ @ @ @ @ @ @ @ @ @ @ @ @ @ @ @ @ @ @ @ @ @ @ @ @ @ * * @ @ @ @ @ @ @ @ @ @ @ @ @ + - + + e a D -.-.E _ W 6 N e < - - < < - L 0.} 0.w.e v w.0.u.:.e N h.0.u.p.p.e.j 6 _ c.a.p.j.0.V F s.c.a.h.c.h.a.a.6 X.A.| < K j.c.p.N.v.W D E c.v.v.v.v.N.c.v.A.j.N.B.N.N.a.~ P :.p.v.N.v.a.k p < d y z W W W W W W W W W W W W W W P L N -       X @ @ @ @ @ @ @ @ @ @ @ @ = = = = = - - * @ @ @ @ * * - * - - - - * # @ @ @ @ & @ @ @ @ @ @ @ @ @ @ @ - - . K N.c.v.v.N.N.N.N.N.N.N.N.N.N.N.N.b.b.h N 6 e T a.A.B.N.c.c.v.N.c.B.j.L x D D B s.X.T L V K F F F L D V K :.p.c.c.A.A.A.N.j.u.T V B P %.N.N.B.c.u.L D -.p.e 6 e e 6 6 6 6 q w 6 8 6 6 e e 6 6 6 6 e e 6 6 e @ .   @ e j x h j j j p h r - # a j k j j y > e e e e e e e w w t t t y t y y p e e e e e e e e e e 8 w e w w q 6 6 6 6 6 6 6 6 6 6 6 6 6 6 6 6 6 6 6 6 < < < < < < < 2 2 2 2 < < < < < < < < < < < < < 2 - < < < < < < < < < > > > > , , , - - : : - - @ @ X . . . . . . . . X X X X X X X X X X X X X X X X X X     X X X X X X X X + + + + . X + + + @ @ @ @ @ @ @ @ @ @ @ ",
"* * * * - - - - - - - , , , < < < < < < < < < < < < < < < < < < , , : - : - - - - - - - - - - - - - - = = $ $ $ @ @ @ @ @ @ @ @ @ @ @ @ @ @ @ @ @ @ @ @ @ = = - - - - - - - - - - - : : - - - - - - - : - - - - - - - - - - - $ @ @ @ @ @ @ @ @ @ @ @ @ @ @ @ @ + + + + @ @ @ @ @ @ @ @ @ @ @ @ @ @ @ @ @ @ @ @ @ @ @ @ @ @ @ @ @ @ @ @ @ @ # @ @ @ @ @ @ @ @ @ @ @ @ - - @ @ + - j _ _ } _ } D 6 v 6 < - @ - 6 + N 0.-.0.0.< j w.2.-.w.u b p.a.e.w.a.s.W p D p.h.p.h.a.L a _ j.c.p.f.h.c.L e s.c.w.e v j.c.s.j.v.g.K b T g.A.n.b.N.N.b.N.v.N.N.N.N.N.N.w.W K :.h.N.9 ; < j e B ' | ! ~ ~ ~ _ _ | | | | | ~ W L v + .                     . + @ @ . . @ @ @ @ @ @ + + + + + + + @ @ @ + + + + + + + + + + . . . . . . . + + + + @ ;   B v.c.v.c.N.N.N.N.n.v.v.c.v.v.v.n.v.h.p b 6 j w.D D ~ a.A.C.v.v.v.b.c.D.w.1 k E X.f.h.b.N.c.v.v.N.c.p.-.T L L P P P | e.c.N.A.A.N.p.X.V v L p.v.N.N.b.L D 1.j 6 6 6 6 6 6 e e e w 6 6 6 e 6 6 6 6 e e 6 6 6 . @ +   O 6 x k j j j j j j j 6 6 z y d p > 6 t t e e e e e e w t t t y e y e p p u u u p e e e e w w w e w w e e e 6 6 6 6 6 6 6 6 6 6 6 6 6 6 6 6 6 6 6 < < < < < < 2 < < 2 2 2 < 2 2 < < 3 3 < < < < 3 : < 2 < < < < < < < < < < < < < < < - : : - - - @ @ X       . . . . X X X X X X X X X X X X X X X X         X X X X X X X X X X X X . . X @ @ @ @ @ @ @ @ @ @ @ @ @ ",
"# * * * - - - - - - - , , , < < < < < < < < < < < < < < < < < < , , : - : - - - - - - - - - - - - - - = = $ $ $ $ $ @ @ @ @ @ @ @ @ @ @ @ @ @ @ @ @ $ @ @ @ = = = = = = - = - - - - - - - - - - - - - : - - - - - - - - - - - = @ @ @ @ @ @ @ @ @ @ @ @ @ @ @ @ + + + + @ @ @ @ @ @ @ @ @ + @ + @ @ @ @ @ @ @ @ @ @ @ @ @ @ @ @ @ @ @ @ @ @ # @ @ @ @ @ @ @ @ @ @ @ * - @ @ + . + @ h %.} } _ -.B 6 p 6 < @ O @ < @ h w._ w.1.< g w.w.w.w.v j 0.s.p.w.p.s.w.F x L j.f.h.c.1.u h :.c.j.p.j.a.6 | h.h.c.j q w.N.h.j.j.N.j.~ D D p.v.N.N.v.v.N.v.N.N.N.N.N.C.A.h.W U j.q # # v 6 3 k k v b b b b b B B B B D D D D a @ +                   . + @ @ # - - * @ @ @ @ + + + + + + + + @     @ @ - - @ @ + .     . . . . . . . + + + + - *   b v.c.v.c.N.N.n.v.c.v.n.n.v.v.v.v.c.N.j b 1 v N.h.p.V a N :.N.A.C.j.v.} 6 0.N.v.N.N.N.N.N.n.v.c.c.N.N.A.A.A.N.c.g.w.~ K K T } p.N.B.C.v.w.W V L w.b.c.b.w.L ) e 6 6 6 6 6 q q e w 6 6 6 e 6 6 6 6 6 e e 6 < . +   .   # e j k j j j j j j j 3 9 j d 9 < e i t e t e e e w w w t t e e e e e p p p p p e e i i e w e e w w e e e 6 6 6 6 6 6 6 6 6 6 6 6 6 6 6 6 6 6 6 < < < < < < 2 < < 2 3 3 2 3 6 2 2 6 6 3 2 < 2 6 < < 3 < < 2 2 < < < < < < < < < < < - : : : : - - @ X X     . . . . X X X X X X X X X X X X X X X X         X X X X X X X X X X X X   . X @ @ @ @ @ @ @ @ @ @ @ @ @ ",
"- - - - - - - - - - , , , , < < < < < < < < < < < < < < < < < < , , , : : - - - - - - - - - - - - - - - = $ = $ $ $ $ $ @ @ @ @ @ @ @ @ @ @ @ @ @ @ $ $ @ @ $ $ $ $ = = - - - - - - - - - - - - - - : : : : : : - - - - - - - = = = = = = = = $ $ @ @ @ @ @ @ @ @ @ @ @ @ @ @ @ @ @ @ @ + + + + @ @ @ @ @ @ @ @ @ @ @ @ @ @ @ @ @ @ @ @ @ @ # # @ @ @ @ @ @ @ @ * @ - * - @ @ + - @   p H +.! W +.D > < < > o   < 3 + j 1.' +.-.e j p.u.0.p.v 6 T p.a.p.0.p.p.~ q p %.a.w.h.f.b 6 B s.c.p.v.K e p.h.j.x.K e W N.c.h.v.b.A.h.~ D F w.N.N.v.N.N.v.v.v.v.v.N.c.v.c.n.,.; q ; k 6 V ,.X.| ! _ _ _ _ L L L L L F B N 6 . . .                 + @ @ - < < 6 e < - @ @ + + + + + + + + - + @ 1 6 e e 6 6 - - @ + .     . . . . + + + + - #   j c.h.c.j.c.l.h.h.j.c.c.N.N.N.N.N.c.b.j v < k N.c.B.A.f.W h p L g.B.W v c.b.c.v.N.N.N.n.n.N.N.N.N.c.v.N.N.N.v.c.c.n.B.N.j.p.X.W L :.h.S.N.S.c.0.P W g.N.N.g.L 1.6 6 6 6 6 q q e q e 6 6 6 6 6 6 6 6 e e 6 < @ < - @     - e j k j j j j j k j % y p > y 9 i i i t e e w w 8 9 w e e e e e e e p p p u t t i p i e e e w e e e e e 6 6 6 6 e e e 6 6 6 6 6 6 6 6 6 6 6 < 4 6 < < 6 6 2 5 2 6 6 3 6 6 6 6 6 6 6 6 3 6 8 < 3 6 3 3 3 3 < < < < < < < < 2 2 < , < < , : : - = @ X     . . . . X X X X X X X X X X X X X X X X .   . . X X X X X X X X X X X X . . X @ @ @ @ @ @ @ @ @ @ @ @ @ ",
"- - - - - - - - - - , , , , < < < < < < < < < < < < , , - , , , , , , : : - - - - - - - - - - - - - - - = $ $ $ $ $ $ $ @ @ @ @ @ @ @ @ @ @ @ @ @ @ @ @ @ @ @ @ $ $ = = - - - - - = = = - - - - - - : : - - : : - - - - - - - = - - - - - - - = = $ @ @ @ @ @ @ @ @ @ @ @ @ @ @ @ + + + + + + + @ @ @ @ @ @ @ @ @ @ @ @ + @ @ @ @ @ @ @ @ @ @ @ @ @ @ @ @ @ - @ * * - - < - - - - < - . 2 v ! ' ! ` L - > 6 < o   % 2   2 _ +.' 1.p v w.:.w.p.W < V e.p.w.p.u.a.s.b 1 B w.j.h.a.%.u < E h.a.g.q < | j.p.c.w.p k a.N.N.c.c.v.A.v.w.W F 1.c.v.N.N.N.N.n.v.v.v.c.c.v.G - > > v 6 ' N.N.B.V.A.A.A.A.A.A.A.A.B.N.N.v.D 6 . +                 @ @ - - e D _ F v p < - @ @ @ @ + + + + - < e h k B B j e , - - - @ .   . . . . + + + + @ - . r V N V B j a y e p a k v B B B B B b q j < h c.c.N.c.c.B.b.w.v a r g g.j.:.1.w.2.| X.2.w.w.p.h.c.N.N.B.B.N.v.v.c.v.N.v.c.N.N.c.d.0.P P p.c.v.b.c.0.L w.A.b.g.L L 6 6 6 6 e q e q e 6 6 6 6 6 6 6 6 6 e e < < p e < .     - e j k k j j j z d e ; < e y e e i i t e e w w 8 8 w w e e w e e e p p p p t t i p i e e e w e e e e e 6 6 6 6 e e e 6 6 6 6 6 6 6 6 6 6 6 < 4 6 < < 6 6 6 6 6 6 6 6 6 6 6 6 6 9 6 6 6 6 9 2 6 6 3 3 3 3 2 2 2 < < 3 < < 5 5 < < < < < , , , - = + X   . . . . . . X X X X X X X X X X X X X X . . . .     X X X X X X X X X X . . X + @ @ @ @ @ @ @ @ @ @ @ @ ",
"- - - - - - - : : , , < < < < < < < < < < < < < < < < < < - - ; : : : : - - - - - - - - - - - - - - - = - = = = $ $ $ @ @ @ @ @ @ @ @ @ @ @ @ @ @ @ @ @ @ @ @ @ @ @ @ $ $ = - - = @ @ @ $ = - - - - - - - - - - - - - - - - - = - - : , , - - - - = $ @ @ @ @ @ @ @ @ @ @ @ @ @ @ + + + @ @ @ @ @ @ @ @ @ @ @ @ @ @ @ @ + + @ @ @ @ @ @ @ @ @ @ @ @ @ @ @ - - @ < < < < < < < 2 < < 2 6 o - e Z I ' ! Z - < < - @ o - : o 6 G +.1.:.j j w.0.0.e.E e b 0.p.0.p.e.p.a.0.v q D p.h.e.c.W e r _ c.} O 6 v h.h.c.h.B a | c.N.c.h.c.c.n.N.h.} F D ' c.V.B.N.N.c.c.c.c.d.m < < 6 k 6 -.v.n.n.n.n.n.n.n.N.N.n.n.n.n.N.N.V 6 + + +             @ + . < v h.L.L.L.A.v e + @ + .   + . +   1 e N s.H.L.L.S.W h e e a E 6   @ @ @ # @ @ @ + - # . j W P T P P P P P W W W W L L L L W L p v < g S.B.v.v.v.c.b.N.S.| e | L W ~ ! X.' ' ' Q W E L V v D F ! w.j.N.A.A.N.n.N.N.n.v.n.N.B.B.t.H W p.N.B.N.v.} X.v.N.u.L D 1 6 6 q q q q q 6 3 7 6 6 6 6 q q 6 6 1 * p a j q #   o 3 p j j j j j z d z < 3 e r e p p p e e e e e e e e e e e e e e e e e p p p p p p i e e e e w e e e e 6 6 6 6 e e e e 6 6 6 6 6 6 6 6 6 6 2 2 8 < < 8 8 8 8 8 6 6 6 6 e e 6 8 9 9 6 3 6 9 3 6 9 3 3 6 6 3 3 2 2 2 3 3 3 3 3 < < < 2 < < < < > - $ o   . . . . . . X X X X X X . .                         . . . . X X X X X X . X X X @ @ @ @ @ @ @ @ @ @ @ @ ",
"- - - - - - - : : , , < < < < < < < < < < < < < < , , - - - - - - - : : - - - - - - - - - - - - - - - = - = = = $ $ $ @ @ @ @ @ @ @ @ @ @ @ @ @ @ @ @ @ @ @ @ @ @ @ @ @ $ $ $ $ @ @ @ + @ @ = - - - - - - - - - - - : - - - - = - - , < < : - - - = $ @ @ @ @ @ @ @ @ @ @ @ @ @ @ + + + @ @ @ @ @ @ @ @ @ @ @ @ @ @ @ @ @ @ + + + @ @ @ @ @ @ @ @ @ @ @ @ - - - < < < < < < < < 3 3 3 2 > - : 6 a B W ' K - - 3 > @ + - <   : m 0.:.1.v x w.w.1.w.e.b u P p.0.p.u.:.p.p.2.j q L e.a.a.p.K 1 a 0.h D h 6 0.c.p.c.0.p h w.N.v.h.c.h.c.N.b.b.2.D B L | d.N.n.n.c.c.p.a ; # - j q 1.n.N.N.n.n.n.n.n.N.N.n.n.n.N.N.N.V 6 + + + +     .   . @ + - e W L.D.} -.J.A.v - e j w a 6 v p v < v N.I.F.w.b.Y.H.} W p N w.h + @ @ @ # @ @ @ + - # . j W L T P T T W W W W W W T T T T ~ L p b ; < b _ v.N.N.v.B.v.p.j w.N.v.B.B.V.S.A.V.A.V.B.A.N.c.j.p.:.U G F L | w.h.n.A.V.c.c.c.c.c.c.n.n.j.L W c.N.N.N.| ~ N.B.p.L v 6 6 q q q q q 6 3 6 6 6 6 6 7 q 7 1 < @ e a j j y ;   o 1 p j j j j k j z 7 3 e r e p p e e e e e e e e e e e e e e e e e p p p u p p p i e e e e w e e e e q 6 6 6 e e e e 6 6 6 6 6 6 6 6 6 6 6 6 6 < < 6 6 6 6 6 6 6 6 6 e e 8 8 9 9 6 3 6 e 3 6 9 3 3 6 6 6 6 3 2 2 3 6 6 3 3 < < < 3 2 < 2 2 < > - @ o     . . . . X X X X X X . .         X                 . . . X X X X X X . X X X + @ @ @ @ @ @ @ @ @ @ @ ",
"- - - - - - - - : : < < < < < < < < < < < < < < < , , - - - - - - - - - - - - - - - - - - - - - - - - = - = = = $ $ $ @ @ @ @ @ @ @ @ @ @ @ @ @ @ @ @ @ @ @ @ @ @ @ @ @ @ @ @ @ @ + @ @ + @ @ = = = - - - - - - - - : - - - - - - - : , , : - - - - = $ $ @ @ @ @ @ @ @ @ @ @ @ @ + + + @ @ @ @ @ @ @ @ @ @ @ @ @ @ @ @ $ @ + X @ @ @ @ @ @ @ @ @ @ @ @ @ - - - < < < < < < < < < 2 3 3 2 > % @ - 3 y l G z @ % < > @ o - > @ - j ~ 6.w.D e | w.:.1.u.~ h g | p.a.w.w.p.s.a.E e p W g.f.e.e.B a 6 e h.B ; P c.h.c.j.L e v f.A.N.v.x.c.b.c.v.N.v.2.~ F P ' t.n.V.:.r ; > O a 6 | n.n.n.n.n.N.N.N.N.N.n.n.n.n.N.N.V q + + + + +         @   < 6 h.K.E v v E L._ < h K j L a D v v D -.Y.F.j p p s.Y.1.K N e L 6 + @ @ @ # @ @ @ + - # . j W P T P T T W W W W W W T T T T Q D e v + v 1.x x W f.B.n.S.D ~ C.c.v.v.c.v.N.c.c.v.v.N.n.v.c.c.N.B.B.B.N.d.6.,.' ' 6.p.c.N.B.n.B.c.c.N.N.A.w.U h.c.c.N.0.:.c.N.w.K b 6 q q q q q 6 3 6 6 6 6 6 6 e q < - . 6 h a a j j -   o 1 a j j j k j j p 3 e r e p p e e e e e e e e e e e e e e e e e p p p p p p p i e e e e e e e e e q 6 6 6 e q e e 6 6 6 6 6 6 6 6 6 < < < w < 2 w 8 8 6 6 6 6 6 6 e e 9 9 9 9 6 6 9 9 3 6 9 6 6 9 6 6 6 6 3 3 6 6 6 6 6 2 < 2 6 2 2 6 6 < < < - @ .   . . . . X X X X X X . . .   X X X X               . . . X X X X X X X X X X + @ @ @ @ @ @ @ @ @ @ @ ",
"- - - - - - - : : , < < < < < < < < < < < < < < , - - - - - - - - - - - - - - - - - - - - - - - = = = = = = = = $ $ $ @ @ @ @ @ @ @ @ @ @ @ @ @ @ @ @ @ @ @ @ @ @ @ @ @ @ @ @ @ @ @ @ @ + + @ @ $ = = = - - - - - - - - - - - - - - - : : : - - - - = @ = $ @ $ @ @ @ @ @ @ @ @ @ + + + @ @ @ @ @ @ @ @ @ @ @ @ + + @ $ = $ X X @ @ @ @ @ @ @ @ @ @ $ @ = - - - , < < < < < > > > < 3 3 3 6 3 > % < < > 3 y 6 @ > 2 > @ @ > < - - a F X.0.V q D 0.w.:.p.w.V 6 j } h.w.w.w.w.f.a.L u j 1.a.p.e.1.v @ W A.p.j D h.c.j.v.p.v h D e.B.v.c.c.c.c.v.c.B.V.n.j.,.W Z Z m 3 O q @ j 1 L n.n.n.n.N.N.N.N.N.N.n.n.n.n.N.N.V q + + + + + +       D p p e N.J.B v v L U.c.e 6 N j E p N e < K 0.Y.0.h a p v I.p.K N < L e + @ @ @ # # @ @ + - # . j W P T P T T W W W W W W T T T T W B 6 v   D A.v.u.E v V h.T D A.N.N.N.N.N.N.V.n.v.N.B.A.v.N.N.N.b.N.N.v.v.B.V.B.n.j.w.' U 6.c.A.N.v.v.N.N.N.A.h.L f.A.N.S.s.L h.C.w.W g q q q q q 6 6 6 6 6 6 6 3 e e < @   < j j j j k a -   o r j j j k j j j 3 e e e e e e e e e e e e e e e e e e e e e e p p p p p p p i e e e e e e e e e q q 6 6 q q e e 6 6 6 6 6 6 6 < < < , < w < 2 w 8 8 6 6 6 6 6 6 e e 9 9 e 9 6 6 9 9 3 6 e 9 9 9 9 6 9 6 3 3 6 6 6 6 6 2 < 2 6 6 6 6 6 3 2 < : % + . . . . . X X X X X X . . .   X X X X               . . . X X X X X X   X X X + @ @ @ @ @ @ @ @ @ @ @ ",
"- - - - - - : : : , < < < < < 2 < < < < < < < - < , , - - - - - - - - - - - - - - - - - - - - = = = = $ $ @ @ @ @ @ $ @ @ @ @ @ @ @ @ @ @ @ @ @ @ @ @ @ @ @ @ @ @ @ @ @ @ @ @ @ @ @ @ + + @ @ @ @ @ @ $ = - - - - - - - - = - - - - - - - : : : - - = $ $ $ $ @ @ @ @ @ @ @ @ @ @ + + + @ @ @ @ @ @ @ @ @ @ @ + + + @ = = - - $ $ $ $ $ = = = = @ @ $ $ - - - - - < < < - - - - : > > 2 3 3 2 < > - > > > 3 3 : - - : < - @ - < - - r G } 0.~ e j 1.w.2.0.s.u.v r V 1.u.w.p.p.e.p.p.P r B 0.p.w.j.F 6 1.c.c.T v w.c.c.c.N.w.B j P e.v.A.b.c.l.c.v.v.n.N.N.B.d.! 3   < e - p u b A.n.c.n.N.N.N.N.N.N.N.N.N.N.N.N.F e - O # # # # + - - L < e D s.L.D h j c.I.-.v 6 B N E v h e D D L Y.g.6 p 6 D I.p.W j B h.h   * - * * - @   @ - * # v L P W E E ~ Q W W W W W T T T T ~ j r j + L N.c.N.A.j.1.a j b.N.N.v.c.v.N.N.N.N.N.B.B.B.N.N.N.N.n.n.N.N.N.N.N.N.n.n.n.n.j.X.L 2.A.N.N.N.N.N.N.N.p.P x.S.N.N.h.W e.S.p.B < 6 6 6 6 < < 6 e 6 < 6 q q ;   O O + u j j j j j r ; . @ a j v j j d j e q e e e e e e e e e e e e e e p e e e e p p p p p p p p p p p e e e e e e e e e 6 6 e e e e 6 6 6 < < < < < - - < - < 6 < < 8 w w w w w w 6 8 e e 9 9 e e 6 6 9 e 6 6 e 9 9 9 9 6 9 6 6 6 6 6 6 6 6 6 < 3 6 6 6 6 6 6 6 6 2 < - + . . . X X X X X X X .   X X X               . .   . .   X X X X X   . . X + @ @ @ @ @ @ @ @ @ @ @ @ ",
"- - - - : : : , , < < < < < < < < < < < < < < , , - - - - - - - - - - - - - - - - - - - - - = = = = $ @ @ @ @ @ @ @ $ @ @ @ @ @ @ @ @ @ @ @ @ @ @ @ @ @ + + + + @ @ @ + + + + + + + + + @ @ @ @ @ @ @ @ $ = - - - - - - - = - - - - - - - : , , : - = @ $ @ @ @ @ @ @ @ + @ @ @ @ + + + @ @ @ @ @ @ @ @ @ @ @ @ @ @ @ @ = - - - = = = = = = = = $ $ - - - - - - - - < < - - : - : : > > 3 3 < > > - - - - > < < < > - - > : % @ < < - 1 b T 2.:.v e P 0.0.w.2.g.1.D j F :.a.g.0.0.w.p.w.v e F p.h.j.v B c.a.j.p.V P j.b.f.h.v.h.| D V E a.c.N.N.v.v.v.v.h.c.N.v.z o O q # e p j N.v.c.n.N.N.N.N.N.N.N.N.N.N.N.N.F e - O # # # # - @ @ a K e v N A.F.-.b.L.b.v p 4 v D D N g 6 6 p D A.L.L a K K.J.W v 6 p B h + - * * * - @ . @ * - - B L P W T ~ ~ Q W W W W W T T T T W a a e   | b.N.b.b.j.A.D F %.p.f.N.A.B.N.n.v.c.v.v.N.B.N.N.N.N.n.n.N.N.N.N.N.N.n.n.n.n.B.A.j.P k c.A.v.N.N.N.N.B.f.F v.A.j.A.c.K _ B.h.r O 6 e q < , 6 r e 6 < 6 6 < # . . . 6 d j j j k j r ;   > p p k j j j e q e e e e e e e e e e e e e e p e e e e p p p i i p p p p p e e e e e e e e e 6 6 6 6 6 < < < < 3 < < < < < - - < - 2 6 < 2 8 w w w w w w 8 w e e e e e e 6 6 9 e 6 6 e 9 9 9 e 6 e 6 6 6 6 6 6 6 6 6 < 3 6 6 6 9 9 6 6 6 6 6 - @ +   X X X X X X X X .   . X   .             . .   . .   X X X X X .   . X X + @ @ @ @ @ @ @ @ @ @ @ ",
"- - - - : : , < , < < < < 2 2 5 5 2 < < < < < < , - - - - - - - - - - - - - - - - - - - - = - - = = $ @ @ @ @ @ @ @ @ @ @ @ @ @ @ @ @ @ @ @ @ @ @ @ @ @ + + + + @ @ + + + + @ + + + + + @ @ @ @ @ @ @ @ @ $ - - - - - - - = = - = - - - - : < < , - $ @ @ @ @ @ @ @ @ @ + + @ @ + + + + @ @ @ @ @ @ @ @ @ @ @ @ @ @ @ @ - : : - = - - = - = = = = $ - - - - - - - - - - - - : - - : > > 2 < > > - - - % - - - > < < < : - < - o o - - % 6 j F %.w.P p x | p.w.1.1.w.0.L V D | g.s.e.w.w.c.| v a ~ a.f.a 1.g.p.j.c.K v %.v.x.c.v.v.j.w.K N V U 2.c.v.B.A.n.v.l.h.j 6 - ; O 1 g u c.b.v.v.N.N.N.N.N.N.N.N.N.N.N.N.F e - O # # # # - @   L D h - < p 0.c.g.W h D h B D K B N v W a B a B w.S.A.J.D._ h 6 h 0.D 6 @ - - - - - @ . @ * - ; D L P W W ~ ~ W W W W W W T T T T F e j < @ p.N.v.N.g.N.w.V B.w.:.~ W ~ ,.p.l.N.N.B.N.N.N.N.N.N.N.n.n.N.N.N.N.N.N.N.n.n.N.N.v.N.N.T a c.N.N.N.N.N.c.D.h.U A.N.v.N.c.W K N.N.v - 1 ; q u q - @ - q q < p e # O   # r j j j j k j r # @ y z k k j j e q e e e u e e e e e e e e e e p p e e e p p e e e e e p p p e e e e e e q e 6 6 < < < 6 6 < < < < < < < < < - - < - 5 6 < < 8 e w w w e e e w e e e e e e 9 9 9 e 6 8 e 9 9 9 e 6 e 6 6 6 6 6 6 6 6 6 3 6 6 6 6 9 9 6 9 9 9 9 < - @ . X X X X X X X X .   X X       .         . . . .     X X X X X .   . X + + @ @ @ @ @ @ @ @ @ @ @ ",
": - - - , , < < < < < < 2 5 5 5 5 2 < < < < < < < - - - - - - - - - - - - - - - - - - - - - - - = = $ @ @ @ @ @ @ @ @ @ @ @ @ @ @ @ @ @ @ @ @ @ @ @ @ @ + + + + @ @ + + + + + + + + + + @ @ @ @ @ @ @ @ @ @ $ = = = = - - = - = = - = = - , < < : - $ @ @ @ @ @ @ @ @ @ + + @ + + + + + @ @ @ @ @ @ @ @ @ @ @ + + + @ = - : : - - : - = - = = = = = - - - - - - @ # - - - - > - - - > > < < > > - - % % % % % % - > < > - @ - 3 # . O - - < e v | :.:.D q v %.e.u.:.0.w.e.| F W ~ e.h.e.3.p.p._ r j g.| k c.h.h.p.c.p.V W a.v.h.j.c.c.N.j.e.W V v Z W :.a.n.N.d.p 1 < 3 + < v e f.c.n.c.N.N.N.N.N.N.N.N.N.N.N.N.F e - O # * * *   @   < L v v a e h N e v j w.j B D K b v j L W } B D v B _ D N D v W D D 0.6 @ - - - - - @ . @ # - < F L P W W E ~ Q W W W W W T W W T V q v * # B W 2.g.A.A.j w.N.N.C.B.N.h.t.2.2.X.' +.w.d.c.N.N.N.N.n.n.N.N.N.N.N.N.N.n.v.n.n.n.v.c.S.X.a c.n.N.N.N.n.n.A.w.W B.N.B.N.B.w.B j.a.; @ g F _ _ | V p u p p q p q O     3 d j j j j k j 6 e a z j k j j e q e e e u e e e e e e e e e e e e e e e e e e e e e e e 6 6 6 6 6 6 6 6 6 6 6 6 6 6 6 < < < < < < < < < < < < - < - 6 8 < < 8 e e e w e e w w e e w e e w 9 9 9 e 9 8 e 9 9 9 e 6 e 8 6 6 6 6 6 6 6 6 6 6 6 6 6 6 9 6 9 e e e 6 < - @ X X X X X X X X     X .                 . .         X X X X X .   X X X + + @ @ @ @ @ @ @ @ @ @ ",
": , < < < < < < < < < 2 5 5 5 5 5 < < < < < < < - - - - - - - - - - - - - - - - - - - - - - $ $ = = $ $ @ @ @ @ @ @ @ @ @ @ @ @ @ @ @ @ @ @ @ @ @ @ @ @ @ @ @ @ + + + + @ @ + + @ @ @ @ + + @ @ @ @ @ @ + + @ @ @ @ $ @ $ - - - = = = = - : , , - - @ @ $ @ @ @ @ @ @ @ @ @ @ @ @ @ @ @ @ @ @ @ + + + + @ @ @ @ + + @ @ = - - - : - - = = = = = = = = = = - - - - @ - - - , > < 3 < > > < < < - - - - - % @ - - - - % - - - - - < - @ . - ; < 6 p D E 1._ B v D | 2.w.2.2.w.w.:.K D K | f.p.e.u.e.V a | a B h.p.g.h.c.j.:.D ~ p.b.c.a.v.c.v.N.j.h.w.W D B B G V < - 6 1 < - e 6 -.v.v.b.N.N.N.N.N.N.N.N.v.c.b.v._ e - . # # @ @ @ # . . p q L x v ~ P b D j V q e D K B D 6 e K D %.W W :.2.F W K w.V w.e j e O # # # # # @ . @ - @ 1 L L P W W W W W W W W W W W U P ! B e v   r | B z v L b F D.c.j.N.c.N.N.N.A.N.c.d.6.#.W L L ~ 2.p.N.V.B.c.n.l.v.B.N.N.n.n.N.N.n.v.N.A.%.N c.c.N.N.N.n.n.n.| | N.b.j.v.A.p.v h D T 1.| L V B D 2.u.D D V u ; * # # - h v x j k k k p e x j g v j k e e e e p p p e e e e e e e 6 6 e e e e e e e e e 6 6 6 6 6 6 6 6 6 6 6 3 6 6 3 < 3 < 4 6 6 < < < < < < < < < , : < : 6 5 2 < 6 i e e w e e e e e e e e e e 9 9 e e 9 e e 9 9 9 e 6 w 9 6 6 6 6 6 6 6 6 6 6 6 9 9 6 e 9 9 e e e 6 < < @ X . . . . . X X X X X X . . . . . . . . . . . . . . X X X X X X . . X X X + @ @ @ @ @ @ @ @ @ @ ",
", < < < 2 2 5 2 2 2 5 6 6 5 5 5 5 < < < < < < , - - - - - - - - - - - - - - - - - - - - - - $ $ = = $ $ @ @ @ @ @ @ @ @ @ @ @ @ @ @ @ @ @ @ @ @ @ @ @ @ @ @ @ @ + + + + @ @ + + @ @ @ @ @ @ @ @ @ @ @ @ + + + + @ @ @ + @ $ - - $ @ = = - - - - - $ $ $ @ @ @ @ @ @ @ @ @ @ @ @ @ @ @ @ @ @ @ @ + + + + @ @ @ @ @ @ @ @ @ = - - - - = $ $ $ = = = = = = = - - - - - - - - - < < 3 3 3 2 < : - - - - % % % @ - - - % - - - - - - - - - - + @ - < < 6 e v L 1.-.D v D W :.2.1.0.w.u.:.P V V W :.1.w.h.p.D j O V g.h.s.a.h.j.j.1.L L w.N.c.g.h.j.j.j.c.n.N.c.d.,.V < ; 1 < 1 ; e e K c.c.v.N.N.N.N.N.N.N.N.c.c.c.v.2.u - # # @ O O @ @ . . . # - e 1 j p 6 3 6 #   < B B v b -   - < j r B P e.B :.v 0.p v p B < - * * # # # @ . @ @ @ 3 L L P W W W W W W W W W Q W P P P e d d   P V.B.N.h.:.; z W a.N.N.N.v.v.v.N.N.n.v.S.A.N.c.h.2.P B G U 6.l.n.B.N.l.n.N.N.n.N.N.N.N.N.c.N.%.V N.v.v.n.n.n.n.N.~ p.b.h.N.f.v j p.N.c.B.C.b.c.u.L B Q h.a.D v b -   . # q h g k k k k j e e j j g j u 6 6 6 6 < < 6 < < < < 6 6 6 6 6 6 6 6 6 6 6 6 6 6 6 6 6 6 6 6 6 6 6 6 6 6 6 6 6 < < < < 6 6 < < < < < < < < < < < < < w 5 6 < 6 i e e w e e e e e u u e e e 9 9 e e 9 e e 9 9 9 9 6 w 9 6 6 6 6 6 6 9 6 6 8 9 e e 6 e 9 9 e e y e < < - @ X .   X X X X X X X X . . . . . . . . . . . . . . X X X X X X . . X X X + @ @ @ @ @ @ @ @ @ @ ",
", < < 2 6 6 6 6 5 5 6 8 6 6 5 5 6 < < < < < < < - - - - - - - - = = = = - - - - = = - - = = = = = $ $ $ @ @ $ $ @ @ @ @ @ @ @ @ @ @ @ @ @ @ @ @ @ @ @ @ @ @ @ @ + + + + @ @ @ @ @ @ @ @ @ @ @ @ @ @ @ @ @ @ + + @ @ @ @ @ @ @ @ @ @ @ @ $ = - - - @ @ @ $ $ @ @ @ @ @ @ @ @ @ @ @ @ @ @ @ @ @ @ + + + + @ @ @ @ @ @ @ @ @ = - - - = @ @ @ $ $ $ $ $ $ $ = - : , - - - - < < - % $ - > > - - % - - - % % @ $ - - - - - - < ; - @ - - # # - - + + - < 6 < e h B E ~ K B B F | w.u.0.p.s.e.| W V v U W _ ~ P a O x s.h.a.h.g.c.h.h.| j v 2.c.b.b.c.a.f.h.h.c.c.N.W 6 ; 1 ; 6 < q p j j.c.c.N.N.N.N.N.N.N.N.v.B.v.s.B -     @ O + @ @ @ . . O   O . . - O O # * ; @ < v v j u -   # @ O * @ 3 e 1 p - -   D N D # * - - - - # @ . @ @ O 1 P K L U W W W W W W W W W W U L D 6 v 3   e.v.j.j.A.a.a | v a V u.A.A.N.c.b.v.v.n.n.v.v.N.N.N.N.N.t.X.L F U t.N.V.n.n.N.N.N.N.N.N.b.b.c.A.P W b.N.n.N.N.N.B.v.K %.N.~ 1 @ k B v B F -.c.N.N.v.N.:.D 1.v.F v T v O O < j v k k k k j p < g a k j < 1 3 6 < < 6 6 6 6 6 e e 6 6 6 6 6 6 6 6 6 6 6 6 6 6 6 6 6 6 6 6 6 6 6 6 6 6 < < < < < < 6 6 < < < < < < < < < < < , 2 w 6 8 2 w i i e w e e e e e u u e e e e e e e 9 9 e 9 9 9 9 8 e 9 9 8 9 9 9 9 9 9 9 9 e e e 9 e e e e e y e 6 6 < = @ X . X X X X X X X X . . . . . . . . . . . . . . X X X X X X     . X X + @ @ @ @ @ @ @ @ $ $ ",
"< < < 5 8 6 6 8 8 8 6 6 8 6 6 5 < < < < < < < - - - - - - - - - = = = = - - = = = = = = = = = = @ @ @ @ @ @ $ $ @ @ @ @ @ @ @ @ @ @ @ @ @ @ @ @ @ @ @ @ @ @ @ @ + + + + @ @ @ @ @ @ @ @ @ @ @ @ @ @ @ @ @ @ + + + + @ @ @ @ @ @ + + @ @ @ @ @ @ $ @ @ $ $ @ @ @ @ @ @ @ @ @ @ @ @ @ @ @ @ @ @ @ + + + + @ @ @ @ @ @ @ @ @ $ - - - $ @ @ @ $ = $ @ @ @ @ = - : < - - - - - - - % % % % - - % % - - - % $ @ $ % % % - - - - - - - - - @ @ + @ - # + . - < 6 6 6 6 e a x g e 6 p D K K F D D V j 1 ; ; ; < e q < ; B %.p.a.g.f.a.g.c.a.K x v P u.c.c.c.c.c.h.p.l.m 6 < < - 6 1 6 g 6 h.x.c.N.N.N.n.N.N.N.N.c.| x e 6 @ - # O O O - @ O . . O + O O - ; @ ; - # # # e k h a 6 - O # @ < - . @ # . * . O < D v v ; 6 * - - - # @ O @ ; B B a K L U W W W W W W W W W U W L B e v . 6 j.h.c.l.N.m F F.b.p._ D W w.b.A.N.N.N.v.j.c.v.N.N.N.v.c.B.V.N.l.6.' W ,.c.n.n.N.N.N.N.N.N.v.N.N.B.B w.A.N.N.n.N.c.v.C.%.j e T p.h.p.p.0.:.L F W f.N.j.N.b.| L h.p.v E | e q e u k k k k p v < e j g 1 < 6 q 6 6 6 e 6 < < 6 6 6 6 6 6 < 6 6 6 6 6 6 6 6 6 6 6 6 6 6 6 6 6 6 6 6 < < < < < < < < < < < < < < < < < < < < 5 , 6 e 8 6 5 w i i e e e e e e e u u e e e e e e e e e e 9 9 9 9 8 e 9 9 8 9 9 9 9 e 9 9 w e y e e y e e e e y e 6 e 6 : = @ X X       X X X X . . . . . . . . . . . . . . X X X X X X     . . . X + @ @ @ @ @ @ @ $ $ ",
": < 5 6 6 w w 8 6 8 6 6 8 6 6 5 < < < < < < < - - - - - - - - - - - - = - - - - = = = = $ $ $ $ @ @ @ @ $ $ $ $ $ $ $ $ @ @ @ $ $ $ @ @ @ @ @ @ @ @ @ @ @ @ @ @ @ @ @ @ @ @ @ @ @ @ @ @ + + + + @ @ @ @ @ @ + + + + @ + @ + + + + + @ @ @ @ @ @ @ @ @ @ @ @ @ @ @ @ + + @ @ @ @ @ @ @ @ @ @ @ @ @ @ @ @ @ @ @ @ + $ - @ @ $ : < < < < < - @ - < $ $ $ $ - - - - - - - - - - % @ $ % % % - - % % - - % % - - - - - - - - - - - - @ @ @ + @ @ @ + + @ # - - < < 6 1 1 1 1 6 6 3 < ; - ; ; < 1 6 e e e 6 1 - 1 6 < h D E u.a.p.j.p.g.c.N.j.w.W B B D E w.h.N.v.v.V q < < - 6 7 ; j < W N.c.c.j.N.v.N.g._ D g a v P L - @ # # * # # # # # @   . O O # * @ @ @ - < ; p j k p - - q ; 1   . @ # - @ ; - # p D x 6 j e # q e e e r r 6 K g.c.-.b a V W ' U U U U U U Q U P P a j e o D n.d.j.c.h.q t.n.C.C.C.C.p.E D ~ p.v.A.N.v.N.N.v.n.N.N.N.N.n.n.n.G.S.j.#.F L t.A.N.c.N.N.N.N.N.N.A.a.v N.N.h.b.b.c.v.w.x V h.v.c.b.N.N.v.N.N.j.| F 0.v.v.j.v.p.D 0.c.x F h.b v q 6 N k j j a e 6 u - - 1 1 1 1 1 < < < < 4 6 6 6 6 6 6 6 6 6 6 6 6 6 6 6 6 6 6 6 6 6 6 6 < < < < 5 5 < < < < < < < < < < < < < < < < < < - < w e 6 w 6 w p u e e e e e e e e e e e e e e e e e 9 e 9 9 9 e 8 e e e y 6 9 e e e e e e e y y y y y e e e p e 6 e 6 < - @ + . .             . . . . . . . . . . . . . . X X X X X X   . .   . X + @ @ @ @ @ @ @ $ $ ",
"< 6 8 6 6 w w 8 8 8 6 8 8 8 6 5 < < < < < < - - - - - - - - - - = - = = = = = = $ $ $ $ @ @ @ @ @ @ @ @ $ $ $ $ $ $ $ $ @ @ $ $ $ $ @ @ @ @ @ @ @ @ @ @ @ @ @ @ @ @ @ @ @ @ @ @ @ @ @ @ + + + + @ @ @ @ @ @ + + + + @ + + + + + + + @ @ @ @ @ @ $ @ @ @ @ @ @ @ @ @ + + @ @ @ @ @ @ @ @ @ @ @ @ @ @ @ @ @ @ @ @ @ - , - - - < 2 5 5 5 5 - - - - - - - - - - = = - # - - - - $ @ $ % % - - - % % - - % % - - - - - - - - # - - - @ @ @ + @ @ @ @ @ @ - - @ - - - < < < < < 6 q q < < 1 1 ; ; - - - < 6 q 6 q 6 3 @ p P L :.h.h.a.s.a.g.j.c.c.h.u.E D b b D D _ j - 3 q - 6 q < e 6 v c.a.b.N.c.1.V a p D L ~ | P D - . O @ # @ @ O @ # #   - 6 # - < p e k B u * - < - O   ; 6 F j 6 6 < * *   @ O O < 6 a # x q # e e e p e p P j.c.v.N.N.p.B r v P U W U U U Q ~ P L q v 6 @ w.n.v.n.v.k z N.c.N.N.N.N.A.B.c.w.K B L g.N.B.B.c.v.n.N.N.N.N.n.n.B.l.n.A.A.,.F ~ x.n.c.n.N.N.N.N.c.B.1.v b.N.j.j.B.%.  1 K h v v P ~ w.c.N.S.N.v.N.1.E p.b.c.b.N.L K A.k B j.B L g 1 j a j j e @ @ < < 6 1 1 1 1 < < < < < 6 6 6 6 6 6 6 6 6 6 6 6 6 6 6 6 6 < < 6 < < < < < < < 5 5 < < < < < < < < < < < < < < < < < < - < w w 5 w 5 6 p p u e e e e e e e e e e e e e e e e 9 e 9 6 9 e 8 e e e y 6 9 e e e e e e y y y y y y e e e p e 6 e 6 5 , - @ .               . . . . . . . . . . . . . . X X X X X X         . X + @ @ @ @ @ @ @ $ $ ",
"< 5 6 8 6 w w 6 6 6 6 6 8 8 6 2 < < < < < - - - - - - - - - - - - - - - = = = = $ $ $ $ @ @ @ @ $ $ @ @ @ @ @ @ @ @ $ $ @ @ @ @ $ $ $ @ @ @ @ @ @ @ @ @ @ @ @ @ @ @ @ @ @ @ @ @ @ @ @ @ + + + + @ @ @ @ @ @ + + + + + + + + + + + + @ @ @ @ @ @ $ $ @ @ @ @ @ @ @ @ + + @ @ @ @ @ @ @ @ @ @ @ @ + + + + + + + + @ X o - - : < < 2 2 2 2 - - = - - - - - = $ $ $ $ @ = = - - $ @ $ % % - - - % % - - % % - - - - - - - - - - < < @ @ @ + @ @ @ @ * - - - - - - - - ; - - < < < 3 6 6 6 6 6 6 < < ; ; - ; < < < 1 q # r | L L s.p.g.f.a.f.h.a.a.h.v.N.j.e.-.D V < O q q , 7 e 1 ; j r g.j.:.F j a v L _ W L P P P W v a a j j j j - O # #   < v j D j :.v D D < #   . O         L x g v v N v r p j x k v P a b q - e r r q r | N.N.v.v.N.v.N.V.p.G d k H Q Q Q U Q L b r v - 3 U W ' X.k ; w.F.c.v.v.v.v.c.c.B.N.v.h.~ F B ~ h.V.B.N.N.N.N.N.n.v.n.N.n.c.N.A.N.2.F w.A.N.N.N.N.N.N.v.A.L j h.B.n.V 6 V :.1.g.h.f.p.-.W P P 0.A.b.c.N.h.W K v.N.j.N.B B N.V D B.D | g - v h j r . ; q < < 1 < < < < < < < < 6 6 6 6 6 6 6 < < 6 6 6 6 6 6 6 < < < < < < < < < < < 5 5 5 < < < < < < < < < < < < < < < < < < 6 w 6 5 w 5 6 p p e e e e e e e e e e e e e e 9 e e 9 e e 9 e e 9 e e e y 8 w w w e w e y p p p y y y e e y p p e e e w 5 , - X .     X X     . . . . . . . . . . . . . . X X X X X X X X X X . X + @ @ @ @ @ @ @ @ @ ",
"+ : 6 6 6 w w 6 6 6 8 6 8 6 5 2 < < < < - - - - - - - - - - - - = - - - = $ $ $ @ @ @ @ @ @ @ @ $ $ @ @ @ @ @ @ @ @ @ @ @ @ @ @ $ $ $ @ @ @ @ @ @ @ @ @ @ @ @ @ @ @ @ @ @ @ @ @ @ @ @ @ + + + + + + + @ @ + + + + + + + + @ + @ + + @ @ @ @ @ @ @ $ @ @ @ @ @ @ @ @ + + @ @ @ @ @ @ @ @ @ @ @ @ + + + + + + + @ @ @ $ - - - > : < 2 2 < < - @ $ $ @ $ @ @ @ $ $ @ @ $ $ @ @ @ @ @ % % - - - - % * % @ @ - - @ @ - - - - - - - - @ @ @ + @ @ @ @ - - - < < < < < - - - - - - - - - - - - , - - - - - - - . . - 6 e q ; q } :.A | s.f.h.f.a.c.c.p.c.h.h.j.j.N.j.q - q 1 , q e 6 . j 6 x x j v F ~ T W P P P W W P L L W W W T W T r - O #   # v k N v ~ k B F -   @ .     ; r q P j a k a W K j j D K N B v D h.g - r y p F p.n.n.v.v.N.N.B.B.c.B.S.c.Q v k Z U ! U L e m e @ U w.:.v O p < d w.l.v.v.v.v.N.N.N.v.c.N.A.v.w.W D U d.c.V.B.N.N.n.n.N.B.n.c.n.c.v.N.N.%.W N.N.N.N.N.N.v.j.A.L a | a p h.A.b.c.C.N.N.A.A.N.c.p.T L a.A.c.c.N.W h h.N.c.N.N K S.k ~ c.x w.r < j j e < < < 6 < 1 < < < < < < < < 6 6 6 6 < < < < < 6 6 6 6 6 6 6 < < < < < < < < < < < 5 5 5 < 2 < < < < < < < < < < < < < < < 5 6 6 5 5 w 6 6 p p e e e e e e e e e e e e e e 9 e e 9 e 9 9 e e e e e e e 8 w w w e t e y p p p y y y e e y p p e e e w 8 < : @ .     X X     . . . . . . . . . . . . . . X X X X X X X X X X . X + @ @ @ @ @ @ @ @ @ ",
".   + - 5 6 6 6 8 8 8 6 6 6 2 < < < < < - - - - - - - - - - - - = = = = $ $ $ $ $ $ $ $ @ @ @ @ $ $ @ @ @ @ @ @ @ @ @ @ @ @ $ $ $ $ $ $ $ @ @ @ $ @ @ @ @ @ @ @ @ @ @ @ @ @ @ @ @ @ @ @ + + + + + + + @ + + + + + + + + + + + + + @ @ @ @ @ @ @ @ @ @ @ @ @ @ @ @ @ @ @ @ @ @ @ @ @ @ @ @ @ @ + + + @ @ @ @ @ $ $ @ $ - > > < < < 6 2 < @ % @ @ @ % $ @ @ @ @ @ @ @ @ @ + @ @ @ @ @ @ $ - - - - = = @ @ @ @ @ @ = - - - - - - - - # @ @ @ @ @ @ - - - - < < < < ; ; ; ; - - - - @ @ + .   . . . . . . .     - 6 1 6 ;   < D u.T v D w.c.c.a.a.h.h.c.j.a.d.d.6.- e r ; 6 r y - # 1 r # D L P P P P P P U U U U U W W W U U P P P D < @ # .   p b N N T j B j j h V v a v x v j ~ N e v j L D v j F V v N g ~ 2.m | P L 2.n.n.n.n.N.N.N.N.N.N.N.N.n.n.n.n.#.v y v W j 1 b o 6 A.v.F b r t.9 v y b b.N.v.v.v.N.N.v.v.N.N.n.N.N.c.e.-.W T 0.v.N.B.N.N.n.v.v.n.c.c.v.B.B.:.F c.C.N.c.v.b.N.s.F.W . v c.c.c.c.b.N.c.c.N.N.N.N.C.N.p.L :.C.c.c.N.~ e g.N.N.A.D | A.h e.h.B w.p e g e - < < < < 6 6 6 6 < < < < < 6 6 6 < < < < < < 6 6 6 6 6 6 3 6 6 < < < < < 2 2 < < 2 2 2 2 2 < < < < < < < < < < < < < - < e e 6 6 6 6 6 6 p e u e e e e e e e e e e e e e e e e 6 e e e e e e e e e e w w e e e e e e p p p y y e e e y p p e e e w w 8 < : $ X X X X         X X     . X + . X X X X X X X X X X X X X X X X @ @ @ @ @ @ $ $ @ @ ",
"@ X X + @ - < 6 6 8 8 8 6 5 2 2 < < < < < < - - - - - - - - - - = = = = $ @ @ @ @ @ @ @ @ @ @ @ $ $ @ @ @ @ $ $ @ @ @ @ $ $ $ = $ $ $ $ = - = $ $ @ @ @ @ @ @ @ @ @ @ @ @ @ @ @ @ @ @ @ + + + + + + + + + + + + + + + + + + + + + @ @ @ @ @ @ @ @ @ @ @ @ @ @ @ @ @ @ @ @ @ @ @ @ @ @ @ @ @ @ @ @ @ = - - - - - % $ % > < 2 2 2 3 3 < < % % % % : > - @ @ @ @ @ @ @ @ @ @ @ $ = - - - : < : - - = @ @ @ @ @ $ $ = = - - - - - - - - @ @ @ @ @ @ - - - - - - - - ; ; ; ; - - - - X .       . . . . . . . .   . @ 1 q 1 # < O j w.p.P j D w.j.n.g.p.h.j.h.h.c.m ; e r ; 6 7 e ; < - p 3 Z L L L P P P P U U U U U W W W U U P P P W r . - @   e B b b W e j 6 V N j v a p e e 6 u 6 6 r e D V b j F D x b q B y r c.N.N.N.n.n.n.n.N.N.N.N.N.N.N.n.n.v.c.c.n.v.6.Z p # v e   2.h.v L N.v 1.e Z j.k 6 W N.C.N.b.c.v.N.N.N.v.b.n.N.N.N.c.2.W P ! e.c.N.N.n.n.N.n.c.c.c.x.N.a.K f.C.c.N.x.v.v.:.1 W A.N.N.v.c.c.c.c.b.n.N.N.N.v.N.A.N.F D c.c.h.N.X.a h.N.c.b.j e.f.j B.E L w.j q 6 - < < < < 3 6 6 6 < < < < < < 3 < < < < < < < 6 6 < < < < 3 6 6 < < < < < 2 2 < < 2 2 2 2 2 < < < < < < < < < < < 2 , : 6 e e 6 6 6 6 6 6 p e e e e e e e e e e e e e e e 6 e e 6 e e e e e e e e e e w w e e e e e e p p p y t e e e y p p e e e w w e 6 < - @ X X X               . X X + . X X X X X X X X X X X X X X X X @ @ @ @ @ @ $ $ @ @ ",
"+ +       + = , < 5 6 8 6 < < < < < < < < < < , - - - - - - - - - - - - = $ $ $ @ @ $ $ @ @ @ @ $ $ @ @ $ $ $ $ @ @ $ $ = = = = = = - - - - - = $ $ @ @ @ @ @ @ @ @ @ @ @ @ @ @ @ @ @ @ @ @ + + + + + + + + + + + + + + + + + + + + + @ $ $ @ @ @ @ @ @ @ @ @ @ @ @ @ @ @ @ @ @ @ @ @ @ @ @ @ @ : < < < < < < : : - > < 2 2 2 2 < < < > - - - - % - @   @ @ @ @ @ @ @ $ $ - - - : : < < < < - $ @ @ $ $ = $ $ $ $ $ - - - - - @ - - * @ @ @ @ @ - - ; < - - - - ; ; ; ; - - - - + .         . . . . . . +       ; 6 6 ; 6 e * < D g.h.U v V ~ s.v.N.j.w.v.1.1 p e e ; 6 6 7 ; 6 6 6 j r L L L P P P P U U U U U W W W P U P P P L D @ @ 1 O 6 b b j D x v.W P.a.:.K.F.D N.A.L j b.E B | N b B v K K a x B D p m V j.n.c.n.n.n.n.n.n.n.n.N.N.N.n.n.v.c.c.c.l.v.V.B < z   y ' r 6.B.V.V U e q :.S.} p p :.A.A.C.x.N.N.N.v.c.c.v.v.v.N.C.N.c.w.~ P X.t.n.V.N.n.n.c.v.N.c.A.x.L | c.n.c.N.W ; K j.1.0.e.f.j.N.B.N.N.N.N.N.N.b.c.c.c.F.L a h.N.v.N.1.v h.h.c.1.j D.K X.N.b w.F e + < < < < < 5 2 5 5 < < < 6 < < < < < < < < < < 6 6 < < < < 3 3 3 < < < < < < < < < 2 2 2 2 2 < < , < < < < < < < < < - 5 e e e 6 6 6 6 < 6 p e e e e e e e e e e e e e e e 6 e e 6 e e e e e e e e e e e e e e e e t w p p p y e e e e p p p w t e e e e e 6 < - + X . .   X X       . X X + X X X X X X X X X X X X X X X X X @ @ @ @ @ @ $ $ $ @ ",
"  X .   . . . X $ - < 5 5 2 < < < < < < < < < < - - - - - - - - - - - - = $ $ $ @ @ $ $ $ $ @ @ $ $ @ @ $ $ $ $ @ $ $ $ = = = = = = - - - - - = = @ @ @ @ @ @ @ @ @ @ @ @ @ @ @ @ @ @ @ @ @ + + + + + + + + + + + + + X X X + + + + + @ @ @ @ @ @ @ @ @ @ @ @ @ @ @ @ @ @ @ @ @ @ @ @ @ @ @ @ @ = - : : : , : : : : > < < > < < > < > > > > > < $ - - $ @ @ @ @ @ @ @ $ - - - : : : > < < : - $ @ @ = = $ @ $ @ @ @ = = @ @ @ @ - - - @ - * # # - - < < - - - - - - ; ; - - - - @ @ X       . . . . . . @     . O < 1 ; - q < . . q ~ j.h.-.V b B | a.h.2.e L d 9 e - 6 e 6 % 3 3 ; j q L L L P P U U U U U U U W W W P U P P P L L * < p - < j D v V e D k N.X.D S.N.D N.J.T v H.:.k 2.v B B b L L e j 1.p d X.B P n.N.n.n.n.n.v.v.n.n.N.N.n.n.n.v.c.c.c.v.l.#.6 v 6   e ! V j.c.B.~ m r q b h.B.c.W e g 1.A.C.N.N.N.N.v.v.v.v.v.b.b.c.c.n.v.j.:.+.' 6.c.N.n.n.v.x.c.b.n.N.0.D %.N.D . 6 F D b B b v j v D T 1.N.N.N.N.N.c.c.C.N.B.V e f.N.h.A.-.b c.c.N.x w.p.v N.~ 0.w.6 + - < < < < < < 2 2 < < < 6 3 6 < < < < < < < < 6 6 3 1 < < 4 4 3 < < < < < < < 2 < 5 2 2 2 2 < < , < < < < < < < < - , e e e e 6 6 6 6 < 6 p e e e e e e e e e e e e e e e 6 e e 6 e e e e e e e e e e e e e e w w t e p p p y e e e e p p p w e e i i e i 6 5 , = + X . . . X X       X + @ @ X . X X X X X X X X X X X X X X @ @ @ @ @ @ $ $ $ @ ",
"X + X X X X X X X + $ - < 2 6 5 < < < < < < < < < , - - - - - - - - - - = = = = $ $ $ $ $ $ $ $ $ $ $ @ $ @ $ $ $ $ $ $ $ $ @ @ = = - - = - - - - @ @ @ @ @ @ @ @ @ @ @ @ @ @ @ @ @ @ @ @ @ @ @ @ @ + + + + + + + + + X X X + + + + + + @ @ @ @ + @ @ @ @ @ @ @ @ @ @ @ @ @ @ @ @ @ @ @ @ @ @ @ @ = - - - - - - - - : : : : < < > : : : : - > < 6 6 - @ @ @ @ @ @ @ $ $ = - - - : , < < < : - = @ @ $ = $ @ @ @ @ @ @ @ @ @ @ @ - - - # - - - - , - - - - - - - - - ; ; ; ; < < < - = @ . . . . . . . . . . . . @ ; 6 6 * P L g # < - e P u.c.p.L g v %.3 F p.e q 6 - 6 6 3 % 6 9 < r p q ~ F L P U U U U U U U U U U U W ~ W _ K u N q e 1 ; a B B b v } g s.D v 0.~ p W K e q D g r V j N D B L F b g a # D L | m Q c.j.c.N.N.N.N.N.n.N.N.n.v.v.v.c.l.c.l.c.j y a   r t.V.D w.c.v.w.v q % e Q j.c.A.N.L r v 1.N.N.v.c.c.N.N.c.v.v.v.v.b.c.c.c.B.N.h.2.F U p.N.n.n.N.b.n.b.N.h.P 6 @ K c.c.c.c.b.c.v.v.a.:.K v h L j.N.b.b.N.v.v.c.N.D e h.N.N.N.B W b.j.c.v a 1 V b a :.v 6   < < < < < < < < < < < < 6 6 < < < < < < < < 6 6 6 6 6 6 1 < < < < < < < 5 2 < < < < < < < < , - - = @ @ @ @ = $ , 8 e e e e 6 6 < 6 < 6 r r r e e e e e e e e e e e e e 6 p u 6 e e e e e e e e e e e e e e e e t 8 t p p p y e w e p p p e e e e e e e w 6 2 : @ +         X X X @ - < , = X   X X X . X X X X X X X X X X @ @ @ @ @ @ @ $ $ $ ",
"@ @ + @ + X X X . X X + = : < < < < < < < < < < < < < ; - - - - - - - = = = = = $ $ $ $ $ $ $ $ $ $ $ @ $ @ $ $ $ $ $ $ $ $ $ @ = = - - = - - - - $ @ @ @ @ @ @ @ @ @ @ @ @ @ @ @ @ @ @ @ @ @ @ @ @ + + + + + + @ @ @ @ + + + + + + + + @ @ @ @ + + + + @ @ @ @ @ @ @ @ @ @ @ @ @ @ @ @ @ + + @ $ - - - - - - - - - - - % - > > > - : - - - > < 6 < - @ + + @ @ @ @ $ $ $ = - - - , < < , - - - @ @ $ $ @ @ @ @ @ @ @ + @ @ @ @ @ - - - - - - < < < , - - - - - ; ; ; ; ; ; - - - @ + X X . . . . . . . . . . . O # < < * D w.1.F v V v e 6 p V D v < . B j.2.e q 7 - q q 6 - 7 9 9 ; p < b U L P P U U U U U U W W U U ~ T T L e %.a.p e q < < x B N v c.L K.h.~ L.J.L H.L.-.:.I.a.V h.j N F V P B P p.e u W L U P m e.N.n.n.B.v.N.N.n.N.v.v.v.v.v.c.l.l.n.Q < k - ; 2.d.c.' | N.h.h.b r > # a f.c.c.N.C.c.~ p j ~ c.N.j.c.v.v.v.v.v.v.b.c.c.c.v.N.B.c.v.6.G Q h.A.N.j.C.x.c.n.a . ~ N.c.c.c.c.b.c.v.v.N.N.N.N.s.W a L v.N.c.c.N.N.b.A.v a N.c.N.j.b p.A.0.K 1.D D p.v < < e - - < - < < < < < < < < 4 6 < < < < < < < < < 6 6 6 6 6 < < < < < < < < < < < < : - - - - = @ @ + X + @ @ @ X @ : 8 e e e e e 6 e < 6 < 6 r e e e e e e e e e e e e e e e 6 p p 6 e e e e e e e e e e e e e e e e p 8 t a p p y e e e p p p e e e e e e e e w 6 2 - @ o .   X @ @ @ - , < < - +   . . . . X X X X X X X X X X @ @ @ @ @ @ @ $ $ $ ",
"@ @ @ @ @ @ + X X X . X X @ - , < < < < < < < < < < < ; - - - - - - - - - - - - - - - = $ $ $ $ $ $ $ @ @ @ @ @ @ @ $ $ $ $ $ @ = = - - - - - - - - @ @ @ @ @ @ @ @ @ @ @ @ @ @ $ $ @ @ @ @ @ @ @ @ @ @ @ @ @ @ @ @ @ @ @ @ @ @ + @ + @ @ @ @ @ + + + + @ @ @ @ @ @ @ @ @ @ = @ = = $ @ @ @ @ $ - - - - - - - - % % % @ @ $ - - : > - : - - : < 2 : - < + + + @ @ @ $ $ $ = - - - : < < - - - - $ @ $ $ @ @ @ @ + + + + @ @ @ @ @ - - - - - < < < < , - - - - - ; ; ; - ; - - - @ + + X + . . . . . . . . . . . . . * < 6 6 w.%.s.b :.u.a.| K N V K 0.D B a.p.p q 6 % q 7 6 % 6 e 7 3 < r ; H U L P U U U U U U W W W U L | L v w.v.c.v q u 6   N V v r j u b j a K V p B W u u N p 1 u j B L F W B v p @ D H W W ! U B d.n.N.N.v.N.n.v.v.v.v.v.n.v.c.l.l.,.< j 6   V j.h.j.t.H N.d.v.B j 6 < O v g.v.h.c.N.v.c.~ g e W h.c.N.N.v.v.v.v.b.c.c.c.c.c.v.N.v.c.c.,.K | c.A.c.z.f.g + ~ c.h.c.c.c.c.b.b.v.b.c.c.c.c.N.N.h.V g 1.N.c.v.N.c.j.A.h F C.c.S.| L x x s.B.N.b V c.K @ + D h < 6 < < < < < < < < < < < < < < < 6 6 6 6 6 6 6 6 6 < < < < < - - - - $ @ + + + @ @ @ @ X . . X + @ @ @ + - 8 e e e e e e 6 e 1 1 < 6 r e e e e e e e e e e e e e e e 6 p p 6 e e e e e e e e e e e e e e e e p 8 t a y p y e e e p a p e e e e w w e e e w 6 < - @ o X o @ $ < < 2 6 < : @     . . . X X X X X X X X X X @ @ @ @ @ @ @ @ $ $ ",
"@ @ $ $ @ @ @ + + X X X X X + @ - < < < < < < < < < < ; - - - - - - - - - - - - - - - = $ $ $ $ $ $ @ @ @ @ @ @ @ @ $ $ $ $ $ $ = = - - - - - - - - = $ @ @ @ @ @ @ @ @ @ @ @ @ $ $ @ @ @ @ @ @ @ @ @ @ @ @ @ @ @ @ $ @ @ @ @ @ + @ @ @ @ @ @ @ + + + + @ @ @ @ @ @ @ @ @ $ = = = = = = - - - - - - - = - - - - % $ @ @ + @ % - - > : - - - - < 2 @ . @ + + + @ $ @ $ $ $ $ = - - - , - - - - - = @ $ @ @ @ @ @ + + + + @ @ @ @ @ @ - - - < < < < - - - - - - - ; ; ; ; - - - - @ @ @ @ X X . . . . . . . . . .     + - q - W w.p.B :.p.a.P p.c.h.a.j.-.B h.h.v e 9 ; 9 9 q ; q 6 y 9   r 6 r P P P P U U U U U W W W U | F v p.N.c.v.W q e q . x V v e v p D v b N v B V L u x x e j a j B P L L :.* O v T U W W W Q L Z c.V.c.v.n.n.v.v.v.v.v.n.v.c.l.j.e y y   ; | v.h.c.a.V v.j.v.F m % 9 6 O L N.c.j.c.c.N.B.N.1.b p b | f.v.v.v.v.b.c.c.c.n.j.h.c.c.a.h.N.c.:.F | z.j.x - W h.j.b.c.c.c.c.c.b.v.v.N.v.b.c.c.j.N.D.e.u D B.N.N.v.N.B.v.j %.v.j.A.L T :.L T h.N.K v v.E - < p - < < < < < < < < < < < < < < < < < < - - - - - - & @ @ + + + + + + @ @ @ X X + @ @ @ $ @ @ + + X X X @ - 6 u e e e e e e 6 e 1 1 < 6 r e e e e e e e e e e e e e e e 6 p p 6 e e e e e e e e e e e e e e e e p 8 t p y p y t e e p a p e e e w e w e w e e w 8 < - @ @ $ - - 5 5 8 8 5 < $ X   . . . X X X X X X X X X X @ @ @ @ @ @ @ @ $ $ ",
"@ @ @ = @ @ @ @ @ X       . X X X @ - , 2 5 6 5 < < , : : - - - - - - - - - - - = = = = = $ @ @ @ @ @ @ @ @ $ $ $ $ @ @ @ $ $ $ $ = = = - - = = = = = @ @ @ @ @ @ @ @ @ @ @ @ @ @ @ $ @ @ @ @ @ @ @ @ @ @ @ @ @ @ @ = $ $ @ @ @ @ + + + + + @ @ + + + + + @ @ @ @ @ @ @ $ $ = = = $ $ = - - - - - - - - - - - - * @ @ o o @ $ - - - - - - - - < < , - = @ = @ @ @ $ - - - = @ @ - - - - - - : - = @ @ @ @ @ @ @ @ @ @ @ @ @ @ @ @ $ - - - < < < , - - - - - : - - - - - - - - - - - @ @ - + .   . . . . . . . . . . . . < < p w.w.v w.p.a.b 0.h.a.u.h.~ b c.g.V e ; 1 q e 6 - e 9 e 1 % # a ; z W L L P U U U U L W | ~ m v d.n.j.c.b.f.j q e ; e D j e k p B k D F D L V W B F L v V v z Z L ' D j O z W W W W W W W W B W N.N.v.v.n.v.v.c.c.c.V.l.c.v.m < y o o H L v.c.c.l.Z j.c.v.L b ; q r 6 - D c.v.c.h.c.b.c.N.N.a.L j v W 0.f.c.c.c.c.c.h.h.c.c.j.c.c.j.c.b.g.~ X.j * D c.c.c.c.j.c.v.v.v.N.N.v.v.v.v.v.c.c.c.v.C.c.p v N.N.N.j.c.v.p.v j.A.L } N.N.c.| B w.A.B D N.v e e . < < - - - @ @ @ * * @ @ + + + + + + @ @ @ @ * + + - @ @ @ @ - @ + + + @ @ @ @ @ @ @ @ @ @ @ - = @ $ - 6 e e e e e e e e 6 9 2 2 < 9 e e e e e w e w e e e e e e e e 8 i i 8 e e e e e e i p p p i i u e e e a e e p p p p e e e p a p e w w e e e e e e e e e 6 < - - < < 2 8 8 8 6 6 < = + X X X X X X X X X X X X X X @ @ @ @ @ @ @ @ @ @ ",
"@ @ $ @ @ @ @ @ @ @ + X . . . .   . X @ - , < < < < < , : - - - - - - - - - - - = = - = = $ @ @ @ @ @ @ @ @ $ $ $ $ @ @ @ @ $ $ @ $ = = - - - - = = = = - @ @ @ @ @ @ @ @ @ @ @ @ @ $ @ @ @ @ @ @ @ @ @ @ @ @ @ @ @ $ $ $ @ + + + + + + + + @ @ + + + + + @ @ @ @ @ @ @ $ = - = = @ $ = - - - - - @ @ @ @ - - - - @ @ o @ @ $ - - - % $ - - : < < : - - : < : - - - - - - - $ @ = - - - - - - - @ + X X X X + + + + @ @ @ @ @ @ @ $ - - - - < < , : : : - - : : - - - - - - - - - - - - - @ + . . . . . . . . . . . . . @ 6 < _ p.x 1.w.p.b w.f.a.p.h.W F c.g.L q ; 6 e e 6 - e 9 e 1 % > > d > D K L L P U U U P W ! j v j.V.c.c.j.c.b.P 6 e 6 < q x e v p b a B B b F B W V K L v D v D Z W X.O < V W W W W W W W W W ~ b X.N.v.c.n.v.v.c.c.c.j.j.n.F # j O o v j.L h.c.c.c.K t.c.c.| z e > 9 e e < b :.j.c.h.c.j.j.c.c.N.c.p.1.W P T E -.u.h.h.v.v.c.c.c.j.h.h.a.x.u.q < v L K E 1.u.h.j.v.N.v.j.j.v.v.v.v.v.c.c.c.c.v.N.C.B D C.N.v.c.h.A.L D b v h.c.c.c.N.w.F g.j.v 0.c.a W < + @ @ @ + . + + + + + + @ @ + + + + + + + + @ + @ - < < < < < - @ @ @ @ @ @ @ - * # $ @ @ @ - - - , 6 e e e e e e e e e 6 9 2 6 < 6 e e e e e 6 e w e e e e e e e e 8 i i 8 e e e e e e i i p p e u u u e e a e e a p p p p e e e p p e 6 w 6 6 e 6 e e e e e 9 6 6 2 3 3 6 6 8 8 8 6 < - @ X X X X X X X X X X X X X X @ @ @ @ @ @ @ @ @ @ ",
"$ $ @ @ @ @ @ @ $ $ @ @ X X .         . X @ - - < < < < , : - - - - - - - - - - - - - - = $ @ @ $ $ @ @ @ @ @ @ @ @ @ @ @ @ @ @ @ @ $ = - - - - - - - - - - @ @ @ # # * # * @ @ @ @ @ @ @ @ @ @ @ @ @ @ @ @ $ $ @ @ @ $ @ @ + + + + @ @ @ @ @ @ + + + + @ @ + + @ @ @ @ @ @ $ $ $ @ $ = - - - - - @ @ @ @ @ @ @ @ @ @ + @ @ $ % - % $ @ - - - , : - - - : < , < < : - - @ @ @ + @ - - - : - @ @ + + X X X X X X + + @ @ @ @ @ @ @ = - - - - - , , : : : - - - : - - - - - - - - - - - - - @ @ . . . . . . . . . . . . . . - - c 2.j 2.w.p.B e.a.f.f.h.K ~ c.g.} e ; q e e 6 - e 9 e 1 % y @ 9 3 7 P L H L P U U W ' a v l.v.c.c.c.c.j.c.e.a u e q * 6 e v a V v V b v L b W V L K B D v P V a < 3 U H U W W W W W W W W W | v 0.v.c.v.c.c.c.c.c.h.v.X.- k <   < e.c.D d.c.l.c.W +.n.c.w.j j # > e q p j L F 2.c.c.c.j.h.j.c.x.j.N.b.c.a.a.w.| W L P | 2.a.h.j.h.h.v.} < 1 K v.h.u.1.E L P T | :.a.c.N.v.v.v.v.v.b.c.b.b.n.c.B.N.P K N.v.N.x.v.c.p K ~ g E N.v.h.N.1.D N.%.B A.D v w.- @ @ + .   + + + + @ @ @ @ @ @ @ @ @ @ @ @ @ @ - < 6 6 6 6 6 < - @ @ # @ - - - - - - = = = - - < 6 e w w w e e e e e e 6 9 2 6 < 2 e 9 9 e t 6 e w e e e e e e e e w i i w w e e i e e e i e e e e e u u u a e e p p p p e e q e p p e 6 6 6 6 e 6 6 e e e e 9 6 6 6 6 6 6 8 8 6 6 8 < - @ X X X X X X X X X X X X X X @ @ @ @ @ @ @ @ @ @ ",
"$ = @ @ @ @ @ @ @ $ $ @ @ @ + X             X @ - < 2 < , : - - - - - - - - - - - - - - = $ @ @ $ $ @ @ @ @ @ @ @ @ @ @ @ @ @ @ @ @ @ $ - - - - - - - - - - - @ @ @ - - - - - - @ @ @ @ @ @ @ @ @ @ @ @ @ @ @ @ @ @ @ @ @ @ + + + + @ @ @ @ @ @ @ + + + + + + + @ @ @ @ @ @ @ @ @ @ $ = - - - - - - - @ @ @ @ @ @ @ o + @ @ @ $ $ $ @ @ @ - - : - - - - - - = $ - - - @ @ @ @ @ @ $ = - : - @ @ + + + + + + X X + + + + + @ @ @ @ = - - - - - - - - : - - - : : - - - - - - - - - - - - - - @ + . . . . . . . . . . . . @ + - 6 T k u.w.p.D p.a.g.h.j.F 1.c.g.w.e < q e e 1 - 9 9 e 1 % 7 9 % r 3 p L L K L P U W 9 B c.c.v.c.N.c.c.c.j.c.V e a e r - ; r q B v D N v P v P D P K B F x p 6 % > L W L P W W W W W W W W P | P v j.c.c.c.c.c.c.c.c.w.3 e <   # U d.c.L 2.v.j.c.' W N.j.a.j k % O e u e e T 1.v v | f.N.N.f.a.c.j.c.c.h.c.c.c.c.c.p.0.W P D W :.w.j.L < 6 P a.c.h.c.c.c.b.g.w.| P B D ~ 0.v.v.v.v.b.b.b.c.N.h.c.N.n.L V b.N.c.c.P _ N.N.h.V V N.j.j.B.T T A.v w.a.e f.v p @ @ + . @ @ @ @ @ @ @ @ @ @ @ @ - - - - @ @ - < 6 6 6 6 6 < < - - - - - - - - - - - - - - < w e w w w w e e e e e e 6 9 6 9 < < e 9 9 e t 8 w w e e e e e e e e e i i e w e e i e e e i e e e e u u u p a e e p i p p p e q e e e e 6 6 6 6 6 6 6 6 9 e 9 9 6 6 6 6 6 6 8 8 6 6 8 < - @ X X X X X X X X X X X X X X @ @ @ @ @ @ @ @ @ @ ",
"= $ @ @ @ @ $ @ $ $ $ $ @ @ @ X X .             X @ - < , , : - - - - - - - - - - - - = $ = $ $ $ $ @ @ @ @ @ @ @ @ @ @ @ @ @ @ @ @ @ $ = = - - - - - - - - - - - - - - - - - - - @ @ @ @ @ @ @ @ @ @ @ @ @ @ @ @ @ @ @ @ @ + + + + + + @ @ @ @ @ @ + + @ @ @ @ @ @ @ $ @ @ $ $ $ $ = = - - - - - - - @ @ @ @ @ @ @ @ + @ @ @ @ @ @ @ @ @ - < - - - - - - - - - - - = $ = $ @ @ @ $ = @ @ @ @ @ + + @ + + + + + X X + X + @ @ @ @ = - - - - - - = - - - - - - - - - - # @ @ @ @ - - - - - - < < @ + + . . . . . . . . . . X + @ p B w.u.w.D f.f.p.a.j.V p.s.p.p.x - e q e 1 < 9 9 q 1 > 9 9 1 # p - v U F F W P 6 U N.l.c.c.c.c.c.c.c.c.v.:.e p e e e 1 . + - 1 r p g V x v g v 6 p 6 6 q 6 K m B Q P ~ W W W W W W W W P W W K v c.l.l.l.c.l.v.w.< e q #   r d.p.n.! ' V.h.c.w.U c.j.l.b a 9 ; ; < p e q T c.~ a p D :.h.b.v.c.f.h.h.j.c.j.h.h.j.c.j.j.h.-.L P b O e ~ h.a.g.c.h.h.h.h.c.c.c.c.c.p.X.P P } f.b.v.j.c.x.c.c.c.c.j.A.L D j.A.| E c.j.c.c.C.F ~ N.h.c.j.v c.T V A.j E X.D v . - < - - - - , ; ; ; < - - - - - - - @ @ - 1 e e e q 6 < < - # - # ; - - - - < : - < e e e e e e e e e e e e e e 6 9 6 6 < > e 6 6 e t 6 8 e e e e e e e e e w e e e w w e e e e e u u i p i e e r u a e e p e i p p e e e e e e 6 6 6 6 6 6 6 6 8 8 9 9 9 6 6 6 6 6 6 6 6 6 8 < - @ X X X X X X X X X X X X . X + @ @ @ @ @ $ $ @ @ ",
"$ $ @ $ @ @ $ $ @ @ @ @ @ @ @ @ + + X X X . .     X X @ = - : - - - - - - - - - - - = $ $ $ $ $ $ $ @ @ @ @ @ @ @ @ @ @ @ @ @ @ @ @ @ $ = = - - - - - - < < < - < < < < ; ; - - - - $ @ @ @ @ @ @ @ + + + + + + + @ + + + + @ @ + + + + @ @ @ @ @ @ + + @ @ @ @ @ @ @ $ $ $ $ $ $ $ $ $ * * # - - - # @ @ @ @ @ @ @ @ + @ @ @ @ @ @ @ @ $ - - $ @ $ = = - - - - - = = = $ @ @ @ @ @ $ @ @ + + + @ @ @ @ @ @ @ + + X + X X @ $ @ @ = - - - - - = @ @ - - - - - - - - * @ @ @ @ @ - - - - - - - < @ + . . . . . . . . . . . . . X - v 0.2.w.D a.a.p.g.s.B a.s.p.a.b ; e q e 1 < q 9 q 1 > 9 9 1 # O p ; m K W D 6 L j.c.c.c.c.c.c.c.c.c.c.N.c.F q r r e ; # @ O @ O # O # . O @ 6 < 6 e u r m n.L b W U ~ W W W W W W W W W P W W D L V.c.c.c.c.p.6 7 q   . 1 d c.h.c.| V N.h.c.p.L j.h.c.Z j 9 < < 1 , q 6 r X.v.h.-.D j v B W 2.h.j.x.x.c.c.c.c.h.h.s.p.p.a.b.L - q e | h.h.h.h.h.h.h.h.j.j.j.h.j.c.c.v.u.:.W | s.C.N.j.c.c.c.c.c.N.N.W L W e %.c.v.j.c.h.v.K s.b.a.N.K 1.f.p v.D v a.v %.; ; * - - - - - - - - - - - - - - - - - - < 6 e e e e 6 < < - - 6 < 6 6 6 6 6 w 6 6 w e e e e e e e e e e e e e e 6 9 6 6 < > e 6 6 e t 6 8 8 e e e e e e e e e e e e w w e e e e e i p p p p e e r r p e e p e u p p e e e e e 6 6 6 6 6 6 6 6 6 6 6 8 e 9 6 6 6 6 6 6 6 6 6 6 < - @ X X X X X X X X X X X X . X + @ @ @ @ @ $ $ @ @ ",
"= @ @ $ $ $ $ @ @ @ @ @ @ $ @ @ @ @ + + X X .         . X @ = - - - - - - - - - - = $ $ $ $ $ $ $ @ @ @ @ @ @ @ @ @ @ @ @ @ @ @ @ @ @ $ $ = - - - - : : < < < < < < < < < < - - - - = = @ @ @ @ @ @ + + + + + + + + + + @ @ + + + + + + @ @ @ @ @ @ + + @ @ @ $ $ = = = $ $ = = $ $ $ $ @ @ @ @ - # @ @ @ @ @ @ @ @ @ @ @ @ @ @ @ @ @ @ @ @ + @ @ @ @ @ $ $ $ $ $ $ $ $ @ @ + + @ @ @ @ @ + + + + + @ + + + + + + + + + X = = @ $ = - - - - - = @ @ $ % % $ $ $ - @ @ @ @ @ @ @ - - - * @ - - - - = @ + + . . . . . . . . . . .   v w.e.0.V a.a.p.h.1.B j.s.s.j.D ; e e e 1 < q e q 1 > 9 9 1 % 3 3 7 < L v < ' v.j.l.c.c.c.c.c.c.c.c.c.j.x.c.b 6 6 6 * - - * @ @ O @ # O @ - p u p r e F h.v.W j W W W W W W W W U W U U U I U X.v +.N.d.j.a.p 6 7 o O ; 2.j t.c.l.w.d l.j.c.j.D h.h.c.U z e 6 - 6 < # 6 a r | g.g.h.f.w.T V v L U ~ | :.0.u.a.c.c.j.h.a.h.N O e e.%.a P 0.j.c.h.h.h.h.h.h.h.h.a.f.h.h.x.c.g.3.F ~ j.A.c.c.c.c.N.c.b.c.b 6 w._ v K N.c.j.c.1.} v.h.j.:.D N.v | 0.r c.k :.B p - - - - - - - - - - - < < < 6 < - - - < 6 e e e e 6 < < - < e e e u e r e p e w p e e e e e e e e e e e e e e 9 9 3 9 2 > e 6 6 e t 6 e e e e e e i u i i e e e w w e e e e e i i p p p p e u e e a e e p e p p a e e e e e 6 6 6 6 6 6 6 6 6 6 6 6 9 9 6 6 6 6 6 6 6 8 8 6 < - $ X X X X X X X X X X X X . X + @ @ @ @ @ $ $ @ @ ",
"$ @ @ @ $ $ $ $ @ @ @ @ @ @ @ @ @ @ @ @ + + X X .           X @ - - - - - - - - - $ $ $ $ @ $ $ @ @ @ @ @ @ @ @ @ @ @ @ @ @ @ @ @ @ @ @ $ = - - - - - : < < < < < < < < < < , - - - - = @ @ @ @ @ @ + + + + + + + + @ + + + + + + + + + @ @ @ @ @ @ + + @ @ @ $ @ = = = = $ = = $ $ $ @ @ @ @ @ @ @ @ + + @ @ @ @ @ @ @ @ $ @ @ @ @ @ @ + X X = @ + + + @ @ @ @ @ @ $ @ @ + X X + @ @ @ @ + + + + + + + @ + @ @ @ @ @ @ + = = @ $ = - - - - = = @ @ @ $ @ @ @ @ @ @ @ @ @ @ @ @ - - - - @ @ - - < < - - - @ + . . . . . . . . . + 6 _ w.:.B p.p.s.j.| B c.s.s.c.K < e e e 1 < q e q 1 > e 9 1 % r < 3 6 - 9 w.v.d.l.j.c.c.c.c.c.c.c.c.c.c.c.c.p.b j 6 . - * @ O - . # * @ O # p r e u T v.j.N.w.a U W W W W W W W U U U U I U I P W m p.l.h.m 9 9 o     P A.v | v.l.l.a d.j.c.v.V d.h.c.' v e 6 < < e 6 ; < 1 e T p.s.e.j.c.c.h.f.u.0.%.T W L F T | :.0.a.v # h 1.a.h.a.W v N | h.h.h.h.h.h.h.g.h.h.h.h.h.a.h.h.h.K v _ c.c.c.c.v.c.c.p.j s.v.c.c.v L N.j.c.a.K j.a.g.p.B N.W D j.p 0.D _ W -.6 < < < < 6 6 6 6 6 6 e p e p e - - - < 6 e e e e 6 < < - - e p p e e e e e e e e e e e e e e e e e e e e e e 9 6 2 9 3 > e 6 6 e t 6 e e e e e e e e i i e e e w w e e e e e i i u i p p e u e e a e e p e i p p e e e e e 6 6 6 6 6 6 6 6 6 6 6 8 9 9 6 6 6 6 6 6 6 6 6 6 < - $ X X X X X X X X X X X X . X + @ @ @ @ @ $ $ @ @ ",
"@ @ @ @ $ $ @ @ $ @ $ $ @ @ @ @ @ @ @ @ @ + + + X X             X @ - - - - - = = $ $ @ @ @ @ $ @ @ @ @ @ @ @ @ @ @ @ @ @ @ @ @ @ @ @ @ $ = - - - - : - , < < 2 2 2 < < < < < , : - - = $ @ @ @ @ @ @ @ + + + + + + @ @ @ @ @ @ + + + @ @ @ @ @ + + + + @ @ @ @ @ @ $ = = - = = = = $ $ $ @ @ @ @ $ - - + + + @ $ $ @ @ $ - - - = @ + + + @ $ - @ + X X + @ @ @ @ @ @ @ @ + X X X @ @ @ @ @ @ @ @ @ + + @ $ $ $ = = = = - = = $ $ = - - - - % % % @ @ @ @ @ o o + + + + @ @ @ @ + + $ - - - - - - - ; < < - - @ . . . . . . . . @ . j w.%.A p.h.w.h.P K c.e.a.j.v ; e e e ; 1 r 9 7 1 > 9 9 3 ; e e % 6 6 y j.h.j.h.n.c.c.c.c.c.c.c.c.c.c.l.l.l.j.w.q # @ @ @ @ # * * - O # ; e q v %.N.b.N.v.h.p H P K W W W W W U U U U U U U W W H m w.V j 6 o # @ v d.l.P H N.d.c.a 1.v.h.N.U W c.j.w.z v q e < 1 e e < ; ; < D p.h.g.p.h.e.a.g.j.c.h.c.h.s.w.2.T K j # r #.a.a.a.a.j.d.:.P W L L P | w.h.b.h.h.a.u.u.p.g.h.s.v.p.N x e.N.c.j.c.g.a 1.v.a.c.c.s.a p.c.h.c.D 1.c.p.v.V h.1.v c.j X.} L W 1.v , e e e a e e a e e p p e p 6 - - - < 6 e e e e 6 < < - - e y y e e e e e 9 9 e 9 e e e e 9 6 6 e 9 e e e y 9 6 2 8 3 2 e 2 2 e t 6 e w w e i e e e i i e e e e w e e e e e i e i i i i e i e i p w w i t i p i w w w w 9 6 6 8 6 6 6 6 6 6 6 6 8 e 9 6 6 6 6 6 6 6 6 6 6 2 : $ o X X X X X X X X X X X . X + @ @ @ @ @ @ @ @ @ ",
"@ @ @ @ @ $ $ @ @ @ $ $ $ @ @ @ @ @ @ @ @ @ + + + + + X           X X @ @ $ - = = $ $ @ @ @ @ @ @ @ @ @ @ @ @ @ @ @ + + + + @ + @ @ @ @ $ = - - - - - - : < < 2 2 2 2 < < < < < , - - = = @ @ @ @ @ @ @ + + + + + @ @ @ @ @ @ @ + + + + @ @ @ @ + + + + @ @ @ @ @ @ @ @ = - = = - - = - - - - - - - : , + + + @ $ $ @ $ $ - - - = @ + + @ = = = = @ X   . + + @ @ @ @ @ @ @ + X X @ @ @ @ @ @ @ @ @ @ + @ $ $ @ = - - - - = = $ $ = - - - - - - - - % @ @ o X X + + + + + @ @ @ @ = - - < < < < < < < < - - - - X . . . . . . . # . # ~ 1.v u.w.w.h.D W c.p.f.h.v r 6 e e ; 1 r 9 7 1 > 9 9 3 ; 9 r 9 % y 3 m v.l.c.c.c.c.c.c.c.c.c.c.c.c.l.l.l.j.e.v B p q < # @ @ @ # - . q K 2.g.v.c.v.N.v.c.a V E W W W W W W W U U U U U U L L W v 3 a e . %   a h.p.c.| j n.h.n.m W v.h.N.| K v.h.h.B b 6 e 6 1 6 r q q q < < e K 2.g.a.u.h.h.g.g.p.h.h.p.f.h.x.T 6 ; j p.a.a.a.a.h.j.l.h.d.p.:.L v j g k K | p.c.h.p.p.h.h.j.j.h.~ p D h.j.j.a 1 ~ h.g.c.a.B.K D c.g.j.K | c.p.c.F w.s.v j.V ~ :.N T w.~ B q u r e 6 6 e e e p p e p 6 - - - < 6 e e e e 6 < < - - e y y e e e e e 9 9 e 9 e e e e 9 6 6 6 9 9 e e y 9 3 3 6 6 3 e 3 3 e t 6 w w e e u e i u i u e e e e e e e e e e i e e e i i e i w i p w q i i i i i w w 6 6 6 6 3 6 6 6 3 3 6 6 6 6 8 e e 6 6 6 6 6 6 6 6 6 6 2 : $ o X X X X X X X X X X X . X + @ @ @ @ @ $ $ @ @ ",
"@ @ @ $ $ $ @ @ @ $ @ $ @ @ @ @ @ @ @ @ @ + + + + + + X X .           . X + @ $ $ $ $ @ @ @ @ @ @ @ @ @ @ @ @ @ @ + + + + + @ @ + + @ @ $ = - - - - - - - , < < 5 5 2 < < < < < < - - - - $ @ @ @ @ @ @ + + + + + + + @ @ @ @ @ + + + + @ @ @ @ @ @ @ @ @ @ @ @ @ @ @ @ $ - - - - - - - - - - - - - : < + + + + @ @ $ $ $ = - - = @ + + @ = - - = @ + X X X X + @ @ @ @ @ @ @ + X + @ @ @ @ @ @ = = @ @ $ - : = = = - - - - = $ = - - - - - - - - - % @ @ o X X o @ @ @ + + @ + @ - - - < < < < < < < < < < < < @ . . . . . . . . @   g e.v w.s.u.j.b | c.a.g.p.v L 6 e e ; 1 r 9 7 1 > 9 9 3 ; q 1 r 9 ; e 1 P c.a.c.c.c.c.c.c.c.c.c.c.c.c.l.l.n.H v W W K B v j j j j B 6 L v.v.C.C.b.N.v.N.N.b v ~ T W W W W W W U U U U U U L W Z 6 r 3 . O   ; a.l.a.v.t.p c.h.N.W B n.h.v.w.B v.h.v.F Z r 6 q 6 < 6 q e e e r 6 ; e D ~ X.%.1.w.p.u.g.h.f.f.p.D < r 9 1 ~ a.a.a.a.d.h.j.l.j.d.j.v.j.g.2.W V k j N E w.c.h.a.p.p.a.j.0.x v | x , W %.W b.a.h.v.| v c.p.h.W W j.s.c.L %.c.B a.~ L w.v L w.:._ K 6 e e 6 6 e e e p p e p 6 - - - < 6 e e e e 6 6 < - - e y y e e e e e 9 9 e e e w e w 9 6 6 6 6 9 e e y 9 3 3 9 9 8 9 6 6 e t 6 w e w e e i i i i i i u e e e e e e e e i e e e i i e i e i p w w i i i i i w w 6 6 6 6 3 6 6 6 6 6 6 6 6 6 8 e e 6 6 6 6 6 3 3 3 3 6 2 : $ o X X X X X X X X X X X . X + @ @ @ @ @ $ $ $ $ ",
"@ @ @ $ $ $ @ @ @ @ @ $ @ @ @ @ @ @ @ @ @ @ + + + + + + X X X .           . X @ @ $ $ @ @ @ @ @ @ @ @ @ @ @ @ @ @ @ + + + + + + + + @ @ $ = - - - - - - - - < < < < < < < < < < < : - - - = @ @ @ @ @ @ @ + + + + + + @ @ @ @ @ + + + + @ @ @ @ @ @ @ @ @ @ @ @ @ @ @ @ @ = - - - - - - - - = $ @ @ - - + + + + + @ $ $ @ @ = - @ @ + + @ = - - - @ @ + + + X X + + @ @ @ @ @ + + X @ $ @ @ @ $ - = = @ - 2 2 - = = - - - - = $ = - - - - - > > % @ o o o o X X o @ @ @ + + @ @ + + @ - - - - - , < < < 6 < < - - X . . . . . . +     # T N w.w.p.j.j %.c.g.h.e.v f.u e e ; 1 e 9 7 1 > 9 9 3 ; e q e 9 1   9 1 L N.h.j.c.c.c.c.c.c.c.c.c.c.c.c.h.v P W P P P P L L L P | p %.A.v.v.v.v.N.v.N.A.K v ~ P W W W W W U I I U U U U K m 3 a q O .   9 j a.h.h.c.c.v l.j.V.,.j n.h.c.p.z v.h.v.L L z q q q < * 1 q q q q u u e a B L W W W T W X.:.:.0.b < p e q 6 a a.a.a.a.a.d.h.j.p.d.d.a.a.s.f.j.h.h.w.~ L v v E w.a.h.u.p.h.c.T - 1 D a.p.D p.s.a.j.w.x c.p.h.~ K j.a.j.P %.j.D p.0.D e.V D 1.W L h.e e e 6 6 e e e p p e p 6 = - - < 6 e e e e 6 6 < - - e y y e e e e e 9 9 e e e e e e e 6 6 6 6 9 e e y 9 3 3 9 9 9 e 9 9 e t 6 w t e e e i i i i i i e e e e u e e e e i e e e e e e i e i i w w i i p i e w w 6 6 6 6 3 6 6 6 6 6 6 6 6 6 6 9 e 6 6 6 6 6 3 3 3 3 6 2 : % o X X X X X X X X X X X . X + @ @ @ @ @ $ $ $ $ ",
"@ @ = = @ @ $ @ $ @ @ @ @ @ @ @ @ @ @ @ @ @ @ @ @ @ @ @ + X + X     .       X + @ @ @ @ @ @ @ @ @ @ @ @ @ @ @ @ @ + + + + + + + + + @ @ $ $ = - - - - - - - , < < < < < < < < < < : - - = $ @ @ + + + + @ @ @ @ + + @ @ + + + + + + @ @ @ @ @ @ @ @ @ @ @ @ @ @ @ @ @ @ @ $ = - - - - - $ @ @ @ + + + + + + + + + + @ @ @ @ @ @ + X X + @ $ - - = @ + + @ + @ @ + + @ @ @ @ $ $ @ - - - $ @ @ @ @ - + @ < < < - @ $ = - - - - = - - < : - < < < @ @ @ @ + o     o o o o + + + @ + @ $ - - + @ - - < < < < - - - - - @ + + + . . . . . . 6 a 2.w.p.p.j 0.h.p.c.2.k h.k 3 e - < e 9 r 3 > 9 9 3 ; 9 9 9 9 6 # < q < P l.j.l.c.c.c.l.l.c.l.v.n.c.v.' z W U P P P L L L L L ~ e w.B.v.v.v.v.v.v.v.N.} r _ W W W U U U U U U H L L H d < e < . @ o y c.d w.c.l.c.N.K +.A.l.j.j j.d.h.c.m t.h.c.! D D q e q q - @ < q 6 6 6 q r e e p V F W | B B b g ; > e e e e q 6 Z d.p.p.d.d.a.a.a.d.a.p.s.a.f.a.a.s.s.p.x.h._ v u D -.h.a.p.f.v O b p.a.j.F 0.c.u.s.f.j u.p.g.E D c.p.h.~ W x.~ w.a.D a.D D w.D E h.v - p e e a p e e p u p 6 - - - - < e e e e e 6 < < $ 6 y e e e e e e 6 6 e e e e e e e e 6 6 6 9 e e e 9 3 3 9 9 8 e e e e t 6 8 w w e e i i i i i i i i i u i i i i i i i e e e e i i e i p e e i p p i e w 8 6 8 6 6 3 6 6 6 3 6 6 6 6 6 6 9 9 9 8 8 6 6 6 6 6 6 6 3 > - o X X X X X X X X X X X X X @ @ @ @ @ @ @ @ @ @ ",
"$ $ = $ @ $ $ @ $ @ @ @ @ @ @ @ @ @ @ @ @ @ @ @ @ @ @ @ + X + X     . . . . X + @ @ @ @ @ @ @ @ @ @ @ @ @ @ @ @ @ + + + + + + + + + @ @ $ $ = = - - - - - - : < < < < < < < < < < : - - = $ @ @ + + + + @ @ @ @ + @ @ @ + + + + + @ @ @ @ @ @ @ @ @ @ @ @ @ @ @ @ @ @ @ @ @ $ = = = = $ @ @ @ + + + + + + + + + + + + + @ + + + + X X X X + @ $ @ + + + + @ @ @ @ @ @ @ @ $ - - - - - - = $ $ $ - - 2 2 - - : , @ @ = - - - = $ = - - @ < < < < < - % @ @ + o . X o o o + + + + + @ $ - - @ @ - - - < < < - - - - - - @ . . . . . . . .   q 1.0.w.u.j w.h.p.j.%.k c.L 6 e - < e e r 6 > 9 9 3 ; 9 9 9 9 < - y > 6 6 W c.l.c.c.c.c.c.c.c.c.v.j.c.B L W W P P P P P P L L P p p.N.v.v.v.v.b.v.v.N.1.p ~ W W W U U U I I I U L H p 2 p -   -   6 t.n.v 2.c.n.v.v.~ ~ N.l.c.B p.j.h.v.G +.j.j.w.Z | 6 e r e 1 ; @ < 1 6 6 6 e r r e e e e e e a r , < 6 1 q 9 e e e 1 v 2.p.h.d.a.p.p.d.d.a.a.a.a.a.s.p.p.p.p.p.h.h.w.D g j K p.K - ; W u.w.h.L W j.p.s.f.j 2.s.h.W V j.u.g.W P c.~ 0.p.D s.D B 2.b _ g.N e e e e p p e e p u p 6 - - - - < e e e e e 6 < < $ 6 y e e e e e e 6 6 e e e e e w 9 9 6 6 6 9 e 9 e 9 3 3 9 9 8 e e e e w 6 6 e w w e e i i i i i i i i u e i i i i i i e e e e i i e u i e e p i i e w w 6 8 8 6 6 3 6 6 6 6 6 6 6 6 6 6 6 9 9 8 8 6 6 6 6 6 6 6 3 < - @ X X X X X X X X X X X X X @ @ @ @ @ @ @ @ @ @ ",
"$ $ = $ $ $ $ $ $ @ @ @ @ @ @ @ @ @ @ @ @ @ @ @ @ @ @ @ + + + X X X X X X X X X @ @ @ @ @ @ @ @ @ @ @ @ @ @ @ @ @ + @ + @ @ + @ @ @ @ @ @ @ $ $ = = - - - - - , , , < < < , , , , : - - = $ @ @ + + + + + + + + + + @ @ + + + + @ @ @ @ @ @ @ @ @ @ @ @ @ @ @ @ @ @ @ @ @ @ @ @ @ @ @ $ @ + + + + + + + + + + + + + + + + + X X + X X X . X X + @ + + + + @ @ @ @ @ @ @ @ @ $ $ = - - - - = = = $ $ < < - @ @ @ @ @ = - - = = = $ , @ @ < < < < 3 > % @ % $ @ @ o o o o + + + + + @ = - - - - - - - - < - - - < - - - - + + . . . . . .   # :.w.w.p.v p.h.a.j.E v c.2.r e - < e 9 r 3 > 9 9 3 ; 9 e 9 9 q % e 6 ; a 9 W h.c.c.n.c.c.c.c.j.c.c.' j | W P P P P P P P P P D p f.N.c.c.c.c.c.v.b.v.p.p W P W W U L U I I I I U 9 3 e O   @   e 6.d.N.L ~ N.v.c.v.t.L v.c.n.U ,.v.h.v.W K v.a.a.m w.j 6 e r - 6 1 ; ; < 1 6 e e q e e e e q e 6 O 6 6 q < 1 6 9 e r e z K L 2.t.a.p.j.j.d.t.a.a.a.a.s.s.p.p.a.w.w.w.p.a.p.P a p < a v D e.w.a.W b h.p.a.g.j | p.h.P B h.w.a.L L j.| 2.p.D p.V b } j -.p.v h e e e p p e e p u a 6 - - - - < e e e e e 6 < < % 6 y e e e e e e 8 6 e e e e e 9 9 6 6 6 6 9 e 9 e 9 6 3 9 9 8 9 e e e 6 2 6 t 6 6 w e e e e e i i i i e i e e e e i i e e e e i i e u i e e i i w w w 6 6 8 8 6 6 3 6 6 6 6 6 6 6 6 6 6 6 9 e 9 8 6 6 6 6 6 6 6 6 < - @ o X X X X X X X X X X X X + @ @ @ @ @ @ @ @ @ ",
"$ $ = $ $ $ $ $ $ @ @ @ @ @ @ @ @ @ @ @ @ @ @ @ @ @ @ @ + + + X X X X X X X X X @ @ @ @ @ @ @ @ @ @ @ @ @ @ @ @ @ + @ @ @ @ @ @ @ @ @ @ @ @ $ $ = = - - - - - - , , < , , , , , , : - - $ @ @ + @ + + + + + + + + + @ @ + + + + @ @ @ @ @ @ @ @ @ @ @ @ @ @ @ @ @ @ @ @ @ @ @ @ @ @ @ @ @ + + + + + + + + + + + + + + + + X X X X X X . .   . X + + X X @ @ @ @ @ @ + + @ @     $ = - - - = $ @ $ - @ $ @ @ + + @ @ = - = = $ $ @ < - , < < < < > - % % - - % % o o o X X X + + + @ $ - - - - - - - - < - - - < - - - - - - - - . . . . #   v w.0.e.v p.f.a.j.P V h.a.k e - < e 9 r 3 > 9 9 3 - 9 e 9 9 q < 7 e 3 < e 6 Q j.n.n.c.c.c.c.c.c.c.D D W U K P P W W W W W W V g j.v.b.b.b.c.c.c.b.v.j.a W P W U U L U I I I B 3 6 e   . @   . L j.p.v.2.Z A.j.c.n.h.D c.c.N.X.| N.h.v.+.m N.t.l.m ,.W 6 q e - < e e 1 < ; < 1 1 1 1 1 6 6 q 1 @ 6 e e 6 6 - 1 6 q e e e ' ,.K L L W L ~ :.1.e.p.a.a.s.s.p.p.w.w.w.p.w.0.0.p.g.< ; | _ h a.u.p.E p g.p.a.h.x W p.j.L B h.w.s.D F j.| 1.u.V p.V v ~ a 0.0.h a e 6 e p p e e p i a 6 - - - - < e e e e e 6 < < % 6 e e e e e e e 8 6 e e e e e 9 6 6 3 6 6 9 e 9 e 9 6 3 9 9 8 9 e e e 6 < 6 t 8 6 w w e u e e i i i i e i e e e e i i e e e e u e e e i e e i i 8 6 e 8 6 8 8 6 6 3 6 6 6 6 6 6 6 6 6 6 6 9 e 9 8 6 6 6 6 6 6 6 3 < - @ o X X X X X X X X X X X X + @ @ @ @ @ @ @ @ @ ",
"$ $ @ @ @ $ $ $ @ @ @ @ @ @ $ $ @ @ @ @ @ @ @ @ + + + + + + + + + + + + X X X + + @ @ @ @ @ @ @ @ @ @ @ @ @ @ @ @ @ @ @ @ @ @ @ @ @ @ @ @ @ = = = = = = = - = - - - , , , , , , , - - - = @ + X + @ + + + + + + @ @ @ @ @ + + + @ @ @ @ @ @ @ @ @ @ @ @ @ @ @ @ $ $ @ @ @ @ @ @ @ @ @ @ @ @ + + + + + + + X + + X X + + + X X X X + X X + X X + + + + X + + + @ @ @ + + + + + @ @ = - - - @ @ @ @ - - - # @ + + # - - @ = = $ @ - - - - 6 < < < 6 e 6 - , - - $ @ + + X . . X X X X @ @ - - - - - - ; , < < ; < - - - - - - < < - & O . O + - E s.0.v s.s.s.c.K L v.f.| e * 1 e q e 3 > 9 9 y ; 1 e q e q ; 9 e 9 3 # a e Q j.d.c.v.c.c.j.v.e.p W W P U U U U P P U W W D d n.c.c.c.c.c.c.c.c.c.n.m F ~ U U U P U F _ v < q <   O O . 1 U v c.h.n.a.F N.c.c.v.c.L h.l.n.a.~ N.h.c.w.v h.j.v.U G s.g < r 1 3 e e e e 1 ; 3 6 3 ; ; 3 < # - ; 7 9 e e e e 1 < 6 q 6 3 y :.t.e.1.F v v k a j j k m V F W X.e.t.p.p.w.,.1.w.N . K w.| p u.a.p.1.a w.p.e.h.v K p.j.K B a.e.a.h K c.P -.p.D s.V b V j g.L j h e 6 e e p e e u p a e < - - - < e e e e e 6 < < - 6 p p e e e e e e 9 e e e 9 e 9 6 3 3 6 8 e e e e e 6 6 6 6 9 9 e e e 6 , 2 e 6 6 w w e i i i i i e e e u u e e e e e e e e e e e e e e e e i p 6 6 e 6 6 6 6 6 6 6 6 6 6 6 6 6 e 6 6 6 6 9 9 9 6 6 6 6 6 6 6 6 6 < - @ + X X X X X X X X X . . X + @ @ @ @ @ @ @ @ @ ",
"@ $ @ @ $ $ $ $ @ $ @ @ @ @ $ $ @ @ @ @ @ @ @ @ + + + + + + + + + + + + X X X + + + @ @ + + @ @ @ @ @ @ @ @ @ @ @ @ @ @ @ @ @ @ @ @ @ @ @ @ = = = = = = $ = $ $ - - : , < , , , , - - - = $ @ + + + + + + + + + @ @ @ @ + + + + @ @ @ @ @ @ @ @ @ @ @ @ @ @ $ $ $ $ @ @ @ @ @ @ @ @ @ @ @ @ + + + + + + + X X + X X + + + + X X X + X @ @ @ @ @ @ + + X X X + + @ @ + + + + + + + @ $ - - @ @ @ @ @ @ # - @ + . - # - - - = @ @ * - - - < 6 e 6 6 e 6 < - - - @ @ + + X X . X X     X + - - - - - - - - - - - - - - - - - - ; ; < , - - . @ + e 0.1.D s.s.s.c.K T j.a.p.j - 6 e e r 6 < 9 9 y ; 1 e q e q ; 9 e p 6 ; 1 a r W v.c.c.c.c.h.N.Z m W P U U U U U P P U W W b v N.c.c.c.c.c.c.c.c.c.N.V Z W U U U P L F p 6 a % . # #   6 | c.k j.h.c.j.L l.v.c.c.v.W p.c.c.h.W l.j.c.j.v w.h.l.,.z h.W q e 1 6 e e e e 6 - 6 7 6 < < 1 6 6 > 1 > 3 7 6 q e 7 1 1 6 q e e z 2.a.e.h.d.d.a.t.w.:.' | W L D B z m D L X.2.w.D . q u._ 2.e %.f.w.1.a 2.p.w.h.v K w.f.D B a.w.u.a W f.D :.w.B f.j v k B g.j B e e e e e p e e e p a e < - - - < e e e e e 6 < < - 6 e p e e e e e e 9 e e e 9 e 9 8 3 3 6 8 e e e e e 6 6 6 6 6 6 9 e e 6 : < e 6 6 w w e i i i i i e e i u u i e e e e e e e e i e e e e e e i u 6 6 e 6 6 6 6 6 6 6 6 6 6 6 6 6 e 6 6 6 6 9 9 9 6 6 6 6 6 6 6 6 6 < - @ + X X X X X X X X X . . X + @ @ @ @ @ @ @ @ @ ",
"@ @ @ @ @ @ $ $ $ $ $ $ @ $ $ $ @ @ @ @ @ @ @ @ @ @ @ @ + @ @ @ + + + + + + + + + + + + + + + + + + @ @ @ @ @ @ @ @ @ @ @ @ @ @ @ @ @ @ @ @ @ @ @ @ $ $ $ = $ $ = - - : , , : : : : - - - - - = $ @ + + @ @ @ @ + + + + + + + + @ @ @ @ @ @ @ @ @ @ $ $ $ $ $ $ $ $ $ @ $ $ $ @ @ @ @ @ @ @ + + + + + + X X X X X X + + + + + X X + + @ @ @ @ @ @ + + X X X X X + + @ @ @ + + + + @ @ = - @ @ + + @ @ @ @ @ @ @ + . + $ - $ @ @ @ @ @ @ - < < < - - - % - - @ @ @ + + @ + + + X   . X @ @ - - - - - - - - - - - - - - - - - - - - - < < + . @   B -.B s.s.s.c.K %.j.a.h.~ < 1 e q e 3 > 9 9 y ; 1 e 9 e q ; 9 9 e 3 1 q 1 y 6 W h.c.l.l.v.d.d P P U U U U U U P P U W W a D B.c.c.c.c.c.c.c.c.c.N.G B W P P P L P q < y O . % o . 1 P c.c.v 6.v.j.N.W t.N.l.l.N.X.2.v.j.v.W p.c.l.v.Z ' c.a.h.a w.g.B e 1 3 e e e r q ; 7 9 7 1 3 6 6 q < - 1 ; ; 7 9 3 9 7 1 1 6 7 e 7 v 2.p.e.t.t.p.t.t.p.a.a.d.d.p.t.2.! F m y j a > 6 r w.:.u.r T p.0.0.a -.p.w.h.v K w.p.b V s.0.0.a } w.b w.| B g.e p a P 0.p N < e e e p p e e e p a e < , - - < q e e p e 6 < < - < e p e e e e e e 9 e y e 9 e 9 8 6 3 6 9 e w e e e 9 < 2 6 6 6 6 9 e 6 : < e w 8 w e e e e e u e e e i i i i i i e e e e u u i e w e e e e e e 6 6 e 6 6 6 6 6 6 6 6 6 6 6 6 6 e 3 6 6 6 9 9 9 6 6 3 6 6 6 6 6 6 < - @ @ + + X X X X X X X . X X + + @ @ @ @ @ @ @ @ ",
"@ @ @ @ @ $ $ $ $ $ $ $ @ @ $ $ @ @ @ @ @ @ @ @ @ @ @ @ + + @ @ + + + + + + + + + + + + + + + + + + @ @ @ @ @ @ @ @ @ @ @ @ @ @ @ @ @ @ @ @ @ @ @ @ $ $ $ $ $ $ $ = - - : : : : : : - - - - - - - = @ @ @ @ @ @ + + + + + + + + @ @ @ @ @ @ @ @ $ $ $ $ $ $ $ $ $ $ $ @ $ $ $ @ @ @ @ @ @ @ + + + + + + X X X X X X + + + + + + X + + + + + + @ @ + + X + X X X X + @ @ @ + + X + + @ $ @ @ @ @ + + + + + @ - - - - @ + @ $ @ @ @ * - - < - - - - @ % - - = @ + + @ + + $ $ + + + @ @ $ @ - - - - - - - - - - - - - - - - - - # - - - - - @ . . - B D p.p.p.c.D w.v.f.h.h.e 3 q 7 9 1 ; 9 9 y ; 1 e q e q ; 9 9 e 3 > r e < 9 7 | h.h.h.v.W B P P W W U U U U P P U W W e L V.l.c.c.c.c.c.c.c.c.B.H b U P P P L q q 9   o O o # ; P h.p.N.K ~ N.h.A.| 2.B.j.j.N.2.+.v.h.N.W w.c.h.c.W W n.w.c.v L c.u.g 1 3 e e q e e < 9 e 9 1 1 q 6 ; - > ; < > ; < 9 6 9 7 1 ; - 6 7 9 v 2.e.2.w.e.w.6.t.p.w.6.w.w.w.w.w.t.p.2.D O O V p 1.w.p.h W w.1.w.h X.u.w.h.v K w.w.v D a.2.3.a 2.:.x a.D D a.1 < a | K h h + p e e p p e e e p a e < - - - < 6 e e p e 6 < < - < e p e e e e e e 9 e y e 9 t 9 8 6 3 6 9 e e e e e 9 < < 6 6 6 6 6 6 6 , < t w w w e e e e e e e e e i i i i i u u e e u u u i e w e e e e e e 6 6 6 6 6 6 6 6 6 6 6 6 6 6 6 6 e 3 3 6 6 6 9 9 6 6 3 3 6 6 6 6 6 < - - @ + + X X X X X X X . . X + + @ @ @ @ @ @ @ @ ",
"@ @ @ @ @ @ @ @ @ @ @ $ $ $ $ $ @ @ @ @ @ @ @ @ + + + @ @ @ + + + + + + + + + + + + + + + + + + + + @ @ @ @ @ @ @ @ @ @ @ @ @ @ @ @ @ @ @ @ @ @ @ @ = = = = $ $ $ = - - : - - - - - - - : : - - - = @ @ + + + + + + + + + + + + @ @ @ @ @ @ @ @ $ $ $ $ $ $ $ $ $ $ $ $ $ $ @ @ @ @ @ @ @ @ @ @ + + + + X X + + + + + + @ @ @ + + + + + + X X @ + + X X X X X X X + @ @ @ @ @ + @ @ @ @ + + @ @ .   @ - @ @ @ @ @ @ + + + . . . @ @ @ @ # # # * - - - - - - - - - $ + + = - - @ $ = - = - @ - = - - - - - - - - - - - - - - - @ - - < < - - @ #   + P s.s.w.c.D w.j.h.h.b.j > y 9 e 9 ; r 9 9 < ; e 9 9 7 ; q 9 e 3 ; 9 9 e > e 6 ! v.j.j.v P W P P P P P P P P P L P ! e | N.c.c.c.c.c.c.c.l.j.c.~ z U F W m > r 3 o O -   % r e w.l.d.N.! D B.h.B.w.W A.v.c.N.l.! c.h.c.+.2.v.l.c.a.L c.d.c.U K j.j.| x < e e 6 q e ; 6 e e 6 3 q e < % 6 9 3 - # # - q q 6 1 7 1 - % - ; p ~ t.e.t.p.p.a.a.a.a.a.a.p.2.w.6.2.P 3 ; r | u X.w.w.B B w.:.w.v ~ e.0.p.N L p.e.p P w.w._ k p.~ v h.V W 0.e - j e.v B < , p e e e u e e e p a e - - @ - < 6 e p p e 6 < , - < 6 e e e e e e e e e e 6 6 e e e e e 9 9 9 9 e e e 9 < < 6 6 6 6 6 6 8 < < p w w e w e e e e i u e e i i i u i i i i i i i i e e w e e e e e e 6 6 6 6 6 6 6 6 6 6 6 6 6 6 6 6 e 3 2 3 6 6 6 6 6 6 3 1 3 6 6 6 3 < < - @ X X X X X X X X X X X X + + @ @ @ @ @ @ @ @ ",
"* @ @ @ @ @ @ @ @ @ $ $ $ $ $ $ @ @ @ @ @ @ @ @ + + + + @ @ + + + + + + + + + + + + + + + + + + + + @ @ @ @ @ @ @ @ @ @ @ @ @ @ @ @ @ @ @ @ @ @ @ @ = = = = $ $ $ - - - : : - - - - - : : : - - - = @ @ + + + + + @ + + + + + + @ @ @ @ @ @ @ @ @ @ $ $ $ $ $ $ $ $ $ $ $ $ @ @ @ @ @ @ @ @ @ @ + + + + X X + + + + + @ @ @ $ @ @ + + + + X X + + X + X X X X X X + + + @ $ - - - $ $ $ @ @ + . . + - + O # @ + + + + X +   @ + @ @ @ @ # @ # * - - - - - - - - - - = @ $ - - - = - - = - @ @ @ @ @ - - - @ # # # - - - - - - - - - < < - - @ @ + . v 0.s.u.h.D w.j.h.h.c.b ; e 9 e 9 ; e 9 e < ; e 9 9 q ; q 9 r 3 ; 9 e e q ; 6 e W v.| z U L P P P P P P P P P P U W e ,.n.c.c.c.c.c.c.c.l.j.n.| a L U a < r -   % o . - e W L | c.d.c.t.b N.l.N.a.W N.v.c.v.c.W c.j.l.p.! v.l.c.h.W p.p.h.p.V a.w.a.2.p ; e q q e < < q e q ; 6 1 @ > 6 9 6 q < % % % > 3 7 q 7 6 6 < ; ; q a a z m m B V Z Z F L P W X.X.W q O < m 1.g T :.w.V b w.:.w.v ~ w.0.p.b P w.0.a | w.2.F b a.W b a.b | 2.6 < V | a D 6 < e e e e e 6 6 e e p e - - # - < 6 e u p e 6 < - , < < < 6 6 6 6 6 6 6 6 6 3 6 9 9 9 9 9 9 9 e 9 e e e 9 2 < 6 6 6 6 6 6 6 < < i w w w w e e i e i i t e i i i e i i u i i t u i e w 6 e e e e e e 6 6 6 6 6 6 6 6 6 6 6 6 6 6 6 6 e 3 < 2 6 3 6 6 6 6 < < 1 6 6 6 3 < < - @ + X X X X X X X X X X X + + @ @ @ @ @ @ @ @ ",
"* * @ @ @ @ @ @ @ @ @ @ $ $ @ $ @ @ @ @ @ @ @ @ + + + + @ @ + + + + + + + + X X + + + + + + + + + + + @ @ @ @ @ @ @ @ @ @ @ @ @ @ @ @ @ @ @ @ @ @ @ = = = = = $ = - - - - : : : : : : - : : : - - = @ @ + + + + @ @ @ @ + + + + @ @ @ @ @ @ @ @ @ @ @ @ @ @ $ $ $ $ @ $ @ @ @ @ @ @ @ @ @ @ @ @ + + + + + + + + + + @ @ $ $ $ @ @ @ + + + X X + + X + X X   X X X X X + @ $ - - - $ $ $ @ @ + . - < , @ ; 6 @ @ @ @ @ + < - 6 < @ @ @ @ @ @ @ @ - - - - - - - - - - - $ = - - - - - - = = = @ $ @ @ @ @ @ @ @ @ # - - - - - - - - - < < - # @ @ - - + L p.p.g.D w.j.h.g.b.D e r 9 e 9 ; q q e 3 ; e 9 9 q ; q 9 r 3 ; 9 e e r % 1 e e ! v D ~ L P P P P P P P P W W W L e p.c.j.c.c.c.c.c.c.l.j.c.6.k P y 1 9   o % o @ - e D c.| U n.c.c.c.z h.v.c.c.W j.c.v.c.v.W j.c.j.c.W c.l.l.c.| w.h.a.h.v 2.f.a.h.| 6 a u q e 1 ; 6 e e 1 1 % O 6 q q q 9 > o . . @ - 1 6 7 e e 9 6 1 q < 6 p z v m V Z Z V B b v k e - O   9 L e.j F :.0.D v e.-.w.v T w.2.p.b E 1.-.j 1.2.1.b L p.D F :.j 1.W 1 < :.V j B a < 6 < < 6 6 < < 6 6 6 < - < - - < 6 e p p e 6 < - 6 6 6 < < < < < < < < 2 6 2 6 e w w w w e e e e e w e e 3 < 6 6 6 6 6 6 w 2 < e w w e e e e u u i e t e i i e e e e u e t i e i e w 6 e e e e e e 6 6 6 6 6 6 6 6 6 6 6 6 6 6 6 6 e 3 < 2 3 3 6 6 6 2 < < 2 6 6 6 < < < - @ X X X X X X X X X X X X + @ @ @ @ @ @ @ @ @ ",
"# # @ * - @ @ @ @ @ @ @ @ $ @ @ @ @ @ @ @ @ @ @ + + + + @ @ + + + + + + + + + X + + + + + + + X + + + + + @ @ @ @ @ @ @ @ @ @ @ @ @ @ @ @ @ @ @ @ @ = = = = = $ = - - - : : : : : - - - : : : - - @ @ @ + + + + @ @ @ + + + @ @ @ @ @ @ @ @ @ @ @ @ @ @ @ @ $ $ @ $ @ @ @ @ @ @ @ @ @ @ @ @ @ @ + + + + @ X + + @ @ @ @ - - = $ @ @ @ @ + + X + X X X X X . . . . X + @ @ @ @ @ @ @ @ @ + + @ @ , < # + O - < @ - - = @ + - < - @ @ @ + @ @ @ @ - - - - - - - - - - - - $ - - - - - - = $ $ @ @ @ @ @ @ @ @ @ @ @ @ - - - - - - - - < < * * @ @ . - @ < -.s.g.B w.j.h.g.v.D m j 9 e 9 - 7 q r 6 ; e 9 9 q ; q 9 e 3 ; e 7 9 q 1 e 1 6 7 e W F F P P P P P P P P W ~ W H e j.c.j.c.c.c.c.c.c.c.j.j.p.r r e 7 % o O o > 7 ; F d.a.6.D N.c.c.n.b t.B.l.N.W a.c.c.c.n.P h.v.j.c.W h.h.j.c.:.:.h.p.c.K D c.s.j.u.g T V a e 6 < < q e 6 > o ; e q q q % - 1 e > - O % ; < 6 6 6 q e 6 e 6 6 6 9 r a j m B B V P B 6 % % ; a ' w.N F 0.2.F j u.%.w.v ~ w.1.u.v | } | x -.-.1.v %.0.x ~ F a w.b - u 1.v B B e < e 6 6 6 6 6 6 8 6 6 6 < < - - < 6 e p p e 6 < - 6 < < < < < < < < < < < 2 2 6 t w w w w e w e w e e e e 3 2 6 6 6 6 6 6 w 5 < e w w e e e e i e u e i i i e e e e e e e e e e i e w 6 e e e e e e 6 6 6 6 6 6 6 6 6 6 6 6 6 6 6 6 e 6 < 2 2 3 6 6 2 < < < < 3 6 6 < < < - @ X X X X X X X X X X X X X @ @ @ @ @ @ @ @ @ ",
"- - - * # @ @ @ @ @ @ @ @ @ @ @ @ @ @ @ @ @ @ @ @ @ @ @ + + + + + + + + + + + + + + + + + + X X X X + X + + + @ @ @ @ @ @ @ @ @ @ @ @ @ @ @ $ @ $ $ = = = = - - - - - - - - - - : : : : - - : : - @ + + + + + + @ @ @ @ @ @ @ @ @ @ @ @ @ @ @ @ $ $ $ $ @ @ @ @ @ @ @ @ @ @ @ @ @ @ @ @ @ @ @ @ + + + @ @ - - = @ @ $ $ - $ % $ @ @ @ @ @ o o X o . @ @ @ + X X + @ @ @ + + @ @ @ @ $ @ @ @ - - < < : . @ - 6 < < < - @ - ; 1 6 1 + + + + @ +   @ # # # - < - # < 6 < - @ . + - @ $ = = $ $ $ @ @ @ @ @ @ @ @ @ @ $ = - - - - - - - # @ @ @ * - - - - - 6 0.s.v 0.h.h.h.N.B L %.6 q e % 6 q q 6 % q 9 9 r ; 6 9 9 q ; 9 e e q < 7 q ; r e k P F K P P P P P P P U L ! v k N.l.c.c.c.c.c.l.h.l.d.c.X.1 y 7   . o % > 6 r e h.j.l.h.b N.h.c.S.H 2.c.l.c.| X.A.v.l.v.~ 6.c.j.v.| 6.h.d.l.6.W d.e.v.1.j h.s.p.u.h W h.:.| :.a < q e e ; # 6 6 ; * - e p j g g q # @ < # @ ; 1 3 6 6 3 3 6 q 6 7 6 6 6 6 6 1 6 6 q - e < V :.3.D b e.} L j :.} 1.k ~ :.:.:.g ~ 2.K D 2.} | V %._ h w.b V w.x O x K b v K < 6 6 < < < < < < < < < < < < < - < 6 e p p u 6 < - < < < < < < < < < < < < < < 6 t w w w w 8 8 w w e e e e 6 2 w 6 6 6 6 6 8 8 2 e e e e e i e e e i w e e i w i i e e e i i i i i t w 6 w e e e e e 6 6 6 6 6 6 6 6 6 < < 6 6 6 6 6 6 6 < < 2 3 3 6 3 < < < < 3 6 6 < < < - $ X   X X X X . .     X X X X + @ @ @ @ @ @ @ ",
"@ @ @ @ # @ - # @ @ @ @ @ @ @ @ @ @ $ @ @ @ @ @ @ @ @ @ + @ + + + + + + + + X X + + + + X X X X X X X + + + + + + + @ @ @ @ @ @ @ @ @ @ @ @ $ $ $ $ = = = = - - - - - - - - : - : : : : - - : : - $ @ @ @ + + + @ @ + + @ @ @ @ @ @ @ @ @ @ @ @ $ = $ $ @ @ @ @ @ @ @ @ @ @ @ @ @ @ @ @ @ @ @ @ + + @ @ @ - - = $ $ = - - % % $ $ @ @ o o @ $ - @ @ - - $ @ + X     X X + + @ @ @ @ @ @ $ @ - = < 6 i w - - < 6 6 6 - @ - - < 1 - - - @ + @ @   @ @ @ # - - - < e < < - @ + @ @ @ @ $ = $ @ @ @ @ @ @ @ $ @ @ @ @ @ @ $ - - - - - - - @ @ @ @ @ - - - , @ p g.v 0.h.h.h.N.L D j.v q 9 ; 6 q q 6 % q 9 9 r ; 6 9 9 q ; 9 e e q < 7 r 9 ; p 7 z P H L P P P P P P P L ~ j B N.l.c.c.c.c.c.c.j.h.n.' 7 p 1 o . % % 6 7 9 W L :.j.h.c.v h.l.c.N.X.| c.j.c.:.U N.c.j.N.,.X.N.j.c.,.,.j.d.j.t.L h.d.d.h.h :.h.w.j.W v p.w.w.u.a < e q 1 O 1 - @ - 6 p r p a a 6 1 e 6 # * # - ; < 1 3 q q 6 q q q q q e q q 6 q 6 6 < u 6 L w.1.K v w.} L j :.| :.j ~ :.%.| j | 1.D F 1.} W K 3.K v :.k P :.r - D b j D j < 6 < < < < < < < < < < < < < < - < 6 e p p u 6 < - < < < < < < < < < < , , < < 3 w w w w w 8 8 8 w e e e e 6 2 w 6 6 6 6 6 8 6 5 e w w e e i e e e i w e e i e i i e e u i i i i i t w 6 w e e e e e 6 6 6 6 6 6 6 6 6 < < < 6 6 < 6 6 6 < < < 2 3 6 3 2 < : < 2 6 6 < < < - $ X   X X X   . .     X X X X + @ @ @ @ @ @ @ ",
"@ @ @ @ @ @ # # @ @ @ @ @ @ $ $ $ $ $ $ @ @ @ @ @ @ @ @ @ @ @ @ + + + + X X X X + + X X X X X X X X + + + + X + + @ @ @ @ @ @ @ @ @ @ @ @ @ $ $ $ $ = = = = - - - - - - - - : : : : : : - - - - - - - @ + + + + + + + + + + + + @ @ @ @ @ @ @ $ $ $ $ $ $ @ @ $ @ @ @ @ @ @ @ @ @ @ @ @ @ @ @ @ + + @ $ = - - - = = - - - % % $ $ @ @ @ @ $ : < - - 2 2 - - $ $ @ + X . X @ @ @ @ @ @ @ $ - @ $ = 6 w - - < < 6 6 < - @ - - - ; 6 6 < @ @ - @ . @ @ @ @ - - - < - < < - @ @ @ + + + @ $ $ @ $ $ $ $ $ $ @ @ @ @ @ @ @ @ * - - - # - - - - @ @ # - , < < <   v j 0.h.h.h.v.| V B.:.a q < 6 9 q 6 % q 9 9 r ; 6 9 9 q ; 9 9 e q < e 7 e < % j q m H K P P P P P P P P W p W n.c.v.c.c.c.c.j.h.d.H 6 p ; o . o # q 6 e | N.+.' n.a.v.m w.l.c.c.p.L v.h.c.w.V c.v.j.N.w.K N.j.j.t.' j.h.h.h.F d.j.t.c.D D h.a.s.p.p :.s.p.e.a < e q - - @ < * e h p u p e < 3 a g k a 6 - # < , - ; # - , < < < < < < < < < , ; # - q 6 K :.:.W v 3.X.P j :._ %.j ~ :.-.W k %.:.b W 1.} D ~ :.N K W j %.L < 6 V p x D 6 < < < < < < < < < < < < < < < < - < 6 e p p p 6 < - < < < < < < < < < < < , , : 2 w w w w w 6 6 8 8 w e e e 8 5 w 6 6 6 6 6 8 6 6 e w w e e i e e e i w e e p e i i e e e e e e i e e w 6 w e e e e e 6 6 6 6 6 6 6 6 6 < < < < < < < 3 3 < < < < 3 6 3 2 < : < 2 6 6 2 < < : = + . X .     . . .   X X X X X @ @ @ @ @ @ @ ",
"+ + + + @ @ @ @ @ @ @ @ $ $ @ $ $ $ $ $ @ @ @ @ @ @ @ @ @ @ @ @ + + + + X X X X + X X X X X X X X X + + + + X X X + @ @ @ @ @ @ @ @ @ @ @ @ $ $ $ $ = = = = - - - - - - - - : : : : : : - - - - : < : - + + + + + + + + + + + + @ @ @ @ @ @ @ $ $ $ $ $ @ @ @ $ @ @ @ @ @ @ @ @ @ @ @ @ @ @ @ @ + + @ $ $ = - - = = = - - % % $ $ @ @ @ - - : < - : 6 8 : - - - 5 , @   @ @ @ $ @ @ @ @ - - + @ - = - $ < < - - < < - @ @ @ - - - < @ # - - - + @ @ @ @ - < - * - - + + + - @ . X + @ @ @ @ @ @ @ @ @ @ @ @ @ @ @ @ @ @ @ @ * @ @ - - - - - < < < < < < - - - 6 0.h.h.h.c.:.D c.j.L q - 7 9 q 6 % q 9 e r - 6 9 9 q ; 9 9 e q < 3 q e 6 @ > y p F H L P P P P P L U W e #.n.c.N.c.c.c.c.c.h.m 7 r o     . < 1 6 a +.c.c.X.W v.j.B.P t.v.j.v.d.H N.h.v.a.z l.v.j.c.w.v v.j.d.d.~ j.a.a.h.K e.h.t.f.0.x p.p.w.c.k D p.s.1.a < e e + 6 ; ; ; < e p q ; ; q a g j p a j u ; # - < 6 6 3 < ; < < < 1 < 1 < < 1 < @ < u p ~ w.:.| x %.X.P j :.~ } g W -.} K k :.%.k ~ 1.X.B :._ v } V v 3.v - p j e B p < < < < < < < < < < < < < < < < - - < 6 e p p p 6 < - < < < < < < < < - , , , - - 2 8 t w w w 6 6 8 8 w e e e 8 < w 6 6 6 8 6 6 6 5 e w w e e e e e e i w e e p e i i e e e e e e e w i e 6 w e e e e q 6 6 6 6 6 4 6 6 < < < < < < < < < 2 < < < < 6 6 2 < < : < 2 6 6 2 < < : = +     .   . . . .   . . . X X + @ @ @ @ @ @ ",
"O O O O @ @ @ @ @ @ @ @ @ @ $ $ $ $ @ @ @ @ @ @ @ @ @ @ + + + + + + + + + + + + X X X X + X X X X X X X X X X X + + + + + + @ @ @ @ $ $ @ @ = = = = - - = = - - - - - - - - - - - - - - - - - - - : - - @ + + + + + + + @ + + + @ @ @ @ @ @ $ $ @ @ @ @ @ @ $ $ @ @ @ @ @ @ @ @ @ @ @ @ @ @ @ @ + + @ @ = = = = = = - - - - - $ % % - : : : : - : : 2 8 < < 5 6 <   . $ @ @ @ @ $ @ @ @ % $ $ $ = - - - - - - - - - @ @ @ # # - - - - @ - @ + . + @ @ @ @ @ @ @ - - @ + . . X X X + @ @ @ @ @ @ @ @ @ @ @ $ = - $ @ @ @ @ @ # - @ - - - + * - < , - - - - - - - P c.a.j.h.w.F v.h.a.j # 3 p e q - 6 e e e < < r 9 e ; 3 e r e 1 < e 9 q 1 3 < j p D L L P P P P F L P e a.l.h.c.c.c.c.j.p.j e e O     O e r < q p.d.c.n.w.D c.c.N.| :.v.j.c.j.H d.j.d.n.a e.v.j.c.h.a d.l.d.d.W a.j.p.j.L +.j.t.h.h.v %.s.u.f.| a a.p._ e < - @ 1 q 6 # , . O #   * 6 p p a h h a p p u # @ O . ; < 6 q e e q 6 7 q 6 6 q 6 # < g v D L B j u r j j 6 D ~ ~ g W | 2.b D %.P j -.| K A :.L B :.h L X.g < e 1 k u - < < 6 < < < < < < < < < < < < < - - < 6 e e e p 6 < - < < < - < < < , < < , , : - < 6 e e e w 6 6 8 w e e e e 6 < e w 6 6 6 6 6 6 5 w w e e e e e e e e w e e i w e e w e i i i e w w t w 6 8 e e e e 6 6 6 6 6 6 < < < < < < < < < < < < < < < < < 6 6 2 < < < < 2 6 6 5 < < , - + X                 . . .   X @ @ @ @ @ @ @ ",
"O O O O @ @ @ @ @ @ @ @ $ @ $ $ @ $ @ @ @ @ @ @ @ @ @ @ + + + + + + + + + + + + X + X X + X X X X X X X X X X X + + + + + @ @ @ @ @ $ $ @ @ = $ = = - - = = - - - - - - - - - - - - - - - - - - - - - = @ + + + + + + + @ + + + @ @ @ @ @ @ $ $ $ @ @ @ @ @ $ $ @ @ @ @ @ @ @ @ @ @ @ @ @ @ @ @ + + @ @ $ $ $ $ = - - - - - - - - : < < : - - - : - < 2 < 5 < + - X @ = + @ @ @ @ - % @ X X @ % - - - = - - - - @ @ @ @ @ @ # - - - - @ @ @ @ @ + + @ @ @ @ @ @ @ - - + + + + + + + @ @ X X X X @ @ @ @ $ - - - - @ @ + @ @ @ @ @ @ * - - - - - - - - # @ - - - * | h.j.h.w.L v.c.c.2.< 1 u e e - 6 9 e e < < r 9 e ; 3 e e e 1 < e 9 q ; e < 7 a p V P L P P P P W G r j.l.h.l.l.h.n.w.p p 9       - 6 q e 6 G N.c.c.v.p.D c.l.N.+.| n.j.c.j.H e.c.a.n.b X.v.j.c.l.k w.l.d.h.! w.j.p.j.' P l.t.a.j.A D h.p.f.h.a | s.P e 6 - - < 3 6 < # . O     O - < 6 6 e e 6 6 < < ; ; - * . O * - , < 6 6 3 3 1 < 1 < - 1 k p e e e e p p p a q 3 e q 1 P | 1.V L 1.D v X.-.B K 3.B K W u | D e 6 < - p # < < < < < < < < < < < < < < < < < - - < 6 e e e u 6 < - < < < - - < < < - - : : : - < 8 e e e w 8 8 w w e e e e 6 < w w 4 6 6 6 8 w 5 6 w e w w e e e e e e e e i w e e e e i i i e w w w w 6 6 e e e e 6 6 < < 3 3 < < < < < < < < < < < < < < < < < 6 6 < < < < < 2 6 6 5 < < < - @ X                         X @ @ @ @ @ @ @ ",
"O O O O @ @ @ @ @ @ @ @ @ @ @ @ @ @ @ @ @ @ @ @ @ @ @ @ + + + + + + + + + + + + + + + + + + X X X X X X X X + + + + X X + + @ + @ @ @ @ @ @ = = = = - - - - - - - - - - - - - - - - - - - - - - - = $ @ @ @ @ + + + + + + @ @ + @ @ @ @ @ @ $ - - - - = $ @ @ $ @ @ @ @ @ @ $ @ $ $ $ $ @ @ @ $ @ @ @ @ $ $ = $ $ - = = % $ % - - : < < : > - - - - - < < < : X   @ +   . + @ @ @ - % $ $ - : < - - $ @ - - - # @ @ @ + O O # * - - # @ + - - + + + + @ @ @ @ @ @ - - @ + + + + @ + @ @ X X X X @ @ @ @ $ - - - - $ @ + + + + + @ @ @ @ - - - - - - - # @ @ @ - # < :.c.h.p.W N.c.j.v.V < r e e - 3 e 9 e < < e 9 e ; 3 e r e 1 < 9 9 9 - 6 e < q y a K L L P P W W B z v.l.j.j.j.c.+.6 d e o o @ % 1 r 6 v ' D v.l.j.c.j.D j.l.v.6.W N.l.c.j.H :.c.p.n.L H N.j.j.n.B | l.h.l.X.:.h.a.h.w.Z d.a.p.h.1.g h.j.p.j.D b g.D 6 < < 6 < < 1 q # . O   . + @ @ . . + @ O # - ; 1 < < ; * * - - , ; , ; ; ; - - < - ; < 6 p g a a g j j j p j j j p 6 6 a D j W } j V } W v _ U v | k B %.x p <   1 < < < < < < < < < < < < < < < < < < < - - - < 6 e e p 6 < - < < , - - < < < - - : : : - < 8 e e e w 8 8 8 w e e e e q < w w 4 6 6 6 6 w 8 w w w e e w w e e e e w e i w e e e e i i e u w w t w 6 6 e e e 6 6 6 < < < < < < < < < < < < < < < < < 2 3 < < 6 6 < < < < < 2 6 6 5 < < < - @ X .   X X . .             X @ @ @ @ @ @ @ ",
"O O O O @ @ @ @ @ @ @ @ @ @ @ @ @ @ @ @ @ @ @ @ @ @ @ @ + + + + + + + + + + + + + + + + + + X X X + X X + + + + + + X X + + + + @ @ @ @ @ @ = = = = - - - - - - - - - - - - - - - - - - - - - - - = $ @ @ @ @ + @ + + + + @ + + @ @ @ @ @ @ $ - - - - - = @ @ @ @ @ @ @ @ @ $ $ $ $ $ $ @ @ @ @ @ @ @ @ $ $ $ $ $ = = = % % % $ - - : : - > : - - - - : : : , < @ 2 -   . + @ $ - $ $ - < < < < : - @ @ @ - - - @ @ + + + + @ * - - @ @ - - -   @ + + + @ @ + + + @ - #   . . X + + @ @ @ X X X @ @ @ @ @ $ = = = @ @ @ + + + + + + + + + @ - < - - - # # @ @ @ 6 < 6 w.h.f.~ N.h.c.c.| ; r e r - 3 e e e < < e 9 e ; 1 e e e 1 > 9 9 9 - 9 r 9 > e j j D L L P L W m Z v.l.h.j.v.W 6 d 1   o o 6 1 1 6 v a.j.V c.j.j.c.v.G h.c.c.t.L B.l.c.j.H | v.p.v.| m N.j.h.N.G P j.h.c.1.' h.d.h.a.Z w.h.p.p.v.v T h.f.s.w.a 0.N < < 6 e q ; ; q , . O # # - - < < < < 6 ; < < < < < ; ; ; ; ; ; * ; 1 6 7 7 6 6 6 - - # p r e u h a p p p a p g u p j p q - 6 P E r K } V B | N v | e P E a a < < 6 < 6 < < < < < < < < < < < < < < < < < - - - < 6 e e u 6 < - < < , - - < < < - - : : - - < 8 e e e w 8 8 8 w e e e e q < 6 w 4 6 6 6 6 w 6 w w w e e w w e e e e w e i w e e e e i e e u w w t w 6 6 e e e 6 6 6 < < < < < < < < < < < < < < < < < 2 6 < < 2 3 2 < < < < 2 6 8 5 < < < - @ X X X X X X .             X @ @ @ @ @ @ @ ",
"@ @ @ @ @ @ @ @ @ @ @ @ @ @ @ @ @ @ @ @ @ @ @ @ @ @ @ @ + + + @ @ + + + + + + + + + + + + + X X X X X + X + + + + + X X X X X + @ @ @ @ @ @ = = = = - - - - - - - - - - - - - - - - - - - = - = $ $ $ @ @ @ + + + + + + + + + + @ @ @ @ @ @ $ - - - : : - = @ @ @ @ @ @ @ @ $ $ $ @ @ @ @ @ $ $ $ $ $ @ @ @ $ $ @ @ $ $ - - - - - - - - - - - ; - - - : < - - - < 6 6 @ @ @ @ $ > % % : < : : < < < 6 - @ + @ - @ + + + + @ @ - - - - - - - = - = @ X @ @ @ + X X @ $ @     X + + X X @ + + + + + + @ + @ @ @ = $ $ @ + + + + + + + + + * - - - - - - - - +     6 q ; 6 2.h.P x.h.v.N.1.a a q r < < e e e < ; r 9 e < 1 e e e e < e 9 9 ; 6 e 9 r < p d a L U F L W j ' v.j.l.l.Z e a 6   . ; 7 y - < D d.h.N.b a.N.c.v.c.L p.N.j.d.L v.j.j.l.| D v.h.c.t.v n.h.a.c.W b j.d.a.w.D l.t.w.c.H :.h.s.u.h.| N c.g.s.g.j _ j - 9 e 6 6 3 - 3 3 o o @ + . o - < < < < < < < < < < < < < < < < - - - @ - - - - - + + < a h h a p p p p a p p a a p p p p p p p x j %._ j W T j L V j ~ B k e . < < < < < < < < < < < < < < < < < < < < < ; - , 4 6 e e u e < - < - - - - - - - - - - - < < , w e e e e w w e e e e e e e < 6 6 6 6 6 6 6 e 6 6 e e w w w w w w e e e e i w e e e e e e e e e e e 9 6 6 6 e e 6 6 6 < < < < < < < < < < < < < < < < < < 6 < < < 3 3 < < < < 2 6 6 3 2 < < - $ X X X X   X X         X X X + @ @ @ @ @ @ ",
"@ @ @ @ @ @ @ @ @ @ @ @ @ @ @ @ @ @ + + + + + @ @ @ @ + + + + @ + @ + + + + + + + + + + + + X X X X + + X X + + + + X X X X X + + @ @ @ $ = - - - - - - - - - - - - - - - - - - - - - - - = = $ $ $ $ @ @ @ + + + + + + + + + + @ @ @ @ @ @ $ - - - , , - - - = @ @ @ @ @ @ $ = $ $ @ @ @ @ $ $ $ $ = @ @ @ @ $ @ @ $ $ - - - - - - - - - @ - < 6 - - - < - - - < < < - - - - - % % - - : : < 6 < < 6 6 6 - < - + . . @ @ @ @ @ @ + + + @ @ : 6 - @ X @ @ @ + X X @ = @ X X X + + X X + + + + + @ @ @ @ @ @ @ $ @ $ @ + + + + + + + + + @ * - - @ @ @ @ + . . . 1 6 p # 6 -.D j.j.c.v.0.j :.e e > > e e e < ; r 9 e < 1 e e e e > e 9 9 ; 6 e 9 e 3 < p a a L P L L p :.h.j.j.V e z <   . > 7 1 p - j n.h.h.c.j 6.N.c.c.c.W w.N.j.h.L c.j.d.h.X.Z c.h.j.d.m h.h.l.c.| j h.a.d.w.B d.p.t.j.Q | d.a.p.s.w.v s.s.p.p.} e - 2 9 9 2 7 e 1 - 6 @ o o + . o % < < < < < < < < < < < < < < < < < - - - @ @ @ @ -   @ e e 6 < 6 6 6 6 6 6 6 e p p p a p u p p p < q W F g | B p ~ e B ~ g p # O < < < < < < < < < < < < < , , : - - - - - - @ , < 6 e e e e < - < < - - - ; ; ; - - - - , - - 6 e e e e w w e e e e e e q < 6 6 6 6 6 6 6 e < 6 e e w w w w w w e w w e i w w e w e e e e e e e e 9 6 6 6 q q 6 6 < < < < < < < < - < < < < < < < < < < < < < < 2 2 < < < < 2 6 6 3 2 < < - $ X X X X   X X         X X X + @ @ @ @ @ @ ",
"@ @ @ @ @ @ @ @ @ @ @ @ @ @ @ @ @ @ + + + X + + + + + + + + @ @ + + + + + + + + + + + + + + X X + + + + X X X X X X X X + + X X X + @ @ - - - - - - : - - - - - - - - - @ @ @ @ - - - - = @ @ @ @ @ @ @ @ + + + + + @ @ + + + + @ @ @ @ @ @ $ - - - , : : - : - = $ @ @ @ @ = = = $ = = = = = = = = = $ @ @ $ $ @ @ @ @ - - - - % % - - @ + @ < 6 < - - < - - - < < < - - - - - % $ - - : < 2 2 < < 6 6 e e 6 @ @ . . . + + @ @ X . . . X + - 6 = + + @ @ @ @ + + = - = $ $ @ @ @ $ $ @ @ @ @ @ @ $ @ @ @ @ @ $ @ @ @ + + + + + + + + + + @ * - + + + +   . + . 6 q 6 < q - k v.c.x.c.w.p v.L u > > e e e 1 ; r e r < 1 9 e 9 9 > 9 9 e ; 6 e 9 r y < ; j 9 j L W G y e.j.a.a e a - . ; ; 7 9 7 z Z B c.j.j.v.k ! N.j.h.v.| :.n.j.j.L h.h.a.j.6.Z h.h.h.c.V w.j.c.j.2.p d.p.h.t.v w.h.p.h.6.P a.f.p.u.h.D ~ g.s.w.} < - 6 6 6 6 q e q % 3 #   o @ o + % < < < < < < < < < < < < < < < < < < - - < < < < - O @ < e v A D K K K D B h 6 6 e r p a u u p p h q < u F T p K B e T D p q   - < < < < < < < < < < < < < < < , < - - - - - @ ; < 6 e e p e 4 - @ @ @ + + @ @ @ + + + + @ @ = 6 e e e e w w w e e e e e e < 6 6 6 6 6 6 6 e < 6 e e w w w w w e e w w e e w w w w e e e e e e 9 e 9 6 6 6 6 6 6 < < < < < < < < - - < < < < < < < < < < < < > > < < < < < < 2 6 6 3 2 < < - $ @         X X . .   . . X X + @ @ @ @ @ @ ",
"@ @ @ @ @ @ @ @ @ @ @ @ @ @ @ @ @ @ + + + X + + + + + + + + @ @ + + + + + + + + + + + + + + X X + + + + X X X X X X X X + + + + X X + + - - - - - - : - - - - - - - - - @ @ @ @ @ # - $ @ @ @ @ @ @ @ @ @ + + + + + @ @ + + + + @ @ @ @ @ @ @ $ - - , : : : : - - - $ @ @ @ = = = $ = = = = = = = = $ @ @ @ $ @ @ @ @ @ - - - @ @ @ @ @ @ @ @ @ - - - - < - - - - < - - - - - - - - : : : < 2 : < - < < 6 6 @ - - + . . . . + + X X X X . X @ , @ + + @ @ @ @ + @ - - - - - = $ = , , - @ @ @ @ @ @ $ @ @ @ @ @ @ @ @ + + + + + + + + + + + @ @ @ @ @ @ . @ +   6 q 1 < e 6 ; X.c.j.c.w.p j.c.B > < e e e 1 ; r e r < < 9 9 9 9 ; 9 9 e ; 6 e 9 r 6 < 3 6 z r d L Z a l.X.p 9 p #   ; 6 7 1 7 k w.p.D j.j.c.A.V L B.j.d.v.+.' n.j.c.L a.j.a.c.p.V a.h.a.N.Z X.j.h.d.a.d p.t.h.a.j 1.h.a.a.a.G p.a.a.p.s.X.D p.w.E 6 6 e < 2 6 e q 6 e 1 > @ o @ @ o + % < < < < < < < < < < < < < < < < < < < , < < < < - . 6 D L K K L K K K L W E P V a u e r u u p u a g e - F B 6 ~ q D | k j , # < < < < < , : : - - - - - = @ @ @ @ + + + @ @ @ - < 6 e e e e 6 - - @ @ @ @ @ @ @ @ @ @ @ + + @ 8 e e e e w 8 w e e e e e e < 6 6 < 6 6 6 e e < 6 e e w w w w w w e w w e e e w e w e e e e e e 9 e e 6 3 < 6 6 < < < < - < < - - - - - - < < < < < < < < < < > - > < < < < < 2 3 3 3 2 < 2 : $ +         .   . .   . . . X + @ @ @ @ @ @ ",
"@ @ @ @ @ @ @ @ @ @ @ @ @ @ @ @ @ @ @ + + + + + X X + + + + + + + + + + + + + + + + + + X X X X + + X X + + X X X X X X + + + + X X X X + = - - - : , : - - - - - - - * # @ @ @ @ @ @ @ @ @ @ @ @ @ @ @ @ @ @ @ + + @ @ @ @ @ @ @ @ @ @ @ @ @ @ = - - - : : , , : - - $ @ @ $ = = = = = = = = = - $ @ @ @ @ @ $ $ @ $ $ - @ @ @ # - - @ * - * - - - - - - - - - - - - - * - % % - - - : : : : - - - < , e 6 < < @ + . + . . . . X . . . . . X X @ + + @ @ @ @ $ $ - - - - - - - - - - - @ @ @ @ @ + . + @ @ @ $ @ @ + + X X X + . . + + + + + + + + + + . . . . 6 6 # 1 e 6 < - _ j.h.g.g p.j.e.r % r e e q ; e q e 3 ; e q 9 r ; 3 e e 6 < e e 7 e 1 1 e 9 z 6 v B B 6.6 e y   o % e r 6 ; z w.l.h.P h.j.j.N.L m N.j.j.c.,.! N.d.l.W e.j.d.d.j.D p.h.h.v.L L v.h.d.j.y :.h.w.c.v W h.a.a.a.L +.a.a.a.a.p.B p.} 6 6 e 6 e 2 < 6 9 6 q 6 - @ o o @ . - w w i p a e - < 6 < < < < < < < < < < < < < < < < @ - v W L L L L L L L L L L L L W D g q e a a e p a u 6 q q v B u W F k j O @ - @ @ @ @ @ @ @ @ @ @ @ @ @ @ @ @ @ @ @ @ @ + @ - < 6 e e e e 6 < - + + @ + + + + + + + + - + - 6 e e e e q 6 e e e e e e e < 6 6 4 6 6 e e e < 6 e e w w w w w w w w e e e e 6 e e e e e e e 9 9 e e 6 < < < < < < < < - ; < < < , - - - - - < < < < < < < < < - : < < < < < < 2 2 < < < < , $ @ X     X         .       X @ @ @ @ @ @ @ ",
"@ @ @ @ @ @ @ @ @ @ @ @ @ @ @ @ @ @ @ + @ + + + X X X X + + + + + + + + + + + + + + + + X X X X X + X X + + + + X X X X + + + + X X X   X + = - - : , - - - - - - - - # # @ @ @ @ @ @ @ + + + + @ @ @ @ @ @ @ @ + + @ @ @ @ @ @ @ @ @ @ @ @ @ @ @ = - - - : , < < - - - @ @ $ $ = = = = = = = = - $ @ @ @ @ @ @ $ @ $ @ @ + + + @ - - - # * # # # @ - - - - - - - - - - * * % % % % - - - - - - - < < - - - * .   . + @ + . . . . . . . X X X X + + @ @ @ @ @ $ $ $ = = - - - - - - - - $ @ @ @ @ X X + @ @ @ @ @ @ + + X + X + . . + + + + + + + + + + . . . . 1 6 * 6 e q q q # L v.j.j w.g.f.Q ; 9 q e q ; e 7 9 3 ; e q q e ; 3 e e 6 < 9 e q e 1 1 y 1 q j e p a 9 j q   @ e 1 < q e 6 t.h.a.h.W h.c.j.N.~ v N.h.j.c.2.W N.d.c.W 6.j.d.d.j.G 6.j.d.l.X.Z c.a.p.j.j ~ j.t.j.H F c.p.p.a.~ | s.s.s.s.g.U v , 6 e e e e 6 < < q q 7 6 ; @ o + @ . o - 6 e p i p e - - < < < - ; - - - - - - - - - - - @ e D T L L L L L L L L L P L L P K D B r q r p p u p e 1 - L 1 D _ x b 6 . O # - - - - = = = $ $ @ @ @ $ $ $ $ @ @ @ # @ @ @ - < 6 e e e e 6 < - @ + - - - - - - - - - - - < e e e e e 6 6 q e e e e e e < 6 6 < 6 6 e e e < 6 e e w w w w w w 6 6 e w e e 6 e 9 e e e e e 9 6 e 9 6 < < < < < < < < , - < < < , - - - - - - ; < , , < < < < - > < < < < < < < < < < < < , = @ X   X X                 X @ @ @ @ @ @ @ ",
"@ @ @ @ @ @ @ @ @ @ @ @ @ @ @ @ @ @ @ @ + + + + + + + + + + + + + + @ @ + + + + + + + + X X X X X X X X + + + + X X X X X X X X X X X X . . + = - : , - - - - - - - - - @ @ @ @ @ @ @ @ @ @ @ @ @ @ @ @ @ @ @ @ @ @ @ @ @ @ @ @ @ @ @ @ @ @ @ @ @ @ = - - - - : : - - = @ @ $ $ = = - - - - - - - $ @ @ @ @ @ @ @ @ @ @ + + + @ # - - @ @ @ @ @ @ @ @ @ @ @ @ @ - - - - - * % % % % $ % % % % % < < < - 6 e - + @ @ @ @ + X X X X X X X X X X X + @ @ @ @ @ $ $ @ @ $ $ $ = = = = - - - = $ @ @ @ X X @ $ @ $ $ $ @ + + + + X X + X + + + + + + + + + + . . . . < 3 - 6 q e e e ; O v c.a 0.h.h.d.6 3 9 e q ; e 7 9 3 ; e q q e ; 3 e e 6 < 9 e q r 1 1 9 9 7 r z ; 6 j y   O 9 p 1 7 7 V z a.h.a.c.! p.v.h.c.,.k c.h.j.c.w.L c.a.c.W X.j.d.d.j.H ' l.a.d.t.m l.a.p.c.B H j.a.d.' D j.t.t.p.2.P u.u.p.p.h.A , - 6 e e e e e 8 < 6 9 6 6 - @ o + @ o X X @ 5 p s a p < * - - - - - # % $ @ @ @ @ @ @ @ @ @ v W E L L L L I I L L P P L L F F K F K e 6 y p r e r g 6 < e P D v v @ @ @ - - - - - - - - - % $ $ $ % % % % % % % - - - # - < 6 e e e e 6 < - # @ - - - - - - - - - - < e e e e e e 6 6 e e e e e e e < < 6 < 6 6 e 6 6 - < e e w w w w w 8 8 6 w 8 e e 6 e 6 9 9 e 9 9 6 6 9 9 3 < < < < < < < < < < , < < < , - - - - - - < < - < < < < - > < < < < < < < < < < 2 2 < = @ X   X X X   X X .       X @ @ @ @ @ @ @ ",
"@ @ @ @ @ @ @ @ @ @ @ @ @ @ @ @ @ @ @ @ + + + + + + + + + + + + + + @ @ + + + + + + + + + X + + X X X X + + + + X X X X X X X X X X X X . . X + - - , - - - - - - - - - # @ @ @ @ @ @ @ @ @ @ @ @ @ @ @ @ @ @ @ @ @ @ @ @ @ @ @ @ @ @ @ @ @ @ @ @ @ $ = - - - - - - $ @ @ @ $ $ $ $ - - - - - - - $ @ @ @ @ @ @ + + @ @ @ @ - - - - - @ @ @ @ @ @ @ @ + + + + @ # - - - - * % % % % $ $ $ $ $ % - < 6 < < 6 - - - - @ @ @ = $ @ X X X X X X X X + + @ @ @ @ @ @ @ @ @ @ $ $ = = = - = = $ $ @ @ @ X + @ @ @ @ @ @ @ @ + + + X X X X + + + + + + + + + + . . . . ; 1 - q e e q 6 ; e O a e w.c.g.w.y v 3 r q ; e 7 9 3 ; r q q e ; 3 e e 6 < 9 e q r 1 1 e e e < a v z e   @ < 7 7 3 > G c.B w.c.h.N.! ,.n.h.l.t.d l.h.j.c.w.G l.a.v.U | j.d.d.j.L W c.p.a.d.m d.h.p.N.L V l.d.p.6.H p.p.w.t.t.F e.e.e.e.b K D < < 6 6 6 9 e e 2 < 9 6 6 - @ o + @ @ @ @ X , w p p p e @ @ @ @ @ @ @ @ @ @ @ @ @ @ @ @ @ < D W W L L L L I I L L P P L L K F D D L F k 9 y y e e e e + D W a V 6 @ < - < : : : - - - : - - - - - - - - - - - - - ; - @ - < 6 e e e e 6 < - - # ; < < < < < < < < < e p e e e e e q 6 e e e e e e e < < 6 < 6 6 e 6 6 - < e e w w w w 6 6 8 8 w 8 e e 6 e 6 e e e e 9 9 6 9 9 6 < < < < < < < < < < , , ; - - - - - - - - < < - < < < < - : > < < < < < < < < < 2 < < = @ X X X X X X X X . .   X X @ @ @ @ @ @ @ ",
"@ @ # @ @ @ @ @ @ @ @ @ @ @ @ @ @ @ @ @ @ + + + + + + + @ @ + + + @ @ @ + + + + + + + + + + + + + + X X + + + + X X X X X X X X + + + X X . . X + @ - - < , - - - - - - - @ @ @ @ @ @ @ @ @ @ @ @ @ @ @ @ @ @ @ @ @ @ @ @ @ @ @ @ @ @ @ @ @ @ @ @ @ $ $ $ $ = - = = $ @ @ @ @ @ $ $ = = - - - - = = $ @ @ @ @ + + + @ $ = = - - = $ @ @ @ @ @ + + + + + + + + + @ = = - - - - - = = $ $ $ @ @ $ - 6 e 6 < - : 2 - = @ @ < -   @ X X X X X X X X X + + + @ @ @ @ @ @ $ $ $ $ = - - = $ @ @ @ $ $ @ @ @ @ @ @ @ @ @ @ + + + + @ + + + + + + = X + +   @       + @ - < < e 6 r r 1 - q 6 #   W c.p.e.z 2.d e e > 6 q e 6 > 9 q q q < < e e q ; 9 q 9 e < < e e q 7 # a e o 6 3 6 e e < v c.v.Z +.c.d.c.~ W c.h.h.h.j d.h.h.h.h.D h.p.c.W U l.p.p.l.! Z c.h.d.h.Z p.c.a.c.:.Z l.t.e.p.L t.t.t.w.a.K 1.h.~ j W g.K 1 < - e e e e e e - 6 e 6 - + + + @ @ @ @ @ X < h a a e - + + @ % @ @ + + @ @ @ @ @ @ - @ h K W U L L I I I L L I P P L L K L L L H H D z 6 p y e e e < B v p v - < < < < < < < < < < < < > > > < < < < 2 6 6 2 < < - @ - - 6 e e e e 6 < - - @ 6 e e e e e e 6 6 6 e e e e e e w 9 9 9 9 e 9 6 6 6 < < 3 < 6 6 < 6 6 - < e e e e e e 6 8 6 6 6 6 9 e 6 9 6 6 9 e e e 6 6 e 9 3 < < < < < < < < < < - - - - - - - - - - - < < - ; < < < < ; - < < < < < < < < < < < , = @ X X     X           X X X @ @ @ @ @ @ @ ",
"@ @ # # @ @ @ @ @ @ @ @ @ @ @ @ @ @ @ @ @ + + + + + + + + @ + + + + @ @ + + + + + + + + + + + + + X X X + + + + X X X X X X X X + X + X X X X X X X + @ : < - - - - - - - - = @ @ @ @ @ @ @ @ @ @ @ @ @ @ @ @ @ @ @ @ @ @ @ @ @ @ @ @ @ @ @ @ @ @ @ $ $ $ $ = = = = = $ @ @ @ @ @ $ = = = = - - = = $ $ @ @ @ + + + @ $ = = $ $ @ @ @ @ @ @ @ + + + + + + + @ @ @ @ = - - - - - = = $ % - - - - - < < < - - - - - = @ @ - $   X X X X X X X X X X X + + + + @ @ @ @ $ $ $ $ = = = $ @ @ @ @ $ $ $ $ @ @ @ @ @ @ + + + + + + @ @ + + + + + @ + - 6 -   $ @ .   @ # - < q e j e ; < 6 e r - # B h.d.j d.W 9 e 1 7 9 r 6 > 9 q q q < < e e q ; 9 q 9 e < < e e q 7 # ; % 1 r 6 1 q z V B h.c.F | c.d.c.X.L c.h.h.j.j e.h.h.h.d.V a.d.c.| K j.a.a.j.:.V h.h.a.j.K e.c.d.h.w.G h.p.t.p.L w.p.p.w.a.X.K D e | e.a.P e e 3 < e e e e e < - e - @ + + + @ @ @ @ @ X - e h e 6 < < - - - % % % $ - - - - @ - - - N L W L L I I I I L L L P L L L L L L L F F F Z h e y e 6 e 6 6 6 B < 6 8 6 8 8 6 6 6 6 6 9 9 9 9 9 9 6 6 6 6 6 9 9 6 6 < - @ - - 6 e e e e 6 < - - @ 6 e e e e e e 6 6 6 e e e e e e w 9 6 9 9 9 8 6 6 6 < < 2 < 6 6 < < < - < e e e e e e 6 8 6 6 6 6 9 e 6 6 6 6 9 9 e 9 6 6 9 6 < < < < < < < < < < < - - - - - - - - - - - < < - < < < < < - - , < < < < < < < < < < , = @ X X X X X X         X X X @ @ @ @ @ @ @ ",
"@ @ @ # @ @ @ @ $ $ $ @ @ @ @ @ @ @ @ @ @ @ @ @ + + + + + + + + + + @ @ + + + + + + + + + + X X + + X X X X + + X X X X + X X X X X X X X X X X X X X X @ - : - : , , < : - - = = @ @ @ @ @ @ @ @ @ @ @ $ $ $ @ @ @ @ @ @ @ @ @ @ @ @ @ @ @ @ @ @ @ $ @ $ $ = = = = = $ $ @ @ @ $ @ = = = = - - = = = = $ @ @ + + + @ @ $ @ @ @ @ @ @ @ @ @ @ + @ + @ @ @ @ @ @ @ @ = - - - - - $ = $ % $ $ @ @ @ @ # - - @ @ = = = @ @ @ @ $ @ X X X X + X + + + + + + + + @ @ @ @ $ $ $ $ = = @ @ + + @ @ - - $ @ @ @ @ @ @ @ @ @ @ @ @ @ + + @ @ X X X + @ 5 h i - i e < + . @ @ < 6 e w.| e j a e e q . @ a X.z 6.a.V 6 < 6 7 9 3 ; e e 9 9 < < e e q ; e q 9 r 1 < e e q 7 - 6 6 e 9 ; > j p.#.B j.j.P W n.h.c.w.V j.h.h.c.v :.l.d.j.d.B t.h.j.,.V h.d.d.h.t.B p.d.p.c.W 2.j.d.d.a.L p.p.p.a.L :.d.2.p.a.U * < w.p.w.a.| e p e - 6 e e e e w - 2 @ + + @ @ @ @ @ @ + X = 6 6 < 6 e a a y y 3 > > - < < > > < < % 2 K W U L L L I I I I I I L L L L K K L L F G Z G Z y 9 e 6 e e @ l h < i e e e w w e e e 9 9 9 9 9 9 9 9 9 9 9 9 e e 9 8 < - $ % - 6 e e e e 6 < - - & 6 e e e e e e 6 6 6 e e e e e e w 9 9 e e 9 8 6 6 9 < > < < 6 6 < 6 < - < q q e e e e 6 8 6 6 6 6 9 e 6 6 6 6 9 e 9 6 6 2 6 6 < : < < < < < < < < < , - - - - - - - - - - < , , < < < < < - - - < < < < < < < < < < < = $ @ X X X X X . .   . . X X @ @ @ @ @ @ @ ",
"@ @ @ # @ @ @ @ @ @ $ @ @ @ @ @ @ @ @ @ @ @ @ @ + + + + + + + + + @ @ @ + + + + + + + + + + X X + + X X X X + + X X X X + X X X X X X X X X X X X X X X X @ - - : , , < , : - - $ $ $ @ @ @ @ @ @ @ @ @ $ $ $ @ @ @ @ @ @ @ @ @ @ @ @ @ @ @ @ @ @ @ $ @ $ @ $ $ = = = $ $ @ @ @ $ $ $ $ $ $ = = = = = $ = @ @ + + + @ @ @ @ @ @ @ @ @ @ @ @ @ @ @ + @ @ @ @ @ @ @ @ $ = - = = = $ $ $ $ $ @ X X + . . @ - @ X @ = = @ @ @ @ < $ + X X X + + + + + + + + + + @ @ @ @ $ = $ $ = $ @ + + + @ @ - - = @ @ @ @ @ @ @ @ @ @ @ @ @ + + @ X X X X X $ w e < p h v h 6 . @ + ; 6 6 X.| D c.w.D a q - 6 < < 7 e.h.w.j - q e r 7 < e e 9 9 < < e 9 q ; e q e r 1 < e e q 7 ; e 9 6 r < j t.c.,.v j.h.W L N.h.c.p.v h.h.j.c.v ! c.a.j.d.m w.j.h.w.m d.h.d.d.h.m w.a.p.c.' :.d.d.h.t.P w.p.p.a.L ' h.p.#.m < v j P u.w.p.%.p e e 6 < e q e 6 e 2 - X + + @ @ @ @ @ @ X X $ < 6 a h h p p a d d 6 < < 3 3 3 3 9 < + y L W L L I I L L L I I I L L L L K L L L D D Z Z K z 6 y e 6 p 6 i $ e w e e e e w w w w e e e e 9 9 9 9 9 9 9 9 w w 9 6 < - @ % - < e e e e 6 < ; - @ 6 e e e e e e 6 6 6 e e e e e e e 9 9 e 9 9 8 6 6 9 < > < < 6 6 < 6 < - < 6 e e e e e 6 6 6 6 8 6 6 e 6 6 6 6 9 e 9 6 3 < 6 6 < - - , < < < < < < < , - - - - - - - - - - < , , < < < < < - - - < < < < < < < < < < , = $ X X X X X . . . . . . X X + @ @ @ @ @ @ ",
"* # @ @ @ @ $ $ @ @ $ $ $ @ @ @ @ @ @ @ @ @ @ @ @ @ @ @ @ @ @ @ + + @ @ + + + + + + + + + + X X + + + + X X X + X X X X + + + + + + X X X X X X X X X X X + @ = - : , , < , : - - = @ @ @ @ @ @ @ @ @ @ @ @ @ @ @ @ @ @ @ @ @ @ @ @ @ @ @ @ @ @ @ @ @ @ @ @ @ @ $ $ $ $ @ @ @ @ @ $ $ $ $ $ $ $ = = $ $ $ @ @ @ + @ @ @ @ @ @ @ @ @ @ @ @ @ @ @ @ @ @ @ @ @ @ @ @ @ = - - = @ @ @ $ $ = = $ + + + + + + + + X + @ @ $ @ @ @ @ @ + + + + + + + + + + + + @ + @ @ @ @ @ @ $ $ $ @ @ @ @ @ @ $ $ $ $ $ $ $ @ @ @ @ @ @ @ @ @ @ + + + + X . .   = p w 6 j h a j j 6 .   ; e 1 V v | c.j.j.s.v h e < <   9 L h.:.1 3 9 e 6 ; e 9 9 e 6 ; e 9 9 ; 6 e e r 1 % e e q 9 ; q p 6 p a | c.h.e.m c.c.X.V v.h.j.j.B p.c.p.c.V F c.a.h.l.m X.h.p.t.B p.p.d.a.h.D ,.j.p.j.+.P h.d.t.a.F 1.p.t.a.| H :.V r 9 v u.W a w.w.w.2.a e p e 6 < 6 e 6 6 6 @   + @ @ @ @ @ @ @ X + - a a a h h g g d d d p 2 3 r e e y e 6 o B W W L L I L L L I I L L P L L L K F F F H H H H B G 9 6 e e e > @ < e e w w e e t t t t e e e e 9 9 9 9 9 9 9 9 9 9 9 6 < - $ $ - < 6 e e e 6 < < @ @ < e e e e e e 6 6 e e e 9 9 e e 9 9 9 9 9 9 6 6 6 9 < : < > 6 6 < 6 6 - < 6 6 e 6 9 e 6 6 6 6 6 6 6 9 3 6 6 6 9 e 6 6 2 < 3 6 < - , < < < < < < < < : - - - - - - - - - - - - - - < < < < - - - < < < < < < < < < , , - $ X X                     X X + + @ @ @ @ ",
"- @ @ @ @ @ $ $ @ @ $ $ $ @ @ @ @ @ @ @ @ @ @ @ @ @ @ @ @ @ @ @ + + @ @ + + + + + + + + + + X X + + X + X X X + X X X X + + + + + + X X X X X X X X X X X X + @ $ - , , < , , : - - $ @ @ @ @ $ $ @ @ @ @ @ @ @ @ @ @ @ @ @ @ @ @ @ @ @ @ @ @ @ @ @ @ @ @ @ @ @ @ @ @ @ @ @ @ @ @ @ @ @ @ @ @ @ = = = @ @ @ @ @ + @ @ @ @ @ @ @ @ @ @ @ @ @ @ @ @ @ @ @ @ @ @ @ $ - - - - - $ @ $ - - - - = @ @ + + + + + + + X + @ @ @ @ X @ @ + + + + + + + + + + + + + + @ @ @ @ @ @ $ $ $ $ = = = = $ $ $ $ $ $ $ $ @ @ @ @ @ @ @ @ @ @ + + @ + X . . . $ i 6 h j h h h h h 1   ; e r e e p.b.h.c.f.L a.:.x > O 3 q a :.k 6 e r 7 < e e e 9 6 ; e 9 9 ; 6 e 9 e 1 % e e q 9 # e e r ' U ~ c.h.a.V c.c.2.F v.h.h.j.D w.c.p.c.H B c.a.h.c.V W h.t.a.V 2.a.d.p.h.L | j.p.h.w.L d.a.t.a.K W d.t.w.W 9 r 1 e P a.2.w.D D 2.w.w.B e e e e < 6 6 6 e < + + @ @ @ @ @ @ @ @ + @ 6 p a a a a a a a a d a 3 < e 6 9 e e > 2 K W P L I L L I I I I L L P L L L K F F F H H H H B G v < e e e > , w e w w w e e e t t t e e e e 9 9 9 9 9 9 9 9 9 9 9 6 < - % % - < 6 e e e 6 < < @ @ < e e e e 6 e 6 6 6 e e 9 9 9 9 9 9 9 9 9 6 6 6 6 9 < : < > 6 6 < 6 6 - < 6 e e 6 6 e 6 6 6 6 6 6 6 9 6 6 6 3 9 e 6 6 2 < < 6 < - < < < < < < < - < : - - - - - - - - - - - - - - < < < < - - - < < < < < < < , , , : - $ X X                     . X . X + @ @ @ ",
"- - @ @ @ @ $ $ $ $ $ $ $ @ @ @ @ @ @ @ @ @ @ @ @ @ @ @ @ @ @ @ + + + + + + + + + + + + + X X X X X X X X X X X X X X X X X + + + + + + X X X X X X X X X X X X + = - < < , , , : - - $ $ @ $ = = = = = @ @ @ @ @ @ @ $ = @ $ $ @ @ @ @ @ @ @ @ @ @ @ @ @ @ @ @ @ @ @ @ @ @ @ @ @ $ $ $ @ @ @ @ $ $ @ @ @ @ @ @ @ @ @ @ @ @ @ @ @ @ @ @ @ @ @ @ @ @ @ @ @ @ @ $ $ = = - - - - = = = - - - @ + + + + + + + + + + + + @ @ X X X X + + + + + + + + + + + + + + @ @ @ @ @ @ $ $ $ $ = = = $ @ @ @ @ $ @ @ @ @ @ @ @ @ @ @ @ @ @ + + @ @ X .   X @ 8 e v j j j h h h 1   # e e 1 e f.c.g.c.:.L j.j.e.' k @ - 7 q 3 3 6 9 6 < e e e e 6 ; e 9 9 ; 6 e 9 e 1 % e e e 9 ; 7 y U l.W U c.h.d.D c.h.e.P l.h.h.l.P :.l.p.c.W z c.p.d.c.G H c.t.j.V | h.d.t.d.| P j.p.a.p.G t.p.e.d.L F h.~ j 6 < ; a ~ w.p.w.0.w.V ~ 0.u.~ u e e e q 6 6 6 < @ + @ @ @ @ @ @ @ @ @ + : i p a g a a a a p p d j 6 > e 6 6 e e % j K W P I I I I I L L I L L P P L L F F F F F F F F Z G G 6 9 e 9 > 6 e i e e w e w w t t t e e e e 9 9 9 9 9 9 9 9 9 9 9 6 < - $ $ - < 6 e e e 6 < < - @ < e e e 6 6 e 6 6 6 e e 6 6 9 9 9 9 9 9 9 6 6 6 6 e < - < > 6 6 < 6 6 < - e e q 6 6 6 6 6 6 6 6 6 6 9 3 6 6 2 9 e 6 6 2 < < 6 < - < < < < - < < : : - - - - - - - - - - - - - - , < < < < - - - < < < < < < < , , , : - $ @ X         X X X X . . . . . . X + @ @ ",
"- - # * @ @ $ $ $ $ $ $ $ @ @ @ @ @ @ @ @ @ @ @ @ @ @ @ @ @ @ @ + + + + + + + + + + + + + + X X X X X X X X X X X X X X X X + + + + + + + + X X X X X X X X X . X @ - : < , , , : - - = $ $ = - - - - = $ @ @ @ $ $ $ = - $ $ $ @ @ @ @ @ @ @ @ @ @ @ @ @ @ @ @ @ @ @ @ @ @ @ @ @ @ $ $ $ @ @ @ $ $ $ @ @ @ @ @ @ @ @ @ @ @ @ @ @ @ @ @ @ @ @ @ @ @ @ @ @ @ @ $ = - - - - - - = $ @ @ $ @ +   X + + + + + + X X + + X X X X X X + + + + + + + + + + + + + + @ @ @ @ @ @ $ $ $ $ @ @ @ @ + @ @ @ @ @ @ @ @ @ @ @ @ @ @ @ @ @ + + @ @ X X   + @ < j l j l j v h e j p * 1 e 6 6 0.h.h.c.B w.h.a.h.c.| k B < 6 < ; ; 3 1 ; e e e e 6 ; e 9 9 ; 6 e 9 e 1 % e 9 e e - p X.h.h.W F c.d.j.F l.d.p.W h.j.d.c.W | l.p.c.X.a c.p.a.c.K V c.t.c.Z U j.d.e.d.:.G l.a.p.j.Z w.w.w.d.W < y < 6 6 6 9 D a.t.t.w.w.e.e.B 2.u.| p e 6 e e 6 < 6 +   @ + @ @ @ @ @ @ @ @ X w p a a a a a p p p y d d 6 < 9 3 3 9 < < K L P P I I I I I L L I L L P P L L F F F F F F F F G G B p 6 y 6 6 e i i w e w e w w t t t e e e e 9 9 9 9 9 9 9 9 9 w 9 6 < - $ $ - < 6 e e e 6 < < - @ < e e e e 6 6 6 6 6 e e 6 6 9 9 9 9 9 9 9 6 6 6 6 e < - < > < 6 < 6 6 < , 6 6 6 6 6 6 6 6 6 6 6 3 6 9 3 6 6 2 9 e 6 6 2 < < 6 < - < < < < - < < - : - - - - - - - - - - - - - - , < < < < - - - < < < < < < , , , , : - $ @ X     X X X X X X     . . . . . X + @ ",
"- - - $ $ @ @ @ $ @ $ $ $ $ $ @ @ @ @ @ @ @ @ @ @ @ @ @ @ @ @ @ @ @ @ @ + @ @ @ + + + + X X X X X X X X X X X X . . X X X X X X X X X + + + X X X X X X X X X . X X X @ - - - - - - - - = = - - - - - - = $ @ @ $ = - - - - - - $ @ @ @ @ @ @ @ @ @ @ @ @ @ @ @ @ @ @ @ @ @ @ @ @ @ @ @ @ @ @ @ $ $ $ @ @ @ @ @ @ @ @ @ + + + + + + @ @ @ @ @ @ @ @ @ @ @ $ = - - - - - - - = $ @ @ @ $ @ X X X + + + + + X X X + + + + X X X X X X + + + + + + + + + + + + @ @ @ @ $ $ $ $ $ @ @ @ @ @ @ + @ @ @ @ @ @ @ @ @ @ @ @ @ @ @ @ @ @ @ @ @ @   +   e j j j j v d e d k v q % r 3 ; B c.j.t.r c.c.c.c.c.D _ v.0.v ; - q < ; + 1 6 q q 6 < 6 q e < 6 q q e 3 ; 9 9 9 9 1 ,.l.e.h.W G v.n.h.m c.a.h.F a.d.j.j.' W c.p.a.X.j h.p.a.c.W v l.p.d.W Z h.w.p.j.w.V p.a.6.d.L :.e.W m 6 @ 6 r ; 1 Z p.B ' a.w.w.w.e.e.} K 0.w.K e 6 e e 8 < @ X @ @ @ @ @ @ @ @ @ @ @ < p a a a a a a j j a p 9 9 9 e p e r 6   r L U P P P P U P L L L L L L L L K K K K K K G G G G G G B j - 2 8 8 6 e e e w e e w e e e e e e e e e 9 8 8 9 9 9 9 e e 9 6 < % $ $ - < 6 9 e e 6 2 < - @ < e e e 6 6 6 6 6 6 e e 6 6 9 9 9 9 9 9 9 6 8 8 8 e < : < > 2 6 6 6 3 > - 6 6 6 6 6 6 6 6 3 6 6 3 6 6 2 6 6 < 6 e 6 6 < < < 6 < - - < < < - - < - : : - - - - - - - - - - - - , , < < < , ; ; < < < < < < < < , , , : - $ @ X         . . .       X   .     X + @ ",
"- - = $ $ @ @ @ @ @ $ $ $ $ @ @ @ @ @ @ @ @ @ @ @ @ @ @ @ @ @ @ @ @ @ @ + @ @ @ + + + + X X X X X X X X X X X X . . X X X X X X X X X X + + X X X X X X X X X X X X X X @ - - - - - - - = - - - - - - - = $ @ @ @ = - - - - - - - - $ @ @ @ @ @ @ @ @ @ @ @ @ @ @ @ @ @ @ @ @ @ @ @ @ @ @ @ $ @ $ $ $ @ @ @ @ @ @ @ @ @ + + + + + + @ @ @ @ @ @ @ @ @ @ @ $ = - - - - - = $ $ @ @ @ @ @ @ X X + + + + + X X X X + + + + X X X X X X X + + + + + + + + + + + + @ @ @ @ $ @ @ @ @ @ + @ @ + + @ @ @ @ @ @ @ @ @ @ @ @ @ @ @ @ + @ @ @ @ + @ . @ p j j j j v 6 e v j z p < 6 1 > d ' n.| v c.c.c.c.j.j 0.c.h.s.| ; - < 6 - ; < 1 6 6 < q q e < 6 e 9 r 3 ; 9 9 3 y d p.a.j.N.~ p ' L G z H X.p.L p.l.h.h.t.H l.a.a.2.a a.a.a.j.' j h.a.p.' j p.p.d.w.a.F w.a.t.d.H p p 1 1 p 6 - < p +.a.2.:.B w.e.w.w.e.e.0.W W u._ a e 6 6 2 $ X @ @ @ @ @ @ @ @ @ @ @ @ - 6 e e y y y y e 9 q 6 9 e y p p p h e O b ~ W P P P P U P L L L L L L L L K H K K K K G G G G D G N 6 : w e 5 6 e e e e e e w e e e e e e e e e 9 8 8 9 9 9 9 e e 9 6 < % $ $ - < 6 9 e e 6 2 < - @ - e e e 6 6 6 6 6 6 e e 6 6 9 9 9 9 9 9 9 6 8 8 8 9 < - < > < 6 3 6 3 > - 6 6 6 6 6 6 6 6 3 6 6 2 6 8 2 3 6 < 6 e 6 6 < < < 6 < : - < < < - - < - : - - - - - - - - - - - - - , , < < < , ; ; < < < < < < < < , , , : - $ @ X         X X . .     X X       X X @ ",
"$ $ = @ $ @ @ @ @ $ @ $ @ @ @ @ @ @ @ @ @ @ @ @ @ @ @ @ @ @ @ @ @ @ @ @ + + @ @ + + + + X X + X X X X X X X X X X X X X X X X X X X X X + + + + X X X X X X X X X X X X . @ - - - - - - - - - - = = = = $ $ $ @ @ @ = - = - - - - - $ @ @ @ @ @ @ @ @ + + + + + + + @ @ @ @ @ @ @ @ @ @ $ $ $ $ @ @ @ @ @ @ @ @ @ @ @ @ @ @ @ @ + + @ @ @ @ @ @ @ @ @ @ @ @ $ = = - = = = $ $ @ @ + + + X X + + + + + + X X X X X X + X X X X X X X + + + + + + + + + + + + @ @ + + @ @ @ + + + + + X X @ @ @ @ + + + + @ @ @ @ @ @ @ @ @ @ @ @ @ X       . - p j j j j y y z j j j z 6 > < 1 q j j.z U c.c.c.c.w.a h.h.p.g.c.v 1 - - # < 1 6 q < - < 1 q ; 1 6 6 q 1 % r y k t.F p.#.H j 1   e L ,.p.W V j < ~ p.h.n.a.m h.h.d.p.p w.d.d.d.2.a p.t.t.w.p 2.p.t.a.d.L | ,.D z 1 % e e e 6 6 ; L w.e.6.a.w.' D w.w.w.w.e.0.w.D -.w.b 6 6 6 - + + @ @ @ @ @ @ @ @ @ @ @ @ . o $ @ - - - - < 6 e p p p p p p g j 6 6 L | P P P P U W U L L L L L L L H H K K G G G G G G G m K j - 5 e i 8 6 e e e w e e w e e e e e e e e e 9 8 8 9 9 9 9 e e e 6 < - $ $ - < 3 9 e e 6 3 < - @ - e e e 6 6 6 6 6 6 9 9 6 6 9 9 8 9 9 9 9 6 6 8 8 9 2 - < < < 6 6 6 3 < - 6 6 6 6 6 6 6 6 3 6 6 2 6 6 2 3 6 < 6 e 3 2 < > < 6 < : - < < < - < < - - - - - - - - - - - - - - - , , < < < < ; ; , < < < < < < < , , , : - = @ X     X X X X         X X X X     X + ",
"$ $ $ @ $ @ @ @ @ @ @ $ @ @ @ @ @ @ @ @ @ @ @ @ @ @ @ @ @ @ @ @ @ @ @ @ + + @ + + + + + X X + + X X X X X X X X X X X X X X X X X X X X X X X X . . . . X X X X X X X X   . @ - - - - - - - = = $ $ $ $ $ $ $ @ @ @ $ = $ = = = $ @ @ @ @ @ @ @ + + + + + + + + + + @ @ @ @ @ @ @ @ @ @ $ $ $ $ @ @ @ @ @ @ @ @ @ @ @ @ @ @ @ @ + + @ @ @ @ @ @ @ @ @ @ @ @ $ = $ $ $ $ $ $ $ @ @ + + + X + + + + + + + X X X X X X X X X X X X X X + + + + + + + + + + + + @ @ + + + @ X X + + X X X X @ @ @ @ + + + + @ @ @ @ @ @ @ @ @ @ @ @ - 6 h n E j - j j j j j 2 j z z k j k r ; - 1 e 6 F p +.c.c.c.c.~ v N.p.j.a.h.B D e 6 < - ; < < < - 1 6 1 # - < > 1 ; o ; ; p p % < % r v W v p.c.c.a.l.j.h.z e y j F L j h.h.h.h.r 2.h.d.p.t.y t.t.w.a.y ,.p.:.P H e 3 e q q 6 6 q 6 y B 2.B D t.2.p.a.6.t.P P w.w.w.w.w.w.1.B 2.W e 6 - @ @ + @ @ @ @ @ @ @ @ @ @ @ @ + @ 6 9 a a a a d d a a p p p p a g p - v P W P P P P U U U L L L L L L L H H K K G G G G G G G B j < e w e e 8 6 e e e w e e w e e e e e e e e e 9 8 8 9 9 9 9 e e e 6 < - $ $ - < 3 9 e e 6 3 < - - - 6 e e 6 6 6 6 6 6 9 9 6 6 6 6 8 9 9 9 9 6 6 8 8 9 2 : < < < 6 6 6 3 < - 6 6 6 6 6 6 6 6 3 3 6 2 3 6 2 2 6 < 6 e 3 < < > < 6 < > - < < < - < < - - : - - - - - - - - - - - - - - , , , , ; ; , < < < < < < < , , , : - = @ X     X X X X X       X X X   .   X X ",
"$ = = $ @ @ @ @ @ @ @ @ @ $ $ $ @ @ @ @ @ @ @ @ @ @ @ @ @ @ @ @ @ @ @ @ + + + + + + + + + + + + X X X X X X X X X X X X X . X X X X X X X X X X . .         X X X X X X X + X X @ = - - @ @ @ @ $ $ @ @ $ = $ $ @ @ @ $ @ @ @ @ @ @ @ + @ @ @ @ + + + + + X + + + + + + @ @ @ @ @ @ @ @ $ @ @ @ @ @ @ @ @ @ @ @ @ @ @ @ @ @ @ @ @ @ @ @ @ @ @ @ @ @ @ @ @ @ = = $ $ $ = = = $ $ @ @ + + + + @ @ + + @ + + X + + + + + + X . X X X X + + + + + + + + + + + + + + + + X X X X + X X . X X X X X X + + + + X   X - @ - - =   < e N B D D K D e @ h j j v e e j v z j j j j 6 o 1 9 e q e d.j.j.j.v.N L N.g.h.h.u.N f.b q q < e 6 < 1 # ; < < - o ; ; - .     - 6 j B j p.d.c.c.K e.j.j.h.h.g.v.L | t.L k 6 # q e m L < P a.a.e.p.j ~ | H L q 9 r 3 3 6 - < r e 7 < # z F w.t.t.6.z 2.w.p.p.p.e.:.B -.0.-.2.1.w.s.D K 0.j - + + @ - @ @ @ @ @ @ @ @ @ @ @ @ % @ < < e r a a p y y y a a a a a j < q L W U U W W W W U P I I L I L L L L L L K K K K K B H D d e e e w w i w 6 w w e w w w w e e e e e e e e 9 6 6 6 6 9 9 9 e e 9 6 3 - % % - < 6 9 e e 6 3 < - - - 6 e 6 6 6 6 6 6 6 e 9 6 6 6 8 8 6 6 6 6 6 6 6 8 9 3 - < < < 6 6 6 2 < - 6 6 6 6 6 6 6 6 2 3 6 6 2 6 3 2 3 < < 2 2 < < < > 3 < > - < < < - < < - , , : - - - - - - - - - - - - - - - < , ; , , < < < < < < < , , : : : - $ @ X     X     X X X X         . . X X ",
"= = = $ @ @ @ @ @ @ @ @ @ @ $ $ @ @ @ @ @ @ @ @ @ @ @ @ @ @ @ @ @ @ @ @ + + @ + + + + + + + + + X X X X X X X X X X X X X . . . X X X X . . . .         . .     X X X X + X X X X + @ = @ @ @ @ @ @ @ @ = = $ $ @ @ @ $ @ @ @ @ @ @ @ @ @ @ @ @ + + + + X X + + + + @ @ @ @ @ @ @ @ @ @ $ $ @ @ @ @ @ @ @ @ @ @ @ @ @ @ @ @ @ @ @ @ @ @ @ @ @ @ @ @ @ @ @ @ = = = = = = = = = $ $ = = @ @ @ @ @ + + @ + + X + + + + + + X . X X X X + + + + + + + + + + + + + + + + + + X X + X X . . . X X X X X X + + + @ $ @ $ + X @ 2 j D K W E E _ -.a @ j j j j 6 y d l z j j j j e   < r e 6 < a.h.c.c.b.h } C.h.h.j.w.B h.w.r 6 ; e 6 1 q ; < 6 6 1 % 6 3 3 1 a p e.h.c.h.D l.h.h.c.K w.j.j.h.h.a.v.K | v.c.c.w.a B 9 >       ; > 1 e > 1 6 3 < O < 6 e e 6 > 1 9 p V ! d 2.j.p.t.w.h.B F w.6.t.w.w.6.W K w.1.1.w.2.0.} h 1.D @ - + + - @ @ @ @ @ @ @ @ @ @ @ @ + o - : > < < 1 q r p a a a a a j 6 < D W W W U W W W W P P I I L I L L L L L L K K K K G G D j 9 9 e r w w u 8 6 w e e w w w w e e e e e e e e 9 6 6 6 6 9 9 9 e e 9 6 3 - % % % < 6 9 e e 6 3 < - - - 6 e 6 6 6 6 6 6 6 e 9 6 6 6 8 8 6 6 6 6 6 6 8 8 9 3 - < < < 6 6 6 2 < - 6 6 6 6 6 6 6 6 2 2 6 6 < 6 3 2 6 < < 6 < < < < < 3 < > - < 6 < - < < - , , : - = - - - - - - - - - - - - - - - ; ; ; , < < < < < , , , : : : - = @ X     X X   X X . X         .   X X ",
"= = = $ $ @ @ @ @ $ @ @ $ $ $ $ @ @ @ @ @ @ @ @ @ @ @ @ @ @ @ @ @ @ @ @ + + + + + + + + + + X X X X X X X X X X X X X X X . . . X X X X     . .                 X X X X X X X X X X X + @ @ @ @ @ @ @ @ = = = $ @ @ $ $ @ @ @ @ @ @ @ @ @ + @ @ + + + + X + + + + + + + @ @ @ @ @ @ @ @ @ @ @ @ @ $ $ @ @ @ @ @ @ @ @ @ @ @ @ @ @ @ @ @ @ @ @ @ @ @ @ @ @ @ = - = - = = = = = = = = = @ @ @ @ @ @ @ + + + + + + + + + + X . X X X X + + + + + + + + + + + + + + + + + + X + + + X X X X X X X X X X + + - X   = p v L -.i.g.c.c.A.A.N.N.b.B - h j j d < d d d j j j j j e   ; r e 6 % P p.j.j.h.h p.v.j.f.c.0.B N.h.~ 6 - e q 6 e < 3 q e q - 9 r r b ,.z h.p.j.e.z j.l.a.c.H ,.j.j.h.h.p.c.F ~ c.p.p.p.Z d.d.e.:.a j d p 6 p ; % q 6 3 - > e a z v v j +.e.d.a.B ! d.t.e.t.p.' a w.w.6.w.w.6.2.B } w.0.0.2.-.w.h K h e p 6 - - @ @ @ @ @ @ @ @ @ @ @ @ o @ - : - ; - ; % ; 1 6 y p d d 1 < b W W W U U W W W W U U I I I I L L L L L L K K K K G D j 9 6 e e e w w e 6 6 w e e w w w e e e e e w w w w 9 6 6 6 6 9 9 9 9 e 9 6 3 - % % % < 6 9 e e 6 6 < < - - 6 e 6 6 6 6 6 6 6 9 9 6 6 8 8 8 8 8 6 6 6 6 6 6 9 3 : < < < 6 6 6 2 > - 6 6 6 6 6 6 6 6 2 2 6 6 < 8 6 2 6 3 3 6 2 < 2 < < 3 < > - < 6 < - < < - : < , - = - - - - - - - - - - - - - - - - - - , < < < < < , , , : : : : = @ X     X         . .     . . . . X X ",
"= = = $ $ @ @ @ $ $ @ @ @ $ $ $ @ @ @ @ @ @ @ @ @ @ @ @ @ @ @ @ @ @ @ @ + + @ @ + + + + + X X X X X X X X X X X X X X X X . . . X X X X     . .                 X X X X X X X X X X X X @ @ @ @ @ @ @ @ = = = = @ @ $ $ @ @ @ @ @ @ @ @ @ + + + + + + + + + + + + + + + @ @ @ @ @ @ @ @ @ @ @ @ @ @ @ @ @ @ $ $ @ @ @ @ @ @ @ @ @ @ @ @ @ + @ @ @ @ @ @ @ @ - - - - = = = = = = = = = @ @ @ @ @ @ @ + + + + + + + + + + X . X X X X + + + + + + + + + + + + + + + + + + X + + + X X X X X X X X X X + + - e K 0.g.h.h.s.5.-._ T _ E W L -.j - h c j p : z d d j j j j j 1 - % r e 1 > e 1.a.a.w.b c.a.h.a.v.1.V v.p.c.j * e q q q ; < 6 6 e # 9 e m t.t.z h.j.d.p.v d.j.p.c.H +.j.j.d.h.p.c.D E j.d.h.e.B p.a.t.v.W :.a.a.w.a.D b 2.U  .v j 2.t.e.d.p.D p.t.t.p.P P a.t.t.t.a.p.a ~ w.:.w.w.:.w.P B 0.w.:.w.-.0.K e e h e h a 6 @ @ @ @ @ @ @ @ @ @ @ @ $ % < < 3 1 < < < ; @ # o - < 3 r F W U W U U U W W W W U P I I L L L L L L L L K K K K D j 6 e 9 e e 9 w w e 6 6 w w w w w w e w w e e w w w w 9 6 6 6 6 9 9 9 9 e 9 6 3 - % % % > 3 9 e e 6 6 < - - @ 6 e 6 6 6 6 6 6 6 9 9 6 6 6 8 8 8 6 6 6 6 8 6 6 9 3 : < < > 6 6 6 3 < - 6 6 6 6 6 6 6 6 < < 3 6 < 6 3 < 6 3 6 6 < < 2 < < 3 < > - < 6 < - < , - : , , - = - - - - - - - - - - - - - - - - - - - , < < < < - - - : : : : = @ X     X           .   . X . . . X + ",
"- - - = $ @ $ @ $ $ @ @ @ @ @ @ @ @ @ @ @ @ @ @ @ @ @ @ @ @ @ @ @ @ @ @ + + + + + + + + + + X X X X X X X X X X X X + X X . . . : - - $               . X X X X X X X X X X X X         X @ @ @ @ @ $ $ @ @ @ @ @ @ $ $ @ @ @ @ @ @ @ @ @ @ + + + + + + + + + + + + + + @ @ @ @ @ @ @ @ $ @ @ @ @ @ $ $ $ $ = = @ @ @ @ @ @ @ @ @ @ @ + + + + + + + @ @ @ $ - - - - - $ $ = = = = = = @ @ @ @ @ @ @ @ + + + @ + + X X + X X X X X X + + + + + + + + @ @ @ @ @ @ @ @ + + + + + X X X X X X X X     @ < v T -./ K S D K K Y T E / _ _ W L } N o y j j e 9 j j d j j k j r 1 j ; - e 6 < q x e.c.} N c.j.h.f.N.K K v.a.j.L - u q q e , 1 e e 6 @ 7 V p.h.w.b j.p.p.j.v p.h.h.c.F _ c.a.h.h.p.c.D E j.h.d.a.V p.a.p.h.~ ! a.t.e.p.L G h.w.d.~ v h.t.d.e.t.F 2.a.w.p.,.F d.t.p.p.p.p.Z B d.w.6.w.2.2.0.D ~ w.2.1.-.X.} 1 e p a p - . @ @ @ @ @ @ @ @ @ @ @ @ X : 6 e p e 6 e 1 < - 6 t j B B L L I I I U U U U U I L L L L L L L L L L L L K G K G K j e 9 e e e e e w w e 6 6 w w w 8 8 w w w w w w 9 9 w w w 8 8 8 6 8 8 8 e e 9 6 3 > % % % : 3 6 9 9 9 6 < - - @ 6 e q 6 6 6 6 6 6 6 8 6 6 6 6 6 6 6 6 6 8 8 8 8 6 3 - < < < 6 6 6 6 2 < 3 6 6 6 6 6 6 6 < < 3 6 < 6 3 < 6 3 6 6 3 < < < < 3 < > - < 6 < - < , - - < : - - - - - - - - - - - : : : : , : - - - - , < < < , - : : , , , : = @ X     . .                   X X X + ",
"- - - = $ @ @ @ $ $ @ @ @ @ $ @ @ @ @ @ @ @ @ @ @ @ @ @ @ @ @ @ @ @ @ @ + + + + + + + + + + X X X X X X X X X X X X + X X . . . < < , , : - @ +         . . X X X X X X . . . .         . X @ @ @ @ @ @ @ @ @ @ @ @ @ @ @ @ @ @ + + @ @ + @ + + + + + + + + + + + + + + @ @ @ @ @ @ @ @ $ @ $ @ @ @ $ $ = = - - $ @ @ + @ @ @ @ @ @ @ + + + + X X + @ @ @ @ = - - - - $ $ = = = = = $ @ @ @ @ @ @ @ + + + + @ + + X X + X X X X X X + + + + + + + + @ @ + @ @ @ @ @ + + + + + X X X X X + X X + - i v B N C Y -.w.s.x.M.c.b.M.N.N.N.b.b.N.1.> y j j 9 9 j j j j k z j 9 q x u < 6 6 6 q q D j.W D c.h.h.h.v.D P v.a.j.L r g r q e , 1 e e r - b a.j.h.a.B c.d.d.c.m a.j.j.b.P _ c.a.f.h.p.c.D ~ j.h.d.a.V p.a.p.h.| W d.t.t.p.W m d.w.p.| j t.e.p.w.t.H X.p.w.t.6.V w.t.t.t.t.t.:.d w.w.6.w.2.2.w.L V p.w.0.1.:.L 6 p a 1 - < - @ @ @ @ @ @ @ @ @ @ @ @ + = - - - - - 6 a v Z K L L I I L L I I I I U U U U I L L L L L L L L L L L K H H G D j e 9 e e e e e e w w e 6 6 w w w 6 8 w w w w e w 9 9 w w w 8 8 8 6 8 8 8 e e 9 6 3 > % % $ - < 6 9 9 9 6 < - - @ 6 e e 6 6 6 6 6 6 6 6 3 3 3 6 6 6 6 6 6 8 8 8 8 6 3 - < < > 6 6 < 3 6 3 6 6 6 6 6 6 6 6 < < 2 3 < 6 2 < 6 3 3 6 3 < < < < 3 2 > - < < < - , : - - : , - - - - - - - - - - - : : : : : : - - - - - - - - - - - - , , , : = @ X     .     . .         X   . . X + ",
"- - - = = $ $ = $ $ $ @ $ $ $ $ @ @ @ @ @ @ @ @ @ @ @ @ @ @ @ @ @ @ @ @ + + + + + + + + + + X X X X X X X X X X X X X X X . X . < < < 2 2 < , - = @ X . . X X X X X X X     . .           . X @ @ @ @ @ @ @ @ @ @ @ @ @ @ @ @ @ + + + + + + + + + + + + + + + + + + + + @ @ @ @ @ $ @ @ @ $ $ $ $ $ = = - - - - = $ @ @ @ @ @ @ @ @ @ + + + + X X + @ @ + @ @ - - - - $ $ = = = = = @ @ @ @ $ $ $ $ @ + + + + + + X + + X X X X X X + + + + + + + + + + + + @ @ @ @ + + + + + + X X X X = = < e s l L <.b.N.N.N.M.c.h.g.h.g.g.s.g.g.g.g.h.h.h 2 j v 3 9 j j j j j z a 6 j p j g q ; 6 u r 6 1.K L c.h.j.c.c.v _ v.a.j.L V B e e r , 1 e q e < p.f.h.l.p.m l.a.a.l.b p.h.h.c.T W c.a.h.h.p.c.D ~ j.h.d.a.V p.a.p.h.X.U h.t.p.p.X.j a.w.t.2.d w.p.p.t.a.U W p.t.e.e.v X.w.e.e.e.e.p.v ~ w.6.w.2.2.1.w.D X.2.1.:.X.b 6 e e 6 e e + @ @ @ @ @ @ @ @ @ @ @ @ = - - - < e B L L W U L L L L L I I I I U U U U I I I I I L L L L L L L L L K K Z K B 3 9 9 e e e e e e w w e 6 w w w w 6 6 w w w w w w w w w w w 8 8 8 6 8 8 8 e e e 6 3 > % % $ - < 6 9 9 9 6 < - - @ 6 e e 6 6 6 6 6 6 6 3 3 3 3 6 6 6 6 6 6 6 6 8 8 6 3 : < < > 6 6 < 6 6 3 3 6 6 6 6 6 6 6 < < 2 3 < 6 2 < 6 3 3 6 3 2 < < < 3 < > - < < < - - , : - , , - - - - - - - - - - - - - - - , - : - - , - - - - - - : : : : , : = @ X X         . . . . X X X X . . X X ",
"- - - = = $ $ $ $ $ @ @ $ $ $ $ @ @ @ @ @ @ @ @ @ @ @ @ @ @ @ @ @ @ @ @ + + + + + + + + + + X X X X X X X X X X X X X X     X . : , < < < < < < 6 < - @ X X X X X X X X   . . .             . X @ @ @ @ @ @ @ @ @ @ @ @ @ @ @ @ + + + + + + + + + + + + + + + + @ @ + @ @ @ @ @ $ $ @ @ @ $ $ $ $ $ = = - - - - = $ @ @ @ @ @ @ @ @ @ + @ + + X X + + + + + @ $ - - = $ $ @ $ $ $ @ @ @ @ @ @ @ $ @ @ @ + + + + + X + + X X X X X X + + + + + + + + + + + + @ @ @ @ + + + + + + X X X X   - v -.i.c.c.i.-./ L L L L L Y L L K D D D K L B D e + d v 2 e j j j j j j y e v x j j h < ; r e 6 v P E b.h.c.b.c.j X.v.a.j.L F :.e q r , 1 e e B p e.h.f.j.e.m c.a.a.c.m p.j.h.c.| P c.a.h.g.p.c.F ~ j.d.a.a.V p.a.p.a.#.P d.t.p.a.X.p p.e.e.t.a 1.p.t.t.d.W L p.t.w.p.j W w.w.w.w.w.p.W Z e.2.w.,.1.w.u.W L X.| _ ~ < - e p p a < . @ @ @ @ @ @ @ @ @ @ @ @ - w c D D L W L D L W L W W U U I I I I I I I I I I I I I L L L L L L L L K H K D v e 9 9 9 9 9 e e e e 6 w e 6 6 w w w 6 6 w w w w w w w w w w 8 8 8 6 6 8 8 8 e e e 6 3 > % % $ - < 6 6 9 6 6 < - - @ < e e < 6 6 6 6 6 6 3 3 3 3 6 6 6 6 6 6 6 6 8 8 6 3 : < < : 6 3 2 6 6 < 3 6 3 6 6 6 6 6 < < 2 3 < 6 2 < 6 2 2 6 3 2 < < < 2 < > - < < < , , , : - , , - - - - - - - - - - - - - - : , - : - - : - - - - - - : : : : , : = @ X X         . . . . X X X X     X X ",
"- - = $ = $ @ @ $ $ $ $ $ @ @ @ @ @ @ @ @ @ @ @ @ @ @ @ @ @ @ @ @ @ @ @ @ @ @ @ + + + + X X X X X X X X X X X X X X X .     X = : , , , < < 2 6 5 5 5 5 < - @   X X + + X X     X X X       . . X + @ @ @ @ @ @ @ @ @ @ + + + + @ @ + + + + + + + + + + + + + + @ @ @ @ @ @ $ $ = $ $ @ @ @ @ @ $ $ = = = = - - $ $ @ @ @ @ @ @ @ @ @ + @ + + + + + @ @ + + @ @ @ $ $ @ @ @ @ @ @ @ @ @ @ @ @ @ @ @ @ @ @ + + + X + + + + X X X X X X X + + X X X X + + + + @ @ @ + + + . X @ @ X   + X s } g.<.I K D K L E } 1.s.s.g.h.g.h.h.h.g.g.g.g.s._ W : < z 3 6 j j j j k v 6 e j k k k k q - q u e u p w.c.c.c.h.h.j h.f.j.N.K W c.v e p < 6 6 b f.j w.c.g.h.p.v c.a.h.c.v X.h.s.j.:.F h.a.g.g.p.c.F L j.a.s.a.Z ,.a.t.p.+.B d.t.t.e.e.v t.t.w.p.a W a.w.t.t.+.L p.w.6.w.z Z w.6.6.6.6.p.X.v 2.1.:.:.1.1.2.:.D :.W v q p p p p a e - @ @ @ @ - X @ = @ $ - 5 j L L T T W W W W W W W W T T U U U I I I I I I I L I I L L L L L L L L L K L K D Z e 9 6 9 e e e e e 9 9 6 w e 6 6 6 w w w w w e w w w w w w w w w w 8 6 6 8 8 8 9 e 9 6 2 - % % $ - < 6 6 9 6 6 < - - @ < e e < 6 6 6 6 3 3 3 3 3 6 6 6 6 6 6 6 6 6 6 6 9 3 : < < : 6 2 < 6 6 < 6 6 2 6 6 6 6 6 < < 6 6 < 6 2 < 6 3 3 6 3 2 2 < < 2 < > - < < < ; - , : - , , - - - - - - - - - - - - - - , , , : - - - - - - - - - : : : : : : = @ X X   X X X X X X X X X X X . . X X ",
"= = $ @ @ @ @ @ $ $ $ $ $ $ @ @ @ @ @ @ @ @ @ @ @ @ @ @ @ @ @ @ @ @ @ @ @ @ @ @ + + + + X X X X X X X X X X X X   . . .     X = < < , , < < 2 6 5 5 5 5 6 2 < < - @ X X X X X X X X X X   . . . X X @ @ @ @ @ @ @ @ @ @ + + + + @ @ + + + + + + + + + + + + + + @ @ @ @ @ @ = = = @ $ @ @ @ @ @ $ $ = = = = = = = $ @ @ @ @ @ @ @ @ @ + + + + + + + + + + + + + @ @ @ @ @ @ @ @ @ $ $ @ @ @ @ @ @ @ @ @ @ + + + X X + + + + X X X X X X X X X X X X + + + + @ @ + + + + @ + + +   - e D / B v L } w.x.M.b.b.b.c.b.b.x.h.h.x.c.c.c.h.k.c.h.h.h.K - j < 6 h j j j z z 6 p j j j k j e < q e e e 1 1.j.h.g.j.e.v h.h.j.N.D U c.1.a u * < B a.g.j w.c.g.h.p.v c.a.h.c.v X.h.p.h.1.V h.a.g.f.p.j.F L l.a.p.a.Z 1.d.t.p.,.m d.e.t.e.e.v e.t.w.a.j P a.w.t.t.+.F t.6.6.e.G d e.2.2.2.2.w.w.B ! 1.:.:.:.1.%.w.V x e e j a p p p p < @ + - @ + @ @ + + - 8 v K L L L W T W W W W W W W W T T U U U I I I L L L L L L L L L L L L L L L L L G Z D p 3 e e e e 9 9 9 9 6 6 8 w w 6 6 6 w w w w w e e e w w w w w w w w 8 6 6 8 8 8 9 e 9 6 3 - % % $ - < 6 6 6 6 6 < - - @ < q e < 6 6 3 3 3 3 2 2 3 6 6 6 6 6 6 6 6 6 6 6 9 3 : < < - 6 < < 6 6 < 6 6 < 3 6 6 6 6 < < 6 6 < 6 3 < 6 2 2 3 3 2 < < < < < : - < < < - - , - - , , - - - - - - - - - - - - - - : , < : - - - - - - - - - : : : : : : = @ X X X X X X X X X X X X X X . . X X ",
"@ @ + @ + + @ @ @ @ $ $ @ @ @ @ @ @ @ @ @ @ @ @ @ @ @ @ @ @ @ @ @ @ @ @ + + + + + + + + X X X X X X X X X X X X       .     X = < < < < < < 2 5 6 6 5 5 6 6 8 e 6 < - @ @ + X X X X         . . . X X @ + + + + @ @ @ @ + + + + @ @ @ @ + + + + + + + + + + + + + + @ @ @ @ @ @ = $ @ @ @ @ @ @ @ @ $ $ = = = = = = = $ @ @ @ @ @ @ @ + + + + + + + + + + + + + + + + + @ @ @ @ @ @ @ @ @ + X X + + @ @ @ + + X + X X X + + + + X + X X X X X X X X + + + + @ @ + + + + - + @ - 8 S D j v I s.c.c.c.c.c.b.b.c.h.h.g.s.s.g.g.h.c.c.c.c.b.N.c.c.c.p < @ y d d h j k j 6 j j j j j g g 6 6 e e r < D h.j.a.b.| V j.j.j.v.V } x.v.F e - b p.p.s.v 2.c.g.g.p.b j.a.h.c.v X.h.s.h.2.v h.a.h.f.u.h.D K c.a.p.a.Z 1.d.t.p.6.v h.t.w.w.t.v e.p.w.d.z K p.w.t.t.+.Z w.6.w.w.' r :.2.2.2.2.6.p.K D 1.3.:.:.%.| :.g ; r g e p p a a e - @ @ - @ @ - = < p N L L I I L Y Y T W W W W W W W W T T U U U U I I I I L L L L L L L L L L L L L L L D K p 6 < 9 e 9 9 6 6 6 6 6 6 8 w e 6 6 6 w w w w e e e e e e w w w w w w 8 6 6 6 6 8 9 e 9 6 3 > % % $ - < 6 6 6 6 6 < < - @ > 6 e < 6 6 3 2 < < 2 2 3 6 6 6 6 6 6 6 6 6 6 6 6 3 < < < : 6 < < 6 6 < 6 6 < 3 6 6 6 6 < < 6 6 < 6 2 < 3 < < 3 2 < < < < < < : < < < < - , - - - < < - - - - - - - - - - - - - - - , < < - - - - - - - - - - - - - : : = $ X X X X X X X X X X X X X X . . X X ",
"+ X X X X X X + @ @ @ @ @ @ @ @ @ @ @ @ @ @ @ @ @ @ @ @ @ @ @ @ @ @ @ @ + + + + + + + + + X X X X X X X X X X X             X = < , < < < < 2 5 6 6 6 5 2 6 6 6 w w 6 < - $ + X X           . . . . X X + + + + + @ @ @ @ + + + @ @ @ + + + @ @ + + + + + + + + + + + + + + + @ @ @ @ @ @ @ @ @ @ @ $ $ = = = = = = = $ @ @ @ @ @ @ @ + + + + + + + + + + + + + + + + + + + @ + + X X X X X X X + + + + + + + + + X X X + + + + + + X X X X X X X X + + + + @ @ + + + + @ X = 6 i e D 1.c.N.c.g.g.g.r.&.E K N j v v N B D D D D D D D D D K D _ } $   9 d d h j k a 3 z j j j j a k e 6 q q e < p p.h.p.v.P F c.j.j.c.N w.h.j.e.e < w.g.a.f.j p.c.g.g.p.b j.a.h.c.v X.j.p.f.2.j h.a.g.a.w.h.D F c.a.p.a.Z 1.d.t.t.w.z h.t.w.w.t.v e.p.w.h.v G t.w.t.e.+.B 6.2.w.,.w.a W 2.2.2.2.w.:.| D 3.3.:.:.| X.K < k a p a a a a a < @ + @ + + - 6 v D L L K T T L L I Y T W W W W W W W W T W U U U U I I I I L L L L L L L L L L L L L L K K z 6 9 < 6 6 6 6 6 6 6 6 6 6 8 w e 6 6 6 6 6 6 w w e e e e e w w w w w w 8 6 6 6 6 8 e e 9 6 3 > % % $ - < 6 6 6 6 6 < < - @ - 6 9 < 6 6 3 2 < < 2 2 3 6 6 6 6 6 6 6 6 6 6 6 6 6 < < < : 6 < < 6 6 < 3 6 < 3 6 6 6 6 < < 6 6 < 6 2 < 2 < < 2 2 < < < < < < : < < < < - , - - - < < - - - - - - - - - - - - - - - : , , : - - - - - - - - - - - - : : = $ X X X X X X X X X X X X X X . . X X ",
"X X X X + X + + + + @ @ @ @ @ @ @ @ @ @ @ @ @ @ @ @ @ @ @ @ @ @ @ @ @ + + + + + + + + + + + + + + + X + + + + + X X X X . . + - , , , , < < < 3 6 6 6 2 2 2 2 2 e < < e 6 6 6 6 - @ .   . . . + X X . . X X X X + + @ @ @ @ @ @ @ + + + @ @ @ @ + + @ @ @ @ + + + + @ @ @ + + + @ @ @ @ @ @ @ @ @ @ $ $ $ $ = = = = = = $ @ @ @ @ @ + + + + + + + + + + X X + + X X X X X X X X X X X + X X X X X X . X + + X X X X X X X X X X X X X X X X X X X + + X + + + + + - = X $ + + 6 v 9.N.x.p.} D D K L E ) } -.1.0.g.g.h.h.h.h.h.x.d.t.:.| U D z p z >   7 a d d d k q q k j j j j k j r < r 6 e < 6 P g.w.c.V | c.s.j.j.B w.h.j.f.X.a a.p.s.h.a s.h.g.f.p.b j.f.s.b.b T j.p.f.2.u g.p.a.s.p.f.W D a.u.p.a.D | f.p.u.0.j a.p.e.w.p.V | p.w.a.F j h.2.6.w.e.j ,.t.6.:.2.k B p.0.1.w.0.3.2.v | 3.:.%.| %.6 r p p p p a p r u - @ O q p v K L W L L L W W W W L I U W U U U U T W U U U U U U W W U I I I I I I I I L L L L L H L K G I z w 9 6 6 6 6 3 3 6 6 6 6 6 6 6 e e 6 6 6 6 6 6 6 w w w w w w w w w 6 6 e 6 6 6 6 6 6 9 e 9 6 6 > % $ @ - < 6 6 6 6 6 4 < - @ , 6 e 3 3 4 < < < < 2 2 < 3 6 6 6 6 6 6 6 6 6 6 6 3 > > < > 3 2 > 6 6 > 6 6 < 6 6 6 6 6 < < 6 < < 6 3 < 2 < < < < 2 < < < < < < < < < < , - - - - < , - - - - - - - - - - - - - - - - - - < - - - - - - - - - - : : : - - $ @ X   . . . X X X X X X X X   . X + ",
"+ + + + + + + + + + + + + @ + + @ @ @ @ @ @ @ @ @ @ @ @ @ @ @ @ @ @ @ + + + + + + + + + + + + + X X X X + + + + X X X X . . + - , , < , < < < 3 6 6 6 2 2 2 2 2 6 < < 6 6 6 6 6 6 < - @ . . . . . X X X X X X X X + @ @ @ @ @ @ + + + + @ @ @ @ + + @ @ @ @ + + + + @ @ @ + + + @ @ @ @ @ @ @ @ @ @ $ $ $ $ = = = = = = $ @ @ @ @ @ + + + + + + + + + + X X + + X X X X X X X X X X X X + + X X X X . X X X X X X X X X X X X X X X X X X X X X X + + + + + + + @ + + +   = v p.c.} D j j B _ w.h.c.b.N.N.N.c.h.g.h.g.h.h.h.c.c.c.c.v.n.N.n.c.h.j.~ # ; a d j j j q q k j j j j k k r < ; e 6 - 6 g w.h.h.k e.v.g.c.h.D a.h.h.h.p.h s.g.s.f.g p.h.g.f.p.b j.f.s.c.B W j.p.g.2.p a.p.s.p.p.f.W A a.u.p.a.V | a.p.e.w.j e.p.e.w.p.D ~ p.0.u.W j p.1.2.6.w.z U e.2.X.w.F y 0.0.1.0.0.:.2.D L :.%.X.0.x 6 j p p p p p a e < < g N L E W P L L L L L W W W W I I U W U U U U T W U U U U U U W W U I I I I I I I I L L L L L L H K L z e 9 e 6 6 6 6 3 3 6 6 6 6 9 9 6 6 6 6 6 6 6 6 8 8 8 w w w w w w w w 6 6 e 6 6 6 6 6 6 9 e 9 6 6 > % $ @ - < 6 6 6 6 6 4 < - @ - 6 e 3 3 < < < < < 3 2 < 3 6 6 6 6 6 6 6 6 6 6 6 3 > > < > 3 3 > 6 6 < 6 6 < 6 6 6 6 6 < < 6 < < 6 3 < < < < < 2 2 < < < < < > , < < < - - - - - < , - - - - - - - - - - - - - - - - - - < - - - - - - - - - - : : : : - $ @ X   . . . X X X X X X X X   . X + ",
"+ + + + + + + + + + + + + X X X + + + + + + + + + + + + + + @ @ @ @ + + + + + + + + + + + + X X X X X X X X + + X X X X . . + - < < < < < < < < 3 6 6 2 2 2 2 2 6 6 6 6 6 6 6 6 6 6 6 < < < @       X X X X X X X X + + + + + + + + + + + + + + + + + + + + + + + + + @ + + + + @ @ @ @ @ @ @ @ @ @ @ @ $ $ = = - - - = $ @ @ @ @ @ + + + + + + + + + + X X X X X X X X X X X X X X X + + + X X X X X X X X X X X     . X X X X X X X X X X X X + + + + + + + X X X @ @ s 0.g.D e w N [ s.b.b.g.g.g.h.h.g.g.h.h.h.h.c.h.k.c.c.c.l.j.h.h.h.h.h.h.p.e.e o a d d d j q q j j j j j j j r < ; < 6 < u 6 T j.a.k h.h.a.j.u.D c.h.h.h.w.a u.s.s.p.j u.h.g.a.s.N h.f.p.h.D W h.p.h.0.a a.p.p.p.p.f.W D a.u.p.a.B ~ p.e.w.w.h 1.p.w.w.p.L W p.2.w.X.z 6.:.,.6.6.B m w.,.+.6.:.q W 0.1.-.2.:.3.T N :.-.} X.e e p p p p p e q e p x P U K W L K D L L L L L L W W I U U U U W W W T T U U U U U W W W U I I I I I I L I L L L L L K L K B e 9 9 9 6 6 6 6 3 3 6 6 6 6 6 6 6 6 6 6 6 6 6 8 6 6 8 8 w w w w w w w 6 6 e 6 6 6 6 6 6 9 e 9 6 6 < % % @ - < 6 6 6 6 6 < < - @ - 6 e < 6 6 < < < < 6 3 < 3 6 6 6 6 6 6 6 6 6 6 6 3 < > < > 3 3 > 6 3 > 6 6 < 6 6 6 6 6 6 < 6 < < 3 3 < < < < < 2 2 2 < > < < > - - - - - - - - - < , - - - - - - - - - - - - - - - - - - < , - - - - - - - - - - - - : - $ @ X     . . X X X X X X X X . . X + ",
"+ + + + + + + + + + + + + + X X X X X + X X X X X X + + + + + + @ @ + + + + + + + + + + + + X X X X X X X + + + X X X X . . + - < < < < < < < < 2 6 6 2 2 2 2 2 6 6 6 6 < < < < < < 6 6 6 e e < $ +       . . . . X X + + + + + + + + + + + + + + + + + + + + + + + @ @ + + + + @ @ @ @ @ @ @ @ @ @ @ @ $ $ = = - - - = $ @ @ @ @ @ + + + + + + + + + + X X X X X X X X X X X X X X X + + + X X X X X X X X X X X     . X X X X + X X X X X X X + + + + + + + + @   2 D 1.B p i L s.x.k.s.s.h.c.c.c.h.h.b.N.N.N.N.b.b.c.c.c.c.c.j.j.h.h.h.d.d.d.h.a.j @ p d d j j q q j j j j j j j u < k 6   < r 6 v h.0.b c.g.a.j.0.D N.h.g.j.2.j j.h.a.p.x u.h.g.a.s.N h.f.p.h.K W h.s.h.0.a a.u.p.p.p.f.W D a.u.p.a.N E p.w.w.w.g X.p.w.w.p.W P p.1.2.0.v +.+.:.,.6.Z a 6.#.,.1.t.v B -.:.| :.:.%.%.V | _ | K q p u p p p p - q x B p D K K L L L L L L L L L L W W U U U U U U U U W U U U U U U U W W U I I I I I I L L L L L L L G L D 2 9 e 9 3 6 6 6 6 3 3 6 6 6 6 6 6 6 6 6 6 6 6 6 8 5 6 8 8 6 w w w w w w 6 6 e 6 8 6 6 6 6 9 e 9 6 6 > % % @ - < < 6 6 6 6 < < - @ - 6 6 < 6 6 < < < < 6 6 3 3 6 6 6 6 6 6 6 6 6 6 6 2 > > < > 2 3 > 6 3 > < 6 < 6 6 6 6 6 6 < 6 < < 3 3 < < < < < < 2 < < > < < > - - - - - - - - - < , - - - - - - - - - - - - - - - - - - < , - - - - - - - - - - - - - - $ @ X     . . X X X X X X X X . . X + ",
"+ + + + + + + + + + + + + + + + + + + + X X X X . . X X + + + + + + + + + + + + + + + + + + X X X X + + X X X X X X X X .   + - < < < < < < < < < 3 2 < < 2 2 3 6 6 < < < 6 6 6 < < < < , e < - - @ X X X . . . . . X X + + + + + + + + + + + + @ @ @ + + + + + + + + + + @ @ @ @ @ @ @ @ @ @ @ @ @ $ $ = $ = = = = $ @ @ @ @ @ @ @ @ + + + + + + + + + + + + + X X X X X X X X X X X X X X X X X X X X X X X X . . . X X X X X + + X X X X X X X X X X @ . +   . B &.D l S <.c.g.s.s.g.h.b.b.g.g.p.0.:.~ ~ ~ ~ P P P P ~ | :.2.w.t.p.p.l.c.c.c.h.n.L - < a j j a 6 3 j j j j j h j u < j a 6 - 6 a e 2.X.b j.p.f.N.U K c.h.g.c.0.j h.s.a.w.V f.f.f.f.f.D p.p.p.h.W W f.u.p.w.j 2.a.p.p.p.e.E v a.u.u.a.v P p.1.e.u.j W a.e.w.u.| D w.w.0.w.V W 1.:.+.X.~ y ' #.,.:.6.P a %.} %.:.%.X.%.L B | | p e u p q q 6 # e b p D a V P L K K L K W W L L L E W W E U T I I I U U U U U U U U U U W W I I I I L L L L L L K H L K W K 6 > e e 9 < 6 2 < > > < 3 6 6 6 2 < < 6 6 e 6 6 6 8 6 5 6 8 8 8 8 8 q q q q q q 6 6 6 6 6 6 6 6 6 6 6 > % % @ - < < 6 6 6 6 < , - & - 6 6 < 6 6 < < < < 6 6 6 6 6 6 6 6 6 6 6 6 3 6 3 2 < > < < < 3 6 6 6 < < 6 < 6 6 6 6 6 6 < 6 < < 6 6 < < < < < < < < > > < < > - - - - - - - - - < < - - - - - - - - - - - - - - - - - - < ; - - - - - - - - - - - - - - $ @ X         X X X X X X X X . X X X ",
"+ + + + + + + + + + + + + + + + + + + + X X X X . . X X X X + + + + + + + + + + + + + + + + X X X X + + X X X X X X X X .   + - < < < < < < < < < 3 2 < < < < 3 6 < < < < < < < < < < 6 8 e < @ = = $ @ @ + @ @ X X X X X X + + + + + + + + @ + @ @ + + + + + + + + + + @ @ @ @ @ @ @ @ @ @ @ @ @ @ @ @ $ $ @ @ @ @ @ @ @ @ @ @ @ @ @ + @ + + + @ + + + + + + + X X X X X X X X X X X X X X X X X X X X + X X . . . X X X X X X + + X X X . . . X X X X   . X , W T C C p.g.g.s.s.g.r.&.L v h v v v N B F L P T K K K K F F D D v z j j k v Z H ~ 2.W 6 @ g j j g q < g j j j j h j u < k j a u 6 6 6 T K L j.a.f.v.L W c.g.g.c.%.v j.p.a.w.B a.f.f.f.f.D p.p.p.h.W U f.u.p.w.x 2.a.p.p.p.p.~ k a.e.e.s.b K p.2.w.p.j P p.w.0.w.-.D 0.w.1.w.D K 1.:.+.X.:.e U ,.:.:.1.' j W 1.| :.%.| | %.j K K 6 3 1 < 6 q e < 6 K p r x D L K L L K K K K L L W D v v n I L L L L I I I I U U I I I I U U I I I I L L L L L L L D L T m a j % 6 6 6 3 < < < < < < 2 3 6 3 2 2 < 6 6 q 6 6 8 8 6 6 6 6 6 6 6 6 6 6 6 6 6 q 6 6 6 6 6 6 6 6 6 6 3 : % % @ - < < 6 6 6 6 < , - & - 6 6 < 6 6 < < < < 6 6 6 6 6 6 6 6 < < < < 2 3 3 < > > < < < 3 3 3 2 < < 6 < < 6 6 6 6 6 < < < < 6 6 < < < < < < < < > - < < > - - - - - - - - - - - - - - - - - - - - - - - - - - - - - - ; - - - - - - - - - - - - - - $ @ X     X   X X X X X X X + . X X X ",
"+ + + + + + + + + + + + + + + + + + + + X X X X . . X X + + + + + + @ @ + + + + + + + + + X X X X X + + + + X X X X X X . . @ < < < < < < < < < < 3 2 < < < < < 2 < < > < < < < < < 6 6 e e - @ - - - - $ @ $ $ @ + X X X @ + + + + + + @ @ @ @ @ @ + + + + @ @ @ @ @ @ @ @ @ @ @ @ @ @ @ @ @ @ @ @ @ @ @ @ @ @ + + + + @ @ @ @ @ @ @ + @ @ + + @ @ @ + + + + + X X X X X X X X X X X X X X X X X X + + X X . . . X X X X X X X + + + + X X X X X X X X     2 D L D 9.h.s.g.r.-.S c a a D L -.w.u.a.h.c.N.N.v.v.b.b.v.v.N.v.l.j.h.h.a.p.X.~ L G v j j 1 O q j g j r ; a j j j j h j r < z j j z r ; e h j 0.x.f.h.c.A X.c.g.h.c.T B c.p.a.w.B f.f.f.f.f.D p.p.p.h.W W f.e.s.p.b 2.a.p.p.p.a.~ g a.e.e.s.V F a.w.w.a.v L p.w.0.w.0.D 1.w.:.w.H B 1.:.+.X.#.v m X.+.:.:.6.K b 0.X.:.X.| | %.a < q 6 e u p j a g e - D D b B D K D L L D E L K K K a 8 < < @ 9 G I L L I I I I U U I I I I U U I I I I L L L L L L L K U j 6 d N v 6 < < < - : > < 3 2 < < < 2 3 6 6 6 8 8 6 6 6 6 6 6 6 5 5 5 5 5 6 6 6 6 6 6 6 < 2 6 6 6 6 6 6 6 3 : % % @ - < < 6 6 6 6 < , - - - 6 6 < 6 6 < < 6 6 6 < 6 6 6 6 6 6 < < < < 2 3 3 < < > < < < 3 2 2 < > < 6 < < 6 6 6 6 6 < < < < 3 3 < < < < < < < < > - < < > - - - - - - - - - - - - - - - - - - - - - - - - - - - - - ; - - - - - - - - - - - - - - - $ @ X X X X X X X X X + + + + X X X X ",
"+ + + + + + + + + + + + + + + + + + + + X X X X . . X X + + + @ + @ @ @ + + + + + + + + + + X X X X + + + + + + X X X X . . @ < < < < < < < < < < < < < > > < < < < : : < < < < - < 6 6 e 6 - - , , : - - = = = $ @ @ + @ @ + + @ + + + @ @ @ @ @ @ @ + + + @ @ @ @ @ @ @ @ @ @ @ @ @ @ @ @ @ @ @ @ @ @ @ @ @ + + + + + + + + + @ @ @ @ @ @ + + @ @ @ + + + + + X X X X X . X X X X X X X X X X X + @ X X . . . X X X X X X X X + + + + X X X X X X X X + - h D &.g.h.g./ K N n K [ p.h.N.N.b.h.j.h.h.g.f.h.h.j.h.h.h.h.h.h.h.d.d.h.j.l.v.v.v.c.h.j.a.| 1 @ g g j p - a j j j j h j r < j p p j v e < 6 q h.j.h.f.j.N 0.c.g.h.j.P D v.p.a.w.B f.f.f.f.f.D p.p.p.h.W W f.e.a.a.B 2.a.p.u.s.h.~ p s.e.w.p.D D a.w.0.a.v K u.0.1.0.w.D -.0.%.w.L z 1.:.+.X.1.L a ,.+.:.:.1.0.j -.| :.X.| | j 6 p p g g a p a e p e O e K K K D D D K S p v j a e 8 6 e y < 9 j C I I L L L L L I I I I I I I I I I L L L L L L L L I U t > ! W v j e < - - % - > < 6 3 < > < 2 6 6 6 6 6 6 < 6 6 6 5 5 5 5 5 2 2 2 6 6 6 6 6 6 6 < < 2 3 6 6 6 6 6 3 : % % @ - - < 6 6 6 6 < , - - - 6 6 < 6 6 < 4 6 6 6 < < 6 6 6 6 6 < < < < 2 3 3 < < > < < < 2 < < < : < 6 < < < < 4 < 6 < < < < 3 3 < < < < < < < < : - < < > - - - - - - - - - - - - - - - - - - - - - - - - - - - - - - - - - - - - - - - - - - : : - $ @ X X X X X X X X X + + + + X X X X ",
"+ + + + + + + + + + + + + + + + + + + + X X + + X X X X X X + + @ @ @ @ + + + + + + + + + + + + + + + + + + + + + + X X . . @ < < < < < < < < < < < < < > > > > - - % % % - - - $ - - % - - - - : : : : : - : < % $ $ @ @ @ + + @ @ @ @ + + + @ @ @ @ @ @ @ @ @ @ @ @ @ @ @ @ @ @ @ @ @ @ @ @ @ @ @ @ @ @ @ @ @ @ + + + + + @ @ @ @ @ @ @ + + + @ @ @ @ + + + + + + X X X . X X + X + X X X X X . - @ X X X X X X X X X + + + + + + + X X X X X X   X X @ p L p.x.r.L j h K y.h.b.c.h.h.h.h.g.f.c.c.c.j.j.j.j.h.h.h.h.h.h.j.l.l.h.d.d.d.f.a.a.a.a.a.a.a.V . ; j p j < a j j j j j k q 1 d d d d p g q O x g.h.g.a.h.B u.a.f.h.j.D L c.u.a.1.F f.p.p.p.p.b e.p.e.h.W A g.e.p.f.N | a.u.u.u.s.:.p p.e.w.h.W v f.1.0.e.D D a.w.1.0.w.v _ 0.2.:.| p 1.:.' +.:.W 7 X.X.X.:.:.:.z H X.~ ~ W y p p p p p p a a a p r u - @ h v v v v v e < @ @ 6 6 6 e w 8 6 y L L I I L L L L L L I I I I I I I I L I I I L L W L L W B 6 p d p G ! v e e : - - - < < - % : 6 < 2 3 3 3 6 6 < < < 6 6 6 6 6 5 5 5 5 6 6 6 6 < < 3 2 2 3 3 3 3 3 6 6 6 3 > - % @ % > < 6 6 6 3 < < - - * 6 6 < 6 6 < 6 6 6 6 < 6 6 6 6 6 6 < < < < < < 6 < < > < < < 3 2 < < > < 2 < < < < 2 2 < < < < < < < < < < < < < < < > - > < : - - - - - - - - - - - - - - - - - - - - - - - @ * - - - - - - - - - - - - - - - - - : : - = @ X X .     X X X X + + X X X X X X ",
"+ + + + + + + + + + + + + + + + + + + + X + + + X X X X + + @ + @ @ @ @ + + + + + + + + + + + + + + + + + + + + + + X X   . $ < , < < < < < < < < < < > > - : : - - % % % - - - - : : % - - - - : : : : : < 2 < % $ $ @ @ @ + + @ @ + @ + + + @ @ @ @ @ @ @ @ @ @ @ @ @ @ @ @ @ @ @ @ @ @ @ @ @ @ @ @ @ @ @ @ @ @ + + + + + + + + + @ @ @ + + + @ @ @ @ @ + + + + + + + X X + + + X + X X X X X X - @ . X X X X X X X X X X + + + + + X X X X X @ @ @ . e [ h.9.K C K } h.h.g.s.g.g.g.g.s.s.g.g.h.g.a.a.h.h.h.j.j.j.j.j.h.h.a.a.d.h.h.d.f.f.f.f.a.a.a.a.u.j   e a g - e h j j j d k q 1 d d d d p j u @ v p.p.p.a.0.v h.a.f.h.j.V T h.u.a.1.F f.p.p.p.p.b e.p.e.h.P B g.e.p.f.N | a.u.e.p.s.:.p w.u.w.a.W x s.1.2.w.F B p.w.1.1.w.b P 0.:.:.| a E :.' X.| X.a L X.X.+.:.' W j W L ~ j p p p p p p p a a p p e 6 - + @ - - @ @ @ @ - < 6 e e e 6 8 9 d D L L L L L L L L L L L L L L I I L L L L I I L L K W L p < B ' } v e j ' K 6 3 o - - - < $ < 6 6 < < < < 6 < - < < < 6 6 6 6 5 5 5 5 5 6 6 6 6 < < < < < 3 3 3 3 3 3 6 6 2 > - % @ % - < 3 6 3 3 < < - - @ < 6 < 6 6 < 6 6 6 6 6 6 6 6 6 6 6 < < < < < < 6 < < > > > < 3 3 < < > < < > < < < < < < < < < < < < < < < < < < < < > - > < > - - - - - - - - - - - - - - * * - - - - - - - @ @ - - - - - - - - - - - - - - - - - : : - = @ X         X X X X + + X X X X X X ",
"+ + + + + + + + + + + + + + + + + + + + X X + + X X X X + @ @ @ @ @ @ @ + + + + + + @ + + + + + + + + + + + + + X + X X   X = < , < < < < < < < < < < > > - - - - % % % % - - - - < < - : : - - : : : : < < : $ % $ $ $ @ @ + + + + + + + + + + + + @ @ @ @ @ @ @ @ @ @ $ $ $ @ $ $ @ @ @ @ @ @ @ @ @ @ @ @ @ @ + + + + + + + + + + @ @ @ @ @ @ @ @ @ @ @ + + + + + + + + + + + + + + + + X X X + @ . X X X X X + X X X X + + + + + + + + X X X X +   h p.w.D n L 0.h.g.g.s.s.p.s.g.h.c.c.c.x.h.h.g.a.a.p.a.h.j.c.c.l.l.j.j.l.l.d.d.d.h.h.h.h.h.g.f.a.a.a.0.e + e j - e j j j j a j 9 6 d d d d p j a % a w.u.w.f.L b v.a.f.h.j.b X.f.p.f.2.K h.p.p.p.p.b e.p.e.h.K v g.e.p.f.N | a.u.e.p.p.:.p 0.u.w.p.T j e.1.1.w.L b p.0.:.1.w.B D 0.%.%.X.h D :.' ' ' 1.Z k X.X.+.:.X.+.b v 2.z e j p p p p a a a a p a e < + # - = - = @ @ + - 6 e 6 6 9 e v D U U L L L L L L L L L L L L L L L L L L L L I I I I I B 6   v -.I W ! L e 6 I L 6 : % % % - < 6 2 : < < < > - < < < < < 6 6 6 6 5 5 5 5 6 6 3 3 3 < 2 < < < 2 2 3 3 3 3 6 6 2 > - % @ % - < 3 3 3 3 < > - - @ < 6 < 6 6 < 6 6 6 6 6 6 6 6 6 6 6 < < < < < 3 6 < < > > > < 3 6 3 < < < < > < < < < < < < < < < < < < < < < < < < < > - > < > - - - - - - - - - - - - - - - - - - - - - - - @ # - - - - - - - - - - - - - - - - - : : - = @ X         X X X X + + + + X X X X ",
"+ + + + + + + + + + + + + + + + + + + + X X + + X X X X + + @ @ @ @ @ @ + + + + + + @ @ + + + + + + + + + + + + X X X X   X = < , < < < < < < < < < < < > - - - - % % % % - - - > < < : : - - - : : - - % $ - : - $ $ $ $ @ + + + + + + + + + + + + @ @ @ @ @ @ @ @ @ @ $ $ $ @ $ $ $ $ @ @ @ @ @ @ @ @ @ @ @ @ + + + + + + + + + + @ @ @ @ @ @ @ @ @ @ @ + + + + + + + + @ @ + @ + + + + X X X + + . + + X X X X X X X X X + X + + + + + X X X + @ h w.Y h D p.c.s.r.i.p.s.g.g.g.p.-._ E L A N v v v x v b B D F F F F F P Q ' w.p.d.d.j.j.j.j.a.a.a.a.p.w.| < O q - 6 j j j j p j 9 7 d d d d a a j 1 < w.g.w.f.B P c.a.a.h.j.v 2.s.p.f.2.K g.p.p.p.p.b e.p.e.h.D v f.e.p.f.N | a.u.e.u.p.:.p :.u.w.w.W a w.3.1.w.W v p.2.:.:.e.V v 0.X.%.%.j v 1.' | ' X.W j X.X.+.:.| +.W e k e p p p p p p p a a a u a e -   . @ - - - @ $ 6 e e 6 e 6 d H T K G L L L L L L L L L L L L L L L L L I L L L I I I I z 2 v C p 6 v ! W W E z < Z L 9 @ $ @ % < - - < > > > < < 6 6 4 < 4 6 6 < < < < < 2 6 6 < < 3 < 2 2 2 < 2 < 3 3 3 3 6 6 2 > - % @ % - < 3 6 3 3 < > - - @ < 6 3 6 6 < 6 6 6 6 6 6 6 6 6 6 6 < < < < < 3 < < < > : > < 3 6 6 3 < < < < < < < < < < < < < < < < < < < 2 < < < < > - - > : - - - - - - - - - - - - - - - - - - - - - - - # # - - - - - - - - - - - - - : - : - - = = = @ X       . X X X X + + + + X X X X ",
"+ + + + + + + + + + + + + + + + + + + + + + + + X X + + + @ @ @ @ @ @ @ + + + + + @ @ @ + + + + + + + + + + + + X X X X . X - < < < < < < < < < < < < < > ; - - - - : > : - - % - - - - < < < < < > : % @ @ @ $ % % % $ - - + + + + @ + + + @ @ @ @ @ @ @ @ $ $ @ @ = $ - - = = $ $ $ @ @ @ @ @ @ @ @ @ @ @ @ @ + + + + + + + @ @ @ @ @ @ @ @ @ @ @ @ @ @ + + + + + + + + - = + + @ + + + + + + + + X + X X + + X X X X X X X X + + + + + = @ @ + v r.N v &.h.g.w.q.p.k.h.p._ D v v v D L T %.0.p.s.a.p.p.p.p.p.e.w.,.X.W L B z j k v v D L _ :.w.p.h.c.h.p.y.E 6 O   < j p a y a d r 7 d d d d a a d e O a :.j.a.u w.h.f.s.h.g.F a.p.u.a.| T g.p.p.p.p.K p.a.e.a.P v f.u.p.p.F W a.w.w.s.u.e.a -.0.w.u.-.p 3.0.w.0.T a w.:.0.1.2.L u :.X.-.-.D a 0.~ ~ | | X.a D X.| %.W ~ :.H # e p e y y y p a a p u a e < @ @ @ @ @ $ - 6 2 6 w e 6 e v H W H H H H L L L L L L K K L L L L L L L L L L L W W U W y 9 E _ _ _ Z e 6 B W ! +.K < p U 6 > - o @ - > < > > < < < < < < 6 6 6 6 < < < < 3 3 3 3 < 2 3 3 3 3 3 2 < < 3 3 6 6 6 6 2 > - % @ % - > 2 2 2 2 < > - - & < 6 < 6 6 < 6 6 6 6 6 6 6 6 < 6 6 < < < < 6 6 < < < < - , < < 3 3 2 < < < < < < < < < < < < < < < < < > < < < < < < > > > < : - - - - - - - - - - - - - = = = - - - - - - - - @ - - - - - - - - - - - - - - - - - - = = $ @     . . . X X X X X X X + X X X X ",
"+ + + + + + + + + + + + + + + + + + + + + + + + X X + + + @ @ @ @ @ @ @ @ + + + + @ @ @ + + + + + + + + + + + + + X X X . + - , < < , , < < < < < < < < > ; - - > > < 3 > : - - % % % % < < < < < > : % $ @ @ $ $ - % % - < + @ + + @ @ + + @ @ @ @ @ @ @ @ $ $ @ @ - - - - - $ = = $ @ @ @ @ @ @ @ + + @ @ @ @ + + + + + + @ @ @ @ @ @ @ @ @ @ @ @ @ @ + + + + + + + + + - - X @ @ + + + + + + + + + + + + + + + + + + X X + + + + @ @ @ @ @ @ B 9.c L s.g.s.r.s.h.q.L j j b D } 0.s.h.h.j.j.c.h.f.a.a.h.h.d.d.j.l.l.l.c.l.c.c.d.w.' W D V v j g x b V W | u.y.0.6   # p p a p a d y 7 d d d d d a a p - 6 < v L e e.p.s.u.f.w.F a.p.u.a.| E f.u.u.u.u.F u.s.w.f.P v f.e.e.p.L W a.w.w.p.e.u.a | w.0.w.1.p X.0.0.2.| a :.:.2.3.:.W p } :.-.X.P e :.| } | | %.B j } | | ~ ~ W L > p a p d d d d a p p r e < @ @ @ @ @ @ + < w 6 6 < e v D D L L H H H H L L L L K L K K L L L L K K K K K K K L L W p v ' ! W W ! ' ` K e e C ! ! W y z H < + % % % - - : > < < < < < < 6 6 < < < < < < < < 4 < < < 2 2 3 3 2 < < < < 3 6 6 6 6 2 > - % @ @ % - < < < < < > - - @ < 6 < 6 6 < 6 6 6 6 6 6 6 6 < < < < < < < < < < < < - - , < < < < < < < < < < < < < < < < < < < < < > > < < < < < < > > : > : - - - - - - - - - - - - - = = = - - - - - - - * @ - - - - - - - - - - - - - - - - - = = = = @     . . . X X X X X X X + X X X X ",
"+ + + + + + + + + + + + + + + + + + + + + + + + X X + + + @ @ @ @ @ @ @ @ @ + + + + @ @ + + + + + + + + + + + + + X X X . + - , , , , , - - - - - - < < > ; - - > < < 3 < < : - - - - - < < < < < > : - @ @ $ $ $ - - - - @ , = @ @ @ @ @ @ @ @ @ @ $ $ $ $ = = = - - - - - - - - = = @ @ @ @ @ @ @ + + + @ + + + + + + + + @ @ @ @ @ @ @ @ @ @ @ @ @ @ + + + + + + + + + - - X @ @ @ + + @ @ @ + + @ @ + + + + + + @ @ + + + + + + @ @ X $   j -.D &.s.w.r.p.s.9.K N B W 1.s.g.g.g.s.s.s.s.p.p.s.a.f.f.h.h.h.h.a.d.h.l.h.h.d.d.a.a.d.h.v.c.j.h.0.} L D A D B v b 6 ; . 6 a a a a d y q d d d d d a a d ; j j 1 + 6 a.a.p.p.a.:.F a.p.u.a.| E f.p.u.u.u.D w.p.w.f.P v a.e.w.p.W U s.w.e.e.w.p.j T e.1.0.w.a ~ w.1.1.:.a ~ 1.3.3.-.} p E :.-.| X.e L -.%.| | %.E p L -._ _ ~ | j ; r e e y y y y e e q 6 < @ @ - @ @ @ @ $ < : - 6 h B D L K H K H H H H H H H H H H H H H K K K L K K L L K L ! U < 9 W ` W W W _ W W W ' v 9 a I W ! B z L < . % @ $ - - > > < < < < < < < < < < < < < < < < < < < < < < < < < < < < < 3 3 6 6 < > - % @ @ % - < < < < < : - - - - 6 < 6 6 6 6 6 6 6 6 6 6 6 < < < < < < < < < < < < - - , < < < < < < > > > > < > < < < < < < < < < > > < < > > < < > : - > > - - - - - - - - - - - - - - - - - - - - - - - - - - - - - - - - - - - - - - - - - - = = = = $ X     . . X X X X X X X X X X X X ",
"+ + + + + + + + + + + + + + + + + + + + + + + + + + + + + @ @ @ @ @ @ @ @ @ + + + + @ @ + + + + + + + + + + + + + X X X . @ - , , , , : - - - - - - - - > ; ; - - - > < < < > > > < > > < < < < : : : : @ @ $ $ $ : $ - + @ < < - @ @ @ @ @ @ @ @ @ $ $ $ $ = = = - - - - - - - - - = @ @ @ @ @ @ @ + + + + + + + + + + + + + @ @ @ @ @ @ @ @ @ @ @ @ @ + + + + + + + + + - = + @ @ + + + @ @ @ + + @ @ + + + + @ @ @ @ @ @ @ @ @ @ @ @ @ X 8 -.N &.p.r.i.g.<.S N T i.h.g.p.w.w.0.s.s.p.u.p.s.p.s.p.p.p.a.a.a.a.d.d.h.h.a.d.h.j.j.h.d.p.p.p.p.p.h.h.g.f.u.h.0.0.X.D < - < a a j a d p q d a a d d d a a 1 u r j j < a w.e.p.p._ F a.p.u.a.| E f.p.u.u.u.D w.w.0.a.P v a.w.2.u.~ U p.w.e.w.w.p.j P p.1.1.w.a W w.-.:.0.a U 0.:.:.X.1.p P %.%.| -.x v :.| } | } %.V j | _ W D d > @ < - > < < < < 1 < < ; @ @ * - @ @ @ @ : : - e D K D D D D H K H H H H H H H H H H H H H K K K L L L L L W K m 6 z B y a m K ' ! ! W W W -.E j < v ! ' D j v > o + $ - - : < < < < < < - < < < < < < < < < 4 < < < < < < < < < < < < < 2 2 2 2 < > - % @ @ % - > < > > < : - - @ - 6 < 6 6 6 6 6 6 6 6 6 6 6 < < < < < < < < < < < < - - , < < < < < > > : > : > > < < < < < < < < < < > < < > > < < > - - > > - - - - - - - - - - - - - - - - - - - - - - - - - - - - - - - - - - - - - - - - - - = = = - $ X     . . X X X X X X X X X X X X ",
"+ + @ @ + + + + + + + + + @ @ @ + + + + + + + X X X + X + + @ @ @ @ @ @ @ @ @ @ + + + + + + + @ + + + + + + + X X X X X X @ - , , , : - - - - - - - - - ; ; ; - - - : : > < < : : > > > - - < < < < < < % % - > < : $ + % @ @ % = @ @ @ @ @ @ @ @ @ $ $ @ @ * * - - - - - - - - - - = $ @ @ @ @ @ @ @ @ @ @ + @ @ @ + + + + @ @ @ @ @ @ @ @ @ @ @ @ @ @ @ + + + + + + + X - = @ X @ @ + @ @ @ @ + + + + @ @ @ @ @ @ @ @ @ @ @ @ @ @ @ @ X + j D L i.-.g.w.B B } s.g.s.w.p.w.w.p.s.s.g.g.g.g.g.g.g.g.g.g.f.a.a.s.p.s.p.p.d.d.h.h.g.g.f.f.s.p.p.p.p.p.p.p.p.p.p.p.0.w.p 6 * r a g a g p 1 a p p j a a a a < p p a a j 1 r p.p.f.F E a.p.u.j.D T a.p.u.u.1.x w.w.w.s.E v a.w.e.e.%.L p.w.e.p.w.p.v L p.:.-.e.j D w.%.:.1.v K 2.~ :.%.%.j V %.W W -.F j | ~ %.| | T E e V v q 6 6 6 e e p y p p p y e e e < @ @ $ - @ @ - - < 6 v D D D D K G G K G K K K K K K K K F F H H H H K K L D H P L Z e 1 F | +.! Z j 9 y Z Q :.W ~ W ! +.Z r z ' | D r p O @ - - ; ; > < < 6 < - < < < < < < 3 6 6 6 6 6 < < < < < < < < < < 4 < < < 3 6 < < - - @ @ # - ; ; - - < - - - @ - 6 < 6 6 6 < 6 6 6 6 6 6 < < < < , - - , < < < < < - - - < < > > : : : : : - : > < < < < > < < < < > > < < > > < < > - - ; ; - - - - - - - - - - - - - - - - - - - - = = - - - - - - - * * @ @ @ - - * # @ @ # - $ - - - $ + X . . . X X X X X X X X + X X X ",
"+ @ @ @ + + + + + + + + + @ + + + + + + + + + X + X + + + + @ @ @ @ @ @ @ @ @ @ + + + + + + + + + + + + + + + X X X X X X @ - , , : : - - - - - - - - - ; ; ; - - : > > > > > - % % % % - - - - % % - % $ % > < < > % % % % @ @ @ @ @ @ @ @ @ @ @ @ $ $ @ @ # - - - - - - - - - - - = $ @ @ @ @ @ @ @ @ + + + @ @ @ + + + + @ @ @ @ @ @ @ @ @ @ @ @ @ @ @ @ + + + + + + + < - + X . @ - @ @ @ @ + + + + @ @ @ @ @ @ @ @ @ @ @ @ @ @ @ @ -   w D p.9.s.E j K s.w.p.s.s.s.h.h.s.0.-._ K D B D K L L L L L K L W W } 1.w.p.h.h.h.d.f.f.h.h.a.a.s.p.p.p.p.p.p.p.p.p.w.p.V e < < p p a g p 1 r p p d a a a a < p p a p d k - L w.u.D | p.p.e.f.V _ p.p.u.u.3.x u.w.w.p.~ v a.w.e.e.%.L p.w.e.u.w.p.v D u.:.-.u.v B w.:.-.1.B D 1.| :.X.X.N b X.T ~ X.| j W | | | T ~ X.g # 3 e r p p p p y y y y y y e e 6 - @ @ $ @ @ . + - e B D K K K D D G G D K G K K K K K K K F F H H H H K K F L D P D - 3 L ~ ~ Q Q ~ X.~ B e r z W W W ~ | X.W z a ~ ! z 6 % - - ; > < 1 1 6 - < 6 < < < < < < < < 3 6 < < < < < < < < < < < < 3 < < 4 6 6 < < - - @ @ * - , , - - < - - - @ - 6 < 6 6 6 < 6 6 6 6 6 6 < < < < - - - - - < < ; - - - - > > > : : : : : : : - > < < < > > < < < < > > < < > > < < > - - - - - - - - - - - - - - - - - - - - - - - - = = - - - - - - - - * @ @ @ + + @ * @ + @ - @ - - - $ @ X . . . X X X X X X X X + + X X ",
"+ + @ @ + + + + + + + + @ @ + + + + + + + + + + + + + + + @ @ @ @ @ @ @ @ @ @ @ + + + + + + + + + + + + + + + X X X X X X @ - , - - - - - - - - - - - - - - - - - - : : - : : - % $ $ $ @ @ @ @ @ @ @ @ % - - > > < - < > - % % @ @ @ @ $ $ $ $ $ = = = - - - - - - - - - - - - - - - = @ @ @ @ @ @ @ @ + + + + @ + + + @ @ @ @ @ @ @ @ @ @ @ @ @ @ @ @ @ @ @ @ + + + $ = 6 , + X X = < @ @ @ @ @ @ @ @ @ @ @ @ @ @ @ @ @ @ @ @ @ @ @ @ , , - D g.s.K j <.g.0.w.s.g.p.-.D v j j v v N B K L E _ | | | | | ~ W W L L L H D L ! +.w.e.p.a.a.a.a.a.p.p.p.p.p.p.p.p.e.u.| u 6 * e a a g p 1 6 y a a a a a a < p p a a a a p g p.%.v 2.w.p.w.u.b X.w.p.u.u.1.x u.w.w.e.| N p.w.e.e.-.L p.w.u.w.w.a.b B w.:.-.p.V x w.1.%.0.F v 1.| %.| | K j | _ _ | %.V D | | W P E j 1 e j a a p p p e e t y y y y e e < + @ & & * @ - e h D D B L K K K K G G D K G G G G K K K K F F F F F F H H H D L D 3 z ~ | ~ Q ~ Q L P ~ W ' G a y m W ' L U W ! V j W | j # % - ; > 1 1 1 > > 6 < < < < < < < < < < < < < < < < < < < < < < < < < < < 6 6 < < - - @ @ # - , ; ; - < - - - @ - 6 < 6 6 6 < 6 6 6 6 6 6 6 < < < - - - - , ; - - - - % - - : : : : : : : : - - > < < < < < < < < < < > < < : > > < : - - - - - - - - - - - - - - - - - - - - - - - - = = = = = = - = - - - @ @ @ + + @ * @ + @ - @ - - - $ @ X X X X X X X X X X X X + X + + ",
"+ + @ @ + + + @ + + + @ @ + + + + + + + + + + + + + + + + @ @ @ @ @ @ @ @ @ @ @ + + + + + + + + + + + + + + + + X X X X . $ : , : - - - - - - - - - - - - % % % $ $ - - - - - - % % % % - - - - % % % $ > - - % - < : 3 6 - - % @ @ @ @ $ $ $ $ = = = $ - - - - - - - - - - - - - - = = @ @ @ @ @ @ @ @ + + + + + + + + @ @ @ @ @ @ @ @ @ @ @ @ @ @ @ @ @ @ @ @ + + + $ - 6 : X X $ - - @ @ @ @ @ @ @ @ @ @ @ @ @ @ @ @ @ @ @ @ @ @ @ @ j E 5.L E T B 0.p.q.0.c.0.K j j N K _ 1.u.p.s.g.s.s.s.s.s.s.p.p.p.p.a.a.a.p.t.w.X.~ K Z b B D K } w.a.a.p.p.p.p.p.p.p.p.u.w.w.j e , ; p a g a 1 < r a p a a a a < p p a p d d j 6 | ~ N w.0.p.0.0.v :.w.p.u.u.1.j u.0.w.w.| B u.w.w.w.-.L p.w.u.0.0.a.B b 0.:.:.p.F g w.1.%.0.P j :.| X.| | T a _ | | _ | P N ~ T ~ E B - p p p r r e e e e e y y y y y e 6 - . & & & * 6 v D D D D K D K K K K G G K K G G G G K K K K F F F F F F H H L D a 1 9 B G Z F | +.! ' U L ~ W W ! P z z V X.W ~ W ' P j P ' 3 o o # 1 1 < < < 6 < < < < < < < < < < < < < < < < < < < < < < < < < < < < 6 6 < < - - @ @ # - , , ; - ; - - - @ - < < 6 6 6 < < 6 6 6 6 6 < < < < - - - - , , - - - - % % - - : : > > : : : : - : < < < > > < < < < > > < < : > > < : - - - - - - - - - - - - - - - - - - - - - - - - = = = = $ $ $ $ - - - - @ @ - - * # @ @ @ - @ - - = @ + X X X X X X X X X X X X + + + + ",
"+ + + + @ @ @ @ @ @ @ @ + @ + + + + + + + + + + + X + + + @ @ @ @ @ @ @ @ @ @ @ @ @ + + + + @ @ + + + + + + + + X X X X . = , , - - - - - - - - - - - - % % % % $ % % % - - - - - - - - - - # # % % @ @ $ - - - % $ - - - - - - = $ $ $ = $ $ = = = - - - - - - - - - - - - - - - - = @ @ @ @ @ @ @ @ @ @ @ @ + @ + + + + + + + @ @ @ @ @ @ @ @ @ @ @ @ @ @ @ @ + + @ @ - 6 - X + - - - @ @ @ $ @ @ @ @ @ @ @ @ @ @ @ @ @ @ @ @ + , < v 0.9.E K e 6 s.w.0.g.1.B j D } w.w.p.s.s.w.0.0.0.w.w.p.s.u.e.e.e.e.u.u.e.e.w.u.e.e.p.p.s.u.1.P N j p a b L X.p.f.p.p.u.e.0.w.e.~ e 6 < 6 p a p e > r a p p p p p 3 e a a a a a a r v j j | :.p.a.2.V 0.w.u.:.u.W j p.0.w.w.1.b w.w.e.w.%.D u.w.w.w.u.w.L k 0.1.:.w.W p 2.1.:.1.3.v 3.| ~ } _ :.a D | | ~ | ~ B P ~ W D 6 p p p p p p p p p p t t y y y p e < @ + @ + - j D D D D N S K D H G D G G G v p 6 p B K F D D G G K F v v D L F v y z ~ P H V m v k k v F W Q W | W W | ! L b z | W W | | b y ~ L O @ % o ; < 1 < < < 3 < < < < < < < < < < < < < < < < < < < < < < < < < < 3 4 < < - @ @ @ @ - - - - - - - - - - @ < 6 < < < < < 6 6 6 6 6 < < < < < < < < < < - - - - - - - - : < < < > > > > > > < > < < < < > > < < > < < > < < < > - - ; < - - - - - - - - - - : - - = = = - - - - = = = = $ $ = $ @ - - - - - < < - # @ # = @ @ $ = $ @ + X X X X X X X X X X X X X X + + ",
"+ + + + @ + @ @ @ @ @ @ + + + @ + + + + + + + + + X + + + @ @ @ @ @ @ @ @ @ @ @ @ @ + + + + @ @ + + + + + + + + X X X X   = , : - - - - - - - - - - - - % % % % % % % % % % - - - - - : ; < < < - % $ @ @ @ % % $ $ - - - - - # = $ $ $ = = $ = = = - - - - - - - - - - - - - - - @ $ @ @ @ @ @ @ @ @ @ @ @ @ + + + + + + + + + @ @ @ @ @ @ @ @ @ @ @ @ @ @ @ @ @ + @ $ - < - + $ - - $ @ @ @ $ @ @ @ @ @ @ @ @ @ @ @ @ @ @ @ @ - : C r.[ C n T -.B K p.q.B j D 0.p.g.p.w.w.0.0.p.w.0.1.w.p.s.s.e.e.p.p.0.w.u.p.p.p.u.w.p.p.u.e.p.u.s.h.p.1.P B j v v k F T 1.p.p.s.2.0.D 1 1 # < a g e - 9 a a p p p p 3 e a a a a a a p ; 6 6 q a v D W V w.w.w.:.u.P j p.1.w.w.1.b w.w.w.w.%.V w.0.w.w.w.w.W k 0.1.:.2.W a :.3.3.3.3.B | | | | | X.N v :.~ | _ | F b ~ L e e p u u u p p p p p p t t p p y y < + - - + < v D D D D D K j B K K D G G j e e j v B G D D D F L F j 6 6 j G D d d G W P | | ~ Q W P B j e y v F ~ | ! U | Q W F b P #.P P ~ d d ~ p   ; o % < < 6 6 6 3 < < < < < < < < < < < < < < < < < < < < < < < < < < 3 3 < < - @ @ @ @ - - - ; - - - - - - @ < 6 < < < < < 6 6 6 < < < < < < < < < < < < < < - - : > > < < < < < < < < < < < < < < < < < > > < < > < < > < < < > - - ; < - - - - - - - - - - : - - = = = - - - = = $ $ $ $ @ $ $ @ - < - - - - - - # @ @ @ @ @ @ $ @ @ + X X X X X X X X X X X X X X + + ",
"@ @ @ @ + + + + + + @ @ + @ @ + + + + + + + + + + + + @ @ @ @ @ @ @ @ @ @ @ @ @ @ @ + + + @ @ @ + + + + + + + X X X X X . - < : - - - - - - - - - - - - - % % % % % % % % % - - - : < < < < < < > - % $ @ @ $ % $ $ - - - - @ @ $ = = = = = = - - - - - - - - - - - - - - - - - - @ $ @ @ @ @ @ @ @ @ @ @ @ @ + + + + + @ + + + @ @ @ @ @ @ @ @ @ @ @ @ @ @ @ @ + + @ $ - , @ @ - - - @ @ @ @ @ @ @ @ @ @ @ @ @ @ @ @ @ @ @ @ @ = n 9._ h B w.-.0.0.v K B h } p.0.0.0.0.0.w.w.p.s.p.0.1._ _ { -.| X.:.2.1.1.2.2.p.p.p.p.w.w.w.e.p.w.1.0.w.p.p.w.u.w.X.W B b v j v K W ~ w.j < q # 6 p r @ 6 a a p p p p 3 e p a p p a a a e e a g p e e 6 g 0.w.1.:.u.F v a.:.2.w.:.b w.w.w.w.:.B w.1.0.w.0.w.~ k 0.1.:.1.~ h -.1.1.1.1.F L X.} ~ | | W g T P | | _ W v K h e p e e e e u u p p p p t t y e e 6 - - - + 6 v B D D D Z Z G N d D B G m y h v D L H G C B V F B a 6 q d Z Z j j F U L P ~ W ~ ! | U | X.| | D d e p v P X.' ~ W W L p D ~ W | L 1 L B > % o @ < < < < < < < < < < < < < < < < < 3 6 < < < < < < < < < < < < < 3 3 < < - @ @ @ @ - - < ; - - - - - - @ < 6 < < < < < 6 6 6 < < < < < < < < < < < < < < < - > < < < < < < < < < < < < < < < > > > : > > < < < < < > < < < > - - ; < - - - - - - - - - - : - - = = = - - - = = $ = $ $ $ $ $ + - < - - - - @ @ @ @ @ @ @ @ @ $ @ @ + X + + X + X X X X X X X X + + + ",
"@ @ @ @ + + + + + + + + + @ + + + + + + + + + + X X + @ @ @ @ @ @ @ @ @ @ @ @ @ @ @ + + + + @ @ + + + + + + + X X X X X X - < : - - - - - - - - - - - - - % % % % % % % - - - : > > < > > - - - > - - - % - - - % % - - - @ @ @ $ $ = = = = = - - - - - - - - - - - - - - - - @ @ @ @ @ @ @ @ @ @ @ @ @ @ @ @ + + + + + @ + + + @ @ @ @ @ @ @ @ @ @ @ @ @ @ @ @ + @ @ $ = - @ - - - $ @ @ @ @ @ @ @ @ @ @ @ @ @ @ @ @ @ + @ @ @ i -.T i E w.1.w.} D B 6 h p.0.1.w.w.w.w.p.0._ L v j a e h h j v v b V D D V b v v b D F ~ X.0.e.p.a.a.u.p.p.w.0.0.p.f.a.g.p.2.%.D D V x v j 3 - ; ; 6 p . 3 p a p p p p 3 e p a p a a a h e 1 a g a a j a < v p.%.:.u.D v a.:.:.w.-.v 0.w.w.w.:.N 0.:.1.w.1.w.| k 0.2.:.:.| j X.1.1.1.1.P V %.%.~ ~ ~ _ u K P A x u d e 6 < 9 6 e e e e u u p p p p t t e 6 < < + @   6 B B V D D D Z Z m Z v z B z v C Z G G Z Z Z G G v a r p Z G m d d Z U P W U W ! ! ~ W W W L L W U ! | W V y q v P W ~ W W U y B P j d q 6 ; 6 # o o - < - - - , < < < < < < < < < < < < < < < < < < < < < < < < < < < 3 < < - @ @ @ @ - - , ; , , - - - - @ - < < < < < < 6 6 6 < < < < < < < < < < < < 1 < < < > > > > > < < < < > > > > > > < < > : - : > < < < < < > > > > : - - - , - - - - - - - - - - - - = = = = $ $ $ $ $ $ $ $ @ @ @ @ . < < @ - - @ @ @ @ @ @ @ @ @ @ @ @ @ + + + + X X X X X X X X X X X + + ",
"+ + + + + + + + + + + + + + + + + + + + X X + + X . X @ @ @ @ @ @ @ @ @ @ @ @ @ @ @ @ @ @ @ + + + + + + + X X X X . . . X - < : - - - - - - - - - - - - - - = = = = - - - - - : > > > > < < < < > > > - < > < < < - - - - * * * = = - = = = - - - - - - - - - - - - - - - - $ @ @ @ @ @ @ @ @ @ @ @ @ @ @ @ @ @ @ @ + + + + + + @ @ @ @ @ @ @ @ @ @ @ @ @ @ @ @ @ + @ @ $ = - - - - $ $ @ $ $ $ $ $ @ @ @ @ @ @ @ @ @ $ + $   - / &.5 K p.0.-.E N E -.-.B | 0.:.0.p.1.K j j v D K E 9.0.w.w.w.0.p.p.p.p.e.w.w.w.X.~ P F V V B B D L | :.w.u.p.a.w.w.w.w.w.2.0.w.u.e.w.w.-.1.L a q 1 * *   - e p y y y y 7 9 j r p p p p y r 1 p p p a a k p % Z 2.' w.Z D e.,.1.w.1.v w.0.0.0.0.B 1.2.:.0.0.0.0.k } 1.:.1.1.j T | | | | | j :.} ~ ~ W | a p e 9 6 6 q q 9 9 e w 6 6 6 6 6 6 6 6 9 6 6 < : : - @ + @ e B D B v B C B B B G B B p p v D K m m b b B B v 9 e b H F a e 1 9 z z z z m m B B B G P W ! ~ Q W W W W W ~ W Z j r Z ' W W ! Z - > # k W H v a p ; o % - - - < < < < < < < < < < < < < < < < < < < < < < < < < < < < < < < < - - @ @ # - - < ; ; ; - - - - + - < < < < < < < 6 < < < < < < < < < < - < < < < < < - - ; , < < < < < < < < < < < - , < , , > < < < < < < - < - - - - - - ; - - - - - - - - - - - = = = $ $ $ @ $ @ = @ $ @ @ + + @ . - 5 , - - $ @ @ @ @ $ @ @ @ $ $ @ @ @ + + + + + + X X + + + + X X X X ",
"+ + + + + + + + + + + + + + + + + + + X X X + + X   X @ @ @ @ @ @ @ @ @ @ @ @ @ @ @ @ @ @ @ + + + + + + + + X X X . . . + - < : - - - - - - - - - - - - - - = = $ = = - - - - : > > > > < < < < > > > > < < < < < < - - - - - - - - - - = = - - - - - - - - - - - - - - - - @ @ @ @ @ @ @ @ @ @ @ @ @ @ @ @ @ @ @ @ + + + + + + @ @ @ @ @ @ @ @ @ @ @ @ @ @ @ @ @ + @ @ @ - : - - = = = @ $ $ $ $ $ @ @ @ @ $ $ @ @ @ $ @ = + v <.8 N <.-.1.B K p.0.1.} 1.v T w.-.v h h L -.s.w.p.i.w.w.0.0.0.0.w.w.w.w.w.w.w.w.p.p.u.e.w.0.:.X.P D N v v V P _ 0.w.u.p.w.w.w.0.2.2.1.1.} -.:.%.v < 6 6 o @ 9 a y y y y q 6 a y p p p p p y q e a p a a y z r 3 W X.+.j v T P K } 2.j 1.2.2.1.1.V 0.2.:.1.1.:.%.v _ 1.%.%.1.x F | | | | | u E X.~ ~ T b 1 6 e p y y y r e e e e e e e e e e 9 9 8 6 6 6 6 > + . - h D v v B B B B B C D v e p 2 j m C B Z V V B p p r z D m p 6 a m F D L L L L H F Z V k p y p d b L ! | ! ~ ~ L P W W m < z ' L j r d V z 6 B U W D z Z 3 o ; < < < < < < < < < < < < < < < < < < < < < < < < < < < < < < < < < < - - @ @ # - - - - ; - - - - @ + - < < < < < < < < < < < - - - - , , - - - < < < < < - - - - ; < < < < < < < - - - - , < < < > > < < < < < - - - - - - - - ; - - - - - - - - - - = = = $ $ @ @ @ @ @ @ @ $ @ @ @ + + X X , < - $ @ @ @ @ @ @ @ @ @ = = $ + X + + + + + + X X + + + + X X X X ",
"+ + + + + + + + + + + + + + + + + + X X X X + + X   X @ $ @ @ @ @ @ @ @ @ @ @ @ @ @ @ @ @ @ + + + + + + + + + X X X X X + - < , : : : : - : - - - - - - - - - = = = = = - - - - < < > > > > > > < < < < < < < < < < < - - - - - - - - - - - - - - - - - - - - - - - - - - = $ @ @ @ @ @ @ @ @ @ @ @ @ @ @ @ @ @ @ + + + + + + + + @ + + @ @ @ @ @ @ @ @ @ @ @ @ @ @ @ @ @ : < - = = = = $ $ $ $ $ $ @ @ $ $ $ $ @ @ @ @ $ $ : E B 2 <.-.1.N D 0.-.-.-.-.D u < B h v ~ s.p.p.w.1.w.w.0.1.0.0.0.0.w.0.0.0.0.w.w.w.w.w.w.w.:.0.w.p.u.u.u.u.%.T F B B D K P X.0.e.u.w.1.%.| 1.%.%.:.| D 6 < ; % ; a y y y y e < r p p p p p p a p 1 p p a a a a a 9 < e a q 6 e e e e j q w.:.:.:.:.N 1.0.0.w.w.2.3.A W 1.} ~ 1.V F | | | | -.v D | ~ E j q p p y y p p y y y t t t t t t t e e e e e e y p 9 %   % j B B D N h Z m B D m p 9 d Z z j m C B H m a 9 y b L v q 7 j F P W P H U U U U W Q | ' ~ | W G v z j a V L ~ W U W W W ~ L y e e % j ! L ~ F r F ~ W D z V ; 3 6 6 6 6 < < < < < < < < < < < < < < < < < < < < < < < < < < < < < < - - @ @ * - - - < ; , - - - @ + - < < < < < < < < - - - - - @ * * - * @ @ ; < < < < - - - - - < < < < < < < < , ; , < < , < < < < < < < < - , - - - - - - - - - - - - - - - - - = = = = @ @ @ @ @ @ @ $ $ = - $ @ + @ X - : = @ + + + + @ @ @ @ + @ = $ @ X + + + + + + X X + X + + X X X X ",
"+ + + + + + + + + + + + + + + + + + X X X X + + X   X @ $ @ @ @ @ @ @ @ @ @ @ @ @ @ @ @ @ @ + + + + + + + + + X X X X X + - < , , , , , : : : - - - - - - - - = = = = = - - - - < > > > > > > > < < < < < < < < < < < - - - - - - - - - - = - - - - - - - - - - - - - - - = $ @ @ @ @ @ @ @ @ @ @ @ @ @ @ @ @ @ @ + + + + + + + + + + + @ @ @ @ @ @ @ @ @ @ @ @ @ @ @ @ @ : , $ = = = = $ $ $ $ $ $ @ @ $ $ $ $ @ @ @ @ = X 6 } 8 B 1.} j D 0.-.1.-.L j D T b 1 _ p.-.-.-.-.-.0.w.w.w.w.w.w.w.w.w.w.w.w.w.w.w.w.0.1.1.:.%.:.1.2.0.0.2.1.p.u.w.w.:.| P F x v N F W _ :.w.:.1.:.| } -.A ; 7 < @ e y y y r e - q a p p p p a a a 1 p p a a p j p y 1 < j p g g a h e q - D :.:.%.%.r D b j b D ~ :.F P :.| E } k e a a a p j k h T K a e a e e e e e e t t t t t e t e w w e e e e 6 9 e y <   o 6 D B N D D v p B m j p d B G m B p v D D p a j v L m 9 < j H W F P K H L W W W W W W U P U P U W X.W H Z d k v Z ! ~ W U U K r < m B 6 y L H U W j Z U W z m p > 6 6 < < < < < < < < < < < < < < < < < < < < < < < < < < < < < < < < - - @ @ * - - - - , , - - - @ + - < < < < < < < < - - @ @ @ @ + + @ @ + @ - < < < < - - - - < < < < < < < < < , , , < < < < , < < < < < < - , - - - - - - - - - - - - - - - - = = = = = $ @ @ @ @ @ @ @ @ $ - - @ + - @ @ + @ @ + X X X X X + + + + @ @ @ + + + + + + + X X X X + + + X X X ",
"+ + + + + + + X X + + + + + + + + X X X + + + + X . X @ = $ $ $ @ @ @ @ @ @ @ @ @ @ @ @ @ @ @ @ @ @ + + + + + X X X X X + : < , < < < , < , , : - - - - - - - - - - = = - - - - $ - > > > > > > < < < < < - - < < < < - - - - - - - - - - - - - - - - - - - - - - - - - = = $ @ @ @ @ @ @ @ @ @ + + + + @ @ @ @ @ @ @ @ + @ @ @ + + + + @ @ @ @ @ @ @ @ @ @ @ @ @ @ @ @ $ : - = = = = = = = = = $ $ $ $ = $ $ $ $ $ $ $ -   j K e / 0.N h 0.-.1.:.D v _ u.2.0.N v -.2.1.0.0.1._ _ E K D D D K K K K L L P T | %.1.2.0.0.w.0.3.:.1.1.2.0.0.0.2.1.0.w.w.u.2.| L D j k v B F L W T ~ | D 6 1 1 O % r r r r p < < p p p p p a p p q e a a r p p p p p 1 6 a u p p p a p e < v D a 6 e e r p e 6 u b F F -.| B u 1 q u u p p p p p p 1 6 r p p u e e e y y y t t t t t t w w e e e e e e 8 < o O % z D D B B v B j j a e v D m n v B Z a h j e r Z b p 6 y D F L P P K L L P P P P P P U W W W W W U P P W P X.P b k p k U | v > v L U U W e e ~ H U H v L L L a D q < 6 < < < < < < < < < < < < < < < < < < < < < < < < < < < < < < < ; - * @ @ @ - - - - ; , - - - - @ - < < < < , < < < - $ @ @ @ @ @ @ + @ + @ - - ; , ; - - , < - - < < - - - - - - - - ; - - - - - - ; - - - - - - - - - - - - - - - - - - - = = $ $ $ $ $ $ @ + @ @ $ @ @ @ @ @ @ @ @ = @ $ = @ @ @ + X X + + + + + @ @ @ @ + + + + + X X + + X X X X X X X X ",
"+ + + + + + + + X X + + + + + + + + X X X X + + X X X @ = $ $ $ @ @ @ @ @ @ @ @ @ @ @ @ @ @ @ @ @ @ + + + + + + X X X X + , < , < < < < < < < : - - - - - - - - - - - = - - % - % - > > > > > > > > > > < - - < < - - - - - - - - - - - - - - - - - - - - - - - - - - - = = $ @ @ @ @ @ @ @ @ @ + + + + @ @ @ @ @ @ @ @ @ @ + @ + + + + @ @ @ @ @ @ @ @ @ @ @ @ @ @ @ @ = : : - = - = = = = = = $ $ $ $ $ $ $ $ $ $ $ $ - + N v j -.T i _ E -.1.V B 2.2.-.:.%.0.a T 2.K B v p p a j v B V B D D D D D D v v v v v v B V F P | :.w.w.w.w.w.0.1.:.0.1.:.:.:.3.1.0.0.%.W L D B v k j b x 6 ; > - # 3 e r r p q # r p p y p p p p e 7 p a y p p p p r a - q u p p p p p p p < O e g r p a a u g a e < a K e 6 e a a u u p p p p p p 6 6 6 1 u r e e e e e t t t t t t y p p p e 9 6 2 < - o # - 1 V N e 6 h C B Z 6 p v m B v C z m a 9 y z F y y p r V W P P P L H F H L L P P P P W W W W U P P P P P W W W P U L D z p e ; 6 j P P L W W e z W W L G B H L V v p < 6 < < 6 4 < < < < < < < < < < < < < < < < < < < < < < < < < < < , - - @ @ @ - - - - - , - - - - @ * < - < < , < < < - $ @ @ @ @ @ @ @ @ @ @ # - - - - - - - - - - - - - - - - - - - - - - - - - - - - - - - - - - - - - - @ @ @ # @ @ @ @ $ @ $ @ @ @ @ @ @ @ @ @ @ @ @ @ @ + X + $ - = $ @ @ @ + + + + + + + @ @ @ @ @ @ + X + + + + X X + + X X X X X X X X ",
"+ + + + + + + X X X X X + + + + X X X X X X X + X X + @ $ @ $ $ @ @ @ @ @ @ @ @ @ @ @ @ @ @ @ @ @ + @ @ + + + + + X X X + , < < < < < < < < < < < , : : : : - : : - - - - - - - - - > > > - - - - - - - - - - - - - - - - - - - - - - - - - - - - - - - - - - - - - - - = = = $ @ @ @ @ @ @ @ @ + + + + @ @ @ @ @ @ @ @ + + + + @ @ @ @ @ @ @ @ @ @ @ @ @ @ @ @ + @ @ @ = , : - - - - - - - = = = = = = $ $ = = = = = = = @ D h S 9.B h } } 0.D v %._ %.} w.P N p < j p v N L } } -.1.0.0.0.0.0.w.w.w.w.w.w.1.:._ L D v j j j j k b D L 1.0.w.w.1.:.-.X.X.%.%.%._ } :.2.:.:.:.:.~ | W B 3 6 6 < O 7 r r y y # < p p p p y p y y 1 r p y y p y y p r e - e u p p p p p g h 6 ; 6 r u p a r p a a g 6 ; u p e e p u u p p p p p p u e q 6 ; < 6 e e e w w t t t t e w 8 8 < < - $ - % @ @ 6 1 - k e < e e h s y p n B v B B j 9 6 y m C m j 9 p b B V m j d a p p a d j j z z z z j d a p a j v m F L W W W W W L ! W 6 j W W v a W W L U ~ 7 V U U L b Z P L a d < 6 < < 6 4 3 3 < < < < < < < < < < < < < < < < < < < < < < < < < , - * # @ @ @ - - - - - - - - - @ - < - < < < , < < - @ @ @ @ @ @ @ @ @ @ @ @ @ @ @ # @ @ @ @ @ @ @ @ @ @ @ @ @ @ @ @ # # # @ * @ @ * * * * @ * * * - @ @ @ @ @ @ @ @ @ @ @ @ @ + @ @ @ @ @ @ @ @ @ + @ @ @ + X + $ - = $ @ @ + X + + @ @ @ @ @ @ @ @ @ @ + + + + X X X X + + + + X X X X X X ",
"+ + + + + + + + X X X X X X + + X X X X X X X + X X + @ $ @ @ $ @ @ @ @ @ @ @ @ @ @ @ @ @ @ @ @ + + @ + + + + + + X X X @ , < < < < < < < < < < < < < < < : - : , , : - : < > : : : > > - - % % - - - % - - - - - - - - - - - - - - - - - - - - - - - - - - - - - - - - = = = $ @ @ @ @ @ @ @ @ + + + + @ @ @ @ @ @ @ @ + + + + @ @ @ @ @ @ @ @ @ @ @ @ @ @ @ @ + @ @ @ - < , - - - - - - - = = = = = = $ $ = = = = = = $ = D j L 5.v I } -.L h | ~ 1.:.2.A v L X.a D 0.} 1.1.} } -.-.-.} } } } %.%.%.%.%.-.%.%.1.1.2.1.1.X.~ W D B j a p j B D _ | X.%.%.:.1.1.:.%.%.%._ | | | | X.| K q < 6 3   < e y r y 3 @ y y y y p y y y < e p p p y p y p e p ; 6 u p p u p g j r a 6 # q e r u u a a u r p p 6 6 u p q u u p p p p p p u u e e e q 6 < 6 6 8 9 t t t t 6 < - @ $ $ $ $ - % < 6 q <   3 < p e h : < e C B B D v a < d m m C y < 9 p j j d d j j k z v m Z D G F P P P P L H D V v z j a r d v m V F W U L e Z W W P ~ V z W L W U F z U W U F v L P j p < 6 < < 4 < 6 6 < < < < < < < < < < < < < < < < < < < < < < < < < , - - @ @ @ @ # - - - - - - - - @ - < - < < , , < < - @ @ @ @ @ @ @ @ @ @ @ @ @ @ @ @ @ @ @ @ - - - - * - # * * # @ @ - - - - @ @ @ @ * * # @ @ @ @ @ @ @ @ @ @ @ @ @ @ @ @ @ + X X X @ X X @ @ @ @ + + + @ @ @ @ @ @ @ @ @ @ + @ @ $ @ @ @ @ @ @ @ @ @ @ + + + X X X X X + + + + + + X X X X ",
"+ + + + + + + + O O X X X X + + + + + X X X + + + + @ @ $ $ $ $ @ @ @ @ @ @ @ @ @ @ @ @ @ @ @ @ @ @ + + + + @ + + X X X = , < , < < < < < < < < < < < < < < > : < < < : : > < < < < < > : - % % % % % % % % % % % % % - - - - - - - - - - - - - - - - - = = = = = = = = = = = $ @ @ @ @ @ @ @ @ @ @ @ @ + + @ @ @ @ @ @ @ @ @ @ @ @ @ @ @ @ @ @ $ $ @ @ @ @ @ + + @ - @ - < , - - - = = - - = = = = = = @ @ # * * - - - # - N v _ W N -.} } v D -._ } -.B A %.-.1.F V 1.~ | %.:.:.:.:.:.| | } } X.X.%.%.:.-.} | -.%.%.X.| X.-.:.3.:.%.} W L F D B N b b N V F P | | X.X.X.%.:.:.| ~ ~ T b < < < - # - q e u r @ < r e r p p y y q ; q r y p y p p y y y # q j p p p y p p p y p % 1 p p y p p p y y y y e q 9 r d p y y y y y y y y e y y y e e 6 < < < 9 6 < > - + + @ + - - < < 6 6 6 e 6 + @ < e p < p v p h v D v e j p h N h p p v V V V V F F F F L L F D L K F F L L P P P L P L L L L L L D b k g p g A g 6 b W P W W | V v W W L K B b W K L j F P b g e < < < < < < < < < < < < < < < < < < < < < < < , , < < < < < < < < - - - @ @ @ - - - - - - - - - @ - < < < , - - < < - @ @ @ @ @ @ @ @ @ @ @ + + @ @ @ @ @ @ @ $ $ @ @ @ @ @ @ @ @ @ @ @ @ @ @ @ @ @ @ @ @ @ @ @ @ @ + @ + + + + + + + + + + + + + + + + + + + + @ @ @ @ @ @ @ @ @ @ @ + @ @ @ @ @ @ @ @ @ $ @ + + + + @ @ + + X X + + X X X X X X X X X X X X ",
"+ + + + + + + + O O X X X X + + + + X X X X + + + + @ @ $ $ $ $ @ @ @ @ @ @ @ @ @ @ @ @ @ @ @ @ @ @ + + + + @ + + X X X - < < < < < < < < < < < < < < < < < < 2 < < < : : - : > < < < < > - - - % % % % - - - - - - - - - - - - - - - - - - - - - - = = = = = = = = = = = = = $ @ @ @ @ @ @ @ @ @ @ @ @ + + @ @ @ @ @ @ @ @ @ @ @ @ @ @ @ @ @ @ $ $ @ @ @ @ @ + + @ - - - < < - - - = = - - = = = = = = @ @ # # - - - - @ - N j _ L N } } L v _ } _ -.B D } _ _ X.W x _ T ~ %.1.1.1.-.| | _ | | | | | | } %.:.1.2.2.2.1.| } :.:.~ ~ _ | X.%.-.:.:.} ~ W V B v v b v v v N V D F T T ~ | | u < 6 - 6 - O q p u < # 6 e e p p y y r # 6 p y y p p p y y y 9 - 9 p p p y p p y p p r ; e p y y p p p p y y y e e 9 y y t y y y y y y y e e p y r e y r 6 < % @ o . * @ @ - < 6 6 e 6 6 6 6 e 6 - -   @ - e v N j e B a p v N m p w a N K L F F F F F F F F D D F K F D D D K K L L F F F F L L L L P P L L L P v q h F v b ~ P W D P j D T L L D v K K L v B L b a e - < < < < < < < < < < < < < < < < < < < < < < , , < < < < < < < < - - - @ + @ - - - - - - - - - @ - < , < , - - < < - @ @ @ @ @ @ @ @ @ @ @ + + @ @ @ @ @ + + + + + + @ @ @ + @ + + + + + + + + + + + + + + + @ @ @ + + X X + + + + + + + + + + + + + + + + + + + @ @ = = $ @ @ @ + + + + @ @ @ @ @ @ @ @ @ @ + + + + @ @ + + X X + + X X X X X X X X X X X X ",
"O + + + + + + + + + X X + + + + + + + + X X X + X + @ @ @ @ @ @ @ @ @ @ @ @ @ @ @ @ @ @ @ @ @ @ @ @ @ @ + + + + X . . X : < < < < < < < < < < < < < < : - > : < < 2 < < > - - : > < < < > - - - - - - - - - - - - - - - - - - - - - - - - - - - - - - = = = = = - - = = = = = = $ $ $ @ $ @ @ @ @ @ @ @ + + @ @ @ @ @ @ @ @ @ @ @ @ @ @ @ @ @ @ $ $ $ @ $ @ @ + + @ - - - < < - - - - - - - - - - - - - @ @ - - - - - - @ - v v _ D B _ E B D _ } } L v -.} _ ~ | _ v | X.T D B j k k j p p a a a a g g g j j x b V F K ~ | | } | _ _ ~ E ~ | %.| | | } X.X.} } | T K D v v j g j j v v B a - # O e 6 - @ ; 7 <   - e r r y y y r 6 % r y y y y y y y y d < > r y p p y y y y p d y ; q p y y p p y y y y y y e > e a y y y y y e e e e e e 9 6 3 < - + @ @ @ @ @ @ - 6 6 e e e e 6 6 6 6 6 < e 6 p j B v v N u < - 6 v v m y e D D D F D D D D D D F F L L P W L L L L P P P U P P W U L L L L L L P P F F P p D L F v N P L L W V h ~ K P L v D K L B k F v u 6 - ; < < < - - < < < < < < < < < < < < < < < < , , < < < < < < < < - - - @ @ @ - - - - - - - - - @ - ; < < , - : < < : @ @ @ @ @ @ @ @ @ @ @ + + + @ + @ + + + @ @ + @ @ @ @ + @ + + + + + @ + + + + + @ @ + + @ @ @ + + X + + + + + + + + + + + + + + + + + + X + @ @ = = $ @ @ + + + + + @ @ @ @ @ @ @ @ @ @ + + + + @ @ + + + + X + X X X X X X X X X X X X ",
"+ + + + + + + + + + X X + + + + + + + + X X X + X + @ @ @ @ @ @ @ @ @ @ @ @ @ @ @ @ @ @ @ @ @ @ @ @ + @ + + + + X . . X : < 2 < < < < < < < < < < < < : - - @ @ - < 2 < < > - - : > < < > : - - - > > - - - - - > : : : - - - - - - - - - - - - - - - = = = = = - - = = = = = = $ $ $ @ $ @ @ @ @ @ @ @ + + @ @ @ @ @ @ @ @ @ @ @ @ @ @ @ @ @ @ $ $ @ @ @ @ @ + + @ < < - < < - - - - - - - - - - - - - @ @ - - - - - - - @ g v E B B E E j _ -.} _ B W _ } } -.~ X.a j g j j k N D L W ~ ~ ~ ~ _ _ | | } | ~ E K D D B j x v v B F ~ -.| } } X.| ~ T W _ ~ E W | _ ~ T } | _ ~ ~ ~ W U L W h 1 - 6 6 6 6 # - # . O 6 u r r y r p p < - y y y y r r r r a p ; e e r y p y y y y p d 6 % r y y y p r r r y y y y y 6 6 e e e e e y e t r 6 6 < < % + . + @ @ $ % @ - < e 6 6 6 6 6 6 6 6 6 6 e v h 6 e j v N v 6 - e d e a e j K V D D D K K K F F F F F b v v v k k j j v v v v N N B B L L L L L K F D L K j h L D P U v D W F L T h D L P L B B L K D a D v e 6 - - < < , - - < < < < < < < < < < < < < < < < , , < < < < < < < < - - - @ @ @ @ - - - - - - - * @ - ; , , : - : < < : @ @ @ @ @ @ @ @ @ @ @ + + + @ + + + + + @ @ + @ $ @ @ + + + + + + + @ + @ + + + @ @ + + + @ @ + + X + + + + + + + + + + + + + + + + + + X + @ @ @ @ + + X X X X + + @ @ @ @ @ @ @ @ @ + @ + + + @ @ + + + + X X X X X X X X X X X X X X ",
"O O O O O O + + + + + + + X X X X X X + + + + + X + @ @ @ @ @ @ @ @ @ @ @ @ @ @ @ @ @ @ @ @ @ @ @ + + + + + + X X . . X , < < < 2 2 < < < < < < < < > - - % - - - - % - > - % % % - > > < < < > < < : - : - - : > > > > ; - - - - - - - - - - - - - - - - - = = = = = = = = = = $ $ $ $ $ @ @ @ @ @ @ @ @ @ @ @ @ @ @ @ + + + + @ @ @ @ @ @ @ @ @ @ @ @ @ @ + + . @ < < < < < - - - - - - - - - - - - - - - - - - - - - - @ e v W v D _ D v _ _ E L N _ | -.~ X.U x < a W T ~ } %.X.| | | } } } X.| | } | | | | -.-.-.%.~ P D B v x g a v N V D W E | X.| | _ ~ E E T W T W W P W W W W P W L h ; p k u e e 6 3 ; - # e e r r r r r 9 < < y p r r r r r r r 6 ; 9 y a p y y y y y p p 6 ; e e y r r r r r r y y e w 6 6 8 e w w e 8 2 - - % @ @ @ @ @ @ @ @ @ - + - 6 6 6 6 6 6 6 6 6 6 e - 6 h < e 6 p v e @ p e a a 6 p B K B L F F D b v j a a g g g j j j j v v v v B B B B v v v k j k v b b D L T L K h b L L L L D b L P F L N x W K P b j L D B p D v q < < < < , , , - < < < < < < < < < < < < < < < < < < < < < < < < < < - - @ @ @ @ @ - - - - - - * - @ - - - - : : : < < : $ @ @ @ @ @ @ @ @ @ @ @ : , $ + + + + + + @ + $ - @ @ + + X X X + @ $ - @ + + X + + + + + @ @ + + + + + + + + + @ @ + + X X X X + + + + + + + + + + + + X X + + + @ @ @ @ @ @ @ @ @ @ + + + + + @ @ + + + + X X X X X X X X X X X X X X ",
"O O O O O O + + + + + + X X X X X X X X + + + + X + @ $ @ @ @ @ @ @ @ @ @ @ @ @ @ @ @ @ @ @ @ @ @ + + + + X X X X .   + , < 2 2 2 2 < < < < < < < < < - % % % % % % % % % % - : - % % - > < < < < < > - > < < > > > > > ; - - - - - - - - - - - - - - - - - = = = = = $ = = = = $ $ $ $ $ @ @ @ @ @ @ @ @ @ @ @ @ @ @ @ + + + + @ @ @ @ @ @ @ @ @ @ @ @ @ + + + + - < < < < : - - - - - = = - = - - - - - - - - - - - - - - < e L j D _ B v _ E _ D N -._ ~ ~ _ k L v v | ~ T W W W ~ _ | | | | | | | | | | | | | | | | | | } X.~ T P L D B x g a a h j D D F L E ~ | | W W E ~ T T T T P W W b - a B v v v a 6 6 q < - 6 e r r e r r 9 o 6 a r r r r r r r r 6 # p a y y y y y y y a p < ; e y r r r r r r y y e e w 6 2 6 8 w 3 : @ @ @ @ @ @ @ @ @ @ @ @ + + - 6 6 6 6 6 6 6 6 6 6 6 e < - a < h p < < < - 6 e < 6 p B B v v h a p e r p g j b V D D L L L L L L L K P P P P P P L L L F V B j x v v b V p K L L L L L v D L F K D j P K L B j L F B u D v q < < < < < < < < < < < < < < < < < < < < < < < < < < < < < < < < < < - @ @ @ @ @ @ - - - - - - * - @ @ - - - : : : < < : $ @ @ @ @ @ @ @ @ @ @ @ : , = + + + + + + @ X = - # @ X X X X X + @ = - $ + + X + + + + + $ $ + + + + + + + + + @ @ @ + X + X X + + + + + + + + X + @ @ @ @ @ @ @ @ @ @ @ @ @ @ @ @ + + + + + + + + + + + + X X X X X X X X X X X X X X ",
"+ + + + + + + + + + + + + X X X X X X + + + X X X + @ $ @ @ @ @ @ @ @ @ @ @ @ @ @ @ @ @ @ @ @ @ @ + + + + X X X X .   @ < < < < 2 2 5 5 < < < < < 2 < : - - - - - - % % - 3 3 6 2 < - - - > < < < > > - > < < > : > > > < - - - - - - - - - - - - - - - - - - = = = = = = = = = $ $ = $ @ @ @ @ @ @ @ @ @ @ @ @ @ @ @ @ + + + + @ @ @ @ @ @ @ @ @ @ @ @ @ + + + @ - - - < < - - - - - - = - - = - - - - - - - - - - - - - - - < L h B T v B _ L _ v D -._ ~ -.V b | F q _ _ T W T ~ | | | | | | | | | | | | | | ~ ~ ~ ~ ~ ~ E T T T W W T ~ } %.W L F V N b v x v v v x v b B B F F F F D D A j # a D V B V b a e e e < < 6 e e e r r r 6 . 6 r r r r r y r r r < > r r y y y y y y p a p ; > e r r r r r r y y e e t w 8 < - $ @ @ + + o o @ @ @ @ @ @ @ @ $ - 6 6 6 e 6 6 6 6 6 6 6 6 6 6 + 6 6 e p - - < - @ - - 6 h h h h h v N V D L L L L F F F K F F F F F D D D D D F F L K K D L L L L K F D D v 6 6 v F F F F W v x P L F F h K L L D j L F B e D x 6 < < < < < < < < < < < < < < < < < < < < < < < < < < < < < < < < < < - @ # @ @ @ @ - - - - - - = - @ @ - - - , , : < < : $ @ @ @ @ @ @ @ @ @ @ @ - , - + + + + + + @ + - - - @ + + + X X X @ - - - @ + X + + + + @ = $ + + + + + + + + + @ @ @ + + + X + + + + + + + @ + + @ @ = $ @ @ @ @ $ @ @ @ @ @ @ @ @ + + + + + + + + + + + + + X X X X X X X X X X X X X ",
"+ + + + + + + + + + + + + X X X X X X + + + X X + @ @ $ @ @ @ @ @ @ @ @ @ @ @ @ @ @ @ @ @ @ @ @ @ + + + + + + X X . . @ < < < < < 2 5 5 < < 2 2 < 6 2 < > < < : - % % % 3 6 < - - - - - - : > < < > : - % < > % : : > > < - - - - - - - - - - - - - - - - - - - = = = = = = = = $ $ $ @ @ @ @ @ @ @ @ @ @ @ @ @ @ @ @ @ + + + + @ @ @ @ @ @ @ @ @ @ @ @ @ + + + @ - - - < < - = $ = = = = = = = = @ @ @ - - - - - - - - @ # - - K h B W a D _ D W v W } | -.| v T T ~ e F W _ | ~ W P L K K K K P T ~ ~ | | | | | | | | _ ~ ~ ~ W U W W P P P P P P U U T E ~ ~ T P D V b v v x v v v v v a u < @ a V N B N B v k 6 e e < < 6 e e e e r r 1 . 6 r r r r p y r r a ; @ y y y y y y y y p p d 1 % r r r r r r y e e e e t < - $ X o o @ + o o @ @ @ @ @ @ + - < 6 6 6 e e e 6 6 6 6 6 6 6 6 6 - - < @ - - @ - < < < g B D D K K D D D F K V D D D F F D D K K K K K K F F F F F F K F F D F F F F F F L L L a L r D D D D L V p L L L D j F P K D j L D B e V k 6 < < < < < < < < < < < < < < < < < < < < < < < < < < < < < < < < < < - @ @ @ @ @ @ - - - - - - = - @ @ - - - , , : , , : $ @ @ @ @ @ @ @ @ @ @ @ - : - + + + + + + + + - - # + + + X X X X + - - = @ + X + + + + @ $ $ + + + + + + + + + @ @ + + + + + + + + + + + + @ @ $ = $ @ $ $ $ = = $ @ @ @ @ @ @ @ @ + + + + + + + + + + X X + X X X X X X X X X X X X X ",
"+ + + + + + X X X X + + + + + X + + + + + + X X X @ @ $ @ @ @ @ @ @ @ @ @ @ @ @ @ @ @ @ @ @ @ @ @ + + + + X + + X X X @ < < < < < < 2 5 < < < < < 2 < < < < < - % % % % < : - - % % - - - - > 3 < < > - - - - - - - ; < < - - - - - - - - - - - - - - - - - = = - - = = $ = = = @ @ $ $ @ @ @ @ @ @ @ @ @ @ @ @ @ @ @ @ + + + + @ @ @ @ @ @ @ @ @ @ @ @ + + + + @ - - - , < @ @ @ @ $ $ $ $ $ $ # # - - - - - * * - - # # @ - - e j a E p B ~ P L g U W T T P k W L T D 6 L | W k a u p g a a a j j j g j j B B B D F L L U ~ | E E T T P L P P P P L L W P L K P P P P P W W P P P P P U L P j * u N N B B B B v g 6 6 e 6 $ > 9 e r e e q .   6 r r y r y r r e y 1 @ 1 r r e y y y y e y e < # < 9 y e e e e e e e 5 + + + @ + + + + * - - - - @ - < 3 6 6 6 9 e 9 9 9 6 6 3 6 6 6 6 6 6 - - < < < < 6 6 < < v D D B B D D N D D D D D D D D D D D D D F K K L L K K D D F F K K K K L K F D K B K L v v L v g D D D F V p F F F L v B F D D a D D b 6 L p 6 < < < < , < , , < < < < < < < < , , , , < < < < , , , , < < < < < < - @ @ @ @ @ @ $ = - - - - = @ @ @ - - - : , , , < , = @ @ @ @ @ @ @ @ @ @ @ - - - @ + + + + + + + - - # + . + + + + + + = - - @ + + + + + + + $ $ + + + + + @ @ @ @ @ @ + X X X X X + + X X + + @ @ - - = $ $ = $ @ @ $ $ $ @ @ @ @ @ + + + + @ + + X X + + + + + + X X X X X X X X X X X X ",
"+ + + + + + X X X X + + + + X X + X + + + + X X X @ @ $ @ @ @ @ @ @ @ @ @ @ @ @ @ @ @ @ @ @ @ @ @ + + + + X + + X X X @ < < < < < < < < < 1 1 1 < < < < < < : - % % % % @ - - + % % - - - % - > < > > - - - - - - - - < < ; - - - - - - - - - - - - - - - - = = - - = = $ = = = @ @ $ @ @ @ @ @ @ @ @ @ @ @ @ @ @ @ @ @ + + + + @ @ @ @ + + + + @ @ @ @ + + + + @ - - - < < @ @ @ @ @ @ @ @ $ @ @ @ @ @ @ @ - - @ @ @ @ @ # - - @ < 6 P a v W P L j P W T W L k | P W T k 3 j j v j p p u g x x v N D F D F F B b v x j v v v v N B V A L L W E P P P L L L L L L L L L K K K K K K K K L F K g * u N N B B B B N v k a < e 9 < - < 3 7 9 r 1 o . < r e e r r r e r e 1 o ; 9 e r y y y e e y e 6 # # ; 6 e p p e e e 5 + + + + + + + + - < e 6 6 6 6 e 6 6 6 6 6 9 9 9 h p e 6 6 6 6 6 6 6 - - < < < < - < 6 j D D D D D D D B D D F D D D D D V V D D v v k j j j g a a a a p j j j j v B D L F K L D k F V D g D D D D D a D D D K k v F D D a D D x q K e 1 - - - - - - , , < < < < < < < < , , , , < < < < , , , , < < < < < < - @ @ @ + + @ = = - - - - = @ @ @ - - - : : , , , , = @ @ @ @ @ @ @ @ @ @ @ - - - @ + + + + + + + @ - @ + . + + + + + + @ - $ @ + + + + + + + $ $ + + + + + @ @ + @ @ @ + X X X X X + + X X + + @ $ $ $ $ $ $ $ @ @ @ $ $ $ @ @ @ @ @ @ + @ + + + + @ @ @ @ @ @ + + X X X X X X X X X X X X ",
"X X + + + + X X X + + + X X X X X X X X + X X X X + @ $ @ @ @ @ @ @ @ @ @ @ @ @ @ @ @ @ @ @ @ @ @ + @ @ + + + + X X X $ < < < < < < < < < < < < < < : > < > - - % % % % $ < < $ $ % - > < - - - - - - - - - - - - - - < < - - - - - - - < < < - - - - - - - = = - - = = $ $ = = @ @ @ @ @ @ @ @ @ @ @ @ @ @ @ @ @ @ @ @ + + + + @ @ @ @ + + + + @ @ @ @ + + + + @ - - - < < @ @ @ @ @ @ $ $ $ @ @ @ @ @ @ @ - - @ @ @ @ @ @ - - @ @ @ e p r D L D j D W P L F g T W P | W N 1 # 6 < ; < . # # . O * - ; 6 e j D ~ T W W T L F D V b x j p a a a j k v N D F L L P P P P L L L L L L L P P L P j * u N N B B B B N B B N h d d y 6 < - > % o o . O O - 9 e e r r e e r e 7 o @ 3 9 r y y e e r y e 6 - @ - < 6 e e e e 6 + + + + + + + + < 6 6 6 e e e 6 6 6 6 6 9 9 9 9 h p e 6 6 6 6 6 6 6 - - < < < < 6 e v K B B D D D D D B B v j g p e q 6 e e p a e u p a j j j k j j a p 6 6 6 6 6 q u a D L D v B F K K g D D D D D g D D A F j x F D B p D D g e D 6 < - - - - - - , , < < < < < < < < < , , , < < < < < < , , < < < < < < - @ @ @ + + @ = = = - - - - = @ @ - - , , : , , , , = @ @ @ @ @ @ @ @ @ @ @ - - - @ + + + + + + @ @ - @ + + + + + + + + @ - $ @ + + + + + + + $ $ @ + + + + + + + @ @ @ + X X X X X + + + + + + @ @ @ @ @ @ @ @ @ @ @ @ $ $ @ @ @ @ @ @ @ @ @ @ @ @ @ @ @ @ @ @ @ + X X X X X X X X X X X X ",
"X X + + + + X X X X + + X X X X X X X X + + X X X + @ $ @ @ @ @ @ @ @ @ @ @ @ @ @ @ @ @ @ @ @ @ @ @ @ @ + X X + X X X $ , , < < , < < < < < < < < - - - : - - % $ $ $ @ % % % @ @ % % : > % % % % % - - - - - - - - - < < - - - - - - - - - - - - - - - - - = = = = = $ $ @ $ $ @ @ @ @ @ @ @ @ @ @ @ @ @ @ @ @ @ @ @ @ @ + + + @ @ @ @ + + + + @ @ @ @ + + + + + - - @ < - @ @ @ @ @ @ = - = $ @ @ @ @ @ @ - * @ @ @ @ @ @ - - - - + + < ; k P F v D T U P K j D T L W L F u - a p g v N B a < e 6 < - # ; @ # ; 1 e p N A L W ~ T U L F D B v x j g p p a j j a g g g g g h h j j j k x j k < * u N N B B B B N B S B N Z I B Z j 6 - O # < O ; 3   ; 6 9 e r e p y 6 r >   @ 1 9 r y e e e r e y e q ; - @ - 6 e e 6 + + + + + + + + - @ < e p a p e 6 6 6 6 9 9 9 9 9 6 6 3 6 6 6 6 6 6 - - - - - - 6 e p e p a h a a h h p e u a a h j x v b B D K K F F D D b j p e 6 < < ; - - ; ; ; - - e j x D F F V D g D D D D F j B V V D j j F D b p F D p e D 1 < - - - - - - - - ; , < < < < , , < , , , < < < < < , , , < < < < < < - @ @ @ + + @ = = = - - - - = @ @ - - ; , : : : : : = @ @ @ @ @ @ @ @ @ @ @ = - = @ + + + + + + @ @ @ @ + + + + + + + + @ - $ @ + + + + + + + = $ @ + + + + + + + + @ @ + X X X X X + + + + + + @ @ @ + @ @ @ @ @ @ @ @ $ $ $ $ $ @ $ @ @ @ + @ @ @ $ @ $ @ @ @ @ + X X X X X X X X X X X X ",
"X + + + + X X X X X X X X + + + + + X X X X X X X + @ @ @ @ @ @ @ @ @ @ @ @ @ @ @ @ @ @ @ @ @ @ + + + + + X X X X X X $ - : - - - - - - - - < < - - - @ @ - - * % @ @ + o + @ @ @ % % @ @ @ @ @ % - - - - - - - - - < < < , - , - - - - - - - - - - - - - - - = = = $ $ @ @ @ @ @ @ @ @ @ @ @ @ @ @ @ @ + + @ @ @ @ @ @ @ @ @ @ @ @ @ @ @ @ @ @ @ @ @ @ @ @ @ O @ * - @ < - @ @ @ @ @ @ - - # @ * # - - @ @ - - - @ @ @ @ @ * - - - # @ # ; < q F U v N J W J A u L D p r a < j ~ ~ ~ ~ ~ | j N T F V ; q 6 - 1 @ - O @ @ - 1 q e a v V K L P P U P L F D F D B b B b b v v v v v v v v j v N p - e b v v b B B N N B B B N L ! L e $ o   e X.v e p   6 3 - 6 r r r r r e 9 < o o % < q q e r r e r 6 e r ; . . + + @ - + + + + + . @   . < p E } W N p v j z z v v z z d a e 2 6 6 6 9 6 < - - - - 6 p h j j v v v v v N B B D V D D D F D V B V b v j p q 1 # # # O , - 6 u a q q B j a a q # < V D V V V V V j V D D D B r B D V D a j V V j u K B < j x , ; - - - - - - ; ; - , < < : : < < < < < < , , < < , , < < < < < < < < , # @ @ @ @ @ = = = - - - - = @ + = - - : : - - : - = @ @ @ @ @ @ @ @ @ @ @ = - = + + + + + + + + @ # # + + + + + + + X @ - - @ + + + + + + + $ = @ @ + + + + + + + @ @ + X X + + + + + + + + + @ @ @ + @ @ @ @ @ @ + @ @ $ - - = = $ $ = - - - - - - - - - $ @ @ + X X X X X X X X X X X X ",
"X X + + + + X X X X X X X + + + + + X X X X X X X + @ @ @ @ @ @ @ @ @ @ @ @ @ @ @ + + + @ @ @ @ + + + + + X X X X X X $ - - - - - - - - - - - - - - - @ # # # # % @ @ + @ % % % $ @ $ @ @ @ @ @ # - - - - - < < < < < < < , - , - ; - - - - - - - - - - - - = = $ $ $ @ @ @ @ @ @ @ @ @ @ @ @ @ @ @ @ @ + + @ @ @ @ @ @ @ @ @ @ @ @ @ @ @ @ @ @ @ @ @ @ @ @ @ @ @ - * @ < - + @ @ @ @ @ - - * @ * # - - # * - - - @ @ @ @ @ @ * - - # @ @ @ O O < x D j v P J Q N < 1 a F T p D T T T T | D p W L W F e E b 1 a 6 ; - < ; - - - - * # @ ; 1 e p j x v b D D K F F F F F K K K K K K K K W K B e - q v v v b B B N N B B C v N v e %   @ O @ F W L F e % r 6 1 - @ - < 3 < > #   < > % # < q r e 7 e 9 6 > @ . + + + + @ + + + + + @ + p W s.p.1.K v v v z h j z v v v v v v j a e 9 6 6 6 < - - < p v N B B B D D D D B B B N v v v j h a u q 1 ; - # - O O ; 6 # a V g e F F F g a D V F K D b 1 r V D D D B v v V V D D B r D D D D g x V B a k F j 1 V r @ * - - - - - - - - - - < < : : < < < < < < , , , , , , , < < < < < < < - # @ @ @ @ @ = = = - - - - = @ + = - - : : - - - - = @ @ @ @ @ @ @ @ @ @ @ $ - $ + + + + + + + + @ # # + + + + + + + X @ - - @ + + + + + + X @ = @ + + + + + X + + @ @ + X X + + + + + + + + + @ @ @ @ $ $ @ @ @ @ @ @ @ = - - - = $ - : : - - - - - - - - = @ + + X X X X X X X X X X X X ",
"+ + + + + + + + X + X X + + + + + + + + X X X X + @ @ @ @ @ @ @ @ @ @ @ @ @ @ + @ @ + + + + @ @ + + + + X X X X X X + - - - - - - - - - - - - ; - ; - @ # # # - % % @ @ @ % % % % @ @ @ @ @ @ @ @ - - - < - < < < < < < < < ; ; ; - - - - - - - - - - - - - # # $ $ $ @ @ @ @ @ @ @ @ @ @ @ @ @ @ @ @ @ + + @ @ @ @ @ @ @ @ @ @ @ @ @ @ @ @ @ @ @ @ @ @ @ @ @ @ - - - @ < - + @ @ @ @ @ - - - # - - - - - - - - - - - @ * * - - - - * @ * O + - - - 6 p 6 a B p e j e F | K 6 W W W W W W v k | P _ N e ~ D p ~ x 6 j - < < - - 1 < # O . . . .   + - ; 1 1 6 q 6 6 6 6 e e e e e e e e e 6 6 - # 6 v v v b N B B B B B N N m p o   . % O # 3 W P P ! m Z V z j d a a p e 3 > ; @ % ; 1 < - o @ < 1 # # @ O + @ @ @ + + + + + + @ . p 1.h.-.e j v B h a d d j z z l j j j v v j j p e 9 6 1 - - @ - - - < < < < < < < < < < - - - # @ . @ @ O + - @ - < @ a D e a V D 6 k D B K a g V V D D D D e h e g v V N j B V V B D v h D D V D a v V v e B B e e A ; @ - - - - - - - - - - - - - : : < < < < < , , , , , , : , , < < < < < < - - @ @ @ @ @ = = = = - - - = @ + = - - : : - - - - = @ @ @ @ @ @ @ @ @ @ @ $ - = @ + + + + + + + @ # # @ + + + + + + X @ - - @ + + + + + + X @ - @ + + + + + + + + @ @ + X X + + + + + + + @ @ @ @ @ @ = = $ $ @ @ @ @ - - = $ = = - - - - - = - - - - - - - @ + X X X X X X X X X X X X X ",
"+ + + + + + + + + + X X + + + + + + + + + + X X + @ @ @ @ @ @ @ @ @ @ @ @ @ @ + @ @ + + + + + + + + + + X X X X X X + - - - - - - - = = @ @ - - - ; - @ # # * - % % % @ @ @ @ @ @ @ @ @ @ @ @ @ @ - - - - - , < < < < < < < - ; ; - - - - - - - - - - - - - * # $ $ $ @ @ @ @ @ @ @ @ @ @ @ @ @ @ @ @ @ + + @ @ @ @ @ @ @ @ @ @ @ @ @ @ @ @ @ @ @ @ @ @ @ @ @ @ ; < - @ < - + @ @ @ @ @ - - - # - - - - - - - - - - - # # * - - - - * @ # @ ; q a - O ; ; - < < V L e V T N q L P P P P T a V ~ P W k j ~ A q K V 6 W e N j e 6 - * # # # @ O O + @ * - - + . @ O O O O @ @ @ @ + + + + .   @ + @ 6 x x v b N B N B B B N m d $   o @ o # O . j X.H P P a.2.P ! ! Q U L F v p y 3 ; # o < r e > 9 Z 3 o # # @ @ + + @ + + + + + - . h g.0.v e v N h e < 6 d z v z d y 9 6 y p p h h j p 6 1 - * < * @ # @ - - - - @ - @ @ - - - - - ; ; 1 < - # - e B 1 e D g 6 B B g e F D V D a v D V D V V V r F N e q v B k B B V v D p N B B b B u N V x 6 N v 6 j p - < < - - - - - - - - - - - - - : < < < < < < , , , , , , , , < < < < < < - - @ @ @ @ @ = = = = - - - = @ + - - - - : - - - - = @ @ @ @ @ @ @ @ @ @ @ $ - = @ + + + + + + + @ # # @ + + + + + + X @ - - @ + + + + + + X @ - @ + + + + + X X + @ @ + X X + + + + + + + + @ @ @ @ @ $ $ = $ @ @ $ $ - = = $ = - - = @ + @ @ $ = - - - - = @ + X X X X X X X X X X X X X ",
"+ X + + + + + + X X X X X + + X X X X X X X + + + + @ @ @ @ @ @ @ @ @ @ + @ @ @ + + + + + + + + + X + + + X X X   X + - - - - - - - = $ @ @ @ - - - - - % % % % - - % % @ @ @ % @ @ @ @ # # - - - - - - - - < < < < < < , - - - - - - - - - - - - - - - - - # # = = $ $ @ @ @ @ @ @ @ @ + + + @ @ @ @ @ @ @ @ @ @ @ @ @ @ @ @ @ @ @ @ @ @ @ @ @ @ @ @ @ @ @ @ @ < < - @ < - + @ @ @ @ @ - - - # = @ - - - - - - # # # - @ - - - - - * # @ O ; g F 6 b x ; B D a D L r B | k a ~ P P P P L p L U P T b g | F 6 V W 6 V B x K e V q e * - O @ - . . @ - ; < @ + @ @ @ @ @ @ - < - @ @ @ + + + @ @ & 5 j v v v N N N _ 0.L v b @   + + + + + + o o H ` L W U E } -.T W W W L K Z v d e e $ + - e B p v B   . O O @ O + @ # - # O . . + - v N e v v v p e a e j v k v 6 e v e < 6 p p 6 p g a e < @ < < < - - - < < < < < < < < < < < 1 1 1 < O @ # ; D a < D b 6 b N D 6 j K V F D e B V D D B V D p D V D u < p D B v N B g j b N b V g j N x q g V q e N - - - - - - - - - - , ; ; - - - , , , , < < < < , , , , : : , , < < < < < < - - @ @ @ @ @ $ = = - - - - - @ @ @ - ; - - - - - - = @ @ @ $ @ @ @ @ @ @ @ @ - - @ + + + + + + + @ # # @ + + + + + + + @ - - @ + + + + + + + @ $ @ + + + + X X X + @ @ + X + + + + + + @ + + + @ @ @ @ @ $ $ @ @ - = $ @ @ @ $ - - = $ @ @ @ @ $ = - - - - = @ + X . X X X X X X X X X X X ",
"X X X X + + + + X X X X + + + + X X X X X X + + + + @ @ @ @ @ @ @ @ @ @ + + + @ + + + + + + + + + X + + + X X X   X + - - - - - = $ = $ @ - - - - - - - - - - - - - - - - % % % % % % % - - - - - - - - - - < , < < < < , - - - - - - - - - - - - - - - - - # # = = $ $ @ @ @ @ @ @ @ @ + + + + @ @ @ @ @ @ @ @ @ @ @ @ @ @ @ @ @ @ @ @ @ @ @ @ @ $ @ @ @ @ @ @ ; < - - < - + @ @ @ @ @ - - - - @ @ - # - - - - # @ * * @ * - - - - * # # O - q F e k F e V L r b P p v ~ v a T P P P P L a L P P T b h E P e B T j j W u P g v p v u ; - O # . . @ - ; < @ + @ @ @ @ @ @ - < - @ @ @ + + + @ @ & 5 j v v v N N N w.N.0.v e   . + + + + + + o o e +.L I U W ! } W W W W W I I K G v B p - @ @ < h h v a @ . # O @ @ + . @ @ + . + . @ e h h j j v j p u e u e e h j < p j e < e a e < 6 a _ j @ - - - - - - < < < < < < < < < < < < 1 1 < . @ - u v < j V 6 j D D r 6 F V V F B p B D D D V V N p F b B p g ; e N B B p j v b b B u p b N p g B a 1 j 6 - - - ; - - - - - - , , - - , ; , , , , < < < < , , , , , : , , < < < < < < - - @ @ @ @ @ $ = = - - - - - # @ @ ; ; - - - - - - = @ @ @ $ @ @ @ @ @ @ @ @ - - @ + + + + + + + @ # # @ + + + + + + + @ - - @ + + + + + + + @ $ @ + + + + X X X + @ @ + X + + + + + + @ + + + @ @ @ @ @ @ @ + $ , = $ @ + @ $ - - $ @ @ @ @ $ = - - - : - = @ X X . X X X X X X X X X X X ",
"X X X X X X + + X X + + + + + + X X X X X X + + + + + @ @ @ @ @ + + + + + + + + + + + + + + + + + X X + X . . .   X @ - - - = = $ $ $ $ @ @ - - - - - - - - - - - - - - - - - - - - - - - - - - - - - - - - ; ; < < < < < - - - - - - - - - - - - - - - - - # @ = = $ $ $ @ @ @ @ @ @ @ + + + + @ @ @ @ @ @ @ @ @ @ @ @ @ @ $ $ @ $ $ $ @ @ @ @ $ $ = $ @ @ @ - - < - - < - + @ @ @ @ @ - - - - - - - # - - - - @ - - @ - - - - - - - # - # # - A j u L h j W p h W j k T v j W P P P P K g P L P T b h P P h k ~ N u P k j D u a p x q 6 O . O O @ - ; < @ + @ @ @ @ @ @ - < - @ @ @ + + + @ @ @ 4 j v v v N N v D W D v + +   + + + + + + o o   K ! L W T W W W W W W T W W I ! K W m e < - * * p v K p . O O O O . . O O + + + @ e v h e j j v v e e p e 6 6 6 h j < e j e < 6 a p e e K K < - - - - - - < < < < < < < < < < < < < < ; . # ; B q q D a e D B b < N V N D D p h D D D D D V x a F b j 6 B h ; < a j p v v v v e r v v e p N j 1 u < . ; - ; ; - - - - < < < < < < , < , , , , < < < , , : : : : : - - - - < < < < - - @ @ @ @ @ $ = = - - - - - - @ @ - ; - - - - - - = @ @ @ $ @ @ @ @ @ @ @ @ - - @ + + + + + + + @ # * @ + + + + + + + @ - = @ @ + + + + + + @ $ @ + + + + X X + + @ @ + + + + + + + + + + + + @ @ @ @ @ @ + + @ - $ $ @ + + @ $ = @ @ @ @ @ = - - : - - - = @ X . . X X X X X X X X X X X ",
"X X X X X X + + X X + + + + + + X X X X + X + + + + + @ @ @ @ @ + + + + + + + + + + + + + + + + + X X X X . . .   X + - $ $ $ $ @ @ $ $ @ @ @ @ # # - - % % - - % % - - - - - - - - - - - - - - - - ; - - - ; < < < < < < - - - - - - - - - - - - - - - - - # # = $ $ @ $ @ @ @ @ @ @ @ + + + + @ @ @ @ @ @ @ @ @ @ @ @ @ @ $ $ $ $ $ $ @ @ $ @ $ $ = $ @ @ @ - - - - - < - + @ @ @ @ # - - - - - - # @ - - - - @ - - @ - - - - - - - # - * @ O b B 3 A v e T j e ~ x g W v j P P P P P F j W K P T b j P L B p L L q V K 6 D q p 1 b < e O O # O @ - ; < @ + @ @ @ @ @ @ - < - @ @ @ + + + @ @ @ < j v v v N N N v N j e + . . + + + + + + o o   2 +.L T U U U W W W W T W W W ! U +.G v p 6 < -   6 D L < @ @ < < 1 6 6 ; # @ + @ a v v 6 6 a a e + < p p e 6 6 6 j h < e j e 6 6 B } p a h - - - - - - - < < < - - - - - < < ; < < < - . # < b 1 b v 6 v b V r a D B V K B < k F D D D D V j j V V u a N b j O * ; h v v x a u v v e u j u # - * * @ - ; ; < , - - - < < < < < < < < , , , , , , < , , : : : : : - - - - < < < < - - @ @ @ @ @ = = = - - - - - - @ @ - ; - - - - - - = @ @ @ $ @ @ @ @ @ @ @ @ - - @ + + + + + + + @ # * @ + + + + + + + @ - - @ @ + + + + + + @ $ @ @ + + + X X + + @ @ + + + + + + + + + + @ + @ @ @ @ @ @ @ + + @ @ @ @ + + + @ @ @ @ @ @ $ = - - - - : - = @ X . . X X X X X X X X X X X ",
"X X + + X X X X + + + + + + + + X X X X + X + + + + + + @ @ @ @ @ @ @ + + + + + + + + + X X X X X X X X X X X X . . + $ = @ @ @ @ @ @ @ @ @ @ @ @ @ @ @ % % % % % % % % - - - - - - : < < < < < < < < < < < < < < < < < < , , , < - - - - - - - - - - - - - - - $ $ @ @ $ $ $ $ @ @ @ @ @ @ @ @ @ @ @ @ @ @ @ @ @ @ @ @ @ @ = = = $ $ @ $ @ $ $ @ @ $ @ @ @ @ - - - - - < - @ # @ @ @ - - - - - - - @ @ * - - - - - - - - - - - - - - - - - # O p D 6 B B q K A e F B u T B a ~ K K K K D j P K L K D j L F K p F W p j L p j j 6 6 x 6 6 - O # O @ ; < < @ + - @ @ @ @ @ - , $ @ @ @ @ + + @ @ - < h j v v v N N v B v @ + @ @ .   + .       @ @   j ! K W _ T W W W W K { -.K E E -.L K N a e < - @ @ a | b e u a h g p e 6 1 ; # ; e a -   + +   . @ u h j a 6 < u v e 6 e N h h j -.L p u - - - - - - - < < - - - - - - - ; ; ; ; , - O * 6 a q D e e D D b 1 F D V D D x < V V V V D D D a v b b e v v b 1 p e ; ; 6 6 < e a p 6 1 6 ; . - ; < < ; - * - - - - - - - - - - < < < < , , < < , , , , , : : : : - : : - - , < < < - - @ @ @ @ @ $ = = - - - - - - - @ - ; - - - - - - - $ @ @ $ @ @ @ @ @ @ @ @ = - @ @ + + + + + O @ * * @ @ + + + X + + @ = - @ @ + + + + + + @ $ @ @ + + + + + + + + + + + + + + + + + + + @ @ @ @ @ @ @ @ @ + + + @ @ @ @ + + @ @ @ @ @ @ @ $ - - - - - - $ @ X X X X X X X X X X X X X X ",
"X X X + X X X X + + + + X X + + X X X X + + + + + + + + @ @ @ @ @ @ @ + + + + + + + + + X X X X X X X X X X X X . . X @ = @ @ @ $ @ @ @ @ @ @ @ @ @ @ @ # # % % % % @ @ % - - - - - > < < < < < < < < < < < < < < < < < < , , , < - - - - - - - - - - - - - - - = $ $ @ $ $ $ $ @ @ @ @ @ @ @ @ @ @ @ @ @ @ @ @ @ @ @ @ @ $ $ = = $ $ @ $ @ $ $ @ @ $ @ + @ @ - * - - - - * - @ @ @ @ - - - @ - - - @ @ * - - - - - - - - - - - - - - - - - * @ < K e p F 1 B F e D D e L V a P K K K K D h K K K F D j K K F p b W v e L v 1 V 6 q a p 6 ; O @ O @ ; < ; @ + - @ @ @ @ @ - - $ @ @ @ @ + + @ @ - < h j v v v v N v v a @ @ + + - e v W ~ N 6 . % $ @ G U H ` ' E W T E 1.-._ L E 1.E -.} L D j e 6 - @ . r L j j p e q < - - # @ . . - @ . . - . @ < 6 p h e h e < 6 p v e 6 D 0.B e v :.N u < - - - - - - , < - - - - - - - - ; ; ; ; - O # 1 6 g V 6 v N V p u D D V V F u e V V V V V V B g B B j e v b j 1 j v v @ - - # @ # O # # 6 < < e ; < < ; ; - - - - ; - - - - - - < < < < , , < < , , , , , : : : - - : : - - , < < < - - @ @ @ @ @ $ = - - - - - - - - @ - ; - - - - - - - $ @ @ $ @ @ @ @ @ @ @ @ = - @ @ + + + + + O @ * * @ @ + + + X X + + $ - $ @ + + + + + + + @ $ @ + + + + + + + + + + + + + + + + + + + @ @ @ @ @ @ @ @ @ @ + + @ @ @ @ @ @ @ @ @ @ @ @ @ @ $ = - - - - @ + X X X X X X X X X X X X X X ",
"X X + + + + X + + + X X X X + + X + + + X + + + + + + + @ @ @ @ @ @ + + + + + + + + + + X X X X X X X X X X X X . X + $ = $ @ @ $ $ @ @ @ @ @ @ @ @ @ @ @ @ @ @ @ @ @ @ % - - - - : < < < < < < < 5 < < < < < < < < < < < < , , < < , , - - - - - - - - - - - - - - - - = $ $ @ @ @ @ @ @ @ @ @ @ @ @ @ @ @ @ @ @ @ @ @ @ @ = - - = = $ @ @ $ $ @ @ $ @ + @ @ - - - - - - @ - @ @ @ - - - - $ - - - @ @ @ - - - - - - - - - - - - - - - - - - # @ v j 6 L 6 j P e b L u V D p D L L L L D p D K F F F x B K F v u W F 6 F D 6 B e e e v 6 < + @ + @ - < - @ @ - @ @ @ @ - - - $ @ @ @ @ @ @ @ @ - < h k v v v v v v v 6   @   6 0.b.b.j.N.N.s.j   $   - w.W U +.-._ E _ W W W _ } E E _ 1.B D L v a < - ;   < B v a e < O O . .   + . . - - - . @ < e e < e 6 p h 6 < e K K h v 0._ j a D ~ e # - - - - - - , < - - - - - - - - - - - - - O O < < b k q B B v 6 v V V V V B 6 v V V B B B B z d B B p h b B u q j v e < v j 6 < a h < e j e 6 q - < < < , ; ; - - ; < < , , < < < < < < , , , < < < , , , : : , : : : : , , , < < < - - @ @ @ @ @ $ = - - - - - - - - - - - - - - - - - - $ $ @ @ @ @ @ @ @ @ @ @ = - $ @ + + + + + + @ - - * @ + + + + + + + @ - = @ @ + + + + + + @ @ @ + + + + + + + @ + @ @ @ @ + + + @ @ @ @ @ @ @ @ @ @ @ @ @ + + @ @ @ @ @ @ @ @ @ @ @ @ @ @ $ $ = = - = @ + X X X X X X X X X X X X X X ",
"X X + + + + + + X X X X X X + + X + X X X + + + + + + + @ @ @ @ @ + + + + + + + + + + + + X + + X X X X X X X   X X @ $ = $ @ @ $ $ @ @ @ @ @ @ @ @ @ @ @ @ @ @ @ @ @ @ @ % - - - : < < < < < < < 6 < < < < < < < < < < < < , , < < , , - - - - - - - - - - - - - - - - = $ $ @ @ @ @ @ @ @ @ @ @ @ @ @ @ @ @ @ @ @ @ @ @ @ $ = = $ $ $ @ @ @ @ @ @ @ @ + @ @ - - - - - - * - @ @ @ - - - - $ - - - @ @ # - - - - - - - - - - - - - - - - - - *   e B , F g e U p h K g v F r V L L L L D u V K D F K v j D L D 6 K D e j W a v a p e B e < + - + @ - < - @ @ - @ @ @ @ = - - @ @ @ @ @ @ @ @ @ - < h k v v v N v v j < - + v h.b.1.D b K w.V.,.o     6 K -.L K -.-.} _ E _ -.} E K L E 1.N B N B v j e 6 < @ @ r q 6 ; O O O O . @ @ . < 6 6 @ < < 6 e . 6 p 6 j e e h 0.0.j p D g.D a p ~ D - - - - - - - - - - - - - - - - - - - - - - + . - q V r j B B a q D B B V D j 6 V B B B B B N d h v b e N v k e k v v 6 r v v < a v j e h a < < ; - < 1 < < < , ; , < < < < < < < < < < < , , , , < < , , , : : : : : : : , , , < < < - - @ @ @ @ @ $ = - - - - - - - - - - - - - - - - - - $ $ $ @ @ @ @ @ @ @ @ @ = - $ @ + + + + + + @ - - * @ + + + + + + + @ - = @ @ @ @ + + + + @ @ @ + + + + + + + @ @ @ @ + + @ + @ @ @ @ @ @ @ @ @ @ @ @ @ @ + + @ @ @ @ @ @ @ @ @ @ @ @ @ @ $ $ $ $ $ $ @ + X X X X X X X X X X X X X X ",
"+ + + + + + + + + + + + + + + + X X X X X X + + @ + @ @ + + + + + + + + + + + + + + + + + + + + + X X X X         X @ $ = $ @ @ $ $ @ @ @ @ @ @ @ @ @ @ @ @ @ @ @ @ @ @ = - - - : : < < < < < 2 5 5 6 5 5 2 2 < < < < < < < , , < < < : : : : - - - - - - - - - - - - - = = = $ @ @ @ @ @ @ @ @ @ @ @ @ @ @ @ @ @ @ @ @ @ @ $ $ @ $ $ @ @ @ @ @ @ @ @ @ @ @ # - - - - * - @ $ $ $ = - - - - = - - - @ @ @ - - - - - - - - - - - - - - - - - - - - . B e j V < F b e E v g L j j L D K K L p b F D D F V u D F L r v U p a L v a v e e v w < + + @ @ - < - @ + @ @ @ @ @ - - - @ + @ @ + + + @ @ - - h j v v v v v v j -   j b.b.E N K 1.E ~ s.v . + 3 v 6 j s.W B L E _ 0.-.W K E E E E t.K D G j z n v v e < @   - 3 < # - # . + + + @ @ @ - < 6 < e - + < h < -.K h p E u.D p N s.| u j N T < - - - - - - - - - - - - - - - - < , - - ; @ + + e N e j N F 6 g V B B V D e p D B B B B D j t m V j r b B g e v v h e h v p 6 h j a 6 v e 6 < - - - < < < < < < < < < < < < < < < < < < , , < < < < , , , : : : : : , , , , < < < < - - $ @ @ @ @ $ = - - - - - - - $ @ - - - - - - - - = @ @ @ @ @ @ @ @ @ @ @ @ = - $ @ + + + + + + @ @ - $ @ + + + + + + @ $ - = @ + + + @ @ @ + @ @ @ + + + + + + + + + @ @ + + + + + + @ @ @ + + + @ @ @ @ @ @ @ @ @ @ @ @ @ @ @ @ @ @ $ $ @ @ $ $ @ @ @ @ @ + X . X X X X X X X + X X X X ",
"+ + + + + + + + + + + + + + + + X X X X X X + + @ @ @ @ + + + + + + + + + + + + + + + + + + + + + X X X X .       X @ $ = $ @ @ $ $ @ @ @ @ @ @ @ @ @ @ @ @ @ @ @ @ @ $ $ - - - - : < < < < < < 2 5 6 5 5 5 5 2 2 2 < < < < < , < < < , , : : - - - - - - - - - - - - - = = = $ @ @ @ @ @ @ @ @ @ @ @ @ @ @ @ @ @ @ @ @ @ @ @ @ @ @ @ @ @ @ @ @ @ @ @ @ @ @ # - - - - * - - $ $ $ = - - - - = - - - @ @ @ - - - - - - - - - - - - - - - - - - - - + e j q K e b F q F D p K B a L F F D P p g L D D D D e B K F a x L j p K v a v e e v 6 - + + @ @ - < - @ + @ @ @ @ @ - - - @ + @ @ + + + @ @ - - h j j v v v v N a - D g.b.c.c.g.b.b.u.s.c.p.j   d p 9 z j N L W D L K K L L L L L L W L U E W H B v K v 3 - o     : r < * O + + + + + @ 6 < < < e - + - K 6 -.E h a L p.K p j -.0.b a a W 1 - - - - - - - - - - - - - - - - < , - - - @ + + p h e v v b 6 B V V V V B q v B B B B B C e d B b p j b B p h v N p a j j e a j j e p h 6 e , - - - , < < < < < , , < < < < < < < < < < , , < < < < , , , - : : : : , , , , < < < < - - = @ @ @ @ @ $ = - - - - - - $ @ - - - - - - - - = @ @ @ $ @ @ @ @ @ @ @ @ = - $ @ + + + + + + @ @ - $ @ + + + + + @ @ = - = @ + + + @ @ @ + @ @ @ + + + + + + + + + + + X X + + + + + + @ + @ + + + + + @ @ @ @ @ @ @ @ @ @ @ @ @ @ $ $ @ @ $ $ @ @ @ @ @ + X X X X X X X X X + X X X X ",
"+ + + + + + + + @ @ + + + + + + + + + + + + + + + + @ @ + + + + @ + + + + + + + + + + + + + X X + X X X X . .     + @ = - = @ @ @ $ @ @ @ @ @ @ @ @ @ @ @ @ @ @ $ $ $ = = - - : : , < < < < < < 2 5 6 6 5 5 5 5 5 2 2 2 < < < < , , , , , , : : : : - - - - - - - - - - - - - $ @ @ @ @ @ @ @ @ @ @ @ @ @ @ @ @ @ @ @ @ @ @ $ $ $ @ @ @ @ @ @ @ @ @ * @ @ @ # - - - - * - - $ $ $ = = - - - = - - $ @ @ * - - - - - - - - - - - - - - - - - - - - - + v e b j j F a v K a B K a D F D D L k q K D D D K e j K F v j F N p D B h N p e j 5 = + @ @ @ - < - @ + @ @ @ @ @ - - - @ + @ @ + + + @ - - - h v j v v v v N p K b.N.p.0.c.A.h.v N B E N.,.@ a e v 3 . . h W L D T W L L L L L L G W U I L W ` ' Z a y 8 3 %   . < < 6 e < - + + + - 6 < < < e +   6 } 6 -.} j a B s.W a p L a.P p e D 6 - - - - - - - - - - - - - - - - , : - - ; @ + + < e p j v a r D V V V V j r Z m B B B B j 9 v n h r b v j e v v v e j v p 8 c v s w j e e < + < - - , < < < < < , , - - < < < < < < < < , , < < < < , , , : : : , , , , < < < < < < : - $ @ @ @ @ @ $ = - - - - - - $ @ = - - - - - - - = @ @ @ $ @ @ @ @ @ @ @ @ = - $ @ + + + + + + @ $ - = @ + + + + + + @ = - = @ + + + @ @ @ @ @ @ @ + + + + + + + + + + + X X + + + + + + @ @ @ + + + + + @ @ @ @ @ @ @ @ $ $ = = $ @ $ @ @ @ $ $ @ @ @ @ @ + X X X X X X X X X X X X X X ",
"+ + + + + + + + + @ @ @ + + + + + + + + + + + + + + @ @ + + + + @ + + + + + + + + + + + + + X X + + + + X . .     + @ = - = @ @ @ $ @ @ @ @ @ @ @ @ @ @ @ @ @ @ $ $ $ - - - - - , < < < < < < < < 2 6 6 5 5 5 5 5 5 5 2 2 2 2 < < , , , , , , : : : : - - - - - - - - - - - - $ @ @ @ @ @ @ @ @ @ @ @ @ @ @ @ @ @ @ @ @ @ @ $ $ $ @ @ @ @ @ @ @ @ @ * @ @ @ # # @ # # @ # @ @ @ $ = = - - - = - = = @ @ * - - - - - - - - - - - - - - - - - - - - < . p j p A a K v u K j j L h v F D F D B 6 D D D D F p r D F B a D D e D B h B p e h < @ + @ @ @ - < - @ + @ @ @ @ @ - - - @ + @ @ + + + @ # - - h v j v v v v N -.N.g.h.D v s._ L D N -   u 6 - d j 6   o %   p } E W W W L L L L L H W K K D G H D s p p d 6 6 < %   @ < < 6 < < - . 6 < < < 6 p @ + p _ < } 1.j a k a.| a p D w.W g p g 1 - - - - - - - - - - - - - - - - < : - - ; @ + + + + e v B e v v V V V V r j Z v m B B B 9 p B v y d z m e a v v p p v v e s j l i w l w e - - - - - , < < < < < , ; - - < < < < < < < < , , < , < < , , , : : : , < , , < < < < < < : - $ @ @ @ @ @ @ = = - - - - - $ @ = - - - - - - - = @ @ @ @ @ @ @ @ @ @ @ @ $ - $ @ + + + + + + @ @ - = @ + + + + + + @ = = = @ + + + + + + + @ @ @ + X X + + + + + + + + X X + + + + + + + + + + + + + + @ @ @ @ @ $ $ = = = - - @ @ @ @ @ @ @ @ @ @ @ @ @ + X . X X X X X X X X X X X X ",
"+ @ + + + + + + + + + @ + + + + + + + + + + @ + @ @ @ @ @ @ @ @ @ @ + + + + + + + + + + + + X X + X X X X X X . . + = - - - = $ $ $ $ $ @ @ @ @ $ $ @ @ @ @ @ - = - : : : - - : < < , , < < < < < < 2 2 2 2 5 5 5 5 5 5 2 2 2 < < < < < , , , : : - - - - - - - - - = = = = = $ @ @ @ @ @ @ @ @ @ @ @ @ @ @ @ @ @ @ $ $ $ $ $ $ = = @ @ @ @ @ @ * * @ @ @ @ @ @ @ @ - * * @ @ @ $ = = - - - = = = $ $ $ - - - - - - - - - - - - - - - - - - - - - - - - v u V a v D p b V u F v e D D D V V ; b F D D D v 6 B B D u B B p v B h v e p e @ @ @ @ $ $ - < - @ @ + @ @ @ @ - - - @ + @ @ + O O @ # = - a c v v v v v } N.-.-.0.h -.W a N j     + +   - D e + + + +     e D | _ L -.D D D K K K L L G H U v e e e e e e e e 6 < - @ - - - < < 6 6 e B e v .   B D - -.w.a 6 b a.%.p h v w.1.a r p ; - - - - - - - - - - - - - - - - - - - - - - @ + * < - < p r b N v B B x e v B Z m n D j 6 m n j y v v j p v v v e v N h 8 l j a w v u 6 < < - - - - - - < < < < < < < < < < < < < < , , , < < , < < < , , : : : : : : , < < < < < < : - = @ @ @ @ @ @ $ - - - - - - @ @ = - - - - - - - - @ @ @ @ @ @ @ @ @ @ @ @ $ - = @ + + + + + + @ @ - = @ + + + + + + + @ $ $ + + + + @ + + + @ @ + + + X X X X X X X X X + + + + + + + + + + + + + + + + + + @ @ $ $ $ $ $ $ $ @ @ @ @ @ @ @ @ @ @ + + + + X . . X X X X X X X X X X X X ",
"@ @ + + + + @ @ + + + + + + + + @ @ + @ + + @ + @ @ @ @ @ @ @ @ @ @ + + + + + + + + + + + + X X + X X X X X X . X @ - - - - = = $ $ $ $ @ @ @ @ $ $ @ @ @ - - - : , < < , - - : , , - - - : : : , < < < < 2 5 5 5 5 5 5 2 2 2 2 < < < < , , , : : - - - - - - - - - = = = = = $ @ @ @ @ @ @ @ @ @ @ @ @ @ @ @ @ @ @ $ $ $ $ $ $ $ = @ @ @ @ @ @ * * # @ @ @ @ @ @ @ # @ @ @ @ @ $ = = = - = = $ $ $ $ $ - - - - - - - - - - - - - - - - - - - - - - - @ e p j v p D j h L a v F e v D B D D e a F D D V b 1 V N D p x V e j B h v e 6 - @ @ @ @ $ $ - < - @ @ @ @ @ @ @ - - - @ + @ @ + O O @ # = = a v v v v v D g.h.v -.W v 1.v B j + < - + .   < W @ + + + + - @ . < V W D _ K K L K D K L W L L L d e e e e e e e e e e 6 6 6 < < < - < < v B e N @   _ h < w.0.a 6 N p.} g a k 2.0.k r u < - - - - - - - - - - - - - - - - - - - - - - @ + @ < , < - # h v b v B p a v B B m C n 9 j j m t j v m a j j v a a j v e p c j w p j w 6 < < - - - - - - < < < < < < < < < < < < < < , , , , < < < < < , , : : : , , , , < < < < < < : - = $ @ @ @ @ @ @ - - - - - - @ @ $ - - - - - - - - @ + + @ @ @ @ @ @ @ @ @ @ = = @ + + + + + @ @ @ = $ @ + + + + + + + @ @ @ @ + + + + X X X + @ + + X X X X X X X X + + + + + + + + + + X X X X + + + + X + @ @ @ @ $ @ @ @ @ @ @ + + + + + @ + + + + + + X . . X X X X X X X X X X X X ",
"@ @ @ @ @ @ @ @ @ @ @ @ @ @ @ @ @ @ @ @ + + @ @ @ @ @ @ @ @ @ @ @ + + + + + + + + + + + + X X X + + + X X X X X + $ - - - - - = = - - - = = = = = $ $ @ - - - , , < < < , : : : : - - - - - - - : , , < < < < 2 2 2 2 2 < < < < < , < , - - - : - - - - - - - - - - = = - = $ @ @ @ @ @ @ @ @ @ @ @ @ @ @ @ @ @ @ @ @ $ $ $ $ $ = = = @ @ @ * - * # - @ @ @ @ @ @ @ @ @ - @ @ @ $ = = = = = = = @ @ $ = - - - - - - - - - - ; ; - - - - - - - - - - - - - p e B e v V r F v u F j r V B D D j 6 D B V B V 6 v B V p p D e p N e h < - . @ @ @ @ @ = - < - @ @ @ @ @ @ @ - - - @ + @ @ + O O @ # = & a c v v v v W N._ e w.v B -.j v e _ s.s.E e < - 6   + + + + . @ + . O # - j K L W D D K K L L L L d e e e e e e e e e e e e e 6 6 e e N D D g p B 6 e -.< e p._ p e D p.~ p u a %.w.N u r < - - - - - - - - - - - - - - - - - - - - - - @ + + < < 1 6 < - 6 a v B - v N n B m B y t v m e p v v j p x k h e j v h w j l p e j p 5 < < < ; - - - - - < < < < < < < < , , < < , , , , , , < < , , , , : : : : - - , , < < < < , , , - $ @ @ @ @ @ @ @ @ & = = = = @ @ $ - - - - - - - - @ + + @ @ @ @ @ @ @ @ @ @ - - @ + + + @ @ @ @ @ $ - @ + + X X + + + @ @ @ + + + + + X + X + + + + X X X X X X + + + + + + + X X X + + + X X X X + X X X + @ @ @ @ @ @ + + + + @ @ + + + + @ @ + + + + + X X X X X X X + + + X X X X X ",
"@ @ @ @ @ @ @ @ @ @ @ @ @ @ @ @ @ @ @ @ + + @ @ @ @ @ @ @ @ @ @ @ + + + + + + + + + + + + + X X + + X X X X X X + - - : - - - - = - - - = = = = = $ $ $ - - - - : < < < < , , , - - - = - - - - - - , , , , < < 2 2 < 2 < , , , , , : : - - - - - - - - - - - - - - = = - = $ @ $ @ @ @ @ @ @ @ @ @ @ @ @ @ @ @ @ @ $ $ $ $ $ $ = = @ @ @ @ - - # # - @ @ @ @ @ @ @ @ @ - @ @ @ $ = = = = $ = = @ @ $ = - - - - - - - - - - ; ; - - - - - - - - - - - @ @ 6 6 x k e V a v D q v A 1 v B B A v 6 D B B N V e h V B a e D p p v < 6 @ @ + @ @ @ @ @ = - < - @ @ @ @ @ @ @ - - - @ + @ @ + O O @ # - = a k c j v v 1.c.j j h.p D E p h _ s.K _ b.1.1.L @ O + + + + @ . . @     .   @ e v D L K G C G H U v e e e e e e e 9 e 6 6 e e e p h L K D 6 e 6 h N -.v   N s.N 6 e ~ a.P q u u X.e.D u e < - - - - - - - - - - - - - - - - - - - - - - @ + . < < 6 q 6 6 < < 6 6 6 N b n n v d 3 m v v 6 j v j 6 a v v e p c j w i j l 5 s v 6 < , < < ; - - - - - < < < < < < < < ; ; < , , , , , , , , < , , , , : : : : - - , , < < < < , , , - $ @ @ @ @ @ @ @ # & & & = = @ @ @ - - = - - - - - @ @ + @ @ @ @ @ @ @ @ @ $ - - @ @ + + + @ @ @ @ @ $ @ + + X X + + + + @ @ + X X + + + + X + + + + X X X X X X + + + + + + + X X X + + + X X X X X X X X + @ + @ + + + + + + + @ @ + + + + @ @ + X + + + X X X X X X X + + + X + + X X ",
"@ @ @ @ @ @ @ @ @ @ @ @ @ @ @ @ @ @ @ @ @ @ @ @ @ @ @ @ @ @ @ @ + + @ @ + + + + + + + + + + + @ + + + + + + X X + - , - - - - - - - = = - - - - @ @ @ - # - - - - - , < < < < < - - - - - - - - - - : - : - , < < < < < < , : - : : : - - - - - - - - - - - - - - - - - - = $ @ @ @ @ @ @ @ @ @ @ @ @ @ @ @ @ @ @ @ @ @ @ $ $ $ $ $ @ @ @ @ = = = = = $ @ @ @ $ $ $ = $ $ @ @ @ $ $ - - - $ @ @ @ @ @ @ - - - - - - - - - - , < - - - - - - - - - - - @ - - < e D 6 v j e F r e K 6 u A B v v 6 g B N N D a h B B a < x ; - < < 6 < @ . @ @ @ @ @ - - < - @ @ @ @ @ @ @ - - - @ + + + + + @ @ * < - p v j j v v w.w.e v s.6 D K e v -.v p N 1.a < s.D . O O + + O O # < L N r < #   . - p B W W W D D L p 6 e e e 6 e 1 p p e e q a B B j e e j e r p g E q @ | w.p 1 e 2.e.B e r e -.w.D e e < - - - - - - - - - - - - - - - - - - - - - - @ + . - < 6 < 6 6 6 3 < < > 3 e v B Z 6 p z B e p v n 9 3 v z t 9 j z y 6 h v e 6 h 6 < < < < < - - - - - - < < < < , , , , , , , , , , , , , , , , , , , : - - - - - - - - < < , < , , : - = @ @ @ @ @ @ @ $ $ = = = = $ @ @ - - - - - - - - @ + + @ @ @ @ @ @ @ @ @ @ $ $ @ + + @ + + @ @ @ @ @ + X X + + + X + + @ @ + X X X X + + + + + + X X X X X X X X X X X X X X X X X X X X X X X X X X X X + + + + + + + @ @ + @ @ @ @ + + + + + + + + + + X X X + + + + + + + + X X X X ",
"@ @ @ @ @ @ @ @ @ @ @ @ @ @ @ @ @ @ @ @ @ @ @ @ @ @ @ @ @ @ @ @ + + @ @ + + + + + + + + + + + @ + + + + + + + X X - , - - - - - - - = = * - - - @ @ @ - # @ # * - - - : , , : - - - - - - - - - - - : - - - , < < < < < , : : - - - - - - - - - - - - - - - - - - - - - - = $ @ @ @ @ @ @ @ @ @ @ @ @ @ @ @ @ @ @ @ @ @ @ $ $ $ $ $ $ @ @ @ = = = = = $ @ @ @ $ $ $ = $ $ @ @ @ $ = - = - @ @ @ @ @ @ @ - - - - - - - - - - , < - - - - - - - - - - - @ - - - < e - u a < B p < V j q b v v N p p v N v v e 6 a 6 < . - ; - < 6 < - @ + + @ @ @ @ - ; < * @ @ @ @ @ @ @ - - - @ + + + + + @ @ - - + e j j j j v w.w.6 a s.6 N K 6 v L k p N N   < s.L . O O O O . + ; X.c.h.f.p.B O + +   + < a E -.9.} j e p e p p p N } N a < ; V q @ 1 - - 1 a k u a v W N s.D 1 1 B a.w.j e e a 1.0.B 6 6 < - - - - - - - - - - - - - - - - - - - - - - - @ @ # < < < < < 6 6 3 < < < < 3 e e 9 z z v 3 j m 9 > j z j > j j a < d j a 6 a 6 - - < < < < - - - - < < < < < < , < , , , , , , , , , , , , , , , , , : - - - - - ; - - < < < < , , : - = @ @ @ @ @ @ @ $ $ = = = = $ @ @ - - = - - - - - @ + + @ @ @ @ @ @ @ @ @ @ $ $ @ + + + + + @ @ @ @ @ + X X + + + + + + + + + X X X X X + + + + + X X X X X X X X X X X X X X X + X X X X X X X X X X X X + + + + + + + + + @ @ @ @ @ + + + + + + + + + X X X X + + + + + + + + X X X X ",
"@ @ @ @ @ @ @ @ @ @ @ @ @ @ @ @ @ @ @ @ @ @ @ @ @ @ @ @ @ @ @ @ + + @ @ + + + + + + + + + + + @ @ @ @ @ @ + + + + - < : - - - - - - - - - - - - - - - - * - # * $ = - - - - - - - - - - - - - - - - - - - - , < , , , , , : : - - - - - - - - - - - - - - - - - - - - - - = @ @ @ @ @ @ @ @ @ @ @ @ @ @ $ $ @ $ @ @ @ @ @ @ $ $ $ $ @ @ @ @ = = = $ = $ @ @ @ $ $ = - - - = = = - - - = - = @ @ @ @ @ - - - - - - - - - - - < < - - < < ; ; - - - - - * - - @ - < - - ; - 1 ; - 1 < * - - < < < < 6 e 6 < - - - - < < < 6 1 < 1 - @ @ @ @ @ @ @ # - < < - # @ @ @ @ @ @ - - - @ + @ @ @ + @ @ - @ . r v k j j v w.w.< 6 p.e e K 6 h B p e j v . - p e @ O O O O . . L a.s.f.j.c.c.a   + + @     . e D K p < < < + - 6 N - < < @ @ 1 - . O . . O . q P D B v K %.r @ - ~ a.W q e 6 v w.2.v 6 6 < - - - - - - - - - - - - - - - - - - - - - - - @ . < r < < < < < 6 6 < < < < < < - > t j 6 p v j - 9 l j < w j j < y j y < a e @ - - - ; < < , - - - - , < < < < < < , , , , , - : : : : , , , , , , : : - - - - - - < < < , < < , , , - $ @ + + @ @ @ @ @ @ $ $ $ $ $ $ @ - - = = = - - - @ + + @ + + @ @ @ @ @ @ @ $ $ @ + + + + + @ @ @ @ @ + X X X X X X X + @ @ + X X X X X + + + + X X X X X X . . X X X X X X X X X . . . X X X X X X X X X X + + + + + + + + + + @ @ @ + + + + + + + X X X X X X X X + X + + + + + X X X ",
"@ @ @ @ @ @ @ @ @ @ @ @ @ @ @ @ @ @ @ @ @ @ @ @ @ @ @ @ @ @ @ @ + + @ @ @ + + + + + + + + + + + @ @ @ @ + + + + + - < : - - - - - - - - - - - - - - - - - - # @ $ $ - - - = - = = = - - - - - - - - - - - - , , : - : : , : - - - - - - - - - - - - - - - - - - - - - - - = @ @ @ @ @ @ @ @ @ @ @ @ @ @ $ $ @ @ @ @ @ @ @ @ $ $ $ $ @ @ @ @ = = = $ = $ @ @ @ $ $ = - - - = = = = - - = - = @ @ # @ @ - - - - - - - - - - - < < - ; < < - - - - - - - - - - @ @ < 3 6 1 1 < 6 1 1 6 6 6 < < < < 6 < 6 < < 6 6 6 < 6 6 6 1 6 - # + @ @ @ @ @ @ @ # - < < - @ @ @ @ @ @ @ - - - @ + @ @ @ + @ @ - # @ a N c j j v w.w.< - 0.j - L 6 e N 6 e 6 v @       @ O O O O @ K j.p.c.c.j.j.h.a.e   @ + + @   + - a p < - @     - -   .   + @ @ O - @ @ @ @ + k K 6 x P P D L D B w.2.b - e 6 D p.2.v 6 e 6 - - - - - - - - - - - - - - - - - - - - - - - - + < j p 6 < < < 6 6 3 < < < < < 6 6 - - o 2 p < < n v 6 < j j 3 < d p 3 e p @ @ - - - - < < , ; , , < < < < < < , , , , ; ; , - : : : : , , , , , , : : - - - - - - < < < < < < , , < , $ @ + + @ @ @ @ @ @ $ $ $ $ $ $ @ - - = $ = = = = @ + + @ + + + @ @ @ @ @ @ $ $ @ + + + X X + + + + @ + X X X X X X + + @ @ + X X X X X + + + + X X X X X X . . X X X X X X X X X . . . X X X X X X X X X X X X + + + + + + + + + + + + @ + + + + + + X X X X X X X X X X + + + + X X . ",
"@ @ @ @ @ @ @ @ @ @ @ @ @ @ @ @ @ @ @ @ @ @ @ @ $ $ $ $ @ @ @ @ @ @ @ @ @ @ @ @ + + @ @ + + + @ @ @ @ @ + + + + + : < , - : : : - - - - - - - - - - - - - - - - @ - - - $ $ $ $ = = = = - - - - - - - - - - : : : - - - : - - - - - - - - - - - - - - - - - - - - - - - - - $ @ @ $ $ $ @ @ @ @ @ @ @ @ @ @ @ @ @ @ @ @ @ @ @ @ @ @ @ @ @ @ - - $ @ @ @ @ @ $ = = - - - = = = = - - - = & & & @ - - - - - - - - - - - - - - , , - , < < - - - - - - - # - - - * < < 1 6 6 1 1 1 1 1 1 1 3 6 6 6 6 6 6 6 6 6 < < < 6 < < - ; 1 e - @ @ @ @ @ @ @ - - < - - - - - # @ @ - - - - @ @ @ @ @ @ @ # - - @ e N D D v h E g.6 @ K K   D a   h v - < 6 a - < < @ . O O < | f.p.} h.~ s.c.a.j.g.p . @ + . . . + < e 6 < < < + . @ O O O @ @ . O #   - O   g B -   6 w.L 1 q N 0.w.~ 1 q e e 1.0.~ 6 6 6 e - - - - - - - - - - - - - - - - - - - - < < - - + - p a j p 6 - - < 6 6 < < < < < 2 6 3 < - $ o - e e - a v e - d a 9 6 p , @ - - - - , < < < , , ; - - < < < < , , , , , < , , , : , , < < , , < < , , - - - - - - < < - - < < < < < < $ @ + + @ @ @ @ @ @ @ @ $ $ $ $ @ - - = $ $ = = = @ @ @ @ + + + @ @ @ @ @ @ $ = @ @ + X X X + + + X + + X X X X X + + + + + X X X X X X X X X X X X . . . X     . . . . X X X X X X X X . .     X X X X + + + X + + + + + + + + + + + + + + + + + + X X X X X X X X X X X X + + X X .   ",
"@ @ @ @ @ @ @ @ @ @ @ @ @ @ @ @ @ @ @ @ @ @ @ @ $ $ $ $ @ @ @ @ @ @ @ @ @ @ @ @ + + @ @ + + + @ @ @ @ @ + + + + + - < , - : : : : : - - - - - - - - - - - - - - - - - - $ $ $ $ = = - = - - - - - - - - : : : : : - - - : - - - - - - - - - - - - - - - - - - - - - - - - - $ @ @ @ $ $ @ @ @ @ @ @ @ @ @ @ @ @ @ @ @ @ @ @ @ @ @ @ @ @ @ $ - - $ @ @ @ @ @ $ = = - - - = = = = = - - - & & @ @ - - - - - - - - - - - - - - , , - ; < < - - - - - - - # @ @ - * - ; < < 1 3 6 1 1 1 1 1 < 3 6 6 6 6 6 6 6 6 < < < < - < q e p p - - @ @ @ @ @ @ - - < - - - - - # @ @ - - - - @ @ @ @ @ @ @ # - < @ - 6 e h B D B h.v . p } @ 6 D @ - K 6 @ v K v B B B a * e K D b T b B p P W w.~ W h.v     + . . . + - 6 e e e - . . @ @ . .   @ . @ #     v v O   e 2.K < * # V 1.u.j < 6 < B 0.w.v < < e a - - - - - - - - - - - - - - - - - - - - < < ; - @ - p h h h h g 6 : % < < < < < < < < 2 2 < > - : - - : > 6 < 2 d 6 6 e - @ - < - - , < < < , , , - - - < < < < , - , , , < , , , : , , < < , , , < , , - - - - - - < < - - < < < < < < $ @ + + @ @ @ @ @ @ @ @ $ $ $ $ @ = - - $ $ $ $ $ @ @ @ @ + + + @ @ @ @ @ @ $ = @ @ + X X X X + X X + + X X X X + + + + + + X X X X X   . . . . X X     .       . . . . X X X X X X X X . .     X X X X + + + X + + + + + + X X + + + + + + + + + + X X X X X X X X + X X + + + X X .   ",
"@ @ @ @ @ @ @ @ @ @ @ @ @ @ @ @ @ @ @ @ @ @ @ @ @ @ @ @ @ @ @ @ @ @ @ @ @ @ @ @ @ + + + + + + @ @ @ @ @ @ + + + @ , < < : , : : : : - - - - - - - - - - - - - - - - - - = = - - - - - - - - - - - - - - : : , , , : - - : - - - - - - - - - - - - - - - - - - - - - - - - - $ @ @ @ $ $ @ @ @ @ @ @ @ @ @ @ @ @ @ @ @ @ @ @ @ @ @ @ @ @ @ $ - - $ @ @ @ @ $ $ = - - - - - - - - - - - - - - - - - - - - - - - - - - - - - - < < - , < < - - - - - - - * @ @ @ @   - , ; < < 1 1 1 < < < < < 3 3 < < 6 6 < < < < < 6 e p h j h e - - - @ @ # # @ - < < - - @ - - * @ @ - - - - @ @ @ @ @ @ @ # - - - 6 e 6 < < e D p._ . @ T j   v p   p L p E B . . + @ h L r 1 q a j 6 e e e q h ~ v B 1.D -     . . . . . - < 6 p e - # . . . # . < b j b D e     e %.1.1 O - j w.2.U < ; < r -.2.W q 6 < h h - - - - - - - - - - - - - - : : < < - - < < < - # @ e j h j z z h p 6 % - > < < < < < < < 2 < < < < < > - - $ - - % - - @ - - - - , < < < - - ; , , < < < < < < < < < < < < < < , : , , < < < < , , , , ; ; - - - - - - - - < < < < < < = @ + + @ @ @ @ @ @ @ $ $ $ $ $ @ = - - = $ $ $ $ @ @ @ @ + + + @ @ @ @ @ @ $ = @ @ + X X X X + X + + + + X X X + + + + + + X X X X     . . . . X X                 .   X X X X X X X X X X X X X X X X + + X X X X + X + + + + + + + + + + + + + X X X X X + X + + + X X X + @ + X .   ",
"@ @ @ @ @ @ @ @ @ @ @ @ @ @ @ @ @ @ @ @ @ @ @ @ @ @ @ @ @ @ @ @ @ @ @ @ @ @ @ @ + + + + + + + @ @ @ @ @ @ + + + @ , < , : , : : : : - - - - - - - - - - - - - - - - - - = = - - - - - - - - - - - - - - : : , , , - - - : - - - - - - - - - - - - - - - - - - - - - - - - - $ @ @ $ @ @ @ @ @ @ @ @ @ @ @ @ @ @ @ @ @ @ @ @ @ @ @ @ @ @ @ @ = = $ @ @ @ @ $ $ = = - - - - - - - - - - - - - - - - - - - - - - - - - - - - - - - - , - - - - - - - - - * @ @ @ @ # 6 e q 1 < < < < < < < < < 3 3 < < 6 6 e p p a j v v h j v p < - - - @ @ # # * - < < - @ @ @ - * @ @ - - - - @ @ @ @ @ @ @ # - - @ < < p e , . . v p.e + e W < 6 v 6 e v v h W < - @ - . U j p j g j g g a g 6 e e v e < B v - .   . . . + .   + < 6 e <     @ -   p v @ 6 N D v v 1.T # # * p 3.0.w.r < < 1 D 2.:.B < e 6 v a - - - - - - - - - - - - - - : : < < - - < < < - - @ e j j h h h h d j d 6 < - > < < < < < < < < < < < < % < > < > < - - - < - - - - < < < , - ; < < < < < < < < < < < < < < < < , : , , , , , , , , , < ; - - - - - - - - - < < < < < < = @ + + @ @ @ @ @ @ $ $ $ $ $ @ @ $ - - = $ $ $ $ @ @ @ @ + + + + + + + @ @ $ = @ @ + X X X X + + + + + + X X X X + + + + + X X X X     . . . . X X                     X X X X X X X X X X X X X X X X + + X X X X X X + + + + + + + + + + + + + X X X X X + + + + + X X X + + X X .   ",
"@ @ @ @ @ @ @ @ @ @ @ @ @ @ @ @ @ @ $ $ $ @ @ @ $ $ $ $ @ @ @ @ @ @ @ @ @ @ @ @ + + + + + @ + @ @ @ @ @ @ @ @ @ @ , < , : : : : : : : - : - - - - - - - - - - - - - - - = = = = - - - - - - - - - - - : : - : : : - - : : - - - - - - - - - - - - - - - - - - - - - - - - - - - @ @ $ $ @ @ @ @ @ @ @ @ @ @ @ @ @ @ @ @ @ @ @ @ @ @ @ @ @ @ $ = $ $ $ $ $ = = - = - - - - - - - - - - - - - - - - - - - - - - - - - - - - - - - - - - - - - - - - - - - - - @ @ # ; a p g j j j j j j j h h h h h h j j j j j h h h h h j j e - - - # @ @ - - - - < < - @ # # # - @ @ * - - @ @ @ @ @ @ @ @ # - - @ < < - < 6 < O   D E - - N j e e h j a p h _ e + - @ - } j j v j k v N v v j h p e 6 < + - p e @   @ O O + . O   v F x D u     # v ~ -   + q 6 < j K e   p 0.w.1.j - 1 - g | w.W q 3 6 p L 6 - - - @ $ - - - - - - - , , , , - - < < < < < > @ o 2 j h h j j j j j j j h e 6 : - $ $ , < < , < < < < < , ; ; 1 - - - - - ; < , , ; - - - < < < < < < < < < < < < < < < < < < < < , , < , : : : : - - - - - - - - : : - - < < < < < , - @ + + @ @ @ @ @ @ @ @ @ @ $ $ $ = - - = = = = = $ @ @ @ @ @ + @ @ + + + @ @ $ = @ @ + X X + X X @ @ @ + X X . X X X X + + + X . .     . . . . X X X X         X X X X X X X X X X X X X X X X + + + + + + X X X + + + + + + + + + + + + + + + X + X X X X X X X X X X X X + + X X     ",
"@ @ @ @ @ @ @ @ @ @ @ @ @ @ @ @ @ @ $ $ $ $ @ @ $ $ $ $ @ @ @ @ @ @ @ @ @ @ @ @ + + + + @ @ + @ @ @ @ @ @ @ @ @ @ , < : : : : : : : : - : : : - : - - - - - - - - - - - = = = = - - - - - - - - - - - : - - : : : - : : : - - - - - - - - - - - - - - - - - - - - - - - - - - - @ @ $ $ @ @ @ @ @ @ @ @ @ @ @ @ @ @ @ @ @ @ @ @ @ @ @ @ @ @ @ $ $ $ $ $ $ = = - = - - - - - - - - - - - - - - - - - - - - - - - - - - - - - - - - - - - - - - - - - - * - - @ # # - q a j j h h j j j h h h h h h h j j j j j h h h h h h h e - - - # @ - - - - - - < - @ @ # # # # @ - - - @ @ @ @ @ @ @ @ # - - @ < < < - @ - < - e E p 6 p p h D N v B B D } 3 + - @ @ N x V L K K B B k j j a a a a p 6 - + 6 e < .   . O + . e _ @ * 7 T a x k T v O   ; * . @ @ ; W b ~ 0.3.j - < - q ~ 2.%.u < 6 < B D - * - - @ $ - - - - - - - , , , , - - < < < < < > @ o 3 j h h j j j j j j h h h p h e 6 < = - - < < < < < < < - - < - - - - - , < ; < , - - - < < < < < < < < < < < < < < < < < < < < , , , : , : - - - - - - - - - - - - - - < < < < < : - @ + + @ @ @ @ @ @ @ @ @ @ @ @ @ $ - - = = = = = $ @ @ @ @ + + + + + + + @ @ $ = @ @ + X X + X X @ @ @ + X X . . X X X + + + X . .     . . . . X X X X         X X X X X X X X X X X X X X X X X + X + + + X X + + + + + + + + + + + + + + + + + + + X X X X X X + X X X X + + X X     ",
"@ @ @ @ @ @ @ @ $ $ @ $ @ $ $ $ @ $ $ = $ $ $ @ $ $ = = @ @ @ @ @ @ @ @ @ @ @ @ + + @ + @ @ @ @ @ @ @ @ @ @ @ @ $ < < : : : : : : , , : , , , : , : : - - - - - - - - - - - - - - - - - - - - - - - - - - - , : : - - - : - - - - - - - - - - - - - - - - - - - - - - - - - - * # @ = = @ $ @ @ @ @ @ @ @ @ @ @ @ @ @ @ @ @ @ @ @ @ @ @ @ @ @ $ $ $ $ $ = = - - - - - - - - - - - - - - - - - - - - - - - - - - - - - - - - - - - - - - - - - - - - - - - - - # - # < g j j h h h h j h h h h h h h h j j j j h h h h h a h 6 @ - - - @ - - - # @ - - - * @ # @ # # - - - - @ @ @ @ @ @ @ @ @ - - @ < < - < < - - e e e e p h e E W a D B v v p - @ @ @ + + . . @ 6 N L B j p a v j a p 6 6 e e 6 < i e 3 O   O   6 W # @ O 1 2.v p D @ . x | p @ @ O 1 ~ 8.w.:.j @ - @ < F 1.2.v 1 ; ; p } e @ # # * @ $ - - - - - - - , , , , < < < < < < < > @ o 2 j d d d d j j j j h h h a h h j h i 8 - - - - : : ; < - - - < < < - - - - < , < < - , < < < < < < < < < < < < < < < < < < < < , , , , : : - - - - - - - - - - - - - - , < < < < , - @ + + @ @ @ @ @ @ @ @ @ @ @ @ @ $ - - = - - - - = @ @ @ + + + + + + + @ @ @ $ = @ + X X + + X X @ @ @ @ + X X X X + + + @ + X . . . . . . X X X X X X X X X X X X X + X X X X X X X X + + X X X X + + X X X X + + + + X X X X + + + + + + + + + + X X X X X X + + + + + + + + X X     ",
"@ @ @ @ @ @ @ @ $ $ $ $ @ @ $ $ @ $ $ = $ $ $ @ $ $ $ = @ @ @ @ @ @ @ @ @ @ @ @ + + + @ @ @ @ @ @ + + + @ + + + = < < : : : : : : : : : , , , : , : : - - - - - - - - - - - - - - - - - - - - - - - - - - - , : : - - - - - - - - - - - - - - - - - - - - - - - - - - - - - - # * * = = $ $ @ @ @ @ @ @ @ @ @ @ @ @ @ @ @ @ @ @ @ @ @ @ @ @ @ $ $ $ $ $ = = - - - - - - - - - - - - - - - - - - - - - - - - - - - - - - - - - - - - - - - - - - - - - - - - - - - # * p j h h h h h j h h h h h h h h h j j h h h h h h a a 6 @ - - @ * - - - @ @ - - - - @ @ @ # # # - - - @ @ @ @ @ @ @ @ @ - - @ < < - < 6 e e 3 p p j a 6 e j E < . @ . +   O - @ @ # + @ + @ . . - K j u e p a a h h 6 < 6 6 6 6 w x b x p j j _ D   O O j W B j b W X.B # # O p F :.0.W g O # # @ B :.2.v < < * < W B - . * * * @ $ - - - - - - - , , , , < < < < < < < > @ o 3 j d d j j h h j j v j h s h h j h c h p e 2 < , < , ; - , @ < < < - - - - , , , , , , < < < < < < < < < < < < < < < < < < < < , , : : : , : - - - - - - - - - - - - - : , < < < , - @ + + @ @ @ @ @ @ @ @ $ $ @ @ @ $ - - = = - - - = @ @ @ + + + + + + + @ @ @ $ = @ + X X + + X X + @ @ @ + X X X X + + + @ + X . . . . . . X X X X X X X X X X X X X + X X X X X X X X + + X X X X + X X X X X X + + + X X X X + + + + + + + + + + X X X X X X + + + X + + + X X       ",
"$ $ @ @ $ $ $ $ @ @ @ @ @ @ @ @ $ $ $ $ $ = = $ = $ $ $ @ @ @ @ @ @ + + + + + + + + + + + + + + + @ + @ @ + + + - : , - - - : - - - - : : , , - : - - - - - - - - - - - - - - - - - - - - - - - - - - - - - : , : : : : , : - - - - - - - - - - - - : - - - - - - - - - - - - # = = = @ @ @ @ @ @ @ + + @ @ @ @ + + + @ @ @ @ @ @ @ @ @ @ @ @ @ @ @ $ $ @ @ = = - - - - - - - - - - - - - - - - = = - - - - - - - - - - - - , < - - - - - - - - - - - - @ @ @ @ * @ # e j j h h h h h h h h h h h h h h h h h h h h h h s p : < - - # - - * # @ @ - - - @ @ @ @ @ @ @ - - - @ @ + @ @ @ @ @ @ - < # @ # 6 6 6 6 e e e e e e e e e v W 6 + - @ @ @ . @ + @ @ , - 6 a a 6 B L e j p i e e 9 9 9 9 6 6 6 6 g F K a q - D v a u * . L -.| L v e . @ # # - . 6 W v   @ . # v %.3.V ; - - - V } < @ < @ - - - - - - - - - - - : , , < < < < < 1 < < > @ o < d d d d d h h d d h h h h h h h h h g p i i i i i e e 6 - - - < < < < < < , < < < < < < < < < < < < < < < < < < < < < < < < < < , < - - - - - - - - - - - - - - - - - - : , , , - - @ @ + @ @ @ @ @ @ @ @ $ $ @ @ @ @ = - - - - - - - @ @ @ + + + + + + + + @ @ $ = @ + X X + + X X + @ @ @ + + X X + + + + + + + X X X X X X X X + + X X X X X X X X + + + + + + + + + + + + + + X X + + + + + + X X X X + + + + + @ @ + + + + + X X X X . . . . X X X X X X X X X .     ",
"$ $ @ @ $ $ $ $ @ @ @ @ @ @ @ @ $ $ $ $ $ $ $ $ = $ $ $ @ @ @ @ @ @ + + + + + + + + + + + + + + + + + + + + + + - - - - - - - - - - - - - : - - - - - - - - - - - - - - - - - - - - - - - - - - - - - - - - : , : : : : , : - - - - - - - - - - - - : - - - - - - - - < - - - * = = $ @ @ @ @ @ @ @ + + @ @ @ @ + + + + @ @ @ @ @ @ @ @ @ @ @ @ @ @ $ $ $ @ = = - - - - - - - - - - - - - - - - = - - - - - - - - - - - - - < < - - - - - - - - - - - - @ @ @ @ # # * 1 j j h h h h h h h h h h h h h h h h h h h h h h a i - < ; - @ - * @ @ @ @ - - - @ @ @ @ @ @ @ * - - @ + + @ @ @ @ @ # - @ @ - < 6 6 6 6 6 6 6 6 6 6 6 6 a < e L p - @ + - @ - p v L B h B D B v v e e e e e 9 6 2 2 3 3 6 6 6 6 < - - ; ; . ~ ~ W b b k %.g - O   . + @ O * . # O - F a   - D _ 1.b * - ; # v ~ e - - - - - - - - - - - - - - - : , , < < < < < < < < > @ o < d d d d d d d d d h h h h h h h h h f p i i i i i e 6 < - - ; < < < < < < , < , , < < < < < < < < < < < < < < < < < < < < < < < - < - - - - - - - - - - - - - - - - - - : : : - - - @ @ + @ @ @ @ @ @ @ @ $ @ @ + + @ = = - - - - - - @ @ @ + + + + + + + + @ @ $ = @ + X X + + + X + @ @ @ + + X X + + + + + @ + X X X X X X X X + + X X X X X X X X + + + + + + + + + + + + + + + + + + @ @ @ @ + + + + + + + + @ @ @ + + + + + X X X X X X X X X X X X X X X X X . . . ",
"$ $ @ @ @ @ $ $ @ @ $ @ @ @ $ $ $ $ $ $ $ $ $ $ @ @ @ @ @ @ @ @ @ @ @ + + + + + + + + + + + + + + X + + + + + + $ - - - - - - - - - - - - - - - - - - - - - - - - - - - - - - - - - - - - - - - - - - - - - : , : , , , , : : : - - - - - - - - : : : : - - < < < < < < ; - - - @ @ $ @ @ @ @ @ @ @ + + @ @ @ @ + + + + @ @ @ @ @ @ @ @ @ @ @ @ $ $ $ $ $ $ = = - - - - - - - - - - - - - - - - = - = = - - - - - - - - - - < < < < ; - - - - - ; - - - - - # # * - - @ u j h h h h h h h h h h h h h h h h h h h h h h p e - , - - @ - * @ @ @ @ - - - @ @ @ @ @ @ @ - - - @ + + @ @ @ @ @ # - + + - < < < < < < < < < 6 6 6 6 e e < e v L p + @ . h 0.D N B h 6 6 6 e u a p 6 e 6 6 < < < < > < < < < 6 6 < - ; u ~ a x A B W ~   ; e u v @ O B P D * O @ e P < P 2.| j O - < # u -.j < < - - - - - - : : : : , , , : < < < < < < < < < < < : @ o < d d d d d d d d d h h h h h s s s h p p i i i i i e - - - - - < < < < < < < < < < < < < < < < < < < < < < < < < < < < < < < < < < < - - - - - - - - - - - - - - - - - : : - - - - = @ @ + @ @ @ @ @ @ @ @ @ @ + X X + @ = - - - - - - $ @ @ @ @ + + + + + + @ @ $ = @ + X + + + + X + @ @ @ + + + X + + + + @ @ + X X X X X X X + @ @ + X X X X X + + @ @ @ @ @ @ @ @ @ @ @ @ @ + + + + + @ + @ @ + + + + @ @ @ @ @ @ @ + + + + + + + + + X X X X X X X X X X X X X . . . ",
"$ $ @ @ @ @ @ @ @ @ $ @ @ @ $ $ $ $ $ $ $ $ $ $ @ @ @ @ @ @ @ @ @ @ @ @ + + + + + + + + + + + + + X + X + + + + @ = = $ = = = = = = = = - - - - - - - - - - - - - - - : - - - - - - - - - - - - - - - - - - : , : , , , : - : : - - - - - - - - : : , : - - , , < < < < < - - - @ @ @ @ @ @ @ @ @ + + + + + + + + + + + @ @ @ @ @ @ @ @ @ @ @ @ $ $ $ $ $ $ = = - - - - - - - - - - - - - - - - - - = = - - - - - - - - - - < < , < ; ; ; - - - , - - - - - @ @ * ; - O 6 a h h h h h h h h h h h h h h g h h h h h h h p e - : - - @ - # @ @ @ @ - - - @ @ @ @ @ @ @ - - - @ + + @ @ @ @ @ # - @ + - < < < < < 6 6 6 6 6 6 6 6 6 K h   - K - -   e K < D < @ v D a e p u 6 p e e 6 6 2 < < < > - - - < 1 , < 6 - 1 P #   # ~ g W - 1 W K D - @ ; 1 ; # @ @ r K L 2.T u   # # @ 6 | a ; - @ - v - < < < , , , , , , , , < < < < < < < < < < < : @ o < h d d d d d d d d h h h h h s s s h p p i i i i i 6 - @ - - - < < < < < < < < < < < < < < < < < < < < < < < < < < < < < < < < < < < , - - - - - - - - - - - - - - - - : : - - - - $ @ @ + @ @ @ @ @ @ @ @ @ + + X X + @ @ - - - - - - $ @ @ @ + + + + + + + @ @ $ $ @ + X + + + + X + @ @ @ + X X X + + + + @ @ + X X X X X X X + @ @ + X X X X X + + @ @ @ @ @ @ @ @ @ @ @ @ @ + + + + + + + + + + + + + @ @ @ @ @ @ @ + + + + + + + + + X X X X X X X X X X X X X . . . ",
"$ $ @ @ @ @ @ @ @ @ $ $ @ @ $ $ @ @ $ $ $ $ $ @ @ @ @ @ @ @ + + + @ + + + + + + + + + + X + + + X X X X + X + + + @ @ @ $ $ $ $ @ @ $ $ $ $ = = - - - - - - - - - - : - - - : : - - - - - - - - - - - - - - : : , , , , , : - - - - - - - - : : - - , , , , , , < < < < < - - - $ @ @ @ @ @ + + + + + + + + + @ @ @ @ @ @ @ @ @ @ @ @ @ @ @ $ $ $ $ = = $ $ - - - - - - - - - - - - - - - - - - - - - - - - - - - - - - < < , , < < - - - - - < < - - - - - * # - - - - < a a h h h h h h h h h h h h h h a s s s s s s a 6 - , - - # # @ @ @ @ @ - - - @ @ @ @ @ @ @ - - - @ + @ @ @ @ + @ @ - @ + @ < < < < 6 < - < e e < < @ - < N a B g @ + - K a + + L <   p N e - - 6 e 9 6 3 < : < < < > # - ; ; O @ @ # ;   k L . e T . B B . < # < ;   ; q < O #   N 0.:.K e @ @ O . 6 L j . - - . v a - - - - : : < < < < < < 6 5 5 2 2 < < < < < , - @ X 2 j s s s s h h h h h h h h h s s a a p p i p e a e - , , < - < < < < < < < < < < < < < < < < < < < < < < < < < < < < < < < < < < < < < - - : : - - - - - - - - - - - - - : , : - - = @ @ @ + + + @ @ @ @ @ + + + + + + + + - - - - - - = @ @ @ @ @ + + + + @ @ $ = = @ @ + + + + + + + @ @ @ + X X X X + + + @ $ @ + X X X + + + + @ @ @ X X X X + @ @ @ @ @ @ @ @ @ @ @ @ @ @ @ @ + + + + + + @ @ + + @ @ @ @ @ @ @ @ @ @ + + + + + + + + + + X X X + + + X X X X X . . . ",
"$ $ @ @ @ @ @ @ @ @ $ $ @ @ $ $ @ @ $ $ $ $ $ @ @ @ @ @ @ @ + + + + + + + + + + + + + + X X + + X X X X + X + + + @ @ @ $ $ $ $ @ @ $ $ $ $ = = = = - - - - - - - - - : : - : : - - - - - - - - - - - - - - , , < , < , , : - - - - - - - - : : - - , , , , , , < < < < , - - - = = = $ $ @ @ @ @ @ @ @ @ @ @ @ @ @ @ @ @ @ @ @ @ @ @ @ @ @ $ $ $ $ = = $ $ - - - - - - - - - - - - - - - - - - - - - - - - - - - - - - < < , , < < - - - - - < < - - - - - * * - - - - - e p a h h h h h h h h h h h h h a s s s s s s a 5 - , - - @ @ @ @ @ @ @ - - - @ @ @ @ @ @ @ - - # @ + @ @ @ @ + @ @ - @ + @ < < < < < < < < @ < - @ - - e e _ v + + @ W p O 6 < e D +   < v p p j z C m j y 6 2 < < > < - # - - # O O @ @ b v q L < v v L - # D W u   q D j O @ # ~ X.v #   * @   e | j . * @   h v @ - - - - - - : : : : , , < < < < < < < < < < , - @ X 2 j s s s s h h h h h h h h h s s a p p p i e p a < < < < < < < < < < < < < < < < < < < < < < < < < < < < < < < < < < < < < < < < < < < < - : : : - - - - - - - - - - - - : < : - - $ @ @ @ + + + + @ @ @ @ @ @ + + + + @ @ - - - - - - = @ @ @ @ @ + + + + @ @ $ = = @ @ + + + + + + + @ @ @ @ X X X X + + + @ = @ + X X X + + + + @ @ @ X X + + + @ @ @ @ @ @ @ @ @ @ @ @ @ @ @ @ + + + + + + @ @ + + @ @ @ @ @ @ @ @ @ @ + + + + + + + + + + + X X + + + X X X X X . X . ",
"$ $ $ $ $ $ $ $ $ = = = $ $ $ $ $ $ $ $ @ $ $ @ @ @ @ @ @ @ @ @ + + + + + + + + + + + + + + + + X X X X X X + + @ @ @ @ @ @ @ @ @ @ $ $ $ $ = = = = - - - - - - - - : : : , : , : - - - - - - - : : , , , , < < < < < < , , : : : : : : : , , , , , < < , , < < < < < < , , - - - - - - - = $ $ $ $ @ @ $ $ $ @ @ @ @ @ @ @ $ @ $ $ = = $ $ $ $ = = = = $ = = - - - - - - - - - - - - - - - - - - - - - - - - - - - - - , < , , ; < - - - - - , < ; - - - - - - - - - - @ 6 p p h h h h h h h h h h h h h a s s a a a p p < - - - - @ @ @ @ @ @ @ - - - @ @ @ @ @ @ @ - - # @ @ @ @ @ @ + @ @ - @ + @ < @ - 6 e e < @ . + < < + 6 D e h - + - L p < 6 < p h K a + @ - D B e a p p e e e e 6 < - * ; ; # . O # - O - L u D u V a r ~ 6   1 - O .       -   v P q     @   - v L e . O . . v B - e - - - - - - - - - - : : : : , , , , , < < < : - @ X 2 j s s s s h h h h h h h s s a a p p p p p e a e - < < < < < < < < < < < < < < < < < < < < < < < < 2 2 < < < < < < < < < < < < < < < < < < , : - - - - - - - - - - - - : , < : - = @ @ @ @ + + + + @ @ @ @ @ @ @ @ + + + @ - - - - - - = @ @ @ @ @ + + + + @ @ $ = = @ @ + + + + + @ @ @ $ @ @ + + + + + + + @ $ @ + + + + + + @ @ $ @ @ + @ @ @ @ $ $ @ @ @ @ @ @ @ @ @ @ @ @ @ @ @ @ @ @ @ @ @ @ @ @ @ @ @ @ @ @ @ @ @ @ + + + + + + + + + + X X X X + + X X X X X   . . ",
"$ $ $ $ $ $ $ $ $ = = = $ $ $ $ $ $ $ $ @ @ $ @ @ @ @ @ @ @ @ @ + + + + + + + + + + + + + + + + X X     X X + + @ @ @ @ @ @ @ @ @ @ @ @ $ $ = = = = - - - - - - - - - , : : : : : - - - - - : : , , , , < < < < < < < < , , : : : : : : : : , , , , < < , , < < < < < < , , - - - - - - - - = = = = $ $ = = = @ @ @ @ @ @ $ $ $ = = = = = $ $ $ = = = = $ = = - - - - - - - - - - - - - - - - - - - - - - - - - - - - - ; ; ; , - - - - - - - ; - - - - - - - - - - - - + < p p s s h s h h h h h h h h a a a a p p p p p < - - - - @ @ @ @ @ @ @ - - - @ @ @ @ @ @ @ # @ @ @ @ @ @ @ @ + @ # - @ @ @ < - e 6 @ + @ - - . . < < - B +   O 6 L L a a v e h B v B + - + - B v e e 6 6 6 6 2 3 6 6 1 ; # O # @ @ O   g h v K D q 6 B v | 1 @ 6 6 a j v e * p W -   * - < g P V 3 O @ @ 1 N N @ e p - - - - - - - - - - - - - - - - - - - - < < : - @ X 2 j s s s s h h h h h s s s s a a p p p p p a e < < < < < < < < < < < < < < < < < < < < 2 < < < 2 2 2 2 < < < < < < < < < < < < < < < < < < < < , : : : : : : - : : : : , < < , - $ @ @ @ @ + + + + @ @ @ @ @ @ @ @ + + + @ - - - - - - = @ @ @ @ @ @ + + + @ @ @ $ $ @ @ + + + + + @ @ @ @ @ + + + + + + + + @ $ @ + X + + + + @ @ $ @ @ @ @ @ @ @ $ $ @ @ @ @ @ @ @ @ @ @ @ @ @ @ @ @ @ @ @ @ @ @ @ @ @ @ @ @ @ @ @ @ @ @ + + + + + + + + + + X X X X + X X X X X X X X . ",
"$ $ $ $ $ $ $ $ $ $ = = $ @ @ @ $ $ @ @ @ @ @ @ @ @ @ @ + + + @ + + + + + + + + + + + + X X X X         X X X X + @ @ @ @ @ @ @ $ @ $ $ $ $ - - = = - - - - - - - - - : , : : - : : : : : : < < < < < < < < < < < , < < < , , , : : : : - - , , < < < < < < < < < < < < , , : , : : : - - - - - = = $ $ = = = = $ $ $ $ = = = = = = - = - - - - - - - - - = - - - - - - - - - - - - - - - - - - - - - - - - - - - - - - ; ; ; ; - - - - : , : - - - - - - - - - - - - - @ - i p p p s s h h s s s h h h a a a a p p p p i - - - - * @ @ @ @ @ @ @ - - - # @ @ @ @ @ @ @ @ @ @ @ @ @ @ @ @ @ - - @ @ - 6 e < - - + . + - - . . < < 6 N j v B v 6 < < < , a K e + . @ @ + - D p < 3 6 6 6 6 6 6 6 6 q 1 # O O + O O b e j K 6   K F v j _ e D W r k e p p 6 j B v j j j D v j p a u g v B e j j e - - - - = = - - - - - - - - - - - - - - < < < - + @ 6 h h h h h h h h h h h s p a p a a p p i i e < - < < < < < < < < < < < 6 6 < < 6 6 6 6 5 5 2 < 2 2 2 2 < < < < < < < < < < < < < < 6 6 < < < < < < , , , , , , , , : , < < < : - @ @ + + @ + + @ @ + + + + + + + + + @ + @ = - - - - - - $ @ @ @ @ @ @ @ @ @ @ @ @ @ @ + + + + + + @ @ @ @ @ + + + + + + + @ @ @ @ + + + + @ @ @ @ @ @ @ @ @ @ @ @ @ @ @ @ @ @ @ @ @ @ @ @ @ @ $ @ @ @ @ @ @ @ @ @ @ + @ @ @ @ @ @ @ @ @ @ @ @ + + + + + + + + X X X X X X X X + + + + + . ",
"$ $ $ $ $ $ $ $ $ = = = $ @ @ @ @ @ @ @ @ @ @ @ @ @ @ @ + + + + + + + + + + + + + + + + X X X X         . . X X + + @ @ @ @ @ @ @ @ = = $ $ - - - = - - - - - - - - - - : : : - : : : : : , < < < < < < < < < < < < < < < , , , : , : : : - , , < < < < < < < < < < < < , , , , , , , : - - - - - - - - - - - - - - - - - - - - - - - - - - - - - - - - - - - - - - - - - - - - - - - - - - - - - - - - - - - - - - - - ; ; ; ; - - - - : , , - - - - - - - - - - - - - - * w s p i p p s s s s p p p p p p p p p p p p e - - - - @ @ @ @ @ @ @ @ - - - - - @ @ @ @ @ @ @ # @ @ @ @ @ @ @ * - - - @ @ - @ - < ; - @ @ @ - -     e p v v 6 < - < 6 3 6 < < < j j < + . + . v m 9 6 6 9 e e 9 9 9 6 e e e 6 < * O   B 6 - #   a L v # < | e . D 1   . b F <   < v B e e e e e u r e e u u a h h a - - - - $ $ = = = = - = = $ = = = = - - - < : $   : i j s s s s h h h s h a a p p p p p p p i e 6 < < 6 < < < < 6 6 6 6 < 5 6 6 < < 6 6 6 6 5 5 5 2 2 2 2 2 2 2 6 6 6 6 3 3 < < < < < < 6 6 < < < < < < , , , , , , : : < < < 2 < - = @ + + + + + + @ @ + + + + + + + + + @ + @ $ - - - - - = @ @ @ @ @ @ @ @ @ @ @ @ @ @ @ + + + + + + @ @ @ @ + + + + + + + + @ @ @ @ + + + + @ @ @ @ @ @ @ @ @ @ @ @ @ @ @ @ @ @ @ $ $ $ @ @ @ @ $ @ @ @ @ @ @ @ @ @ @ + + + @ @ @ @ @ @ @ @ @ @ + + + + + + + + X X X X X X . X + @ @ = $ X ",
"= = = = = = = = = = = = $ @ @ @ @ @ @ @ @ @ @ @ @ @ @ @ + + + + + + + + + + + + + + + + X X X X .       . . X X + + @ @ @ @ @ @ @ @ $ = $ $ - - - - - - - - - - - - - - : : - - : : , : , < < < < < < < < < < < < , < < < < , , , , , , , , < , < < < < < < < < < < < < < < < < < < < < : : - - - - - - - - - - - - - - - - - - - - - - - - - - : : : : - - : : , , , , , , , , , , , , : - - - - - - - - - - - - - - - - - ; ; < < < < : : , : - - - - - - - - - - - - - @ 5 a p p i p p p p p p p p p p p p p p p p p e = - = - = $ @ - - - # @ - - - - - @ @ - - - - - # # # @ @ @ @ - - - - - @ @ - . @ - - - - @ . . - 6 p j h 6 - < 6 6 3 < - + + - . @ < v j p e j N 9 6 9 e e e e e e e 9 e r e p u q 6 ; b e   . q W a     g D v   q U - < V V j   O . D x p a a a p a a p e e e e e e - - = $ @ @ @ @ @ @ $ @ @ @ @ @ @ @ $ $ = - - + . w j h s s s s h h h h h a p p p p p p p i e e < - < < < < < < < < < < < < < < < < < < < < < < < < < < < < < < < < < < < < < < < < , < < < , : : - - - - - - - - - - - - - , < , - @ @ + + + + + + @ @ + + + + + + + + @ @ + + @ $ - - - - @ @ @ @ @ @ @ @ @ @ @ @ @ @ @ @ + + + + + + @ @ @ @ + + + + @ @ @ @ @ @ @ @ @ @ @ @ @ @ @ @ @ @ @ @ $ $ @ @ $ $ = = = = $ $ = = = = $ $ @ @ @ @ @ @ @ @ @ @ @ + + + @ @ @ @ @ @ @ @ @ @ @ @ @ + + + + X X X X X X X . X + @ - - - + ",
"= = = = = $ $ $ $ $ = = = @ @ @ @ @ @ @ @ @ @ @ @ @ @ @ + + + + + + + + + + + + + + + + X X X X . .     . . X X + + @ @ @ @ @ @ @ @ = = $ $ = = = = = = = = - - - - - - - - - - : : , , , , < < < < < < < < < , , , < < , , , , , , , , , , < < < , < < < < < < < < < < < < < < , < < < , , : : : : - - : : : : : : : : , , : : , , : : : : : : , , , , : : , , , , < < < < < < , , , , < , , , - - : - - - - - - - - - - - - ; < < < - : - : : - - - - - - - - - - - - - * 5 i p p i i p p p p p p p p p p p p i i i i w $ - $ - = $ $ - - - - @ - - - - # - @ @ - - - - # # # @ @ @ @ * - @ - - - - < - @ @ - - - - + @ p h p 6 - - 6 < - @   . + @ - < < 6 6 6 6 e p e 6 6 y e e e e e e e e e e e 2 * - < 3 6 p B p j b a v e p V < j v x B F D D j ; # # - B v r a e e e e e e u e e p p e = = = $ + + @ @ @ @ @ @ @ + @ @ @ @ @ @ @ $ @ . , p h i s s s s h h h a h p p p p p p p i e e w @ @ - - - - - - - - - - - - - - - - - - - - - - - - - - - - - - - - - - - - - - - - - - - - - - - - = $ $ $ $ $ = = = $ @ @ = - - = @ @ + + + + + + @ @ @ + + + + + + @ @ + + + @ @ $ = = $ @ @ @ @ @ @ @ @ @ @ @ @ @ @ @ @ + + + + + + @ @ @ @ + @ + + @ @ @ @ @ @ @ @ @ @ @ @ @ @ @ @ @ @ @ @ $ $ @ @ $ $ $ = = = = = = = = = $ $ @ @ @ @ @ @ @ @ @ @ @ + + + + + @ @ @ @ @ @ @ @ @ @ @ + + + + X X X X X X X . X + @ : , - + ",
"= = = $ $ $ $ $ $ $ $ @ @ $ $ $ @ @ @ @ @ @ @ @ @ @ @ @ + + + + + + + + X + + + + X + + + X X X X X X X X X X X + @ @ @ @ @ @ @ @ @ $ @ @ @ = = = = = = = = - - - - - - - - - - - - : : , , < < < < < < < < < < , , , , , , , , , , , , , , < < , , , , < < < < < < < < < < < < , , , < < < < < , , , , < < , , < < < < < < < < < < < , < < < < < < < < , < < < < < < < < < < < < < < < < < < < ; ; , < < , ; - - - - - : : : : , , , , : : - - - - - - - - - - - - - - - @ 6 e i p i i i i i i p p p p p p p i i i i i w @ - = - - $ - = - - = = = - = $ @ @ @ $ $ - - $ $ = $ $ @ @ @ @ @ @ @ @ @ - < < < < < < < < < < < < < - < < - + + + +   @ < 6 < < < - < 6 e e 6 6 6 6 6 e e e y y 9 2 - - < < 3 3 6 6 9 6 3 6 e ; @ - h a e 6 6 6 6 6 p v v h j v v v h e e e e e e e w e w 6 6 6 2 < $ X @ @ + + + + + + @ @ @ + + + + + + + $ @ . + e p i p p p p p p p p a p p p i p i i i e p 8 + - - - - - - - = - - = = - - - - - - - - - - - = = = = = = = = = * - - - - - - = = = = = - - = = = = = @ @ @ $ $ @ @ = $ @ @ @ @ @ @ @ @ + @ @ @ @ @ @ @ @ @ @ @ @ @ @ + + + @ + @ @ @ @ @ @ @ @ @ @ @ @ @ @ @ @ @ @ @ @ @ @ + + @ @ + + + + + + @ @ @ @ @ @ @ @ @ @ @ @ @ @ @ @ $ @ $ @ @ @ @ @ $ $ @ @ @ @ @ @ $ $ $ $ $ $ @ @ $ $ @ @ @ @ @ @ @ @ @ @ @ + + + + + @ @ @ @ @ @ @ @ @ @ @ + + + + X + X + X X X X X + = , , - X ",
"= = = $ $ @ @ @ @ @ @ @ $ $ @ @ @ @ @ @ @ @ @ @ @ @ @ @ + + + + + + + + X + + + X X + + + + X X X X X X X X X X + @ @ @ @ @ @ @ @ @ $ @ @ @ $ $ $ $ $ $ $ $ = = = = - - - - - - - - : : , , < < < < < < < , , , , , , , : : , , , , , , , , < < , , , , < < < < < < < < < < < < < < , , < < < < , , < < < < < < < < < < < < < < < < < < < < < < < < < < < < < < < < 2 2 2 2 2 2 5 5 5 < < < < < < < < < < , , - - - - - : : : : : : : : - - - - - - - - - - - - - - - - - - 6 i i i i i i i i i i i i i i i i i i i i i w @ - - - - $ = = = = $ = = = $ @ @ @ @ @ @ $ $ $ $ = $ $ @ @ @ @ @ @ @ @ @ - < - - - < < < < < < < < - < 6 6 < < < < < < < - * . + @ - < - * @ , - - - < < < : < > > 2 9 e p a p w 3 > @ @ % - # ; < 6 - < < < < < < < < e p p e e p p p e e e e e e e 6 6 6 q e e 6 6 $ X @ @ + + + + + + @ @ @ @ @ @ + + + @ $ + + - p p p p p p p a p p p p p p p i p i i i e p - = - - - - - - - - - - = = - - - - - - - - - - - - = = = = = = = = - - * - - - = = = = = - = = = = = = = $ @ @ $ $ @ @ = $ $ @ @ @ @ @ @ @ @ @ @ @ @ @ @ @ @ @ @ @ @ @ @ + + + + + @ @ @ @ @ @ @ @ @ @ @ @ @ @ @ @ @ @ @ @ @ @ @ @ @ @ @ @ + + + + @ @ @ @ @ @ @ @ @ @ @ @ @ @ @ @ $ @ $ @ @ @ @ @ @ @ @ @ @ @ $ @ $ $ $ $ @ @ @ @ @ @ @ @ @ @ @ @ @ @ @ @ @ @ @ @ @ @ @ @ @ @ @ @ @ @ @ @ @ @ + + + X + X + + X X X + @ - , , = X ",
"= = = $ $ @ @ @ @ @ $ $ $ $ @ @ @ @ @ @ @ @ @ @ @ @ @ @ + + + + @ @ + + + + + + X + + + X X X X X X     X X X X + + @ @ @ @ @ @ @ @ @ @ @ @ = = $ $ $ $ $ $ = = = = - - - - - - - - : : : : , , < < < < , , , , , , , , , , , , < < < < , < < < , , < < < < < < < < < < < < < < < < < < < < < < , , , , < < < < < < < < < < < < < < < < < < < < 2 2 2 2 < < < < 5 5 5 5 5 5 5 5 6 5 5 2 < < < < < < < < < < ; - - - - - - - - - : : - - - - - - : : : : - - - - - - - - - - e i i i i i i i i i i i i i i i i i i i i i 8 $ - - - = = = = = = = = = = = @ @ @ $ $ $ = = = = = = = $ $ $ @ @ @ @ @ @ - < 1 1 1 1 < < < < < < < < - < < - < < < , < - , - < < < - - - < < - - - - < > - - % $ - < < > - $ @ @ o o + @ $ @ + - - + @ @ + * - - - - - < < < - < < 6 6 6 6 6 6 6 8 6 5 2 < < - - $ = @ + @ @ + + @ @ @ @ @ @ @ @ @ @ + + + @ $ X @ w p p p p a a a a p p p p p p p i p i i i i e @ - - - - - - - = = - - = = = = = = - - - - - - - - - = = = = = - - @ @ * - - - - - - - = $ $ $ $ $ @ @ @ @ @ @ $ $ @ @ $ @ $ @ $ @ $ $ = @ @ @ @ @ @ @ @ @ @ @ @ @ @ @ @ @ @ @ @ @ @ @ @ @ @ @ @ @ @ @ @ @ @ @ $ $ $ $ = = @ @ @ @ @ @ $ @ @ + @ @ @ @ @ @ @ @ @ @ @ @ @ @ @ @ @ @ @ @ $ @ @ @ @ @ $ $ $ @ $ $ $ $ $ $ $ $ @ @ @ @ @ @ @ @ @ @ @ @ @ @ @ @ @ @ $ $ @ @ @ @ @ @ @ @ @ $ @ $ $ @ @ + + X + X X X X X X @ - : , , - + ",
"= = = = = @ @ @ @ @ $ $ $ $ @ @ @ @ @ @ @ @ @ @ @ @ @ @ @ + + + @ @ + + + + + + + + + + X X X X X X     X X X X + + @ @ @ @ @ @ @ @ @ @ @ @ = = $ $ $ $ $ $ = = = - - - - - - - - - - - - : - - : : : : , , , , , , , , , , , , < < < < , < < < , , < < < < < < < < < < < < < < < < < < < < < < , , , , < < < < < < < < < < < < < < < < 2 2 2 2 5 5 5 5 2 2 2 2 5 5 5 5 5 5 5 5 5 5 5 2 < < < < < < < < < < , - - - - - - - - - = = = = - - - - - : : : - - - - - - - - - < i p i i i i i i i i i i i i i i i i i i i i 6 $ - - - = = = = = = = = = = = @ @ @ $ $ @ = = = = = = = $ $ $ @ @ @ @ @ # - < 6 6 6 6 6 4 < < 6 6 6 < < 6 6 < < < < < < < - - @ @ - - - - , < < < < < < < 2 6 - < < - > : > - < < > > < > - - - - - - @ # - - - - - - - < - @ @ - - - - - - - : : , , , , , , < < < < @ + @ @ + + @ @ @ @ @ @ @ @ @ @ @ + + + @ @ : i p p p p p a a p p p p p p p p i p i i i a < @ - - - - - - - = = - - = = = = = = = = - = - - - = = $ $ $ $ $ - - @ @ @ * - - - - - - = = $ $ $ $ @ @ @ @ @ @ @ @ @ @ $ @ $ $ @ $ = - - = @ @ @ @ @ @ @ @ @ @ @ @ @ @ @ @ @ @ @ @ @ @ @ @ $ @ @ @ @ @ @ @ @ @ $ = $ = = = $ @ @ @ $ $ = $ @ @ @ @ @ @ @ @ @ @ @ @ @ @ @ @ @ @ @ @ @ @ @ @ @ @ @ @ $ $ @ @ $ $ $ $ $ $ $ $ @ @ @ @ @ @ @ @ @ @ @ @ @ @ @ @ $ $ = = = = = $ $ @ @ @ $ $ @ @ @ @ @ + + X X X X X X X + $ - - , , - + ",
"= = = $ $ @ $ $ $ $ $ $ $ $ $ = @ $ $ $ $ $ $ $ @ @ @ @ @ @ @ @ @ + + + + + + + + X X X X X X X . .     X X X X + + @ @ @ @ @ @ $ $ $ @ = = = = $ $ $ $ = = = = - - - - - - - - - - - - - - - - - - : : : : , , , , , , , , , , , , , < < < < < < < < < < < < < < < < < < < < < < < < < < < < < < < < < < < < < < < < < < < < < 2 2 2 2 5 5 5 6 6 6 6 6 5 5 5 6 5 5 5 5 5 5 5 5 5 5 5 2 < < < < < < < < < < < - - - : - - - - - = = - - = = - - - - : : - - - : : < - - < e i p i i i t i i i i i i i i i i i i e e e e 8 = - - - - - = - = - - - - = $ @ @ - - $ $ = = - - - = = = = = - - * # - - - < 3 < < 6 6 6 6 < < 6 6 6 6 6 6 6 6 4 < < < < 2 < < < < < < < < < < < < < < < < < - - : : : : > > > > > > - - - - - - - - - - - - - - ; ; - - < < < < < < < < < < < < , , , , : : : : : : = + @ @ @ @ @ @ @ @ @ @ @ @ @ @ @ @ @ @ @ X - i i i i i i i i i i i i i p p i i e e e e w - $ - @ @ @ @ @ @ @ @ @ @ @ @ $ $ $ $ = = = = = = = $ $ @ $ $ $ = # # @ @ * * - - = = - - = $ $ $ $ $ @ @ @ @ @ @ @ @ $ $ $ @ @ @ @ @ $ = = = $ @ @ @ @ @ @ @ @ @ @ @ @ @ @ @ @ @ $ $ @ @ @ @ $ $ $ $ @ $ $ $ $ @ @ @ $ $ = = $ $ $ $ @ @ $ $ @ @ @ @ @ @ @ @ @ @ @ @ @ @ @ @ @ @ @ @ @ @ @ @ @ @ @ @ $ @ @ @ $ @ $ $ $ $ = $ $ @ @ @ @ @ @ @ @ @ @ @ @ @ @ @ $ $ - - - = - - = $ $ $ $ $ $ $ $ @ @ + X X X X X + + X X @ - - < , - + ",
"= = = $ $ @ $ $ $ $ $ $ $ $ = = @ @ $ $ $ $ @ $ @ @ @ @ @ @ @ @ @ + + + + + + + + X X X X X X X . .     X X X X + + @ @ @ @ @ @ $ $ @ @ $ $ = = $ $ $ $ = = = = - - - - = = - - - - - - - - - - - - : : : : , , , , , , , , , , , , , < < < < < < < < < < < < < < < < < < < < < < < < < < < < < < < < < < < < < < < < < < < < < 2 2 2 2 5 5 6 6 6 6 6 6 5 5 6 6 5 5 5 5 5 5 5 5 5 5 5 2 < < < < < < < < < < < - - - : - - - - - - - - - = = - - - - : : - - - - - < - < e i i i u u i t t t t t e e i i i i i i e e e e 6 - - - - - : - - = = = - - = = $ @ - - $ $ = = = = - - = = = = $ = - - - - - < 3 < < < 3 3 3 4 < < < < 6 6 6 6 6 6 < < < < 2 2 2 2 2 2 6 4 6 6 < 6 6 6 < < < < < < < < < < < < < < < < < > > > , < < < < < < < < < < < - - - - - - - - - - - - - - , , < < < < < , > > = + + @ @ @ @ @ @ @ @ @ @ @ @ @ @ @ @ @ @ X - i i i i i i i i i i i i i p p i i e e e e e $ @ - @ @ @ @ @ @ @ @ @ @ @ @ $ $ $ $ $ $ = = $ $ $ @ @ @ @ @ @ @ # @ @ @ - - # # = = - - = = = = = = = = = $ $ @ @ @ $ $ $ @ @ @ @ @ @ @ = $ $ @ @ @ @ @ $ @ @ @ @ @ @ @ @ @ $ $ = = $ @ @ @ $ $ $ $ @ $ $ $ $ $ @ @ @ @ $ $ $ $ $ $ @ @ $ $ @ @ @ @ @ @ @ @ @ @ @ @ @ @ @ @ @ @ @ @ @ @ @ @ @ @ @ @ $ @ @ @ $ $ $ $ $ $ = $ $ @ @ @ @ @ @ @ @ @ @ @ @ @ @ @ $ $ - - - - - - - $ $ $ $ $ $ $ $ @ @ + X X X X + + + X X @ - : < , - + ",
"= = = $ $ $ $ $ = = = = = = = = = = $ @ @ @ @ $ @ @ @ @ @ @ @ @ @ @ @ @ + + + + + X X X X X X X . . . . X X X X + + @ @ @ @ @ @ @ @ $ $ @ @ @ @ @ @ @ @ $ $ $ $ = = = = $ $ - - - - - - - - - - - - - - : : , , , , , , < < < < , , , , < < < < < < < < < < < < 2 2 < < < < < < < < < < < < < < < < < < < < < < 2 2 < < < < < < 2 5 5 5 5 5 5 5 6 6 6 6 6 6 6 6 6 6 5 5 5 5 6 6 6 6 6 5 6 < < < < < < < < < < - - - : : - - - - - - - - = = - - - - : : - - - - < - - w i e e e e e e e t t t t e e e e e e e e e e e e 5 - - - - : : : - - - - - - - - = - - - - - - - - - - - - - - - - - - - - - - < 4 4 < < < < 4 3 < < < < 6 6 6 6 3 6 4 4 < < 2 2 5 5 2 2 < < < < < < 6 3 1 < < < 3 3 3 3 2 2 2 2 < < < < 2 < < < < < < < < < < < < < < < 6 6 < < 6 6 6 6 6 < < < < < < < < < < < < < < < = + + @ @ @ @ @ @ @ @ @ @ @ @ @ @ @ @ @ @ X - i i i i i i i i i i t i i p p i i i e e e 6 @ + $ @ @ @ @ @ @ @ @ @ @ @ @ @ @ $ $ $ $ $ $ $ $ @ @ @ @ @ @ @ @ - & @ @ @ - # @ = $ - = = = = = = = = = = = = = $ = $ $ $ $ @ @ @ @ @ @ @ @ @ @ @ @ $ $ $ = @ @ @ @ @ @ $ = = = - - = $ $ $ = $ $ $ $ $ = = @ $ @ @ @ @ @ @ $ @ $ $ @ @ @ $ @ @ @ @ @ @ @ @ @ @ @ @ @ @ @ @ @ @ @ @ @ @ @ @ @ @ $ $ $ $ @ @ @ @ $ $ = $ = $ $ @ $ $ $ $ @ @ $ $ @ @ @ @ $ $ $ $ = = = = - = - = = = = = = = = $ @ + X X X X + + + X X @ - : < , - @ ",
"= = = $ $ $ $ $ = = = = = = = = = = $ @ @ @ @ @ @ @ @ @ @ @ @ @ + + + + + + + + + + X X X X X X . . . . X X X X + + @ @ @ @ @ @ @ @ $ $ @ @ @ @ @ @ @ @ $ $ $ $ = = = = = $ - - - - - - - - - - - - - - : : , , , , , , < < < < , , , , < < < < < < < < < < < < 2 2 2 < < < < < < < < < < < < < < < < < < < < < 2 2 2 < < < < < < 2 5 2 5 5 5 5 5 5 5 6 6 6 6 6 6 6 6 5 5 5 6 6 6 6 6 5 6 < < < < < < < < < < - - - : : - - - - - - - - = = - - - - - : - - - - - - 6 w e e e e e e e e t t t t e e e e e e e e e e e e 6 - - - - - : - - - - - - - - - - - - - - - - - - - - - - - - - - - - - - - - < 4 < < < < < < 3 < < < < 6 6 6 6 6 6 6 6 4 < 2 2 2 5 2 2 < < < < < < 6 6 1 < < < < < < 2 2 2 < < < < < < 3 2 2 < < < 6 6 < < < < < < < < < < < < 6 6 6 6 < < < < < < < < < < < < < < < < = + + @ @ @ @ @ @ @ @ @ @ @ @ @ @ @ @ @ $ + - i i i i i i i i i i i i i p p i i i e e e 6 + + @ @ @ @ @ @ @ @ @ @ @ @ @ @ @ @ @ @ @ @ @ $ @ $ @ @ @ @ @ @ @ = - @ @ # @ # @ $ $ = = = = = = = = = = = = = = = = $ $ $ $ @ @ @ @ @ @ @ @ @ @ @ @ $ $ = = $ @ @ @ $ $ = = = = - - = = = = = $ $ $ $ $ $ $ @ $ @ @ @ @ @ @ @ @ $ @ @ @ @ @ @ @ @ @ @ @ @ @ @ + + + @ @ @ @ @ @ @ @ @ @ @ @ @ @ $ $ $ $ @ @ @ @ $ $ = = = $ $ @ $ $ $ $ $ $ $ $ $ @ @ @ $ $ $ $ = = = = - = - = = = = = = = = $ @ + X X X X X + + X + @ - : < , - @ ",
"= = = = = $ $ $ = = - = = = = = = = = = $ @ @ @ @ @ @ @ @ @ + + + + + + + + + X + + + + X X X X X X X X X X + + + + @ @ @ @ @ @ @ @ $ $ $ @ @ @ $ $ $ $ = = $ $ $ $ = = = = - - - - - - - - - - - - - - - - : - - : < < < < < < < < < < < < < < < < < < < < < < 2 2 < < < < < < < < < < < < < < < < < < < < < < < < < < < < < < 2 2 5 2 5 5 5 5 6 6 6 6 6 6 6 6 6 6 6 6 6 6 6 6 6 6 6 < < < < < < < < < < < < - : : : : : - - - - - - - - - - - - - - - - - - - < 6 w w e e e e e e e e e e e e e e e e e e e e w w w e 8 : - - - - - - - - - - - - - - - - - - = $ $ $ - - - - - - - - - - - - - - - < < < < < < < < 6 6 < < < 3 6 6 6 6 6 5 5 5 5 5 5 2 5 2 < < < < < < 4 6 6 1 3 < < < < < < < < < < 3 < < < < < < < < < 6 6 < < < < < < < < 4 3 3 < < < < < 1 1 1 1 < < < < < < < < < < < < = + + + @ @ @ @ @ @ @ @ @ @ @ @ @ @ @ @ - + . w i i i i i t i i i e e e e e u e e e e e 5 @   = @ @ @ @ @ @ @ @ @ @ @ @ @ @ + + @ @ @ @ @ @ @ @ @ @ @ @ $ $ $ @ $ $ $ @ $ $ = = $ $ = = - - - = - - - * # * - - * * # @ @ @ @ @ @ @ @ @ @ @ @ @ $ = = = @ @ - - $ $ = = = = = = = $ = $ $ $ $ $ @ @ @ $ $ @ @ @ $ $ $ $ $ $ @ @ @ @ $ $ @ @ @ @ @ @ @ @ @ + @ @ @ @ @ @ @ @ $ $ @ @ $ $ @ @ @ @ $ $ $ $ @ @ @ @ $ $ $ $ $ $ $ $ @ @ @ @ $ $ $ $ $ $ $ $ $ $ = = = = = = = = = = $ $ $ $ $ @ @ + X X X X X X X + + @ - : < < : $ ",
"= = = = = $ $ $ = = = = = = = = = = = - = = = = $ $ $ $ @ @ @ @ @ @ @ @ + + + + @ @ @ @ + + + + X X X X + + + + + + @ @ @ @ @ @ @ @ $ $ $ $ @ @ $ $ $ $ $ $ $ $ $ $ = = = = - - - - - - - - - - - - - - - - - - - : < < < < < < < < < < < < < < < < < < < < < < 2 2 < < < < < < < < < < < < < < < < < < < < < < < < < < 5 5 5 5 5 5 5 5 6 5 6 6 6 6 8 8 6 6 6 6 6 6 6 6 6 6 6 6 6 6 6 < < < < < < < < < < < : - : : : : : - - - - - - - - - - - - - - - - - , 2 6 w w e e e e e e e e e e e e e e e e e e e e e w e e e w , - - - - - - - - - - - - - - - - - - = $ $ $ - - - - - - - - - - - - - - - < < < < < < < < 6 3 < < < < < < < < < 2 2 2 2 2 2 < < < < < < < < < 4 6 6 < < < < < < < < < < < < 3 < < < < < < < < < 6 6 < < < < < < < < < 3 3 < < < < < < < < 1 < < < < < < < < < < < < = + X + @ @ @ @ @ @ @ @ @ @ @ @ @ @ @ @ # + . 6 i i i t i t i i i i e e e e u e e e e e w < + X @ @ @ @ @ @ @ @ @ @ @ @ @ @ + + @ @ @ @ @ @ @ @ @ @ @ $ $ $ @ @ = = = = $ = - - = $ = = - - - = - - - - # * * * - - * @ @ @ @ @ @ @ @ @ @ @ @ @ = = - = - @ = - = = - = = = $ @ @ @ @ @ @ $ $ $ @ @ @ @ $ @ @ @ $ $ $ $ @ $ @ @ @ $ $ $ @ @ @ @ @ @ @ @ @ @ @ @ @ @ @ @ @ @ $ $ @ @ $ $ @ @ @ @ $ $ @ @ @ @ @ @ = = $ $ $ $ $ $ $ $ @ @ $ $ $ $ $ $ $ $ $ $ = = = = = = = $ = = $ $ $ $ $ @ @ + X X X X X X X X + + $ - < < < - ",
"- - - - - - = - - - - - - - - - - - - - - - - - - - - - = = $ $ $ $ @ @ @ @ @ @ @ @ @ @ @ @ @ @ + + + + @ @ @ @ @ @ @ @ @ @ @ @ @ @ @ $ @ @ @ @ @ @ @ @ $ $ $ $ @ @ $ $ $ $ = = = = - = = = - - - - - - - - - - - : < < < < < < < < < < < < < < < < < < < < < < 2 < < < < < < < < < < < 2 2 2 2 2 2 < < < < < < 6 6 6 6 6 6 6 6 8 8 8 8 8 8 6 6 8 8 6 6 6 6 6 6 6 6 6 6 6 6 6 6 6 6 6 3 < < < < < < < < - - : - : : : : : : : : - - - - - - - - - - - - = < 6 e w w e e e e e e e e e e e e e e e e e e e e e e w w w w e < - = - - - - - - - - - - - @ # @ # # $ $ $ $ - - - - - - - - - - - - - - * < < < < < < < < < < < < < < < < < < < < < < < < < < < < < < < < < < < < < < < < < < ; < < < < < < < < < < < < < < < < < < < < < < < < < < < < < < < < < < < < < < < < < < < < < < < < < < - + X + @ @ @ @ @ @ @ @ @ @ @ @ @ @ @ @ + + . < e e e e e e e e e e e e e e e e e e e e e e , X @ @ @ @ @ @ @ @ @ @ @ @ + + @ @ @ @ @ @ @ @ @ @ @ @ @ $ $ = = = - - - - - - - - = = - - - - = = - - - - - - - - - - - @ @ @ @ @ $ $ $ @ @ @ $ $ = - - - - - - - = = - - = $ $ @ @ @ @ @ @ @ $ $ $ $ $ $ $ $ $ @ @ $ @ @ @ @ @ @ @ @ $ $ @ @ @ @ @ @ @ @ @ @ $ $ $ $ @ @ @ @ = = @ @ $ $ $ $ @ @ $ $ $ $ @ $ $ $ = $ = $ $ $ $ $ = = = = = = = = = = = = $ $ $ $ $ $ $ $ $ $ $ $ = = = = $ @ @ + X X X X X X X X X X + - - - : - ",
"- - - - - - - - - - - - - - - - - - - - - - - - - - - - - - = = = = $ $ @ @ @ $ @ @ $ @ @ @ @ @ @ @ @ @ @ @ @ @ @ @ @ @ @ @ @ @ $ $ @ $ @ @ @ @ @ @ @ @ $ $ $ $ @ @ $ $ $ $ = = = $ = = = = = = - - - - = = = - - : < < 5 2 2 < < < < < < < < < < < < < < < < < < < < < < < < < < < < < 2 2 2 2 2 2 < < < < < < 6 6 6 6 8 8 6 8 6 6 6 6 6 6 6 6 6 6 w 6 6 6 6 6 6 6 6 6 6 6 6 6 6 6 6 < < < < < < < < < - - : - : : : : : : : : - - - - - - - - - = = = - 8 e e w e w w e e e e e e e e w w w w e e e e w w w w w w w w e < - @ - - - - - # * * # # @ @ @ @ @ @ @ @ @ $ = = - = - - - - - - - - - - @ < < < < < < < < < < < < < < < < < < < < < < < < < < < < < < < < < < < < < < < < < ; - < < < < < < < < < < < < < < < < < < < < < < < < < < < < < < < < < < < < < < < < < < < < < < < < < < - @ X @ @ @ @ @ @ @ @ @ @ @ @ @ @ @ @ @ + + X < w w e e e e e e e e e e e e e e e e e e 6 e w - @ @ @ @ @ @ @ @ @ @ @ @ + @ @ @ @ @ @ @ @ @ @ @ @ @ $ $ = - = - - - - - - - - - - = - = - - - - - - - - - - - - - - - # @ @ @ @ $ $ $ @ @ @ $ $ = = - - - - - - = = - = = $ = $ $ $ = $ $ @ $ $ $ $ $ $ $ = $ @ @ @ @ @ @ @ @ @ @ @ $ $ @ @ @ @ @ @ @ @ $ $ $ $ $ $ @ @ @ @ $ $ @ @ $ $ = $ @ @ $ $ $ $ @ @ @ $ = $ = $ $ $ $ $ = = = = = = = = = = = = $ $ $ $ $ $ $ $ $ $ $ $ = = = = $ @ @ + X X X X X X X X X . X + @ @ @ @ ",
"- - - - - - - - - - - - - - - - - - - - - - : : - - - - - - - - - - = = # # = $ @ @ @ @ @ @ @ @ @ @ @ @ @ @ @ @ @ @ @ @ @ @ @ @ $ $ @ @ @ $ $ $ @ @ @ @ $ $ $ $ $ $ $ $ $ $ = $ $ $ $ $ $ $ $ $ = = = $ $ $ = - - < < 2 5 5 2 2 2 < < < < < < < < < < < 2 2 2 2 2 2 2 2 < < 2 2 < < < < < < < < 2 < < < < < 5 4 6 6 6 6 6 6 6 6 6 6 6 6 6 6 6 6 6 6 w 8 6 6 6 6 6 6 6 6 6 6 6 6 6 < < < 3 3 3 3 < < < < < < < < , , , , : : : : : : - - - - - - $ @ - 8 e e e e w e e w w e e e w w w w w w w w e e e e w w w w w w w w e 8 - @ - - - - - * @ @ @ @ @ @ @ @ @ @ @ @ @ @ = $ = = = = = = = = = - # - @ < < < < < < < < < 1 < < < < < < < < < < < < < < < < < < , - , < < < < < < < < < < - - - < < < < < < < < < - < < < < < < < < < < < < < < < < < < < < < < < < ; ; < < < < < < < < < < < < < - @ @ @ = = @ @ @ @ @ @ @ @ @ @ @ @ @ @ + + X < e e w w w w w w e e e e e e e e e e e e w w w w : $ @ @ $ @ @ @ @ @ @ @ @ @ = = @ @ $ @ @ @ @ $ = - - - - - - - - - - - - - - - - - - - - - - - - - - - - - - - - - - - = = $ $ $ $ $ $ $ @ $ $ $ = - - - - @ @ = = = = = = = $ $ $ = = $ $ $ $ $ $ $ $ $ = = = $ @ @ @ @ @ @ @ @ @ @ @ @ @ @ @ @ @ @ @ @ @ $ = $ $ @ @ @ @ @ $ @ @ $ $ @ @ @ @ $ $ $ $ = = = = = = = = $ @ @ @ @ @ @ $ $ $ $ $ = = = = = = = = = = = = - - = = = = = = $ @ + X X . . . X X X X X X X X + + @ @ ",
"- - - - - - - - - - - - - - - - - - - - - - : : - - - - - - - - - - = = # * = $ @ @ @ @ @ @ @ @ @ @ @ @ + + + + @ @ @ @ @ @ @ @ $ $ @ @ @ $ $ $ @ @ @ @ $ $ = = $ $ $ @ @ @ @ @ $ $ = = = = = = $ $ $ $ $ - - : , < 2 5 5 5 2 2 < < < < < < < < < < < < 2 2 2 < 2 2 2 2 < < 2 2 < 2 < < < < < < 2 2 < < < < 5 5 6 6 6 6 6 6 8 6 6 6 6 6 6 6 6 6 6 6 6 6 6 6 6 6 6 6 6 6 6 6 6 < < < < < 1 3 6 6 6 < < < < < < < , , , , : : : : : : : : - - - = - , 5 w e w w w w w e w w w w w w w w w w w w w w w w w w w w w 6 6 8 8 6 6 - @ - - - = * @ @ @ @ @ @ @ @ @ @ @ @ @ @ @ = = = = = = = = $ = = = @ @ @ < < < < < < < < < < < < < < < < < < < < < < < < < < < < : - : < , < < < < < < < < - - - < < < < < < < < - - < < < < < < < < < < < < < < < < < < < < < < < < ; ; < < < < < < < < < < < < > - @ @ @ @ @ @ @ @ @ @ @ @ @ @ @ @ @ @ @ + + X < e e w w w e e e e e e e e e e e e e e e w w w w 6 , $ @ @ @ @ @ @ @ @ @ @ @ $ $ $ $ = $ @ @ $ - - - : - - - - - - - - - - - - - - - - - - - - - - - - - - - - - - - - - = = = $ $ $ $ = - - - - $ = = - - - # @ = = $ $ = = = $ $ @ $ $ $ $ $ $ $ $ $ $ = = $ $ $ @ @ @ @ @ @ @ @ @ $ @ @ @ @ @ @ @ @ @ @ @ $ $ $ $ @ @ @ @ @ @ @ @ $ $ @ * - - $ $ $ $ = = = = = = = = $ @ @ @ @ @ @ $ $ $ $ $ = = = = = = = = = = = = - - = - = = = - $ @ + X X . . . X X X X X X X X X X + + ",
"- - - - - - - - : : : : - : - - - - : : , : : , : : - - - - - - - - - - - - - = $ @ $ $ @ @ @ @ @ @ @ @ + + + + @ @ @ @ @ @ @ @ $ $ @ @ @ @ $ $ $ $ = = = = - - - - - = = $ = = - - - - - - - - - - - - - : < < < 2 5 5 5 5 2 2 < < 2 2 2 < < < < < < < 2 2 < < 2 2 5 2 < < 2 2 5 5 5 5 2 5 2 2 2 5 5 2 6 6 6 6 6 6 6 6 6 6 8 8 6 6 6 6 6 6 6 6 6 6 8 6 6 6 6 8 6 6 < < < < < < < < < < < < < < < < < < - - , : - - - - - - - - - - - - - - - : 5 6 w w w w w w w w w w e e w w w w w w w w w w w w w w w w w w 6 6 6 6 8 w - + $ $ $ $ @ @ @ @ @ @ @ @ @ @ @ @ $ $ $ $ = = - - - - = = = = = = * * @ < < < < < - - < < < < < < < < < < < < < < < < < < < , , : - : < : < < < < < < < < - - - < < < < < < < < - - < < < - < < < - - < , , , , , , , , , , , , , - - - - > > > > > > : : : : : : - $ @ @ @ @ @ @ @ @ @ @ @ @ @ @ @ @ @ @ + + X < w w w w w w e e e e e e e e e e e e e e w w w w w 8 , = @ @ @ @ @ @ @ @ @ @ $ $ = = - = - @ $ @ @ @ @ $ = - - - - - - - - - - - - - - - - - - - - - - - - - - - - - - @ = = $ $ = = = @ @ @ @ @ @ @ = - - - @ @ - - = $ = = = $ $ @ $ $ $ $ = = = = = = = = = $ = $ $ $ $ $ $ $ $ $ $ $ @ @ @ $ $ $ $ $ @ @ @ @ $ $ $ $ @ @ @ @ = = = = - - - - - - = = - - - - = = = = $ @ @ @ @ @ @ @ $ $ $ $ = = = = = = = = = = = = - - - - - - - - $ @ + X X X X X X X X X X X X X X X X X ",
"- - - - - - - - : : : : : : - - - - : : , , : : : : - - - - - - - - - - - - - $ $ @ $ $ @ @ @ @ @ @ @ @ + + + + @ @ @ @ @ @ @ @ $ $ @ @ @ @ $ $ $ $ = = = = - - - - - - - - - - - - - - - - : , , , < , , , < < < 2 2 2 2 2 < < 2 2 2 2 2 < < < < < < < < 2 2 2 2 2 5 5 5 5 5 5 5 6 5 5 5 5 5 5 5 5 5 < 6 6 6 6 6 6 6 6 6 6 8 8 8 8 6 8 6 6 6 6 6 8 8 8 6 6 6 6 6 6 < < < < < < < < < < < < < < < - - - - - - - - - - - - = = $ = = = = . @ < 6 w e e w w w w w w w w w w w w w w w w w w w w w w w w w 6 6 8 8 6 6 6 6 6 w : X @ @ @ @ @ @ @ @ @ @ @ @ @ @ @ @ $ @ $ $ = = - - - - = = = = = = - - @ - - - - - @ - - - < < < < < < < < < < < < < < < < < , , : - : < , < < < < < < < < - - - , < < < < < < < - - < < - - - - - - - - , : - , : : : , : - - - - - - - - - - : : : : : : : : : : - = @ @ @ @ - @ @ @ @ @ @ @ @ @ @ @ @ @ + . X < w w w w w w e e e e e e e e e e e e e e w w w w w w 8 , $ @ @ @ @ @ @ @ @ @ $ $ = = - = - - = $ = = - - - - - - - - - - - - - - - - - - - - - - - - - - - - - - - - @ @ $ $ $ $ = = = $ = $ = = = $ = = - - # @ - - = $ $ $ $ @ $ @ $ $ $ $ = = = = - = = $ $ $ = $ $ $ $ $ $ $ $ $ $ $ @ @ @ $ $ $ $ $ @ @ @ @ $ $ $ $ @ @ @ @ $ = = = - - - - = = = = - - - - = = = = $ @ @ @ @ @ @ @ $ $ $ $ = = = = = = = = = = = = - - - - - - - - $ @ + X . X X X X X X X X X . . X X X X ",
"- - - - - - - - : : : : - - : : : : : : : : : : : : - - - - - - - - - - - - - * @ @ $ $ @ @ @ @ @ @ @ @ @ @ @ @ @ @ @ @ @ @ @ @ $ $ $ $ $ $ $ $ = = - - = = - - - - - - - - : - - - : : , , , , < < < < < , < < < < 2 < < < 2 2 2 5 5 2 < < < 2 < < 2 2 < < < < < 4 < < 6 6 6 6 6 6 5 5 6 6 6 6 6 6 6 6 6 6 6 6 6 6 5 5 6 6 6 6 6 6 6 6 6 6 6 6 6 6 6 4 < < < < < < < < < < < < < < , - - - - - - - - - - - - @ @ # $ $ $ = @ $ = $ $ - < 5 w w w w w w w w w w w w w w w w w w w w w w w w 6 6 6 6 6 6 8 8 8 8 8 8 8 8 6 6 6 - @ @ @ @ # # @ @ @ @ @ @ @ @ * * = = = = - - - - - - - = = = - - - - @ - @ @ @ @ @ @ @ @ @ @ @ @ # @ - - - - - - - - : : : : : : : : - - - - - - - - - - - - - - - : : : : : : : : : , , , , < < , : , : : - , - : , , , , , , , - - - - - - - - - - - - : - - - - - - # # # @ @ @ @ @ @ @ @ @ @ @ # # @ + . = 5 6 w w w w w w w e e w w e e e e w w w w w 6 6 6 6 8 8 6 5 - = : - = @ @ - - - - - - - * - - - - - - - - - - - - - - - - - - - - - - - - - - - - - - - - - - - # # # @ @ @ @ @ @ @ @ @ @ - * - - - - @ @ - - - - = = = $ $ $ $ @ $ $ $ $ $ $ = = = = = = $ $ $ @ $ $ $ $ $ $ = = = = $ $ @ @ @ @ @ @ @ @ $ $ = = $ $ = = @ @ @ @ * * - - * * * * = = - - - = = = = = = = $ $ $ $ $ @ $ $ $ $ $ $ $ $ = = $ $ = - = = - - = = - - = - = = $ @ X X X X X X X X + X X .   . . X X X ",
"- - - - - - - - : : : : - - : : : : : : : : : : : : - - - - - - - - - - - - - * @ @ $ $ @ @ @ @ @ @ @ @ @ @ @ @ @ @ @ @ @ @ @ @ $ $ $ $ $ $ $ $ = = - - = = - - - - - - - - - - - - : : < , < < < < < , , , < , < < < < < < 2 2 2 2 5 2 < < < 2 < < < < < < < < < < < < 3 3 3 3 3 < 2 2 < < < < 1 < < < 1 1 < < < < 2 < < 4 < < < < < < < < 3 < < < < < < < < < < < < < < < , - - - - - - - - - - - - - - - - - - - - - = - = $ @ + - 8 w w e w w w w w w w w w 8 8 6 6 6 6 8 6 w w w w 8 6 6 6 6 6 6 6 8 8 8 8 8 8 8 8 6 6 6 - @ @ @ @ # # @ @ @ @ @ @ @ @ - - = = = = - - - - - - = = = = - - - - - - @ @ # @ @ @ @ @ @ @ @ @ @ @ @ @ @ @ @ @ @ @ $ $ $ @ @ @ @ @ $ $ & @ # - - - - - = - - - - - - : , < < , : - : : : : , , , , < < : - < : , , , , , , < < : - - - - - : : : : : : < < < < @ @ @ # # # @ @ # # $ $ @ @ @ @ - # - - + . : 8 8 w w w w w w w w q w w e e w w w w w w w 6 6 6 6 6 8 6 w 6 : @ - - - - - - - - - - @ @ * * - - - - - - - - - - - - - - - - - - - - = - - - = - - - - - * @ @ @ @ @ @ @ @ @ @ @ @ @ @ @ * * * - # - * - - - - - - - = = = = = = = = = = $ $ @ @ @ @ @ @ @ @ @ @ $ $ $ = $ $ = = $ $ $ $ @ @ @ @ @ @ @ @ $ $ = = $ $ = = - = $ $ - - - - - - - - = = - - - = = = = = = = $ $ $ $ @ @ @ $ $ $ $ $ $ $ = = $ $ = - = = - - = = = - - - = = $ @ X . X X X X X X X X X   X X X . . X ",
": : - - - - - - : : , , : : : : , , , , , , , , , : : : - - - - - - - - - - - - - @ = = @ @ @ @ @ @ @ @ @ @ @ @ @ @ @ @ @ @ @ @ @ @ $ $ $ $ = = - - - - - - - - - - - - - - - - - - : : , , < < < < < < , , , , < < < < < < 2 2 2 2 5 5 5 < < < < < < < < < < < < < < < < < < < < < < < < < < < < < < < < < < < < < < < < < < < < < < < < < < < < < < < < < < < < < < < < < , - - - - - - - - - - - - - - - - - - - = $ - - - = - 6 e w e e w w w w w w w w w w 8 8 8 8 6 6 6 6 w w w w 8 6 8 8 6 6 6 6 8 8 8 8 8 8 8 8 6 6 6 - @ @ @ @ # # * @ @ @ $ $ $ $ = = = $ = = = = - = - - - - = = = - - - - - - - - - - - - * @ @ @ @ @ @ + + @ @ @ @ @ @ @ X + X X X + + @ @ @ @ @ @ @ @ @ @ @ @ @ $ = - - - $ @ $ $ $ $ - - - - - - - - - - - = : - - : : : : : : : - $ $ - - - - - - - - - - - - - - - - - - - - - - - - - - - - - - - - - . . < 6 8 w w 8 8 8 8 8 6 6 6 8 w w w w w w w w w 6 6 6 6 6 8 8 2 8 8 < - - - - - - - - - - - - - - - - - - - - - - - - - - - - - - - - - - - - - - - - * * - - @ O + + @ @ @ @ - - @ # # # @ @ * @ - - - - - - - - - - - - - - - - - - - - - - = $ @ @ @ @ @ @ @ @ @ @ $ $ = = = = = = = = = = $ $ $ $ $ $ $ $ = = = = - - - - - - - - - - - - - - - - - - - - - - = = = = = = $ $ $ $ @ @ @ @ $ @ $ $ $ $ $ = $ $ - - = = = = = = - - - - - = = @ + X X X + + X X X X . X @ @ @ + X X ",
": : : : - - - - : : : , : : : : , , , , , , , , , : : : - - - - - - - - - - - - - @ = = $ $ @ @ @ @ @ @ @ @ @ @ @ @ @ @ @ @ @ @ @ @ $ $ $ $ = = - - - - - - - - - - - - - - - - - - - - : : , , < < < , , : , , < < < < < < < < < < 2 < < < < < < < < < < < < < < < < < < < < < < < < < < < < < < < < < < < < < < < < < < < < < < < < < < < < < < < < < < < < < < < < - < ; - - - - - - - - - - - - - - - - - - - * = $ = - - - 6 w w 6 w w e w e w w w w w w w 8 8 8 6 6 6 6 6 w w w w 6 6 8 8 6 6 6 6 8 8 8 8 8 8 8 8 6 6 6 - @ @ @ @ # # # * @ @ $ $ $ $ = = = $ - - - - - - - = - - = = = - - - - - - - - - - - - - - @ @ @ @ @ @ @ @ @ @ @ @ X @ @ + + @ @ + + @ @ @ @ @ @ @ @ @ @ @ @ @ @ @ @ @ @ + + + X X X X X X + + @ @ @ @ = $ @ $ @ @ $ $ $ $ $ $ $ @ + + @ @ @ @ @ @ @ @ @ o o o o + + + + - - - - - - - - - - - - - - - @ + @ 2 6 8 6 8 8 8 8 8 8 8 8 8 8 w w w w w w w w 8 6 6 6 6 8 8 8 w 8 w 6 6 < - - - - - - - - - - - - - - - - - - < , , , - - - - - - - - - - - - - - - - - - - - @ @ @ + @ @ @ @ - - @ # * - @ @ - - - - - - - - # # - - - - - - - - - - - - - - = $ = = - - - - - = = $ = $ = = - - - - - - = = $ $ $ $ $ $ $ $ = = = = - - - - - - - - - - - - - - - - - - - - - - = = - = = = $ @ @ @ @ @ @ @ $ $ $ $ $ $ $ $ @ @ $ $ = = = = = = - - - - = = = @ + X X + + + X X X X . X @ $ $ @ + X ",
": : - - - - : : : : : : : : : : : : : : , , , : - - : : - - - - - - - - - - - - - - = = $ $ $ $ @ @ @ @ @ @ @ @ @ @ @ @ @ @ @ @ @ @ $ $ = = $ $ = = - - - - - - - - - - - - - - - - : : - - - - : : , , , , : : , , < < < < < < < < < < < < < < < < < < < < < < < < < < < < < < < < < < < < < < < < < < < < < < < < < < < , , , < < < < < < < < < < < < < < < < < < , - - - - - - - - - - - - - - - - - - - - - - @ + @ @ - 6 e w w w w w w w w w w w w w 6 6 6 6 6 6 6 6 6 6 6 6 6 w w w 6 6 6 6 6 6 8 8 6 8 8 8 8 8 5 8 8 - + # # - - * * - - - - = $ $ @ $ $ = = - - = = - = = = = = = = - - - - - - - - - - - - - - - - # # - @ @ @ @ @ @ $ @ $ $ $ = = $ $ = = @ @ @ @ @ @ @ @ @ @ $ $ $ $ @ @ @ @ @ @ @ @ @ @ @ @ $ $ @ @ @ @ @ @ @ @ $ @ @ @ @ @ @ @ @ @ @ + + + @ @ @ @ @ @ @ @ + + + + @ @ @ + O O + + + + $ @ + + + + + + + + . @ < 5 6 8 6 8 6 6 < + @ - 5 6 w w q 8 8 8 8 8 8 6 6 6 8 8 6 6 6 6 8 8 6 6 6 < - - - - - - - - # - - # - - - - @ @ @ @ - - - - - - - - - - - - - - - - - # - @ - - - # - - , , - - < < < - - - - - - - - @ - - @ @ @ @ $ $ - - - - - - - - - - - - - - - - - - - - - - = = = = - - - - - - = = = = = = = = = = = = = = = = = = - - - - - - - - - - - - - - - - - - - - - = $ @ @ $ @ @ @ @ @ @ @ @ $ $ $ $ $ $ @ @ @ $ = = = - - - - - - - - - - @ + + X X X + X X X X X X @ @ $ @ + X ",
": : - - : - : : : : : : : : : : : : : : , , , : - - : : - - - - - - - - - - - - - - = = $ $ $ $ $ @ @ @ @ @ @ @ @ @ @ @ @ @ @ @ @ @ $ $ = = $ $ $ = - = - - - - - - - - - - - - - - - - - - - - - - : : : - - - : : : : , < < < < < < < < , < < < < < < < < < < < < < < < < < < < < < < < - < , < < < < < < < < < < < < , , , , < < < < < < < < < < < < < < < < < < < < - - - - - - - - - - - - - - - - * @ @ O @ @ - - < < < < < 6 6 w w w w w w w w w w 6 6 6 6 6 8 8 8 8 6 5 5 8 e w e w w w w w w w w w 6 6 5 5 6 6 6 6 < - - - - - - - - - - - - - - - = = $ $ @ @ @ @ $ $ $ $ = = = = - - - - - - - - - - - - - - - - # # - - # @ @ @ $ = @ $ $ $ = = $ = = $ @ @ @ @ @ @ @ @ - - - - = $ $ @ @ @ @ @ @ @ @ @ @ @ $ $ @ @ @ @ @ @ @ @ $ $ $ $ = = = = = = $ $ @ @ $ $ $ $ $ $ = @ @ @ @ @ @ @ @ @ O O + + + + @ @ @ @ @ @ @ @ @ @ . @ < < 6 8 8 8 6 6 < X   + - < 8 6 6 8 8 8 8 8 6 6 6 6 8 8 6 6 6 8 8 6 6 6 6 6 < - - - - - - - - # @ @ # @ $ $ - - - - - - - - - * - - - = - - - - - - - # - - - - - - - - , , - - ; ; < - - - - - - - - @ = - @ @ # # $ $ = = - = - - - - - - - - - $ $ = = = = = = = $ $ $ $ $ $ = = = = = = = = = = = = = = = = = = = = = = - - - - - - - - - - - - - - - - - - - = $ $ - - - - = = $ $ = = = = - - - - - - = $ = = - - - - - = - - - - - - - @ @ + + + + + + X X X X X + @ @ + X . ",
": - - - : : : : : : : : : : : : : : - - , , : : - - : : - - - - - - - - - - - - # - - - $ $ $ $ $ $ $ $ @ @ @ @ @ @ @ @ @ @ @ @ @ @ @ $ = $ $ $ $ = = = - - - - - - - - - - - - - - - - - - - - - - , , : : - - - - : : : , < < < < < < < , , , < < < < < < < < < < < < < < < < < < < < < < < < < < < < < < < < < < < < < < < < < < < < < < < < < < < < < < < < < < < < < - - - - - - - - - - - - - - @ @ @ @ - - - < , @ @ - < < 6 6 w w w w w w w w w w 6 6 6 6 6 6 6 6 6 2 < < 6 e i e e e e e e e e e w w 6 6 5 < < < < < < ; - - - - - - - - - - - - - - - - - - = $ $ $ $ $ $ $ = = = - - - - - - - - - - - - - - - - # # - - # # - - = = $ $ $ $ = $ $ $ $ $ @ @ @ @ # @ # # - - $ @ @ @ @ @ @ @ @ @ @ @ @ @ @ @ = = $ $ $ $ $ $ $ $ = = = = = = - - - - - - - - - - - - - - - - - - @ @ @ @ @ @ @ @ @ @ @ @ @ @ @ @ @ $ @ @ @ @ . @ < < 6 8 8 8 6 8 :   X X X @ < 6 8 8 8 8 8 8 6 6 6 6 6 6 6 6 6 6 8 8 8 8 6 6 6 < < < - - - - - * @ @ - - - - - - - - - - - * - - - - - - - - - - - - - - @ - - - - - - - - - - - - - - - - # @ - # # # # - - - - # * $ $ = = - - - - = = - - - - - $ @ @ @ @ @ @ @ @ $ $ $ $ $ $ = = = = - - = = = = = = = = = = - - - - - = - - - - - - - - - - - - - - - - - - - - - - , , - - = $ = = = = = = = = = = = = @ @ $ = = = - - = = = = = = - - - $ @ + + + X + + + X X X X + @ @ + X . ",
": - - - : : : : : : : : : : : : : : - - , : : : - - : : - - - - - - - - - - - - @ * = = $ $ $ = $ $ @ $ @ @ @ @ @ @ @ @ @ @ @ @ @ @ @ $ $ $ $ $ $ $ = = - - - - - - - - - - - - - - : : : - - - - - , , : : : - - - : : : < < < < < < < < , , , < < < < < < < < < < < < < < < < < < < < 4 4 < < < < < < 1 1 < < < < 5 5 6 6 6 6 6 6 6 6 6 6 6 6 6 6 6 6 6 6 6 6 6 6 6 6 < < - - - - - - - - - - - - - @ . @ , 6 < < < - 6 6 e e w w w w w w w w w w w w w 6 6 6 6 6 8 8 6 6 < : - < e i e e e e e e e e e e w w q 5 , @ $ - , , ; - - - - - - - - - : : , < < < , , : - - - - - = $ $ $ = = = - - - - - - - - - - - - - - - # # - - # @ - - = = $ $ $ $ = $ $ $ $ $ @ @ @ @ # # - - - # @ @ + + + + + + @ @ @ @ @ @ @ @ $ $ $ $ $ $ @ $ @ @ $ @ @ @ $ $ $ = = = = = = = = = - - - - - - * @ @ @ @ @ @ @ @ # @ @ @ @ @ @ @ + + + + + + + . @ < < 6 8 8 8 6 6 -   + X     = < 5 5 8 8 8 8 6 6 6 6 6 6 6 6 8 8 6 8 8 8 6 6 6 6 6 < < < - @ * - - - - - - - - - - - - - - - ; ; - - - - - - - - - - - - # # - - - - - - - - - - - - - - - @ @ @ * # # # - - - - - - = = = = = = - - = = - = - - - - - = - = $ $ = = = = - - - - - - - - - - - = = = $ $ $ $ $ = - - - - - = - - - - - - - - - - - - - - - - - - - - - = @ @ @ $ = $ = = = = $ $ $ $ $ $ $ $ @ @ @ = $ = = - = = = = = = - - - $ @ + + X X X X + X X X X + @ @ + X . ",
", , : - : - : : - - : , : : - - - - - - - - - : : : - - - - - - - - - - - - = $ $ $ = $ = $ $ $ @ @ @ @ @ @ @ @ @ @ @ @ @ @ @ @ @ @ @ @ $ $ $ $ = = = = = = - - - - - - - - - - - - : : - - - - - - - - - - - - - - , , ; < < < < < < < < < < < < < < < < < < < < < < < < < < < < < < 4 3 3 3 1 < < 6 6 6 6 6 6 6 6 6 6 6 6 6 6 6 6 6 6 6 6 6 6 6 6 6 6 6 6 6 6 6 6 6 6 6 6 8 8 4 < 3 6 < < - - - - - - @ - + - - - @ @ 6 6 e e e e e e e e w w w w w 8 6 8 8 8 8 8 8 8 6 < - - - < e a e e e e e e e e 6 e w e w w w w 8 < - = < < , - - - < < - - - - - - - - - - - - - - = = = $ = = - - - - - - - - - - - - - - - - - - - - @ * # @ - - = = = $ = $ $ $ @ @ @ @ @ $ @ @ @ - - - * @ @ + + . + + + + @ @ @ @ @ @ @ @ $ $ @ @ @ @ @ @ @ @ @ @ @ @ @ @ @ @ $ $ $ $ = = $ $ $ $ = = = $ @ @ @ @ @ @ @ @ @ @ - - - - @ @ @ @ @ + + + + + .   - e 6 6 6 8 5 2 =       X X X = < 2 6 8 8 8 6 6 6 6 6 6 6 6 6 6 6 6 6 6 6 6 6 6 6 6 6 < < @ - < < < , - - - - - - - - - - - ; , < < < < < < < < - - - * - * - - - - - - - - - - - - - - - @ - - - - - - - - - - - - - - - - - - - - = = = = - - - - - - - = = = = - - - - - - - - - - - - - - = = $ $ @ @ @ @ @ = - - - - - - - - - - - - - - - - - - - = = = = - - - = - - - = - @ @ - - - * @ @ @ * * * # # # - - $ $ = = = = = = = = = = = @ @ + + X + + + + + + X + + @ @ + X X ",
", , , - - - : : - - : , : : - - - - : : - - - - : : - - - - - - - - - - - - = = $ $ = $ = $ $ $ @ @ @ @ @ @ @ @ @ @ @ @ @ @ @ @ @ @ @ @ $ $ $ $ = = = = = = - - - - - - - - - - - - - - - - - - - - - - - - - - - < < , < < - , < < < < < < < < < < < < < < < < < < < < < < < < < < < < < < < < < < 3 < < < 6 6 6 6 6 6 6 6 6 6 6 6 6 6 6 6 6 6 6 6 6 6 6 6 6 6 6 6 6 6 6 6 6 6 < 4 4 < 6 < < < < - - < - < - < - - < < 6 6 6 6 6 6 6 6 6 6 w w 6 6 8 8 6 8 6 6 6 6 6 6 < - - - - - 6 e e e e e e e e e e e e i e e t t s e 8 < < < - - < - - - - - - - @ @ @ @ @ @ @ @ @ + @ @ @ @ $ $ @ $ @ @ # - - - - - - - - - - @ @ @ @ @ @ # @ @ - - = = $ $ = $ $ $ @ @ @ @ @ $ @ @ @ - - - @ @ + + + + + + @ @ @ @ @ @ @ @ @ @ $ $ @ @ @ @ @ @ @ @ @ @ @ @ @ @ @ @ @ @ @ $ $ = $ $ $ @ @ @ - - : - - - - - - - @ # - - < - - @ - - - - - - - - - + @ - 6 6 6 6 6 < $           X X = < < 5 8 8 6 6 6 6 6 6 6 6 6 6 < < < < < 1 < < < < 6 < - - @ @ - - - - - - - - - - - - - - < ; - - - - - - < < ; ; < < < < < < < < < < 1 < < < < < - - - - - - - - - - - - - - - - - - - - - - - - = = = = - - - - = = = = - - - - = $ $ $ $ $ $ $ @ @ $ $ = = = = = $ $ @ @ $ - - - - - - - - - - - - - - - - - - - - - - = = = = - - - - - - - - - - - - # # * * - - - - - - - - = $ = = = = = = = = = = = @ @ + + X X X + + + + X + + @ @ @ X X ",
", , : - - - : : - - , , : : - - : : - - - - - : : : : : - - - - - = = = - - = = = = = $ $ $ @ @ @ @ @ @ @ @ @ @ @ @ @ @ @ @ @ @ @ @ @ @ $ $ $ $ = = = = = = - - - - - - - - - - - - - - - - - - - - - - - - - - - - - < < < < < < < < < < < < < < < < < < < < < < < < < < < < < < < < < < < < < < < 3 3 < < 6 6 6 6 6 6 6 6 6 6 6 6 6 6 6 6 6 6 6 6 6 6 6 6 6 6 6 6 6 6 6 6 6 6 3 3 4 < < < < < < - - < < 6 < 6 6 6 e e e e e 6 6 6 6 6 6 6 6 8 6 6 6 5 5 5 5 2 2 2 6 6 - - - - - - , 6 e e e e e e e e e e i p p i i i i i i u < < - @ + @ @ @ < < < < < ; - - : : : - - - - - - - : - - - - - - - @ - - - - - * @ @ @ @ @ @ @ @ @ @ @ - - = = $ $ $ $ $ @ @ @ @ @ @ @ @ @ @ @ @ @ + + + + + + + @ @ @ @ @ @ @ @ @ @ @ $ $ @ @ @ @ @ @ @ @ @ @ @ @ @ @ @ @ @ @ @ @ @ $ $ $ $ $ = - < < < < < < - - - - - - - < < < < < < < - - - - - - - @ . . - - < < < - +           . . X = , < 6 8 6 6 6 6 6 6 6 6 6 6 < < < < < < < < < - - < < < - - - - - - - - , < < < < ; - - < < < < , < < < < , - - - - - - - - - - - - - - - @ @ @ @ - - - - - - - - - - - - - - - - - - - - - - - - - - - - - - - - - - - - - - - = $ $ $ $ $ $ $ @ @ $ $ = = - - - - - - - - - - - - - - - - - - - - - - - - - - - - - - - - - - - - - - - - - - - - - - - - * * - - - - - - - - $ $ = = = = = = = = = = = @ @ + + X X X X X + + + + + @ @ + X X ",
", , : - - - : : - - , , , : - : : - - - - - - : : : : : - - - - - = = = - - = = = = = $ $ @ @ @ @ @ @ @ @ @ @ @ @ @ @ @ @ @ @ @ $ $ @ @ $ $ $ $ = = = = = = - - - - - - - - - - - - - - - - - - - - - - - - - - - - - - , , < < < < < < < < < < < < < < < < < < < < < < < < < < < < < < < < < < < < 6 6 < < 6 6 6 6 6 6 6 6 6 6 6 6 6 6 6 6 6 6 6 6 6 6 6 6 6 6 6 6 6 6 6 6 6 6 3 < < < < < < < < < , - < 6 < < 6 6 6 < 6 < < , - - - - < < < 5 2 2 2 2 < < < < < < < < < - - - - - - , e e e e e e e e e p p p u e t t e e 6 8 < - @ . + - < 6 6 6 6 6 e e e e w w 8 6 8 6 6 6 6 6 6 6 5 5 2 < < - @ # - * - @ # @ @ @ @ @ @ @ # @ @ @ - - = = $ $ $ $ $ @ @ @ @ @ @ @ @ @ @ @ @ @ + . . + + @ @ @ @ @ @ @ @ @ @ @ @ @ $ $ @ @ @ @ @ @ @ @ @ @ @ @ @ @ @ @ @ @ @ @ $ $ @ @ $ $ @ @ $ $ $ $ = = - - - - - - < < r p h v a e < < - @ @ + + + + . . .         X           . . . X = , < 5 6 6 6 6 6 6 6 6 < < 6 6 6 < , - < < < < < < < 6 < - - < , - - @ @ - - - - - - - - < 6 6 q e q e 6 < - - - - - - - - - - - - - - - @ @ @ @ - - - - - - - - - - - - - - - - - - - - - - - - - - - - - - - - - - - - - - - - - - - - - - - - - - - - = - - - - - - - - - - - - - - - - - - - - - - : - - - - - - - - - - - - - - - - - - - - - - - - * * * - - - - @ @ = = $ $ = = = = $ $ $ = = = = = @ @ + X X X X X + + + + + @ @ + X X ",
": : : - - - - : - - : , , , : : : : - - - - : : : : : : - - - - - - - - - - - = = = = = $ $ @ @ $ $ @ @ @ @ @ @ @ @ @ @ @ @ @ @ $ $ $ $ $ $ = = - - - - - - - - - - - - - - - - - - - - - - - - - - - - - - - - - - - - - - , , - - - - - - < < < < < < < < < < < < < < < < < < < < < < < < < < < < < < 6 6 6 6 6 6 6 6 < < < < 6 6 6 6 6 6 6 3 < < < < < < < < e e e e e e e e e e e e 6 6 6 e e e e e e e e e e < - < - - - - - - - - ; ; < : - : < < 2 6 w 8 6 6 - - - - - - - - - - e e e e e e e p e e e e 8 6 5 < : - $ = + + @ # < 6 e e 6 6 6 6 e e e e w e e w e w w w w w w w w w 6 6 6 6 6 6 6 6 6 < < < , - - - @ @ - - @ @ @ @ @ @ @ @ $ $ @ $ $ $ # @ @ + @ @ @ @ @ . . + + @ @ @ @ @ @ @ @ @ @ @ @ @ @ @ @ @ @ @ $ $ @ @ @ @ $ $ @ @ $ @ @ @ @ @ @ @ @ $ $ $ = $ @ @ $ $ $ $ $ = - # @ + + + + + - - < < < 1 < - - - - - - - - - @ + . . . . . . X X X X .     X   X - < 6 6 6 < 4 6 6 6 6 6 6 6 < < - - - - < < - @ - < - - @ @ . @ @ . - - @ - - # # # - @ - < < < < - - < - - - - - - - - - - - - - - - @ @ @ @ - - - - - - - - - - - - - - - - - - - - - - - - - - - - - - - - - - - - - - - - - - - - - - - - - - - - - - - - - - - - - - - - - - - - - - - - - - - , , , : - - - - : : , , - - - - - - - - - - - - - - - - - - - - - - - - = = = = - = $ @ $ $ $ $ - - - @ + X + + + + X X X @ @ @ @ + + X ",
": : : - - - - : - - , , , , : : : : - - - - : : : : : : - - - - - - - - - - - = = = = = $ $ @ @ $ $ @ @ @ @ @ @ @ @ @ @ @ @ @ @ $ $ $ $ $ $ = = - - - - - - - - - - - - - - - - - - - - - - - - - - - - - - - - - - - - - - - - - - - - - - , , < < < < < < < < < < < < < < < < < < < < < < < < < < < < 6 6 < < < < 3 6 < < < < < < 6 1 < < < < < < < < < - - < 6 6 e e q q e e e e e e e e e e p p p p p p p p p 6 < - - - - - - - - - - - - , < < 2 5 < < < , < - - - - - - @ @ @ - - # - - * @ @ @ + - - = = = @ + + @ @ $ $ + - < 6 e e e 6 6 6 6 6 e e e e w w w w w w w w e e e e e e w w e e q 6 6 6 e e 6 6 6 6 6 < < < < < < < < < , - - - - - - : , , ; - - - - - @ + + @ @ - - - - - - - # # @ @ @ @ @ @ @ @ $ $ @ @ $ $ @ @ @ @ $ $ @ @ $ @ @ @ @ @ @ @ @ @ $ $ = $ @ @ $ $ $ $ $ = - # @ + + + + + + @ @ @ - ; - @ - - - - - - - - - @ @ + + + + + + + + + X .       . + @ - < < < 6 - - 6 6 6 6 6 1 < , - - - , < - @ * - - - < < - ; < < < < @ - @ @ * * @ @ - - - - - - - < < - - - - - - - - - - - - - - - - * - - - - - - - - - < < < , : : : , , , - - - - - - - - - - - - - - - - - - - - - - - - - - - - - - - - - - - - - - - - - - = = = - - - - - - - - - - - - : : - - - : < < - - - - - - - : - - - - - - - - - - - - - - - - - - - - - - - - - - $ @ $ $ $ @ @ - - @ + + + + + + X X X @ @ @ @ + + X ",
": : : - - - - - : : , , : , - - : - : - - : : : : - : : - - - - - - - - - - - = = = = = $ $ @ @ @ @ @ @ @ @ @ @ @ @ @ @ @ @ @ @ @ @ $ $ $ $ $ $ = - - - - - - - - - - - - - - - - - - - - - - - - - - - - - - - - - - - - - - - - - - - : - , , < < < < < < < < < < < < < < < < < < < < < < < < < < < < 6 3 3 4 < < 6 6 3 4 < < < 3 4 4 3 < < < < , - - - - - - < 6 6 6 q q 6 6 e e e e e e e e p p p p p p p p a p 6 - - - - - - - - ; < < < < < < , , - $ @ @ @ @ @ - - # @ - @ @ @ @ @ @ @ @ - - - . @ @ @ @ - = @ + + @ @ @ @ - < 6 e e e e q q e e e e e e w w w e w w e w w w e e e e w w w w e e < 6 6 6 e e 6 6 6 8 6 5 6 6 6 e 6 6 6 6 5 5 5 5 6 6 6 6 1 < < < - - @ + @ - < < < , - - ; ; - - - - $ @ @ @ @ @ $ $ $ $ $ $ $ @ @ $ = = @ @ $ @ @ @ @ @ @ @ @ @ $ $ = $ @ @ @ $ $ @ $ = - # @ + + + + + + + . . @ - - - - - - - - - - - - - - @ @ @ @ @ @ @ $ $ + X     X X .   + @ - - - @ @ - < < 6 6 6 < < < < < < < < 6 6 6 < < < < < < < < - < @ @ @ @ @ @ - - - - - < < < < < - - - - - - - - - - - - - - - - - - - - - - - - - - - - - - - - - - - - - - - - - - - - - - - - - - - - - - - - - - - - : : : : : : : : : : - - - - - - - - - - - - - - % @ @ - - - - - - - - - - - - - $ @ @ @ @ @ $ - - - - - - - - - - - - - - - - - - - - - ; , - - - - - - - = $ $ $ @ @ = = @ + X + + + + X X X @ @ @ @ + + X ",
": : : - - - - : : : , , : : - - : - : - : : : : - - : : - - - - - - - - - - - = = = = = $ $ @ @ @ $ @ @ @ @ @ @ @ @ @ @ @ @ @ @ @ @ @ @ $ $ = = - - - - - - - - - - - - - - - - - - - - - - - - - - - - - - - - - - - - - - - - - - - - , : , , < < < < < < < < < < < < < < < < < < < < < < < < < < < < 3 3 3 3 < < 6 6 6 4 < < < < < 4 < < 1 < - - - - - - - - - < 6 6 q 6 6 6 e e e e p p u e e e e e e e e e p a e < - - - - - - - - - - : - - $ @ + + @ + @ @ - - < ; - @ @ @ @ @ * - - - - 6 e 6 - + + + + - - = @ + + + + # - - - 6 e e e e e e e e e e e w w w w e w w w w e e e e e e e e e w e e e e e e e e 6 8 6 < < < < 6 e e e e e w w w w 6 6 8 8 6 < < < @ @ @ @ - < 6 < < < < < < < - < : - - - - - = $ $ $ $ @ $ $ @ @ @ @ = = @ @ $ @ @ @ @ @ @ @ $ @ $ $ = $ @ @ $ @ @ @ @ $ - # @ + + + + + @ + .   @ - < - - - - - - - - - - - - - - - - - = = = = @ + X   + X     . . . + . . . . @ - < < 6 < < 6 6 < < - < < 6 < - < 6 < - - - @ + @ @ @ @ @ @ @ - - - - < < < < < < - - , - - - - - - - - - - - - - - - ; - ; ; , < - - - - - - - - - - - - - - - - - - - - - - - - - - - - - - - - - - : : , , , , , , < < < < < < , : - - - - : : : < > > - % # - - - - - - - - - - - - - - - < < < < - - - = * - - - - - - - - - - - - - - - - - - - : : : : : - - = $ $ = = - - - = + X X X + + + + X + @ @ @ + + X ",
": : : : - - - - - - - : : : - - : : : : : - - - - - - - - - - - - - - - - - - = - - - = = $ @ @ @ @ @ @ @ @ @ @ @ @ @ @ @ @ @ @ @ @ $ $ = = - - - - - - - - - - - - - - - - - - - - - - - - - - - - - - - - - - - - - - - - - - - - - - < < 3 6 < < < < < < , , < < < < < < < < < < < < < < < < < < < < < < 6 6 6 < < < < 6 6 < < 6 6 < < < - < - - - - - - - - - - - ; 6 6 e e e e p p p p p p e e p a a a a p p e e e - @ @ - - - @ # - - < < < < - X $ < < X - < e e e < < < + . @ - - - - , - < e p 6 < @ + @ @ @ @ @ @ + + - - - - - < 6 e 6 6 6 6 e e e e e e e e e w w w w w e i e e e e e e i i i e w w w e e w w w w w w w w e e w w w 8 < < < 6 6 8 8 2 > $ . + % - % 6 3 < < < < < < < - - - - - - - : : : : < < < , , < : < < < < < < : - - : : - - - - - = = = = $ @ @ @ @ @ @ @ @ @ @ @ + + + + + @ @ @ @ - - - - - - - - - - - - - - - - - - - - - - - - @ @ @ @ + + + + . . . . . . . .   + - 6 < < < 6 < < < - < < < < - ; < - - - - - - # @ @ @ @ @ @ - - - < < < < , - < < < , - - - - - - - - - - - - - - - - - - - - - - - - - - - - - - - - - - - - - - - - - - - - - - - - - : - : : : : : , , , < < < < < < < < < < < < : - : : : : : : > > - % % - - - - - - - - - - - - - , , - - - - - - - - - - < < - - ; - - - - - - - - - - - - - : : : , , : - - = = - - - - - - + . . . . . . . . + @ @ @ + X X ",
": : : : - - - - - - : : : : - - : : - : : - - - - - - - - - - - - - - - - - - = - - - = = $ @ @ @ @ @ @ @ @ @ @ @ @ @ @ @ @ @ @ @ @ $ $ $ = - - - - - - - - - - - - - - - - - - - - - - - - - - - - - - - - - - - - - - - - - - - - - - , < < 3 < < < < < , , : - - - - < < < < < < < < < < , , < < - - < < , - < < 4 4 6 6 e p j a 6 < - - - - < - - - - - - - - - - @ - < e e q e e e e e e e e a p e 6 e a p p e e e < @ + O @ @ @ @ - < 3 6 < < - @ - < < = - < 6 6 6 < < < - @ @ @ - - - , < < < < e 6 6 e < , - @ + X + X - - - - ; - - < < < < < < < < < < < 5 i p i e e i i e e e e e e e e p p i i e e e e e e e e e e e e i e e e e e w 6 5 6 8 w w e p e 6 < @ o @ - > > < < < < , - - - < < - - - - : - = $ , , < < 2 8 2 5 5 2 2 2 2 < < < < < , : - - - - - = = $ @ @ @ @ @ @ @ @ + + + + . . . . * * @ @ - - - - - - - - - - - - - - - - - - - - - - - - @ @ @ @ @ @ + + + + . . + + + + @   + - ; < < < < - - # # - - - @ + + @ @ @ @ @ @ @ @ @ @ # - - - - < < < < < < - , , - - - - - - - - - - - - - - - < < < - - - - - - - - - - - - - - - - - - - - - - - - - - - - - - - - - - - : : - : - - - - - - - - - - > > < < < > : - : : > : - - - % $ @ % % $ $ % % - - - - - - - - - : - - - - - - < < < < < < < ; - - @ @ @ - - - - - - - , < : : : : : - - - - : : , , - - - + . . . . . . . . + @ @ @ + + X ",
", , , : , : - - - - - - : : : - : : , , : : - - - - - - - - - - - - - - - - - - - - - = = $ @ @ $ $ @ @ @ @ @ @ @ @ @ @ @ @ @ @ @ @ @ $ @ @ $ $ = = = = - = - - - - - - - - - - - - - - - - - - - - - - - - - - - - - - - - - - - - - - - ; < < < < < < < , , : - - - - - - - - < < < < < < , , < < - - < < < < < < 6 6 p a j v h 6 - - - - - < < - - - - - - - - - - @ + - < 6 6 6 6 6 6 6 6 6 6 < < < e p a i e e e e e < * @ @ @ @ @ - < 1 6 < < < - - < < - < < < 6 6 6 6 < - @ + @ # - - , < < - - 6 6 e 6 e 6 5 < - = @ @ * - - - - - , - - - - - - - - - - - , w < 6 e p i e e w e w w w e e t i e e e e e e e e e e e i e i i i p p p i e e w w w t t t y y p p 2 : - - o + @ $ - - , < < < < < - - - - - - = = : : : : , < : < < 2 2 2 < < , , < , - - - - - - - $ = $ @ @ @ @ @ @ @ @ + + @ @ @ @ @ @ @ + + + - - - - - - - - - - - - - - - - - - - - - - - - @ @ @ @ @ @ @ @ @ @ @ + + + @ @ @ - @ @ * - - - - @ @ @ @ @ @ @ @ + . + + + + + @ @ @ @ @ @ @ @ - < < < < < < < < < < < < - - - - - - - - - - - - ; < < < - - - - - - - - - - - - - - - - - - - - # - - - - - - - - - - - - - - - - - - - - - - - - - - - - - - - - - - - - > > > % $ % > > - % - - - % % % - - - - - - - - - : - - - - - - < < - - < - - - - # @ @ @ - - - - - - - < < : : : - - - - - - - = - - - - @ + . . . . . . . . + @ @ @ + X X ",
", , , : , : - - - - - - : : : - : : , , : : - - - - - - - - - - - - - - - - - - - - - = = $ @ @ $ $ @ @ @ @ @ @ @ @ @ @ @ @ @ @ @ @ @ @ @ @ $ $ $ $ = = - - - - - - - - - - - - - - - - - - - - - - - - - - - - - - - - - - - - - - - - - - < < < < < < < < , , < < < < - - ; - - - - , < < , < < < - - < < 6 e p a j v v v h e - < < - - - , < < - - - - - - - - - - @ - @ @ - 6 6 < < < < < < e p p p p p p e e p e 6 6 - @ * @ @ @ @ - - < < < < < - - - - , < - < < < 6 < - .   . @ - - - - < < - - - 6 e 6 6 6 6 6 w 6 < , @ @ - - - - , , < < < - , - - - - : < < @ - < 5 6 8 w w w w w w e w 8 5 5 8 w w w 6 w w w e e e e e e i p p p p e p i w t t t t e e e e e e 9 6 - % $ @ . @ < 6 6 6 < - - - - - - - < < : - - - : , - , < < < < 5 5 2 < - - $ $ = = = - - $ $ $ @ @ @ @ @ @ @ @ + + + + - - - , ; - - - - - - - - - - - - - - - - - - - - - - - - - - - @ @ @ @ @ @ @ @ @ @ @ + + + - - < < - - - - @ @ @ - @ - - - - - < < - + @ @ @ @ @ @ # - - - - - < < < < < < < < < < 3 6 < < < < - - - , < < < - - ; ; ; ; < - - - - - - - - - - - - - - - - - - - - - - - - - - - - - - - - : : - - - - - - - - - - - - - - - - - - - - - - > > - % % % % % % % @ @ @ @ @ % - - < - - - - - - : - - - - < - - - - - - - - - - - - - - - - - - - - - < < : , , - - - , , , : - - - - - @ + . . . . . . . . X + @ @ + X X ",
", , , , , , , , : : : : : : : : : : : : : : : - - - - - - - - - - - - - - - - - - - - = - = $ $ $ $ @ @ @ @ @ @ @ @ @ @ @ @ @ @ @ @ @ @ @ $ = = = = = = - - - - - - - - - - - - - - - - - - - - - - - - - - - - - @ - < - < 6 6 e e < + * - - - - - - - < < < < < - - - - - - - - - - - - - < < - - < < e e a u p p h h v h 6 - < < < < < ; - < < , , , - < < < < < - - - - @ @ < e e 6 6 6 6 6 p h h a h a p p a p e 6 < < - + @ @ @ @ @ - - < 6 < < < - - - - - - < < 1 < @ + + @ - < - - @ @ - , - - < < 6 e e 6 6 6 6 6 6 6 < - + . @ @ @ @ - - < < < < , ; , : - - - - - - - - < 6 5 6 8 6 w i i e e e i p p p i e e e e e e w 8 8 i i i i e i p p y e p a y e y d p 9 : % % % % % @ @ - 6 < < < < 6 6 6 8 6 w w w w w e e e e e e w e w e e w e i 6 6 6 < - @ @ = - - - - - , < < , , < < < 3 6 6 6 6 e e e e e e e p e - - , < - - - - ; - - - - - - - - < - - < < < < < < < < < - - < < - @ @ - - < < < - @ .   , - - - - - - - - - - - - + @ + + @ @ # - - - - < < < < < < < < < 4 4 3 6 < < < < - - < < < < < < < - < < < < ; - < < < < - < - - - - ; - - - - ; ; , < < < < ; , - - - - - - - - - - - < < - - - - < < 6 6 < - ; ; : : : - - % % % % % % % % % % % % % % % - % @ - - - - , , ; < < < < < < < < < < - # + + + + - - - - - - ; < < < < < < , , , : , < < < < , , - < - @ + . . . . . . . . . X @ @ + X X ",
", , , , , , , , : : : : : : : : : : : : : : - - - - - - - - - - - - - - - - - - - - - = - = $ $ $ @ @ @ @ @ @ @ @ @ @ @ @ @ @ @ @ @ $ $ = = - - - - - - - - - - - - - - - - - - - - - - - - - - - - - - - - - - - @ - < 6 e p e e e < + - - - - - - - - - - < , < < < < < < < < , < - - - - - - - - < < p < 6 j a a h h N 6 < < < < < < < < < < < < < < - , < < < < - - - - - @ @ - 6 p p e e e e p p a p a a a p 6 < - - < - @ @ @ # # @ @ - < 6 < < < - - - - - - - - < < @ + < < < < < ; - @ @ - - - < < < < < < 6 6 6 < < < 6 < < - - - - - + + @ @ - - - - , , : - - - - - : : - , , < 5 6 5 5 w h p p h h j h s p p p p p a a a a a s s p p p p s l j p 6 < e e 6 < < > - - - - % @ @ @ @ - 6 e 6 e 6 8 6 6 w w w w w e e e e t e w e e w w w e e e e e 6 - @ @ - - - - - < < 5 5 2 5 6 6 6 6 6 6 6 6 e e e e e e < < 6 e p 6 - @ @ - - - - - - - - - - - < < < < 1 < < < 3 < < < - < < < < < ; - - - - < - + . @ - - < < < < < < < < < - - O + + + + @ @ @ @ @ @ < < < < < < < < < < < < < < < < 6 - - - < < - - - - - - - - < < < < < < - - - - - - < < - - - - - - - - - ; < < , - - - - - - - - - - = @ @ - - - - - - a p 6 - ; ; : : - - % % % % % - - - > > > > - - - % % % - - - - - - - - - < < - - - - - - - - - @ @ - - - - - - - * @ @ # - - - - - - : < < < < < < , , < < - @ + . . . . . . . . . X + @ + X X ",
"< < < , , : , : : : : : : : : : : : : : : : : : - - - - - - - - - - - - - - - - - - - = - = $ $ = $ $ $ @ @ $ $ $ $ @ @ @ @ $ $ = = - = - - - - - - - - - - - - - - - - - - - - - - - - - - - - - - - - - - - - < 6 e p p u e p e e < + # * - - < < - - < < < < < < < < < < < < < < < < < < < < 6 6 6 q p - - p j j h h N < - < < < < < < < < < < < < < < < < < < < - - - - - # - @ - 6 e e 6 e e e i p a p p p < - @ @ - < , - @ @ # # @ @ - - < < < - - - < < < - - - - - + . < < < < < < < - @ @ - - < < < - < < 6 6 e 6 6 < 6 6 < < - - - - @ @ + + . @ - - - - - - - - - - - - - - - - , < - = , w i p a s h h p p i i i i i p a a p p p p s h j j d p 6 < - - : > > > < < : - - - - + + - 6 e e e 6 6 2 < w w w w w w e e e e t e e e e w 6 w e w e p p e < $ @ - - : < < 6 6 w w w 6 6 8 6 6 6 6 6 6 e e e e e e e e e e 3 - @ @ @ @ - - - - - - - - - - < < < < 6 6 6 6 6 3 < < - < < < < < 6 < < < - - < @ + - - < < < < < < < < < < , - . + + + + @ @ - - - - < < < < < < < < 6 < < < 3 3 1 1 6 < # @ - - @ @ @ * - * @ - - - - # - - - - - - - - - - - - - - - - - - - - - - - - - - - - - - - - - - X + @ @ @ + O . . @ @ + - - - - - % % % % % - - - - - - : - : : - - : : - - - - - - - - - - - - - - - * @ @ @ @ + @ - - - - - - - - - - - - - - - - : < < < < < < < , , < < - @ + . . . . . . . . . X + @ + X X ",
"< < < , , : : : : : : : : : : : : : : : : : : : - - - - - - - - - - - - - - - - - - - = - = $ $ $ $ $ $ @ @ @ @ $ $ $ @ @ $ $ = - - - - - - - - - - - - - - - - - - - - - - - - - - - - - - - - - - - - - - - - 6 e e 6 e e e r e e < + @ - * * 6 < - @ q q e e e e 6 < < 6 6 6 6 6 6 6 < < < < < < 6 6 e < @ < v j h h v e - < < < < < < < < < < < < < < < < < < < ; - - - - # - - @ @ < e e e e 6 e e e 6 - & . + @ - - - < - * @ * # @ @ - - - - < - - < < < < < < ; - - + + @ - - < < < < < - @ @ - - - < - , < 6 e a p e 6 6 6 < < ; ; ; ; < < - - @ @ @ @ @ + @ = - - - - + - < : - - = - : < , < 6 w e e e e w 6 8 6 6 6 8 8 w w w w w w < 2 6 8 6 < > < > : > < < < < : : : : : @ - < e e p e < 6 6 5 < w w w w w w e e e e t e w e w w 6 6 w w e p p e < - - - < 2 6 w w e i i e w w 6 6 6 6 6 6 6 e e e e e e e e 6 - - - - @ + @ # - @ @ @ @ - - - - < - - < 6 6 6 6 6 3 < < - < < < < 1 6 6 6 < < < 1 < - @ - < < < < < < < < - - - - . + + + + @ @ < < < < < < < < < < 3 3 6 < < < 3 3 < < e < * + @ @ - - # * - - - @ @ @ @ * # @ @ @ * - * - - - - - - - < < < < - - - - , : - - : : , , , < < < $ @ + + + @ @ @ @ @ @ @ - - % % % % % % % % % $ % $ $ $ % - - - < < < < < < < - , < < < < < < < < , < < < < < - - - - - - - - - - - - - , < < ; - : < < < < < < < < , , < < - @ + . . . . . . . . . X + @ + X X "
};
